/* XPM */
static char *a5d3c497806c48b29dcd20afcbdb1bafvWD2PSwFZ2mAM1UC[] = {
/* columns rows colors chars-per-pixel */
"600 509 194 2 ",
"   c #020403",
".  c #040806",
"X  c #030708",
"o  c #040B0B",
"O  c #090D0D",
"+  c #080A07",
"@  c #07100F",
"#  c #0B100F",
"$  c #060E11",
"%  c #090E11",
"&  c #061111",
"*  c #0B1314",
"=  c #0F1817",
"-  c #0E1719",
";  c #0E191A",
":  c #111516",
">  c #111619",
",  c #131B1C",
"<  c #191D1D",
"1  c #17201F",
"2  c #1A211E",
"3  c #161E20",
"4  c #191D21",
"5  c #162122",
"6  c #1A2325",
"7  c #1E2827",
"8  c #1D2629",
"9  c #1E292B",
"0  c #1E2D31",
"q  c #1F3234",
"w  c #222626",
"e  c #252826",
"r  c #222629",
"t  c #212C2D",
"y  c #2B2D2E",
"u  c #26302F",
"i  c #2C302F",
"p  c #232E31",
"a  c #2B2F31",
"s  c #253234",
"d  c #293436",
"f  c #243837",
"g  c #2C3837",
"h  c #263538",
"j  c #2A3639",
"k  c #26393A",
"l  c #2C3A3C",
"z  c #313334",
"x  c #323639",
"c  c #313C3E",
"v  c #3A3D3D",
"b  c #31403F",
"n  c #2E3D41",
"m  c #313E42",
"M  c #393D40",
"N  c #2E4143",
"B  c #344245",
"V  c #394446",
"C  c #364549",
"Z  c #39474A",
"A  c #37494C",
"S  c #3B4A4D",
"D  c #3C4846",
"F  c #3D4D51",
"G  c #3E5154",
"H  c #3E5558",
"J  c #414C4E",
"K  c #454B4C",
"L  c #40504F",
"P  c #414F52",
"I  c #494E51",
"U  c #425255",
"Y  c #495456",
"T  c #44555A",
"R  c #49575A",
"E  c #46595D",
"W  c #4A5B5D",
"Q  c #515D5E",
"!  c #4C605F",
"~  c #50605F",
"^  c #475A61",
"/  c #4B5D63",
"(  c #4C5F69",
")  c #505F62",
"_  c #4D6165",
"`  c #4E6369",
"'  c #4E686C",
"]  c #526366",
"[  c #596566",
"{  c #536867",
"}  c #52656B",
"|  c #58676A",
" . c #54696E",
".. c #5A6B6E",
"X. c #5F6867",
"o. c #59716F",
"O. c #4F6C70",
"+. c #536770",
"@. c #566C72",
"#. c #596E74",
"$. c #566F79",
"%. c #5B6F79",
"&. c #577076",
"*. c #5B7176",
"=. c #567279",
"-. c #5D747A",
";. c #5E787E",
":. c #5E7877",
">. c #616E6F",
",. c #60706F",
"<. c #606F72",
"1. c #617375",
"2. c #687575",
"3. c #637876",
"4. c #61767C",
"5. c #697779",
"6. c #62797E",
"7. c #6A7B7C",
"8. c #727C7C",
"9. c #66807F",
"0. c #6B807E",
"q. c #70807F",
"w. c #5E7780",
"e. c #5F7A81",
"r. c #627780",
"t. c #637D83",
"y. c #697E84",
"u. c #647F88",
"i. c #717F82",
"p. c #FE00DF",
"a. c #FF00E2",
"s. c #658086",
"d. c #698186",
"f. c #668289",
"g. c #6A858B",
"h. c #66888B",
"j. c #6D898D",
"k. c #6C888E",
"l. c #6E8885",
"z. c #728384",
"x. c #788485",
"c. c #70878D",
"v. c #71878C",
"b. c #7B8688",
"n. c #71898E",
"m. c #71898E",
"M. c #7A8C8D",
"N. c #7C918F",
"B. c #6C8790",
"V. c #6D8A91",
"C. c #6F8D92",
"Z. c #6E8B91",
"A. c #728B90",
"S. c #718D90",
"D. c #728F93",
"F. c #728D91",
"G. c #758E92",
"H. c #738D93",
"J. c #788F94",
"K. c #748F98",
"L. c #6E9194",
"P. c #729093",
"I. c #749093",
"U. c #739194",
"Y. c #759194",
"T. c #769295",
"R. c #759196",
"E. c #799196",
"W. c #75939A",
"Q. c #7A9699",
"!. c #7B959B",
"~. c #76989C",
"^. c #7D999E",
"/. c #7C97A1",
"(. c #7E9AA1",
"). c #7EA0A2",
"_. c #808C8C",
"`. c #82918E",
"'. c #808E91",
"]. c #839192",
"[. c #80979C",
"{. c #81999E",
"}. c #829CA2",
"|. c #889FA4",
" X c #84A1A5",
".X c #89A2A6",
"XX c #86A2A8",
"oX c #8CA5AA",
"OX c #8DA9AD",
"+X c #90A9AE",
"@X c #8EABB1",
"#X c #92ADB2",
"$X c #95B2B5",
"%X c #9AB8BA",
/* pixels */
"a.a.a.a.a.a.a.a.a.a.a.a.a.a.a.a.a.a.a.a.a.a.a.a.a.a.a.a.a.a.a.a.a.a.a.a.a.a.a.a.a.a.a.a.a.a.a.a.a.a.a.a.a.a.a.a.a.a.a.a.a.a.a.a.a.a.a.a.a.a.a.a.a.a.a.a.a.a.a.a.a.a.a.a.a.a.a.a.a.a.a.a.a.a.a.a.a.a.a.a.a.a.a.a.a.a.a.a.a.a.a.a.a.a.a.a.a.a.a.a.a.a.a.a.a.a.a.a.a.a.a.a.a.a.a.a.a.a.a.a.a.a.a.a.a.a.a.a.a.a.a.a.a.a.a.a.a.a.a.a.a.a.a.a.a.a.a.a.a.a.a.a.a.a.a.a.a.a.a.a.a.a.a.a.a.a.a.a.a.a.a.a.a.a.a.a.a.a.a.a.a.a.a.a.a.a.a.a.a.a.a.a.a.a.a.a.a.a.a.a.a.a.a.a.a.a.a.a.a.a.a.a.a.a.a.a.a.a.a.a.a.a.a.a.a.a.a.a.a.a.a.a.a.a.a.a.a.a.a.a.a.a.a.a.a.a.a.a.a.a.a.a.a.a.a.a.a.a.a.a.a.a.a.a.a.a.a.a.a.a.a.a.a.a.a.a.a.a.a.a.a.a.a.a.a.a.a.a.a.a.a.a.a.a.a.a.a.a.a.a.a.a.a.a.a.a.a.a.a.a.a.a.a.a.a.a.a.a.a.a.a.a.a.a.a.a.a.a.a.a.a.a.a.a.a.a.a.a.a.a.a.a.a.a.a.a.a.a.a.a.a.a.a.a.a.a.a.a.a.a.a.a.a.a.a.a.a.a.a.a.a.a.a.a.a.a.a.a.a.a.a.a.a.a.a.a.a.a.a.a.a.a.a.a.a.a.a.a.a.a.a.a.a.a.a.a.a.a.a.a.a.a.a.a.a.a.a.a.a.a.a.a.a.a.a.a.a.a.a.a.a.a.a.a.a.a.a.a.a.a.a.a.a.a.a.a.a.a.a.a.a.a.a.a.a.a.a.a.a.a.a.a.a.a.a.a.a.a.a.a.a.a.a.a.a.a.a.a.a.a.a.a.a.a.a.a.a.a.a.a.a.a.a.a.a.a.a.a.a.a.a.a.a.a.a.a.a.a.a.a.a.a.a.a.a.a.a.a.a.a.a.a.a.a.a.a.a.a.a.a.a.a.a.a.a.a.a.a.a.a.a.a.a.a.a.a.a.a.a.a.a.a.a.a.a.a.a.a.a.a.a.a.a.a.a.a.a.a.a.a.a.a.a.a.a.a.a.a.a.a.",
"a.a.a.a.a.a.a.a.a.a.a.a.a.a.a.a.a.a.a.a.a.a.a.a.a.a.a.a.a.a.a.a.a.a.a.a.a.a.a.a.a.a.a.a.a.a.a.a.a.a.a.a.a.a.a.a.a.a.a.a.a.a.a.a.a.a.a.a.a.a.a.a.a.a.a.a.a.a.a.a.a.a.a.a.a.a.a.a.a.a.a.a.a.a.a.a.a.a.a.a.a.a.a.a.a.a.a.a.a.a.a.a.a.a.a.a.a.a.a.a.a.a.a.a.a.a.a.a.a.a.a.a.a.a.a.a.a.a.a.a.a.a.a.a.a.a.a.a.a.a.a.a.a.a.a.a.a.a.a.a.a.a.a.a.a.a.a.a.a.a.a.a.a.a.a.a.a.a.a.a.a.a.a.a.a.a.a.a.a.a.a.a.a.a.a.a.a.a.a.a.a.a.a.a.a.a.a.a.a.a.a.a.a.a.a.a.a.a.a.a.a.a.a.a.a.a.a.a.a.a.a.a.a.a.a.a.a.a.a.a.a.a.a.a.a.a.a.a.a.a.a.a.a.a.a.a.a.a.a.a.a.a.a.a.a.a.a.a.a.a.a.a.a.a.a.a.a.a.a.a.a.a.a.a.a.a.a.a.a.a.a.a.a.a.a.a.a.a.a.a.a.a.a.a.a.a.a.a.a.a.a.a.a.a.a.a.a.a.a.a.a.a.a.a.a.a.a.a.a.a.a.a.a.a.a.a.a.a.a.a.a.a.a.a.a.a.a.a.a.a.a.a.a.a.a.a.a.a.a.a.a.a.a.a.a.a.a.a.a.a.a.a.a.a.a.a.a.a.a.a.a.a.a.a.a.a.a.a.a.a.a.a.a.a.a.a.a.a.a.a.a.a.a.a.a.a.a.a.a.a.a.a.a.a.a.a.a.a.a.a.a.a.a.a.a.a.a.a.a.a.a.a.a.a.a.a.a.a.a.a.a.a.a.a.a.a.a.a.a.a.a.a.a.a.a.a.a.a.a.a.a.a.a.a.a.a.a.a.a.a.a.a.a.a.a.a.a.a.a.a.a.a.a.a.a.a.a.a.a.a.a.a.a.a.a.a.a.a.a.a.a.a.a.a.a.a.a.a.a.a.a.a.a.a.a.a.a.a.a.a.a.a.a.a.a.a.a.a.a.a.a.a.a.a.a.a.a.a.a.a.a.a.a.a.a.a.a.a.a.a.a.a.a.a.a.a.a.a.a.a.a.a.a.a.a.a.a.a.a.a.a.a.a.a.a.a.a.a.a.a.a.a.a.a.a.a.a.a.a.a.a.a.a.a.a.a.a.a.a.a.",
"a.a.a.a.a.a.a.a.a.a.a.a.a.a.a.a.a.a.a.a.a.a.a.a.a.a.a.a.a.a.a.a.a.a.a.a.a.a.a.a.a.a.a.a.a.a.a.a.a.a.a.a.a.a.a.a.a.a.a.a.a.a.a.a.a.a.a.a.a.a.a.a.a.a.a.a.a.a.a.a.a.a.a.a.a.a.a.a.a.a.a.a.a.a.a.a.a.a.a.a.a.a.a.a.a.a.a.a.a.a.a.a.a.a.a.a.a.a.a.a.a.a.a.a.a.a.a.a.a.a.a.a.a.a.a.a.a.a.a.a.a.a.a.a.a.a.a.a.a.a.a.a.a.a.a.a.a.a.a.a.a.a.a.a.a.a.a.a.a.a.a.a.a.a.a.a.a.a.a.a.a.a.a.a.a.a.a.a.a.a.a.a.a.a.a.a.a.a.a.a.a.a.a.a.a.a.a.a.a.a.a.a.a.a.a.a.a.a.a.a.a.a.a.a.a.a.a.a.a.a.a.a.a.a.a.a.a.a.a.a.a.a.a.a.a.a.a.a.a.a.a.a.a.a.a.a.a.a.a.a.a.a.a.a.a.a.a.a.a.a.a.a.a.a.a.a.a.a.a.a.a.a.a.a.a.a.a.a.a.a.a.a.a.a.a.a.a.a.a.a.a.a.a.a.a.a.a.a.a.a.a.a.a.a.a.a.a.a.a.a.a.a.a.a.a.a.a.a.a.a.a.a.a.a.a.a.a.a.a.a.a.a.a.a.a.a.a.a.a.a.a.a.a.a.a.a.a.a.a.a.a.a.a.a.a.a.a.a.a.a.a.a.a.a.a.a.a.a.a.a.a.a.a.a.a.a.a.a.a.a.a.a.a.a.a.a.a.a.a.a.a.a.a.a.a.a.a.a.a.a.a.a.a.a.a.a.a.a.a.a.a.a.a.a.a.a.a.a.a.a.a.a.a.a.a.a.a.a.a.a.a.a.a.a.a.a.a.a.a.a.a.a.a.a.a.a.a.a.a.a.a.a.a.a.a.a.a.a.a.a.a.a.a.a.a.a.a.a.a.a.a.a.a.a.a.a.a.a.a.a.a.a.a.a.a.a.a.a.a.a.a.a.a.a.a.a.a.a.a.a.a.a.a.a.a.a.a.a.a.a.a.a.a.a.a.a.a.a.a.a.a.a.a.a.a.a.a.a.a.a.a.a.a.a.a.a.a.a.a.a.a.a.a.a.a.a.a.a.a.a.a.a.a.a.a.a.a.a.a.a.a.a.a.a.a.a.a.a.a.a.a.a.a.a.a.a.a.a.a.a.a.a.a.a.a.a.a.a.a.a.",
"a.a.a.a.a.a.a.a.a.a.a.a.a.a.a.a.a.a.a.a.a.a.a.a.a.a.a.a.a.a.a.a.a.a.a.a.a.a.a.a.a.a.a.a.a.a.a.a.a.a.a.a.a.a.a.a.a.a.a.a.a.a.a.a.a.a.a.a.a.a.a.a.a.a.a.a.a.a.a.a.a.a.a.a.a.a.a.a.a.a.a.a.a.a.a.a.a.a.a.a.a.a.a.a.a.a.a.a.a.a.a.a.a.a.a.a.a.a.a.a.a.a.a.a.a.a.a.a.a.a.a.a.a.a.a.a.a.a.a.a.a.a.a.a.a.a.a.a.a.a.a.a.a.a.a.a.a.a.a.a.a.a.a.a.a.a.a.a.a.a.a.a.a.a.a.a.a.a.a.a.a.a.a.a.a.a.a.a.a.a.a.a.a.a.a.a.a.a.a.a.a.a.a.a.a.a.a.a.a.a.a.a.a.a.a.a.a.a.a.a.a.a.a.a.a.a.a.a.a.a.a.a.a.a.a.a.a.a.a.a.a.a.a.a.a.a.a.a.a.a.a.a.a.a.a.a.a.a.a.a.a.a.a.a.a.a.a.a.a.a.a.a.a.a.a.a.a.a.a.a.a.a.a.a.a.a.a.a.a.a.a.a.a.a.a.a.a.a.a.a.a.a.a.a.a.a.a.a.a.a.a.a.a.a.a.a.a.a.a.a.a.a.a.a.a.a.a.a.a.a.a.a.a.a.a.a.a.a.a.a.a.a.a.a.a.a.a.a.a.a.a.a.a.a.a.a.a.a.a.a.a.a.a.a.a.a.a.a.a.a.a.a.a.a.a.a.a.a.a.a.a.a.a.a.a.a.a.a.a.a.a.a.a.a.a.a.a.a.a.a.a.a.a.a.a.a.a.a.a.a.a.a.a.a.a.a.a.a.a.a.a.a.a.a.a.a.a.a.a.a.a.a.a.a.a.a.a.a.a.a.a.a.a.a.a.a.a.a.a.a.a.a.a.a.a.a.a.a.a.a.a.a.a.a.a.a.a.a.a.a.a.a.a.a.a.a.a.a.a.a.a.a.a.a.a.a.a.a.a.a.a.a.a.a.a.a.a.a.a.a.a.a.a.a.a.a.a.a.a.a.a.a.a.a.a.a.a.a.a.a.a.a.a.a.a.a.a.a.a.a.a.a.a.a.a.a.a.a.a.a.a.a.a.a.a.a.a.a.a.a.a.a.a.a.a.a.a.a.a.a.a.a.a.a.a.a.a.a.a.a.a.a.a.a.a.a.a.a.a.a.a.a.a.a.a.a.a.a.a.a.a.a.a.a.a.a.a.a.a.a.",
"a.a.a.a.a.a.a.a.a.a.a.a.a.a.a.a.a.a.a.a.a.a.a.a.a.a.a.a.a.a.a.a.a.a.a.a.a.a.a.a.a.a.a.a.a.a.a.a.a.a.a.a.a.a.a.a.a.a.a.a.a.a.a.a.a.a.a.a.a.a.a.a.a.a.a.a.a.a.a.a.a.a.a.a.a.a.a.a.a.a.a.a.a.a.a.a.a.a.a.a.a.a.a.a.a.a.a.a.a.a.a.a.a.a.a.a.a.a.a.a.a.a.a.a.a.a.a.a.a.a.a.a.a.a.a.a.a.a.a.a.a.a.a.a.a.a.a.a.a.a.a.a.a.a.a.a.a.a.a.a.a.a.a.a.a.a.a.a.a.a.a.a.a.a.a.a.a.a.a.a.a.a.a.a.a.a.a.a.a.a.a.a.a.a.a.a.a.a.a.a.a.a.a.a.a.a.a.a.a.a.a.a.a.a.a.a.a.a.a.a.a.a.a.a.a.a.a.a.a.a.a.a.a.a.a.a.a.a.a.a.a.a.a.a.a.a.a.a.a.a.a.a.a.a.a.a.a.a.a.a.a.a.a.a.a.a.a.a.a.a.a.a.a.a.a.a.a.a.a.a.a.a.a.a.a.a.a.a.a.a.a.a.a.a.a.a.a.a.a.a.a.a.a.a.a.a.a.a.a.a.a.a.a.a.a.a.a.a.a.a.a.a.a.a.a.a.a.a.a.a.a.a.a.a.a.a.a.a.a.a.a.a.a.a.a.a.a.a.a.a.a.a.a.a.a.a.a.a.a.a.a.a.a.a.a.a.a.a.a.a.a.a.a.a.a.a.a.a.a.a.a.a.a.a.a.a.a.a.a.a.a.a.a.a.a.a.a.a.a.a.a.a.a.a.a.a.a.a.a.a.a.a.a.a.a.a.a.a.a.a.a.a.a.a.a.a.a.a.a.a.a.a.a.a.a.a.a.a.a.a.a.a.a.a.a.a.a.a.a.a.a.a.a.a.a.a.a.a.a.a.a.a.a.a.a.a.a.a.a.a.a.a.a.a.a.a.a.a.a.a.a.a.a.a.a.a.a.a.a.a.a.a.a.a.a.a.a.a.a.a.a.a.a.a.a.a.a.a.a.a.a.a.a.a.a.a.a.a.a.a.a.a.a.a.a.a.a.a.a.a.a.a.a.a.a.a.a.a.a.a.a.a.a.a.a.a.a.a.a.a.a.a.a.a.a.a.a.a.a.a.a.a.a.a.a.a.a.a.a.a.a.a.a.a.a.a.a.a.a.a.a.a.a.a.a.a.a.a.a.a.a.a.a.a.a.a.a.a.a.a.",
"a.a.a.a.a.a.a.a.a.a.a.a.a.a.a.a.a.a.a.a.a.a.a.a.a.a.a.a.a.a.a.a.a.a.a.a.a.a.a.a.a.a.a.a.a.a.a.a.a.a.a.a.a.a.a.a.a.a.a.a.a.a.a.a.a.a.a.a.a.a.a.a.a.a.a.a.a.a.a.a.a.a.a.a.a.a.a.a.a.a.a.a.a.a.a.a.a.a.a.a.a.a.a.a.a.a.a.a.a.a.a.a.a.a.a.a.a.a.a.a.a.a.a.a.a.a.a.a.a.a.a.a.a.a.a.a.a.a.a.a.a.a.a.a.a.a.a.a.a.a.a.a.a.a.a.a.a.a.a.a.a.a.a.a.a.a.a.a.a.a.a.a.a.a.a.a.a.a.a.a.a.a.a.a.a.a.a.a.a.a.a.a.a.a.a.a.a.a.a.a.a.a.a.a.a.a.a.a.a.a.a.a.a.a.a.a.a.a.a.a.a.a.a.a.a.a.a.a.a.a.a.a.a.a.a.a.a.a.a.a.a.a.a.a.a.a.a.a.a.a.a.a.a.a.a.a.a.a.a.a.a.a.a.a.a.a.a.a.a.a.a.a.t.d.k.m.D.D.l.d.v...a.a.a.a.a.a.a.a.a.a.a.a.a.a.a.a.a.a.a.a.a.a.a.a.a.a.a.a.a.a.a.a.a.a.a.a.a.a.a.a.a.a.a.a.a.a.a.a.a.a.a.a.a.a.a.a.a.a.a.a.a.a.a.a.a.a.a.a.a.a.a.a.a.a.a.a.a.a.a.a.a.a.a.a.a.a.a.a.a.a.a.a.a.a.a.a.a.a.a.a.a.a.a.a.a.a.a.a.a.a.a.a.a.a.a.a.a.a.a.a.a.a.a.a.a.a.a.a.a.a.a.a.a.a.a.a.a.a.a.a.a.a.a.a.a.a.a.a.a.a.a.a.a.a.a.a.a.a.a.a.a.a.a.a.a.a.a.a.a.a.a.a.a.a.a.a.a.a.a.a.a.a.a.a.a.a.a.a.a.a.a.a.a.a.a.a.a.a.a.a.a.a.a.a.a.a.a.a.a.a.a.a.a.a.a.a.a.a.a.a.a.a.a.a.a.a.a.a.a.a.a.a.a.a.a.a.a.a.a.a.a.a.a.a.a.a.a.a.a.a.a.a.a.a.a.a.a.a.a.a.a.a.a.a.a.a.a.a.a.a.a.a.a.a.a.a.a.a.a.a.a.a.a.a.a.a.a.a.a.a.a.a.a.a.a.a.a.a.a.a.a.a.a.a.a.a.a.a.a.a.a.a.a.a.a.a.a.a.",
"a.a.a.a.a.a.a.a.a.a.a.a.a.a.a.a.a.a.a.a.a.a.a.a.a.a.a.a.a.a.a.a.a.a.a.a.a.a.a.a.a.a.a.a.a.a.a.a.a.a.a.a.a.a.a.a.a.a.a.a.a.a.a.a.a.a.a.a.a.a.a.a.a.a.a.a.a.a.a.a.a.a.a.a.a.a.a.a.a.a.a.a.a.a.a.a.a.a.a.a.a.a.a.a.a.a.a.a.a.a.a.a.a.a.a.a.a.a.a.a.a.a.a.a.a.a.a.a.a.a.a.a.a.a.a.a.a.a.a.a.a.a.a.a.a.a.a.a.a.a.a.a.a.a.a.a.a.a.a.a.a.a.a.a.a.a.a.a.a.a.a.a.a.a.a.a.a.a.a.a.a.a.a.a.a.a.a.a.a.a.a.a.a.a.a.a.a.a.a.a.a.a.a.a.a.a.a.a.a.a.a.a.a.a.a.a.a.a.a.a.a.a.a.a.a.a.a.a.a.a.a.a.a.a.a.a.a.a.a.a.a.a.a.a.a.a.a.a.a.a.a.a.a.a.a.a.a.a.a.a.a.a.a.a.a.a.d.g.g.g.d.s.t.t.s.g.k.k.Y.Y.D.Y.G.d.5.R a.a.a.a.a.a.a.a.a.a.a.a.a.a.a.a.a.a.a.a.a.a.a.a.a.a.a.a.a.a.a.a.a.a.a.a.a.a.a.a.a.a.a.a.a.a.a.a.a.a.a.a.a.a.a.a.a.a.a.a.a.a.a.a.a.a.a.a.a.a.a.a.a.a.a.a.a.a.a.a.a.a.a.a.a.a.a.a.a.a.a.a.a.a.a.a.a.a.a.a.a.a.a.a.a.a.a.a.a.a.a.a.a.a.a.a.a.a.a.a.a.a.a.a.a.a.a.a.a.a.a.a.a.a.a.a.a.a.a.a.a.a.a.a.a.a.a.a.a.a.a.a.a.a.a.a.a.a.a.a.a.a.a.a.a.a.a.a.a.a.a.a.a.a.a.a.a.a.a.a.a.a.a.a.a.a.a.a.a.a.a.a.a.a.a.a.a.a.a.a.a.a.a.a.a.a.a.a.a.a.a.a.a.a.a.a.a.a.a.a.a.a.a.a.a.a.a.a.a.a.a.a.a.a.a.a.a.a.a.a.a.a.a.a.a.a.a.a.a.a.a.a.a.a.a.a.a.a.a.a.a.a.a.a.a.a.a.a.a.a.a.a.a.a.a.a.a.a.a.a.a.a.a.a.a.a.a.a.a.a.a.a.a.a.a.a.a.a.a.a.a.a.a.a.a.a.a.a.a.a.a.a.a.a.",
"a.a.a.a.a.a.a.a.a.a.a.a.a.a.a.a.a.a.a.a.a.a.a.a.a.a.a.a.a.a.a.a.a.a.a.a.a.a.a.a.a.a.a.a.a.a.a.a.a.a.a.a.a.a.a.a.a.a.a.a.a.a.a.a.a.a.a.a.a.a.a.a.a.a.a.a.a.a.a.a.a.a.a.a.a.a.a.a.a.a.a.a.a.a.a.a.a.a.a.a.a.a.a.a.a.a.a.a.a.a.a.a.a.a.a.a.a.a.a.a.a.a.a.a.a.a.a.a.a.a.a.a.a.a.a.a.a.a.a.a.a.a.a.a.a.a.a.a.a.a.a.a.a.a.a.a.a.a.a.a.a.a.a.a.a.a.a.a.a.a.a.a.a.a.a.a.a.a.a.a.a.a.a.a.a.a.a.a.a.a.a.a.a.a.a.a.a.a.a.a.a.a.a.a.a.a.a.a.a.a.a.a.a.a.a.a.a.a.a.a.a.a.a.a.a.a.a.a.a.a.a.a.a.a.a.a.a.a.a.a.a.a.a.a.a.a.a.a.a.a.a.a.a.a.a.a.a.a.a.a.a.a.y.v.j.g.m.g.m.g.g.k.B.k.k.k.Z.k.g.g.k.k.h.j.m.l.d.| Z a.a.a.a.a.a.a.a.a.a.a.a.a.a.a.a.a.a.a.a.a.a.a.a.a.a.a.a.a.a.a.a.a.a.a.a.a.a.a.a.a.a.a.a.a.a.a.a.a.a.a.a.a.a.a.a.a.a.a.a.a.a.a.a.a.a.a.a.a.a.a.a.a.a.a.a.a.a.a.a.a.a.a.a.a.a.a.a.a.a.a.a.a.a.a.a.a.a.a.a.a.a.a.a.a.a.a.a.a.a.a.a.a.a.a.a.a.a.a.a.a.a.a.a.a.a.a.a.a.a.a.a.a.a.a.a.a.a.a.a.a.a.a.a.a.a.a.a.a.a.a.a.a.a.a.a.a.a.a.a.a.a.a.a.a.a.a.a.a.a.a.a.a.a.a.a.a.a.a.a.a.a.a.a.a.a.a.a.a.a.a.a.a.a.a.a.a.a.a.a.a.a.a.a.a.a.a.a.a.a.a.a.a.a.a.a.a.a.a.a.a.a.a.a.a.a.a.a.a.a.a.a.a.a.a.a.a.a.a.a.a.a.a.a.a.a.a.a.a.a.a.a.a.a.a.a.a.a.a.a.a.a.a.a.a.a.a.a.a.a.a.a.a.a.a.a.a.a.a.a.a.a.a.a.a.a.a.a.a.a.a.a.a.a.a.a.a.a.a.a.a.a.a.a.a.a.a.a.a.a.a.",
"a.a.a.a.a.a.a.a.a.a.a.a.a.a.a.a.a.a.a.a.a.a.a.a.a.a.a.a.a.a.a.a.a.a.a.a.a.a.a.a.a.a.a.a.a.a.a.a.a.a.a.a.a.a.a.a.a.a.a.a.a.a.a.a.a.a.a.a.a.a.a.a.a.a.a.a.a.a.a.a.a.a.a.a.a.a.a.a.a.a.a.a.a.a.a.a.a.a.a.a.a.a.a.a.a.a.a.a.a.a.a.a.a.a.a.a.a.a.a.a.a.a.a.a.a.a.a.a.a.a.a.a.a.a.a.a.a.a.a.a.a.a.a.a.a.a.a.a.a.a.a.a.a.a.a.a.a.a.a.a.a.a.a.a.a.a.a.a.a.a.a.a.a.a.a.a.a.a.a.a.a.a.a.a.a.a.a.a.a.a.a.a.a.a.a.a.a.a.a.a.a.a.a.a.a.a.a.a.a.a.a.a.a.a.a.a.a.a.a.a.a.a.a.a.a.a.a.a.a.a.a.a.a.a.a.a.a.a.a.a.a.a.a.a.a.a.a.a.a.a.a.a.a.a.a.a.a.a.a.a.4.y.d.D.Z.D.k.D.k.k.k.Z.V.k.k.U.Y.U.!.Y.T.D.Z.Z.k.s.s.4.y.#.a.a.a.a.a.a.a.a.a.a.a.a.a.a.a.a.a.a.a.a.a.a.a.a.a.a.a.a.a.a.a.a.a.a.a.a.a.a.a.a.a.a.a.a.a.a.a.a.a.a.a.a.a.a.a.a.a.a.a.a.a.a.a.a.a.a.a.a.a.a.a.a.a.a.a.a.a.a.a.a.a.a.a.a.a.a.a.a.a.a.a.a.a.a.a.a.a.a.a.a.a.a.a.a.a.a.a.a.a.a.a.a.a.a.a.a.a.a.a.a.a.a.a.a.a.a.a.a.a.a.a.a.a.a.a.a.a.a.a.a.a.a.a.a.a.a.a.a.a.a.a.a.a.a.a.a.a.a.a.a.a.a.a.a.a.a.a.a.a.a.a.a.a.a.a.a.a.a.a.a.a.a.a.a.a.a.a.a.a.a.a.a.a.a.a.a.a.a.a.a.a.a.a.a.a.a.a.a.a.a.a.a.a.a.a.a.a.a.a.a.a.a.a.a.a.a.a.a.a.a.a.a.a.a.a.a.a.a.a.a.a.a.a.a.a.a.a.a.a.a.a.a.a.a.a.a.a.a.a.a.a.a.a.a.a.a.a.a.a.a.a.a.a.a.a.a.a.a.a.a.a.a.a.a.a.a.a.a.a.a.a.a.a.a.a.a.a.a.a.a.a.a.a.a.a.a.a.a.a.a.",
"a.a.a.a.a.a.a.a.a.a.a.a.a.a.a.a.a.a.a.a.a.a.a.a.a.a.a.a.a.a.a.a.a.a.a.a.a.a.a.a.a.a.a.a.a.a.a.a.a.a.a.a.a.a.a.a.a.a.a.a.a.a.a.a.a.a.a.a.a.a.a.a.a.a.a.a.a.a.a.a.a.a.a.a.a.a.a.a.a.a.a.a.a.a.a.a.a.a.a.a.a.a.a.a.a.a.a.a.a.a.a.a.a.a.a.a.a.a.a.a.a.a.a.a.a.a.a.a.a.a.a.a.a.a.a.a.a.a.a.a.a.a.a.a.a.a.a.a.a.a.a.a.a.a.a.a.a.a.a.a.a.a.a.a.a.a.a.a.a.a.a.a.a.a.a.a.a.a.a.a.a.a.a.a.a.a.a.a.a.a.a.a.a.a.a.a.a.a.a.a.a.a.a.a.a.a.a.a.a.a.a.a.a.a.a.a.a.a.a.a.a.a.a.a.a.a.a.a.a.a.a.a.a.a.a.a.a.a.a.a.a.a.a.a.a.a.a.a.a.a.a.a.a.a.a.a.a.a.a.3.d.g.g.s.s.f.k.k.f.f.s.e.e.t.g.h.k.h.h.g.f.h.V.V.C.H.D.d.6.-.] V a.a.a.a.a.a.a.a.a.a.a.a.a.a.a.a.a.a.a.a.a.a.a.a.a.a.a.a.a.a.a.a.a.a.a.a.a.a.a.a.a.a.a.a.a.a.a.a.a.a.a.a.a.a.a.a.a.a.a.a.a.a.a.a.a.a.a.a.a.a.a.a.a.a.a.a.a.a.a.a.a.a.a.a.a.a.a.a.a.a.a.a.a.a.a.a.a.a.a.a.a.a.a.a.a.a.a.a.a.a.a.a.a.a.a.a.a.a.a.a.a.a.a.a.a.a.a.a.a.a.a.a.a.a.a.a.a.a.a.a.a.a.a.a.a.a.a.a.a.a.a.a.a.a.a.a.a.a.a.a.a.a.a.a.a.a.a.a.a.a.a.a.a.a.a.a.a.a.a.a.a.a.a.a.a.a.a.a.a.a.a.a.a.a.a.a.a.a.a.a.a.a.a.a.a.a.a.a.a.a.a.a.a.a.a.a.a.a.a.a.a.a.a.a.a.a.a.a.a.a.a.a.a.a.a.a.a.a.a.a.a.a.a.a.a.a.a.a.a.a.a.a.a.a.a.a.a.a.a.a.a.a.a.a.a.a.a.a.a.a.a.a.a.a.a.a.a.a.a.a.a.a.a.a.a.a.a.a.a.a.a.a.a.a.a.a.a.a.a.a.a.a.a.a.a.a.a.a.",
"a.a.a.a.a.a.a.a.a.a.a.a.a.a.a.a.a.a.a.a.a.a.a.a.a.a.a.a.a.a.a.a.a.a.a.a.a.a.a.a.a.a.a.a.a.a.a.a.a.a.a.a.a.a.a.a.a.a.a.a.a.a.a.a.a.a.a.a.a.a.a.a.a.a.a.a.a.a.a.a.a.a.a.a.a.a.a.a.a.a.a.a.a.a.a.a.a.a.a.a.a.a.a.a.a.a.a.a.a.a.a.a.a.a.a.a.a.a.a.a.a.a.a.a.a.a.a.a.a.a.a.a.a.a.a.a.a.a.a.a.a.a.a.a.a.a.a.a.a.a.a.a.a.a.a.a.a.a.a.a.a.a.a.a.a.a.a.a.a.a.a.a.a.a.a.a.a.a.a.a.a.a.a.a.a.a.a.a.a.a.a.a.a.a.a.a.a.a.a.a.a.a.a.a.a.a.a.a.a.a.a.a.a.a.a.a.a.a.a.a.a.a.a.a.a.a.a.a.a.a.a.a.a.a.a.a.a.a.a.a.a.a.a.a.a.a.a.a.a.a.a.a.a.a.a.a.a.a. .g.s.s.g.j.d.y.g.k.k.V.h.f.h.s.k.g.k.g.k.U.U.Q.W.A.A.j.k.A.j.t...| P a.a.a.a.a.a.a.a.a.a.a.a.a.a.a.a.a.a.a.a.a.a.a.a.a.a.a.a.a.a.a.a.a.a.a.a.a.a.a.a.a.a.a.a.a.a.a.a.a.a.a.a.a.a.a.a.a.a.a.a.a.a.a.a.a.a.a.a.a.a.a.a.a.a.a.a.a.a.a.a.a.a.a.a.a.a.a.a.a.a.a.a.a.a.a.a.a.a.a.a.a.a.a.a.a.a.a.a.a.a.a.a.a.a.a.a.a.a.a.a.a.a.a.a.a.a.a.a.a.a.a.a.a.a.a.a.a.a.a.a.a.a.a.a.a.a.a.a.a.a.a.a.a.a.a.a.a.a.a.a.a.a.a.a.a.a.a.a.a.a.a.a.a.a.a.a.a.a.a.a.a.a.a.a.a.a.a.a.a.a.a.a.a.a.a.a.a.a.a.a.a.a.a.a.a.a.a.a.a.a.a.a.a.a.a.a.a.a.a.a.a.a.a.a.a.a.a.a.a.a.a.a.a.a.a.a.a.a.a.a.a.a.a.a.a.a.a.a.a.a.a.a.a.a.a.a.a.a.a.a.a.a.a.a.a.a.a.a.a.a.a.a.a.a.a.a.a.a.a.a.a.a.a.a.a.a.a.a.a.a.a.a.a.a.a.a.a.a.a.a.a.a.a.a.a.a.a.",
"a.a.a.a.a.a.a.a.a.a.a.a.a.a.a.a.a.a.a.a.a.a.a.a.a.a.a.a.a.a.a.a.a.a.a.a.a.a.a.a.a.a.a.a.a.a.a.a.a.a.a.a.a.a.a.a.a.a.a.a.a.a.a.a.a.a.a.a.a.a.a.a.a.a.a.a.a.a.a.a.a.a.a.a.a.a.a.a.a.a.a.a.a.a.a.a.a.a.a.a.a.a.a.a.a.a.a.a.a.a.a.a.a.a.a.a.a.a.a.a.a.a.a.a.a.a.a.a.a.a.a.a.a.a.a.a.a.a.a.a.a.a.a.a.a.a.a.a.a.a.a.a.a.a.a.a.a.a.a.a.a.a.a.a.a.a.a.a.a.a.a.a.a.a.a.a.a.a.a.a.a.a.a.a.a.a.a.a.a.a.a.a.a.a.a.a.a.a.a.a.a.a.a.a.a.a.a.a.a.a.a.a.a.a.a.a.a.a.a.a.a.a.a.a.a.a.a.a.a.a.a.a.a.a.a.a.a.a.a.a.a.a.a.a.a.a.a.a.a.a.a.a.a.a.a.a.a.] -.6.d.j.d.s.6.s.k.D.D.Y.Y.D.D.D.D.Y.Y.I.k.D.U.D.A.m.m.d.k.d.g.s.t. .W a.a.a.a.a.a.a.a.a.a.a.a.a.a.a.a.a.a.a.a.a.a.a.a.a.a.a.a.a.a.a.a.a.a.a.a.a.a.a.a.a.a.a.a.a.a.a.a.a.a.a.a.a.a.a.a.a.a.a.a.a.a.a.a.a.a.a.a.a.a.a.a.a.a.a.a.a.a.a.a.a.a.a.a.a.a.a.a.a.a.a.a.a.a.a.a.a.a.a.a.a.a.a.a.a.a.a.a.a.a.a.a.a.a.a.a.a.a.a.a.a.a.a.a.a.a.a.a.a.a.a.a.a.a.a.a.a.a.a.a.a.a.a.a.a.a.a.a.a.a.a.a.a.a.a.a.a.a.a.a.a.a.a.a.a.a.a.a.a.a.a.a.a.a.a.a.a.a.a.a.a.a.a.a.a.a.a.a.a.a.a.a.a.a.a.a.a.a.a.a.a.a.a.a.a.a.a.a.a.a.a.a.a.a.a.a.a.a.a.a.a.a.a.a.a.a.a.a.a.a.a.a.a.a.a.a.a.a.a.a.a.a.a.a.a.a.a.a.a.a.a.a.a.a.a.a.a.a.a.a.a.a.a.a.a.a.a.a.a.a.a.a.a.a.a.a.a.a.a.a.a.a.a.a.a.a.a.a.a.a.a.a.a.a.a.a.a.a.a.a.a.a.a.a.a.a.a.",
"a.a.a.a.a.a.a.a.a.a.a.a.a.a.a.a.a.a.a.a.a.a.a.a.a.a.a.a.a.a.a.a.a.a.a.a.a.a.a.a.a.a.a.a.a.a.a.a.a.a.a.a.a.a.a.a.a.a.a.a.a.a.a.a.a.a.a.a.a.a.a.a.a.a.a.a.a.a.a.a.a.a.a.a.a.a.a.a.a.a.a.a.a.a.a.a.a.a.a.a.a.a.a.a.a.a.a.a.a.a.a.a.a.a.a.a.a.a.a.a.a.a.a.a.a.a.a.a.a.a.a.a.a.a.a.a.a.a.a.a.a.a.a.a.a.a.a.a.a.a.a.a.a.a.a.a.a.a.a.a.a.a.a.a.a.a.a.a.a.a.a.a.a.a.a.a.a.a.a.a.a.a.a.a.a.a.a.a.a.a.a.a.a.a.a.a.a.a.a.a.a.a.a.a.a.a.a.a.a.a.a.a.a.a.a.a.a.a.a.a.a.a.a.a.a.a.a.a.a.a.a.a.a.a.a.a.a.a.a.a.a.a.a.a.a.a.a.a.a.a.a.a.a.a.a.a.a...@.1.6.6.t.m.D.T.D.V.g.g.D.D.!.!.!.T.Y.Y.Y.Y.D.D.D.D.!.!.D.g.s.t.e.=.@.W a.a.a.a.a.a.a.a.a.a.a.a.a.a.a.a.a.a.a.a.a.a.a.a.a.a.a.a.a.a.a.a.a.a.a.a.a.a.a.a.a.a.a.a.a.a.a.a.a.a.a.a.a.a.a.a.a.a.a.a.a.a.a.a.a.a.a.a.a.a.a.a.a.a.a.a.a.a.a.a.a.a.a.a.a.a.a.a.a.a.a.a.a.a.a.a.a.a.a.a.a.a.a.a.a.a.a.a.a.a.a.a.a.a.a.a.a.a.a.a.a.a.a.a.a.a.a.a.a.a.a.a.a.a.a.a.a.a.a.a.a.a.a.a.a.a.a.a.a.a.a.a.a.a.a.a.a.a.a.a.a.a.a.a.a.a.a.a.a.a.a.a.a.a.a.a.a.a.a.a.a.a.a.a.a.a.a.a.a.a.a.a.a.a.a.a.a.a.a.a.a.a.a.a.a.a.a.a.a.a.a.a.a.a.a.a.a.a.a.a.a.a.a.a.a.a.a.a.a.a.a.a.a.a.a.a.a.a.a.a.a.a.a.a.a.a.a.a.a.a.a.a.a.a.a.a.a.a.a.a.a.a.a.a.a.a.a.a.a.a.a.a.a.a.a.a.a.a.a.a.a.a.a.a.a.a.a.a.a.a.a.a.a.a.a.a.a.a.a.a.a.a.a.a.a.a.",
"a.a.a.a.a.a.a.a.a.a.a.a.a.a.a.a.a.a.a.a.a.a.a.a.a.a.a.a.a.a.a.a.a.a.a.a.a.a.a.a.a.a.a.a.a.a.a.a.a.a.a.a.a.a.a.a.a.a.a.a.a.a.a.a.a.a.a.a.a.a.a.a.a.a.a.a.a.a.a.a.a.a.a.a.a.a.a.a.a.a.a.a.a.a.a.a.a.a.a.a.a.a.a.a.a.a.a.a.a.a.a.a.a.a.a.a.a.a.a.a.a.a.a.a.a.a.a.a.a.a.a.a.a.a.a.a.a.a.a.a.a.a.a.a.a.a.a.a.a.a.a.a.a.a.a.a.a.a.a.a.a.a.a.a.a.a.a.a.a.a.a.a.a.a.a.a.a.a.a.a.a.a.a.a.a.a.a.a.a.a.a.a.a.a.s.3.T U a.a.a.a.a.a.a.a.a.a.a.a.a.a.a.a.a.a.a.a.a.a.a.a.a.a.a.a.a.a.a.a.a.a.a.a.a.a.a.a.a.a.a.a.a.a.a.a.a.a.a.a.a.a.a.a.a.a... .*.&.-.g.v.G.D.g.m.g.A.m.D.D.D.D.Y.G.G.E.Y.Y.Y.Y.A.j.m.Y.G.G.D.t.@. .@. .Q a.a.a.a.a.a.a.a.a.a.a.a.a.a.a.a.a.a.a.a.a.a.a.a.a.a.a.a.a.a.a.a.a.a.a.a.a.a.a.a.a.a.a.a.a.a.a.a.a.a.a.a.a.a.a.a.a.a.a.a.a.a.a.a.a.a.a.a.a.a.a.a.a.a.a.a.a.a.a.a.a.a.a.a.a.a.a.a.a.a.a.a.a.a.a.a.a.a.a.a.a.a.a.a.a.a.a.a.a.a.a.a.a.a.a.a.a.a.a.a.a.a.a.a.a.a.a.a.a.a.a.a.a.a.a.a.a.a.a.a.a.a.a.a.a.a.a.a.a.a.a.a.a.a.a.a.a.a.a.a.a.a.a.a.a.a.a.a.a.a.a.a.a.a.a.a.a.a.a.a.a.a.a.a.a.a.a.a.a.a.a.a.a.a.a.a.a.a.a.a.a.a.a.a.a.a.a.a.a.a.a.a.a.a.a.a.a.a.a.a.a.a.a.a.a.a.a.a.a.a.a.a.a.a.a.a.a.a.a.a.a.a.a.a.a.a.a.a.a.a.a.a.a.a.a.a.a.a.a.a.a.a.a.a.a.a.a.a.a.a.a.a.a.a.a.a.a.a.a.a.a.a.a.a.a.a.a.a.a.a.a.a.a.a.a.a.a.a.a.a.a.a.a.a.a.",
"a.a.a.a.a.a.a.a.a.a.a.a.a.a.a.a.a.a.a.a.a.a.a.a.a.a.a.a.a.a.a.a.a.a.a.a.a.a.a.a.a.a.a.a.a.a.a.a.a.a.a.a.a.a.a.a.a.a.a.a.a.a.a.a.a.a.a.a.a.a.a.a.a.a.a.a.a.a.a.a.a.a.a.a.a.a.a.a.a.a.a.a.a.a.a.a.a.a.a.a.a.a.a.a.a.a.a.a.a.a.a.a.a.a.a.a.a.a.a.a.a.a.a.a.a.a.a.a.a.a.a.a.a.a.a.a.a.a.a.a.a.a.a.a.a.a.a.a.a.a.a.a.a.a.a.a.a.a.a.a.a.a.a.a.a.a.a.a.a.a.a.a.a.a.a.a.a.a.a.a.a.a.a.a.a.a.a. .#.d.d.g.k.I.Z.D.j.g.d.7.7.] a.a.a.a.a.a.a.a.a.a.a.a.a.a.a.a.a.a.a.a.a.a.a.a.a.a.a.a.a.a.a.a.a.a.a.a.a.a.a.a.a.a.a.a.a.a.a.a.a.a.a.a.a.W  .@.@.-.t.d.d.g.j.m.k.m.k.g.m.A.D.D.Y.Y.D.G.G.Y.D.D.k.m.v.g.v.g.v.g.-. .} #...a.a.a.a.a.a.a.a.a.a.a.a.a.a.a.a.a.a.a.a.a.a.a.a.a.a.a.a.a.a.a.a.a.a.a.a.a.a.a.a.a.a.a.a.a.a.a.a.a.a.a.a.a.a.a.a.a.a.a.a.a.a.a.a.a.a.a.a.a.a.a.a.a.a.a.a.a.a.a.a.a.a.a.a.a.a.a.a.a.a.a.a.a.a.a.a.a.a.a.a.a.a.a.a.a.a.a.a.a.a.a.a.a.a.a.a.a.a.a.a.a.a.a.a.a.a.a.a.a.a.a.a.a.a.a.a.a.a.a.a.a.a.a.a.a.a.a.a.a.a.a.a.a.a.a.a.a.a.a.a.a.a.a.a.a.a.a.a.a.a.a.a.a.a.a.a.a.a.a.a.a.a.a.a.a.a.a.a.a.a.a.a.a.a.a.a.a.a.a.a.a.a.a.a.a.a.a.a.a.a.a.a.a.a.a.a.a.a.a.a.a.a.a.a.a.a.a.a.a.a.a.a.a.a.a.a.a.a.a.a.a.a.a.a.a.a.a.a.a.a.a.a.a.a.a.a.a.a.a.a.a.a.a.a.a.a.a.a.a.a.a.a.a.a.a.a.a.a.a.a.a.a.a.a.a.a.a.a.a.a.a.a.a.a.a.a.a.a.a.a.a.a.a.a.a.",
"a.a.a.a.a.a.a.a.a.a.a.a.a.a.a.a.a.a.a.a.a.a.a.a.a.a.a.a.a.a.a.a.a.a.a.a.a.a.a.a.a.a.a.a.a.a.a.a.a.a.a.a.a.a.a.a.a.a.a.a.a.a.a.a.a.a.a.a.a.a.a.a.a.a.a.a.a.a.a.a.a.a.a.a.a.a.a.a.a.a.a.a.a.a.a.a.a.a.a.a.a.a.a.a.a.a.a.a.a.a.a.a.a.a.a.a.a.a.a.a.a.a.a.a.a.a.a.a.a.a.a.a.a.a.a.a.a.a.a.a.a.a.a.a.a.a.a.a.a.a.a.a.a.a.a.a.a.a.a.a.a.a.a.a.a.a.a.a.a.a.a.a.a.a.a.a.a.a.a.p.a.a...1.l.j.D.U.!.!.Q.^.^.Q.D.D.V.I.W.U.U.D.d.a.a.a.a.a.a.a.a.a.a.a.a.a.a.a.a.a.a.a.a.a.a.a.a.a.a.a.a.a.a.a.a.a.a.a.a.a.a.a.a.a.a.a.a.a.a.a.a.a.a.a.a.#.@.@.&.t.d.g.g.j.j.j.g.g.g.A.D.D.Y.Y.Y.T.T.I.Y.Y.D.k.j.g.g.v.g.g.g.d.y.1._ } | [ a.a.a.a.a.a.a.a.a.a.a.a.a.a.a.a.a.a.a.a.a.a.a.a.a.a.a.a.a.a.a.a.a.a.a.a.a.a.a.a.a.a.a.a.a.a.a.a.a.a.a.a.a.a.a.a.a.a.a.a.a.a.a.a.a.a.a.a.a.a.a.a.a.a.a.a.a.a.a.a.a.a.a.a.a.a.a.a.a.a.a.a.a.a.a.a.a.a.a.a.a.a.a.a.a.a.a.a.a.a.a.a.a.a.a.a.a.a.a.a.a.a.a.a.a.a.a.a.a.a.a.a.a.a.a.a.a.a.a.a.a.a.a.a.a.a.a.a.a.a.a.a.a.a.a.a.a.a.a.a.a.a.a.a.a.a.a.a.a.a.a.a.a.a.a.a.a.a.a.a.a.a.a.a.a.a.a.a.a.a.a.a.a.a.a.a.a.a.a.a.a.a.a.a.a.a.a.a.a.a.a.a.a.a.a.a.a.a.a.a.a.a.a.a.a.a.a.a.a.a.a.a.a.a.a.a.a.a.a.a.a.a.a.a.a.a.a.a.a.a.a.a.a.a.a.a.a.a.a.a.a.a.a.a.a.a.a.a.a.a.a.a.a.a.a.a.a.a.a.a.a.a.a.a.a.a.a.a.a.a.a.a.a.a.a.a.a.a.a.a.a.a.a.a.",
"a.a.a.a.a.a.a.a.a.a.a.a.a.a.a.a.a.a.a.a.a.a.a.a.a.a.a.a.a.a.a.a.a.a.a.a.a.a.a.a.a.a.a.a.a.a.a.a.a.a.a.a.a.a.a.a.a.a.a.a.a.a.a.a.a.a.a.a.a.a.a.a.a.a.a.a.a.a.a.a.a.a.a.a.a.a.a.a.a.a.a.a.a.a.a.a.a.a.a.a.a.a.a.a.a.a.a.a.a.a.a.a.a.a.a.a.a.a.a.a.a.a.a.a.a.a.a.a.a.a.a.a.a.a.a.a.a.a.a.a.a.a.a.a.a.a.a.a.a.a.a.a.a.a.a.a.a.a.a.a.a.a.a.a.a.a.a.a.a.a.a.a.a.a.a.a.a.a...*.d.d.g.T.^.^.W.L.W.~.~.W.Q.U.V.Z.C.W.~.W.W.Q.!.Y.a.a.a.a.a.a.a.a.a.a.a.a.a.a.a.a.a.a.a.a.a.a.a.a.a.a.a.a.a.a.a.a.a.a.a.a.a.a.a.a.a.a.a.a.a.a.a.a.a.a.#.#.@.@.t.y.d.d.d.g.g.g.g.g.g.m.D.D.Y.Y.D.I.D.j.D.D.j.k.g.j.k.g.g.d.d.d.y.1.#.} ....a.a.a.a.a.a.a.a.a.a.a.a.a.a.a.a.a.a.a.a.a.a.a.a.a.a.a.a.a.a.a.a.a.a.a.a.a.a.a.a.a.a.a.a.a.a.a.a.a.a.a.a.a.a.a.a.a.a.a.a.a.a.a.a.a.a.a.a.a.a.a.a.a.a.a.a.a.a.a.a.a.a.a.a.a.a.a.a.a.a.a.a.a.a.a.a.a.a.a.a.a.a.a.a.a.a.a.a.a.a.a.a.a.a.a.a.a.a.a.a.a.a.a.a.a.a.a.a.a.a.a.a.a.a.a.a.a.a.a.a.a.a.a.a.a.a.a.a.a.a.a.a.a.a.a.a.a.a.a.a.a.a.a.a.a.a.a.a.a.a.a.a.a.a.a.a.a.a.a.a.a.a.a.a.a.a.a.a.a.a.a.a.a.a.a.a.a.a.a.a.a.a.a.a.a.a.a.a.a.a.a.a.a.a.a.a.a.a.a.a.a.a.a.a.a.a.a.a.a.a.a.a.a.a.a.a.a.a.a.a.a.a.a.a.a.a.a.a.a.a.a.a.a.a.a.a.a.a.a.a.a.a.a.a.a.a.a.a.a.a.a.a.a.a.a.a.a.a.a.a.a.a.a.a.a.a.a.a.a.a.a.a.a.a.a.a.a.a.a.a.a.a.a.a.",
"a.a.a.a.a.a.a.a.a.a.a.a.a.a.a.a.a.a.a.a.a.a.a.a.a.a.a.a.a.a.a.a.a.a.a.a.a.a.a.a.a.a.a.a.a.a.a.a.a.a.a.a.a.a.a.a.a.a.a.a.a.a.a.a.a.a.a.a.a.a.a.a.a.a.a.a.a.a.a.a.a.a.a.a.a.a.a.a.a.a.a.a.a.a.a.a.a.a.a.a.a.a.a.a.a.a.a.a.a.a.a.a.a.a.a.a.a.a.a.a.a.a.a.a.a.a.a.a.a.a.a.a.a.a.a.a.a.a.a.a.a.a.a.a.a.a.a.a.a.a.a.a.a.a.a.a.a.a.a.a.a.a.a.a.a.a.a.a.a.a.a.a.a.a.a.*.;.s.g.U.Y.Z.D.Z.I.W.L.V.U.L.C.Z.Q.T.I.L.U.Z.!.!.}.}.^.^.G.z.a.a.a.a.a.a.a.a.a.a.a.a.a.a.a.a.a.a.a.a.a.a.a.a.a.a.a.a.a.a.a.a.a.a.a.a.a.a.a.a.a.a.a.a.a.a.a.a.#.&. .-.t.d.d.d.g.t.d.d.g.g.k.g.k.Y.Y.U.Y.D.Q.!.D.G.D.g.m.f.g.d.d.l.g.d.t.6.*.#.] } ] a.a.a.a.a.a.a.a.a.a.a.a.a.a.a.a.a.a.a.a.a.a.a.a.a.a.a.a.a.a.a.a.a.a.a.a.a.a.a.a.a.a.a.a.a.a.a.a.a.a.a.a.a.a.a.a.a.a.a.a.a.a.a.a.a.a.a.a.a.a.a.a.a.a.a.a.a.a.a.a.a.a.a.a.a.a.a.a.a.a.a.a.a.a.a.a.a.a.a.a.a.a.a.a.a.a.a.a.a.a.a.a.a.a.a.a.a.a.a.a.a.a.a.a.a.a.a.a.a.a.a.a.a.a.a.a.a.a.a.a.a.a.a.a.a.a.a.a.a.a.a.a.a.a.a.a.a.a.a.a.a.a.a.a.a.a.a.a.a.a.a.a.a.a.a.a.a.a.a.a.a.a.a.a.a.a.a.a.a.a.a.a.a.a.a.a.a.a.a.a.a.a.a.a.a.a.a.a.a.a.a.a.a.a.a.a.a.a.a.a.a.a.a.a.a.a.a.a.a.a.a.a.a.a.a.a.a.a.a.a.a.a.a.a.a.a.a.a.a.a.a.a.a.a.a.a.a.a.a.a.a.a.a.a.a.a.a.a.a.a.a.a.a.a.a.a.a.a.a.a.a.a.a.a.a.a.a.a.a.a.a.a.a.a.a.a.a.a.a.a.a.a.a.",
"a.a.a.a.a.a.a.a.a.a.a.a.a.a.a.a.a.a.a.a.a.a.a.a.a.a.a.a.a.a.a.a.a.a.a.a.a.a.a.a.a.a.a.a.a.a.a.a.a.a.a.a.a.a.a.a.a.a.a.a.a.a.a.a.a.a.a.a.a.a.a.a.a.a.a.a.a.a.a.a.a.a.a.a.a.a.a.a.a.a.a.a.a.a.a.a.a.a.a.a.a.a.a.a.a.a.a.a.a.a.a.a.a.a.a.a.a.a.a.a.a.a.a.a.a.a.a.a.a.a.a.a.a.a.a.a.a.a.a.a.a.a.a.a.a.a.a.a.a.a.a.a.a.a.a.a.a.a.a.a.a.a.a.a.a.a.a.a.a.a.a.a.a.[ 5.s.k.L.V.f.s.h.Z.U.k.W.Q.T.I.j.h.k.k.k.^.).XXXX}.}.}.}.(.(.!.n.7.a.a.a.a.a.a.a.a.a.a.a.a.a.a.a.a.a.a.a.a.a.a.a.a.a.a.a.a.a.a.a.a.a.a.a.a.a.a.a.a.a.a.a.a.a.a.} #.@.&.6.t.d.d.y.t.s.d.d.g.g.k.k.D.Y.!.Y.Y.Q.Y.D.D.D.A.D.m.g.g.d.d.d.t.d.y.5.-.#. .W | a.a.a.a.a.a.a.a.a.a.a.a.a.a.a.a.a.a.a.a.a.a.a.a.a.a.a.a.a.a.a.a.a.a.a.a.a.a.a.a.a.a.a.a.a.a.a.a.a.a.a.a.a.a.a.a.a.a.a.a.a.a.a.a.a.a.a.a.a.a.a.a.a.a.a.a.a.a.a.a.a.a.a.a.a.a.a.a.a.a.a.a.a.a.a.a.a.a.a.a.a.a.a.a.a.a.a.a.a.a.a.a.a.a.a.a.a.a.a.a.a.a.a.a.a.a.a.a.a.a.a.a.a.a.a.a.a.a.a.a.a.a.a.a.a.a.a.a.a.a.a.a.a.a.a.a.a.a.a.a.a.a.a.a.a.a.a.a.a.a.a.a.a.a.a.a.a.a.a.a.a.a.a.a.a.a.a.a.a.a.a.a.a.a.a.a.a.a.a.a.a.a.a.a.a.a.a.a.a.a.a.a.a.a.a.a.a.a.a.a.a.a.a.a.a.a.a.a.a.a.a.a.a.a.a.a.a.a.a.a.a.a.a.a.a.a.a.a.a.a.a.a.a.a.a.a.a.a.a.a.a.a.a.a.a.a.a.a.a.a.a.a.a.a.a.a.a.a.a.a.a.a.a.a.a.a.a.a.a.a.a.a.a.a.a.a.a.a.a.a.a.a.a.",
"a.a.a.a.a.a.a.a.a.a.a.a.a.a.a.a.a.a.a.a.a.a.a.a.a.a.a.a.a.a.a.a.a.a.a.a.a.a.a.a.a.a.a.a.a.a.a.a.a.a.a.a.a.a.a.a.a.a.a.a.a.a.a.a.a.a.a.a.a.a.a.a.a.a.a.a.a.a.a.a.a.a.a.a.a.a.a.a.a.a.a.a.a.a.a.a.a.a.a.a.a.a.a.a.a.a.a.a.a.a.a.a.a.a.a.a.a.a.a.a.a.a.a.a.a.a.a.a.a.a.a.a.a.a.a.a.a.a.a.a.a.a.a.a.a.a.a.a.a.a.a.a.a.a.a.a.a.a.a.a.a.a.a.a.a.a.a.a.a.a.a.a.} 6.s.h.s.k.D.(. X}.XXQ.^.Z.k.k.k.h.U.^.!.U.^.D.W.Y.U.U.m.H.Y.Y.s.g.v.3.a.a.a.a.a.a.a.a.a.a.a.a.a.a.a.a.a.a.a.a.a.a.a.a.a.a.a.a.a.a.a.a.a.a.a.a.a.a.a.a.a.a.a.a.a.#.@.@.1.y.y.d.t.6.t.t.s.s.t.g.D.D.D.D.!.!.Y.D.k.D.V.A.A.m.D.k.m.d.t.y.y.5.t.6.-.#.@._ [ } a.a.a.a.a.a.a.a.a.a.a.a.a.a.a.a.a.a.a.a.a.a.a.a.a.a.a.a.a.a.a.a.a.a.a.a.a.a.a.a.a.a.a.a.a.a.a.a.a.a.a.a.a.a.a.a.a.a.a.a.a.a.a.a.a.a.a.a.a.a.a.a.a.a.a.a.a.a.a.a.a.a.a.a.a.a.a.a.a.a.a.a.a.a.a.a.a.a.a.a.a.a.a.a.a.a.a.a.a.a.a.a.a.a.a.a.a.a.a.a.a.a.a.a.a.a.a.a.a.a.a.a.a.a.a.a.a.a.a.a.a.a.a.a.a.a.a.a.a.a.a.a.a.a.a.a.a.a.a.a.a.a.a.a.a.a.a.a.a.a.a.a.a.a.a.a.a.a.a.a.a.a.a.a.a.a.a.a.a.a.a.a.a.a.a.a.a.a.a.a.a.a.a.a.a.a.a.a.a.a.a.a.a.a.a.a.a.a.a.a.a.a.a.a.a.a.a.a.a.a.a.a.a.a.a.a.a.a.a.a.a.a.a.a.a.a.a.a.a.a.a.a.a.a.a.a.a.a.a.a.a.a.a.a.a.a.a.a.a.a.a.a.a.a.a.a.a.a.a.a.a.a.a.a.a.a.a.a.a.a.a.a.a.a.a.a.a.a.a.a.a.a.",
"a.a.a.a.a.a.a.a.a.a.a.a.a.a.a.a.a.a.a.a.a.a.a.a.a.a.a.a.a.a.a.a.a.a.a.a.a.a.a.a.a.a.a.a.a.a.a.a.a.a.a.a.a.a.a.a.a.a.a.a.a.a.a.a.a.a.a.a.a.a.a.a.a.a.a.a.a.a.a.a.a.a.a.a.a.a.a.a.a.a.a.a.a.a.a.a.a.a.a.a.a.a.a.a.a.a.a.a.a.a.a.a.a.a.a.a.a.a.a.a.a.a.a.a.a.a.a.a.a.a.a.a.a.a.a.a.a.a.a.a.a.a.a.a.a.a.a.a.a.a.a.a.a.a.a.a.a.a.a.a.a.a.a.a.a.a.a.a.a.a.a.] 4.g.e.f.K.^.^.}.}.^.T.D.I.^.(.!.Q.U.^.(.^.~./.^.^.!.W.U.Q.^.W.E.Y.g.t.4.| a.a.a.a.a.a.a.a.a.a.a.a.a.a.a.a.a.a.a.a.a.a.a.a.a.a.a.a.a.a.a.a.a.a.a.a.a.a.a.a.a.a.a.] #.@.*.4.y.t.t.6.4.5.t.s.g.g.g.k.D.U.D.I.D.I.Y.Y.!.W.G.A.D.D.n.k.f.d.y.5.5.t.6.-.#.@. ./ ..a.a.a.a.a.a.a.a.a.a.a.a.a.a.a.a.a.a.a.a.a.a.a.a.a.a.a.a.a.a.a.a.a.a.a.a.a.a.a.a.a.a.a.a.a.a.a.a.a.a.a.a.a.a.a.a.a.a.a.a.a.a.a.a.a.a.a.a.a.a.a.a.a.a.a.a.a.a.a.a.a.a.a.a.a.a.a.a.a.a.a.a.a.a.a.a.a.a.a.a.a.a.a.a.a.a.a.a.a.a.a.a.a.a.a.a.a.a.a.a.a.a.a.a.a.a.a.a.a.a.a.a.a.a.a.a.a.a.a.a.a.a.a.a.a.a.a.a.a.a.a.a.a.a.a.a.a.a.a.a.a.a.a.a.a.a.a.a.a.a.a.a.a.a.a.a.a.a.a.a.a.a.a.a.a.a.a.a.a.a.a.a.a.a.a.a.a.a.a.a.a.a.a.a.a.a.a.a.a.a.a.a.a.a.a.a.a.a.a.a.a.a.a.a.a.a.a.a.a.a.a.a.a.a.a.a.a.a.a.a.a.a.a.a.a.a.a.a.a.a.a.a.a.a.a.a.a.a.a.a.a.a.a.a.a.a.a.a.a.a.a.a.a.a.a.a.a.a.a.a.a.a.a.a.a.a.a.a.a.a.a.a.a.a.a.a.a.a.a.a.a.a.",
"a.a.a.a.a.a.a.a.a.a.a.a.a.a.a.a.a.a.a.a.a.a.a.a.a.a.a.a.a.a.a.a.a.a.a.a.a.a.a.a.a.a.a.a.a.a.a.a.a.a.a.a.a.a.a.a.a.a.a.a.a.a.a.a.a.a.a.a.a.a.a.a.a.a.a.a.a.a.a.a.a.a.a.a.a.a.a.a.a.a.a.a.a.a.a.a.a.a.a.a.a.a.a.a.a.a.a.a.a.a.a.a.a.a.a.a.a.a.a.a.a.a.a.a.a.a.a.a.a.a.a.a.a.a.a.a.a.a.a.a.a.a.a.a.a.a.a.a.a.a.a.a.a.a.a.a.a.a.a.a.a.a.a.a.a.a.a.a.a.a.a.} 5.6.k.W.^.XX}.^.!.T.Q.Q.^.(.^. X X(.!.U.Y.Q.Z.D.^.^.T.Q.Q.!.!.T.W.E.m.d.#._ a.a.a.a.a.a.a.a.a.a.a.a.a.a.a.a.a.a.a.a.a.a.a.a.a.a.a.a.a.a.a.a.a.a.a.a.a.a.a.a.a.a. .@.@.*.4.4.t.6.-.1.6.t.t.s.g.g.k.D.D.U.Y.Y.Y.W.!.W.D.D.Y.Y.D.m.g.g.d.t.6.6.6.-.&.#.@. ./ ] ] a.a.a.a.a.a.a.a.a.a.a.a.a.a.a.a.a.a.a.a.a.a.a.a.a.a.a.a.a.a.a.a.a.a.a.a.a.a.a.a.a.a.a.a.a.a.a.a.a.a.a.a.a.a.a.a.a.a.a.a.a.a.a.a.a.a.a.a.a.a.a.a.a.a.a.a.a.a.a.a.a.a.a.a.a.a.a.a.a.a.a.a.a.a.a.a.a.a.a.a.a.a.a.a.a.a.a.a.a.a.a.a.a.a.a.a.a.a.a.a.a.a.a.a.a.a.a.a.a.a.a.a.a.a.a.a.a.a.a.a.a.a.a.a.a.a.a.a.a.a.a.a.a.a.a.a.a.a.a.a.a.a.a.a.a.a.a.a.a.a.a.a.a.a.a.a.a.a.a.a.a.a.a.a.a.a.a.a.a.a.a.a.a.a.a.a.a.a.a.a.a.a.a.a.a.a.a.a.a.a.a.a.a.a.a.a.a.a.a.a.a.a.a.a.a.a.a.a.a.a.a.a.a.a.a.a.a.a.a.a.a.a.a.a.a.a.a.a.a.a.a.a.a.a.a.a.a.a.a.a.a.a.a.a.a.a.a.a.a.a.a.a.a.a.a.a.a.a.a.a.a.a.a.a.a.a.a.a.a.a.a.a.a.a.a.a.a.a.a.a.a.",
"a.a.a.a.a.a.a.a.a.a.a.a.a.a.a.a.a.a.a.a.a.a.a.a.a.a.a.a.a.a.a.a.a.a.a.a.a.a.a.a.a.a.a.a.a.a.a.a.a.a.a.a.a.a.a.a.a.a.a.a.a.a.a.a.a.a.a.a.a.a.a.a.a.a.a.a.a.a.a.a.a.a.a.a.a.a.a.a.a.a.a.a.a.a.a.a.a.a.a.a.a.a.a.a.a.a.a.a.a.a.a.a.a.a.a.a.a.a.a.a.a.a.a.a.a.a.a.a.a.a.a.a.a.a.a.a.a.a.a.a.a.a.a.a.a.a.a.a.a.a.a.a.a.a.a.a.a.a.a.a.a.a.a.a.a.a.a.a.a.a./ 1.*.g.E.^.Y.Q.W.T.Y.^.^.}.}.!.!.Y.g.k.Q.D.Y.^.T.Y.Y.!.^.^.{.}.!.E.Y.m.m.v.g.*.] a.a.a.a.a.a.a.a.a.a.a.a.a.a.a.a.a.a.a.a.a.a.a.a.a.a.a.a.a.a.a.a.a.a.a.a.a.a.a.a.Y } @.#.&.-.4.6.-.-.6.6.6.t.s.g.k.k.D.U.!.!.!.Q.W.W.H.Y.Y.Y.E.G.m.g.g.g.t.6.6.-.&.&.#. . .} W ] a.a.a.a.a.a.a.a.a.a.a.a.a.a.a.a.a.a.a.a.a.a.a.a.a.a.a.a.a.a.a.a.a.a.a.a.a.a.a.a.a.a.a.a.a.a.a.a.a.a.a.a.a.a.a.a.a.a.a.a.a.a.a.a.a.a.a.a.a.a.a.a.a.a.a.a.a.a.a.a.a.a.a.a.a.a.a.a.a.a.a.a.a.a.a.a.a.a.a.a.a.a.a.a.a.a.a.a.a.a.a.a.a.a.a.a.a.a.a.a.a.a.a.a.a.a.a.a.a.a.a.a.a.a.a.a.a.a.a.a.a.a.a.a.a.a.a.a.a.a.a.a.a.a.a.a.a.a.a.a.a.a.a.a.a.a.a.a.a.a.a.a.a.a.a.a.a.a.a.a.a.a.a.a.a.a.a.a.a.a.a.a.a.a.a.a.a.a.a.a.a.a.a.a.a.a.a.a.a.a.a.a.a.a.a.a.a.a.a.a.a.a.a.a.a.a.a.a.a.a.a.a.a.a.a.a.a.a.a.a.a.a.a.a.a.a.a.a.a.a.a.a.a.a.a.a.a.a.a.a.a.a.a.a.a.a.a.a.a.a.a.a.a.a.a.a.a.a.a.a.a.a.a.a.a.a.a.a.a.a.a.a.a.a.a.a.a.a.a.a.a.",
"a.a.a.a.a.a.a.a.a.a.a.a.a.a.a.a.a.a.a.a.a.a.a.a.a.a.a.a.a.a.a.a.a.a.a.a.a.a.a.a.a.a.a.a.a.a.a.a.a.a.a.a.a.a.a.a.a.a.a.a.a.a.a.a.a.a.a.a.a.a.a.a.a.a.a.a.a.a.a.a.a.a.a.a.a.a.a.a.a.a.a.a.a.a.a.a.a.a.a.a.a.a.a.a.a.a.a.a.a.a.a.a.a.a.a.a.a.a.a.a.a.a.a.a.a.a.a.a.a.a.a.a.a.a.a.a.a.a.a.a.a.a.a.a.a.a.a.a.a.a.a.a.a.a.a.a.a.a.a.a.a.a.a.a.a.a.a.a.a.a.] *.t.G.E.D.k.T.!.^.(.^.Q.D.Z.k.D.D.!.E.!.{.^.^.^.!.E.E.G.Y.D.m.G.G.G.m.v.g.d.t.4.] a.a.a.a.a.a.a.a.a.a.a.a.a.a.a.a.a.a.a.a.a.a.a.a.a.a.a.a.a.a.a.a.a.a.a.a.a.a.a.] } #.#.*.-.-.-.-.-.;.6.t.y.s.k.Z.D.D.Z.Y.^.^.^.^.!.!.!.Y.Y.Y.G.G.D.g.g.d.t.6.6.-.#.@. .] ] W ] R a.a.a.a.a.a.a.a.a.a.a.a.a.a.a.a.a.a.a.a.a.a.a.a.a.a.a.a.a.a.a.a.a.a.a.a.a.a.a.a.a.a.a.a.a.a.a.a.a.a.a.a.a.a.a.a.a.a.a.a.a.a.a.a.a.a.a.a.a.a.a.a.a.a.a.a.a.a.a.a.a.a.a.a.a.a.a.a.a.a.a.a.a.a.a.a.a.a.a.a.a.a.a.a.a.a.a.a.a.a.a.a.a.a.a.a.a.a.a.a.a.a.a.a.a.a.a.a.a.a.a.a.a.a.a.a.a.a.a.a.a.a.a.a.a.a.a.a.a.a.a.a.a.a.a.a.a.a.a.a.a.a.a.a.a.a.a.a.a.a.a.a.a.a.a.a.a.a.a.a.a.a.a.a.a.a.a.a.a.a.a.a.a.a.a.a.a.a.a.a.a.a.a.a.a.a.a.a.a.a.a.a.a.a.a.a.a.a.a.a.a.a.a.a.a.a.a.a.a.a.a.a.a.a.a.a.a.a.a.a.a.a.a.a.a.a.a.a.a.a.a.a.a.a.a.a.a.a.a.a.a.a.a.a.a.a.a.a.a.a.a.a.a.a.a.a.a.a.a.a.a.a.a.a.a.a.a.a.a.a.a.a.a.a.a.a.a.a.a.a.",
"a.a.a.a.a.a.a.a.a.a.a.a.a.a.a.a.a.a.a.a.a.a.a.a.a.a.a.a.a.a.a.a.a.a.a.a.a.a.a.a.a.a.a.a.a.a.a.a.a.a.a.a.a.a.a.a.a.a.a.a.a.a.a.a.a.a.a.a.a.a.a.a.a.a.a.a.a.a.a.a.a.a.a.a.a.a.a.a.a.a.a.a.a.a.a.a.a.a.a.a.a.a.a.a.a.a.a.a.a.a.a.a.a.a.a.a.a.a.a.a.a.a.a.a.a.a.a.a.a.a.a.a.a.a.a.a.a.a.a.a.a.a.a.a.a.a.a.a.a.a.a.a.a.a.a.a.a.a.a.a.a.a.a.a.a.a.a.a.a.W @.*.v.g.g.g.D.^.^.!.D.m.k.D.Y.Y.!.!.E.!.D.E.G.D.A.m.A.m.m.v.j.v.D.D.m.g.g.d.d.t.6.1.| a.a.a.a.a.a.a.a.a.a.a.a.a.a.a.a.a.a.a.a.a.a.a.a.a.a.a.a.a.a.a.a.a.a.a.a.a.a.] } #.&.*.-.*.&.*.-.;.;.t.t.s.g.k.Z.Y.Y.!.!.!.Q.!.!.(.!.!.E.K.E.E.D.m.m.g.d.t.6.-.&.#. .} ] / W [ a.a.a.a.a.a.a.a.a.a.a.a.a.a.a.a.a.a.a.a.a.a.a.a.a.a.a.a.a.a.a.a.a.a.a.a.a.a.a.a.a.a.a.a.a.a.a.a.a.a.a.a.a.a.a.a.a.a.a.a.a.a.a.a.a.a.a.a.a.a.a.a.a.a.a.a.a.a.a.a.a.a.a.a.a.a.a.a.a.a.a.a.a.a.a.a.a.a.a.a.a.a.a.a.a.a.a.a.a.a.a.a.a.a.a.a.a.a.a.a.a.a.a.a.a.a.a.a.a.a.a.a.a.a.a.a.a.a.a.a.a.a.a.a.a.a.a.a.a.a.a.a.a.a.a.a.a.a.a.a.a.a.a.a.a.a.a.a.a.a.a.a.a.a.a.a.a.a.a.a.a.a.a.a.a.a.a.a.a.a.a.a.a.a.a.a.a.a.a.a.a.a.a.a.a.a.a.a.a.a.a.a.a.a.a.a.a.a.a.a.a.a.a.a.a.a.a.a.a.a.a.a.a.a.a.a.a.a.a.a.a.a.a.a.a.a.a.a.a.a.a.a.a.a.a.a.a.a.a.a.a.a.a.a.a.a.a.a.a.a.a.a.a.a.a.a.a.a.a.a.a.a.a.a.a.a.a.a.a.a.a.a.a.a.a.a.a.a.a.a.",
"a.a.a.a.a.a.a.a.a.a.a.a.a.a.a.a.a.a.a.a.a.a.a.a.a.a.a.a.a.a.a.a.a.a.a.a.a.a.a.a.a.a.a.a.a.a.a.a.a.a.a.a.a.a.a.a.a.a.a.a.a.a.a.a.a.a.a.a.a.a.a.a.a.a.a.a.a.a.a.a.a.a.a.a.a.a.a.a.a.a.a.a.a.a.a.a.a.a.a.a.a.a.a.a.a.a.a.a.a.a.a.a.a.a.a.a.a.a.a.a.a.a.a.a.a.a.a.a.a.a.a.a.a.a.a.a.a.a.a.a.a.a.a.a.a.a.a.a.a.a.a.a.a.a.a.a.a.a.a.a.a.a.a.a.a.a.a.a.a.)  .5.g.d.g.m.!.Y.D.g.m.K.G.E.^.T.E.Y.E.Y.D.m.m.m.v.v.v.v.g.m.G.G.k.k.m.g.g.d.y.d.t.4.1.[ a.a.a.a.a.a.a.a.a.a.a.a.a.a.a.a.a.a.a.a.a.a.a.a.a.a.a.a.a.a.a.a.a.a.a.a./ ]  .@.@.&.&.-.&.:.;.6.-.t.s.s.g.V.D.Y.!.^.}.}.}.^.(.^.!.^.!.!.Y.J.Y.K.D.g.d.t.6.-.&.#.@. .} / / / J a.a.a.a.a.a.a.a.a.a.a.a.a.a.a.a.a.a.a.a.a.a.a.a.a.a.a.a.a.a.a.a.a.a.a.a.a.a.a.a.a.a.a.a.a.a.a.a.a.a.a.a.a.a.a.a.a.a.a.a.a.a.a.a.a.a.a.a.a.a.a.a.a.a.a.a.a.a.a.a.a.a.a.a.a.a.a.a.a.a.a.a.a.a.a.a.a.a.a.a.a.a.a.a.a.a.a.a.a.a.a.a.a.a.a.a.a.a.a.a.a.a.a.a.a.a.a.a.a.a.a.a.a.a.a.a.a.a.a.a.a.a.a.a.a.a.a.a.a.a.a.a.a.a.a.a.a.a.a.a.a.a.a.a.a.a.a.a.a.a.a.a.a.a.a.a.a.a.a.a.a.a.a.a.a.a.a.a.a.a.a.a.a.a.a.a.a.a.a.a.a.a.a.a.a.a.a.a.a.a.a.a.a.a.a.a.a.a.a.a.a.a.a.a.a.a.a.a.a.a.a.a.a.a.a.a.a.a.a.a.a.a.a.a.a.a.a.a.a.a.a.a.a.a.a.a.a.a.a.a.a.a.a.a.a.a.a.a.a.a.a.a.a.a.a.a.a.a.a.a.a.a.a.a.a.a.a.a.a.a.a.a.a.a.a.a.a.a.a.",
"a.a.a.a.a.a.a.a.a.a.a.a.a.a.a.a.a.a.a.a.a.a.a.a.a.a.a.a.a.a.a.a.a.a.a.a.a.a.a.a.a.a.a.a.a.a.a.a.a.a.a.a.a.a.a.a.a.a.a.a.a.a.a.a.a.a.a.a.a.a.a.a.a.a.a.a.a.a.a.a.a.a.a.a.a.a.a.a.a.a.a.a.a.a.a.a.a.a.a.a.a.a.a.a.a.a.a.a.a.a.a.a.a.a.a.a.a.a.a.a.a.a.a.a.a.a.a.a.a.a.a.a.a.a.a.a.a.a.a.a.a.a.a.a.a.a.a.a.a.a.a.a.a.a.a.a.a.a.a.a.a.a.a.a.a.a.a.a.m /  .5.t.t.g.D.Y.k.d.k.m.Y.G.Y.G.D.G.G.m.g.j.m.m.Y.G.G.G.G.K.Y.Y.E.T.T.D.G.m.g.g.t.t.6.1.#.p.a.a.a.a.a.a.a.a.a.a.a.a.a.a.a.a.a.a.a.a.a.a.a.a.a.a.a.a.a.a.a.a.a.a.a._ }  .#.&.&.&.&.&.-.-.;.-.e.s.g.g.D.D.!.!.^.}. X(.^.(.(.^.^.^.^.!.W.Y.G.m.g.g.d.t.-.*.#.#. .} _ E E R a.a.a.a.a.a.a.a.a.a.a.a.a.a.a.a.a.a.a.a.a.a.a.a.a.a.a.a.a.a.a.a.a.a.a.a.a.a.a.a.a.a.a.a.a.a.a.a.a.a.a.a.a.a.a.a.a.a.a.a.a.a.a.a.a.a.a.a.a.a.a.a.a.a.a.a.a.a.a.a.a.a.a.a.a.a.a.a.a.a.a.a.a.a.a.a.a.a.a.a.a.a.a.a.a.a.a.a.a.a.a.a.a.a.a.a.a.a.a.a.a.a.a.a.a.a.a.a.a.a.a.a.a.a.a.a.a.a.a.a.a.a.a.a.a.a.a.a.a.a.a.a.a.a.a.a.a.a.a.a.a.a.a.a.a.a.a.a.a.a.a.a.a.a.a.a.a.a.a.a.a.a.a.a.a.a.a.a.a.a.a.a.a.a.a.a.a.a.a.a.a.a.a.a.a.a.a.a.a.a.a.a.a.a.a.a.a.a.a.a.a.a.a.a.a.a.a.a.a.a.a.a.a.a.a.a.a.a.a.a.a.a.a.a.a.a.a.a.a.a.a.a.a.a.a.a.a.a.a.a.a.a.a.a.a.a.a.a.a.a.a.a.a.a.a.a.a.a.a.a.a.a.a.a.a.a.a.a.a.a.a.a.a.a.a.a.a.a.a.",
"a.a.a.a.a.a.a.a.a.a.a.a.a.a.a.a.a.a.a.a.a.a.a.a.a.a.a.a.a.a.a.a.a.a.a.a.a.a.a.a.a.a.a.a.a.a.a.a.a.a.a.a.a.a.a.a.a.a.a.a.a.a.a.a.a.a.a.a.a.a.a.a.a.a.a.a.a.a.a.a.a.a.a.a.a.a.a.a.a.a.a.a.a.a.a.a.a.a.a.a.a.a.a.a.a.a.a.a.a.a.a.a.a.a.a.a.a.a.a.a.a.a.a.a.a.a.a.a.a.a.a.a.a.a.a.a.a.a.a.a.a.a.a.a.a.a.a.a.a.a.a.a.a.a.a.a.a.a.a.a.a.a.a.a.a.a.a.a.S / @.6.4.t.g.k.g.d.g.g.D.D.G.D.g.k.m.k.g.m.m.G.G.E.E.Y.Y.!.!.!.!.!.!.Y.T.Y.G.G.k.g.d.t.6.*...a.a.a.a.a.a.a.a.a.a.a.a.a.a.a.a.a.a.a.a.a.a.a.a.a.a.a.a.a.a.a.a.a.a.a._ `  .#.#.&.&.&.&.=.-.;.;.s.g.k.k.A.Y.!.!.^.{.^.(.^.(.(.^.^.!.^.!.W.E.K.D.m.g.d.t.6.-.&.@. . ./ / E ] a.a.a.a.a.a.a.a.a.a.a.a.a.a.a.a.a.a.a.a.a.a.a.a.a.a.a.a.a.a.a.a.a.a.a.a.a.a.a.a.a.a.a.a.a.a.a.a.a.a.a.a.a.a.a.a.a.a.a.a.a.a.a.a.a.a.a.a.a.a.a.a.a.a.a.a.a.a.a.a.a.a.a.a.a.a.a.a.a.a.a.a.a.a.a.a.a.a.a.a.a.a.a.a.a.a.a.a.a.a.a.a.a.a.a.a.a.a.a.a.a.a.a.a.a.a.a.a.a.a.a.a.a.a.a.a.a.a.a.a.a.a.a.a.a.a.a.a.a.a.a.a.a.a.a.a.a.a.a.a.a.a.a.a.a.a.a.a.a.a.a.a.a.a.a.a.a.a.a.a.a.a.a.a.a.a.a.a.a.a.a.a.a.a.a.a.a.a.a.a.a.a.a.a.a.a.a.a.a.a.a.a.a.a.a.a.a.a.a.a.a.a.a.a.a.a.a.a.a.a.a.a.a.a.a.a.a.a.a.a.a.a.a.a.a.a.a.a.a.a.a.a.a.a.a.a.a.a.a.a.a.a.a.a.a.a.a.a.a.a.a.a.a.a.a.a.a.a.a.a.a.a.a.a.a.a.a.a.a.a.a.a.a.a.a.a.a.a.a.",
"a.a.a.a.a.a.a.a.a.a.a.a.a.a.a.a.a.a.a.a.a.a.a.a.a.a.a.a.a.a.a.a.a.a.a.a.a.a.a.a.a.a.a.a.a.a.a.a.a.a.a.a.a.a.a.a.a.a.a.a.a.a.a.a.a.a.a.a.a.a.a.a.a.a.a.a.a.a.a.a.a.a.a.a.a.a.a.a.a.a.a.a.a.a.a.a.a.a.a.a.a.a.a.a.a.a.a.a.a.a.a.a.a.a.a.a.a.a.a.a.a.a.a.a.a.a.a.a.a.a.a.a.a.a.a.a.a.a.a.a.a.a.a.a.a.a.a.a.a.a.a.a.a.a.a.a.a.a.a.a.a.a.a.a.a.a.a.a.S _ @.*.-.d.d.t.d.g.g.j.k.m.m.g.d.k.k.m.k.Y.Y.Y.Y.T.!.!.^.^.^.!.!.^.Q.Q.!.!.T.G.n.m.v.d.t.6.&...a.a.a.a.a.a.a.a.a.a.a.a.a.a.a.a.a.a.a.a.a.a.a.a.a.a.a.a.a.a.a.a.a.Y _ }  .@. .@.&.*.&.-.-.;.t.s.h.k.D.W.W.!.!.!.^.^.!.^.!.!.^.!.!.!.!.W.K.m.m.m.j.g.d.6.1.#.@. .} ] / T R a.a.a.a.a.a.a.a.a.a.a.a.a.a.a.a.a.a.a.a.a.a.a.a.a.a.a.a.a.a.a.a.a.a.a.a.a.a.a.a.a.a.a.a.a.a.a.a.a.a.a.a.a.a.a.a.a.a.a.a.a.a.a.a.a.a.a.a.a.a.a.a.a.a.a.a.a.a.a.a.a.a.a.a.a.a.a.a.a.a.a.a.a.a.a.a.a.a.a.a.a.a.a.a.a.a.a.a.a.a.a.a.a.a.a.a.a.a.a.a.a.a.a.a.a.a.a.a.a.a.a.a.a.a.a.a.a.a.a.a.a.a.a.a.a.a.a.a.a.a.a.a.a.a.a.a.a.a.a.a.a.a.a.a.a.a.a.a.a.a.a.a.a.a.a.a.a.a.a.a.a.a.a.a.a.a.a.a.a.a.a.a.a.a.a.a.a.a.a.a.a.a.a.a.a.a.a.a.a.a.a.a.a.a.a.a.a.a.a.a.a.a.a.a.a.a.a.a.a.a.a.a.a.a.a.a.a.a.a.a.a.a.a.a.a.a.a.a.a.a.a.a.a.a.a.a.a.a.a.a.a.a.a.a.a.a.a.a.a.a.a.a.a.a.a.a.a.a.a.a.a.a.a.a.a.a.a.a.a.a.a.a.a.a.a.a.a.a.a.",
"a.a.a.a.a.a.a.a.a.a.a.a.a.a.a.a.a.a.a.a.a.a.a.a.a.a.a.a.a.a.a.a.a.a.a.a.a.a.a.a.a.a.a.a.a.a.a.a.a.a.a.a.a.a.a.a.a.a.a.a.a.a.a.a.a.a.a.a.a.a.a.a.a.a.a.a.a.a.a.a.a.a.a.a.a.a.a.a.a.a.a.a.a.a.a.a.a.a.a.a.a.a.a.a.a.a.a.a.a.a.a.a.a.a.a.a.a.a.a.a.a.a.a.a.a.a.a.a.a.a.a.a.a.a.a.a.a.a.a.a.a.a.a.a.a.a.a.a.a.a.a.a.a.a.a.a.a.a.a.a.a.a.a.a.a.a.a.B F _ @.@.-.d.6.t.d.t.g.v.m.g.g.d.d.j.k.k.k.G.Y.!.^.^.!.Q.^.^.^.^.^.^.^.!.!.E.Y.Y.Y.m.m.g.d.t.6.#.#.a.a.a.a.a.a.a.a.a.a.a.a.a.a.a.a.a.a.a.a.a.a.a.a.a.a.a.a.a.a.a.a.W _ ]  . .@. .@.@.&.@.-.;.t.s.g.j.D.Y.T.!.^.!.Q.^.Q.!.^.!.Q.^.!.!.!.Y.G.D.D.m.g.d.y.6.-.&.@. .] ] / R R Y a.a.a.a.a.a.a.a.a.a.a.a.a.a.a.a.a.a.a.a.a.a.a.a.a.a.a.a.a.a.a.a.a.a.a.a.a.a.a.a.a.a.a.a.a.P ....&. .#.W a.a.a.a.a.a.a.a.a.a.a.a.a.a.a.a.a.a.a.a.a.a.a.a.a.a.a.a.a.a.a.a.a.a.a.a.a.a.a.a.a.a.a.a.a.a.a.a.a.a.a.a.a.a.a.a.a.a.a.a.a.a.a.a.a.a.a.a.a.a.a.a.a.a.a.a.a.a.a.a.a.a.a.a.a.a.a.a.a.a.a.a.a.a.a.a.a.a.a.a.a.a.a.a.a.a.a.a.a.a.a.a.a.a.a.a.a.a.a.a.a.a.a.a.a.a.a.a.a.a.a.a.a.a.a.a.a.a.a.a.a.a.a.a.a.a.a.a.a.a.a.a.a.a.a.a.a.a.a.a.a.a.a.a.a.a.a.a.a.a.a.a.a.a.a.a.a.a.a.a.a.a.a.a.a.a.a.a.a.a.a.a.a.a.a.a.a.a.a.a.a.a.a.a.a.a.a.a.a.a.a.a.a.a.a.a.a.a.a.a.a.a.a.a.a.a.a.a.a.a.a.a.a.a.a.a.a.a.a.a.a.a.a.a.a.a.",
"a.a.a.a.a.a.a.a.a.a.a.a.a.a.a.a.a.a.a.a.a.a.a.a.a.a.a.a.a.a.a.a.a.a.a.a.a.a.a.a.a.a.a.a.a.a.a.a.a.a.a.a.a.a.a.a.a.a.a.a.a.a.a.a.a.a.a.a.a.a.a.a.a.a.a.a.a.a.a.a.a.a.a.a.a.a.a.a.a.a.a.a.a.a.a.a.a.a.a.a.a.a.a.a.a.a.a.a.a.a.a.a.a.a.a.a.a.a.a.a.a.a.a.a.a.a.a.a.a.a.a.a.a.a.a.a.a.a.a.a.a.a.a.a.a.a.a.a.a.a.a.a.a.a.a.a.a.a.a.a.a.a.a.a.a.a.a.C G _  .&.6.6.6.6.t.y.l.g.g.s.d.t.d.g.k.n.n.Y.T.Q.^.^.Q.^.^.!.^.^.^.^.!.^.^.!.!.T.Y.G.A.m.m.d.y.1.#. .a.a.a.a.a.a.a.a.a.a.a.a.a.a.a.a.a.a.a.a.a.a.a.a.a.a.a.a.a.a.a.W / } }  . .@.@.@.&.&.6.t.t.d.k.D.U.Y.Y.Y.Q.T.Y.T.!.!.!.Q.!.Q.!.Y.Y.G.Y.A.G.j.d.d.y.t.6.*.@. .} ] ` W G J a.a.a.a.a.a.a.a.a.a.a.a.a.a.a.a.a.a.a.a.a.a.a.a.a.a.a.a.a.a.a.a.a.a.a.a.a.a.a.a.a.a.a.U ..t.6.s.h.f.d.&.7.) R a.a.a.a.a.a.a.a.a.a.a.a.a.a.a.a.a.a.a.a.a.a.a.a.a.a.a.a.a.a.a.a.a.a.a.a.a.a.a.a.a.a.a.a.a.a.a.a.a.a.a.a.a.a.a.a.a.a.a.a.a.a.a.a.a.a.a.a.a.a.a.a.a.a.a.a.a.a.a.a.a.a.a.a.a.a.a.a.a.a.a.a.a.a.a.a.a.a.a.a.a.a.a.a.a.a.a.a.a.a.a.a.a.a.a.a.a.a.a.a.a.a.a.a.a.a.a.a.a.a.a.a.a.a.a.a.a.a.a.a.a.a.a.a.a.a.a.a.a.a.a.a.a.a.a.a.a.a.a.a.a.a.a.a.a.a.a.a.a.a.a.a.a.a.a.a.a.a.a.a.a.a.a.a.a.a.a.a.a.a.a.a.a.a.a.a.a.a.a.a.a.a.a.a.a.a.a.a.a.a.a.a.a.a.a.a.a.a.a.a.a.a.a.a.a.a.a.a.a.a.a.a.a.a.a.a.a.a.a.a.a.a.a.",
"a.a.a.a.a.a.a.a.a.a.a.a.a.a.a.a.a.a.a.a.a.a.a.a.a.a.a.a.a.a.a.a.a.a.a.a.a.a.a.a.a.a.a.a.a.a.a.a.a.a.a.a.a.a.a.a.a.a.a.a.a.a.a.a.a.a.a.a.a.a.a.a.a.a.a.a.a.a.a.a.a.a.a.a.a.a.a.a.a.a.a.a.a.a.a.a.a.a.a.a.a.a.a.a.a.a.a.a.a.a.a.a.a.a.a.a.a.a.a.a.a.a.a.a.a.a.a.a.a.a.a.a.a.a.a.a.a.a.a.a.a.a.a.a.a.a.a.a.a.a.a.a.a.a.a.a.a.a.a.a.a.a.a.a.a.a.a.Z G /  .&.-.6.6.-.6.t.t.t.t.t.t.y.d.g.n.D.D.Y.!.^.^.Q.!.(.(.(.(.(.(.^.^.^.!.^.!.!.Y.E.G.m.g.d.y.6.5.#./ a.a.a.a.a.a.a.a.a.a.a.a.a.a.a.a.a.a.a.a.a.a.a.a.a.a.a.a.a.a.E / ] }  . .@.@.@.&.-.6.t.d.g.g.k.Z.D.U.Y.Y.Q.Q.!.Y.Y.Y.Y.Q.Q.Y.Y.Y.G.K.G.m.g.d.d.d.t.6.1.@. .} _ / / U J a.a.a.a.a.a.a.a.a.a.a.a.a.a.a.a.a.a.a.a.a.a.a.a.a.a.a.a.a.a.a.a.a.a.a.a.a.a.a.a.a.a.| 5.v.A.G.Y.D.Q.Y.G.G.m.5.1.[ Y a.a.a.a.a.a.a.a.a.a.a.a.a.a.a.a.a.a.a.a.a.a.a.a.a.a.a.a.a.a.a.a.a.a.a.a.a.a.a.a.a.a.a.a.a.a.a.a.a.a.a.a.a.a.a.a.a.a.a.a.a.a.a.a.a.a.a.a.a.a.a.a.a.a.a.a.a.a.a.a.a.a.a.a.a.a.a.a.a.a.a.a.a.a.a.a.a.a.a.a.a.a.a.a.a.a.a.a.a.a.a.a.a.a.a.a.a.a.a.a.a.a.a.a.a.a.a.a.a.a.a.a.a.a.a.a.a.a.a.a.a.a.a.a.a.a.a.a.a.a.a.a.a.a.a.a.a.a.a.a.a.a.a.a.a.a.a.a.a.a.a.a.a.a.a.a.a.a.a.a.a.a.a.a.a.a.a.a.a.a.a.a.a.a.a.a.a.a.a.a.a.a.a.a.a.a.a.a.a.a.a.a.a.a.a.a.a.a.a.a.a.a.a.a.a.a.a.a.a.a.a.a.a.a.a.a.a.a.a.a.",
"a.a.a.a.a.a.a.a.a.a.a.a.a.a.a.a.a.a.a.a.a.a.a.a.a.a.a.a.a.a.a.a.a.a.a.a.a.a.a.a.a.a.a.a.a.a.a.a.a.a.a.a.a.a.a.a.a.a.a.a.a.a.a.a.a.a.a.a.a.a.a.a.a.a.a.a.a.a.a.a.a.a.a.a.a.a.a.a.a.a.a.a.a.a.a.a.a.a.a.a.a.a.a.a.a.a.a.a.a.a.a.a.a.a.a.a.a.a.a.a.a.a.a.a.a.a.a.a.a.a.a.a.a.a.a.a.a.a.a.a.a.a.a.a.a.a.a.a.a.a.a.a.a.a.a.a.a.a.a.a.a.a.a.a.a.a.D F H _  .&.-.-.-.;.6.6.6.-.6.t.d.s.d.k.D.n.Y.Y.!.}.^.^.^.^.^.^.^.^.^.}.}.}.^.^.^.^.!.Y.K.G.m.g.d.y.1.1.*.a.a.a.a.a.a.a.a.a.a.a.a.a.a.a.a.a.a.a.a.a.a.a.a.a.a.a.a.a.a.R _ } } }  . .@.@.&.-.6.t.d.g.g.g.k.D.D.U.Y.Q.Q.Q.U.Y.Q.U.Y.D.Y.Y.G.G.A.v.g.v.g.d.d.t.6.4.#. . .] / ] R J a.a.a.a.a.a.a.a.a.a.a.a.a.a.a.a.a.a.a.a.a.a.a.a.a.a.a.a.a.a.a.a.a.a.a.a.a.a.a.a.a...y.m.A.G.D.!.I.D.D.D.Y.T.T.d.6.1.y. .a.a.a.a.a.a.a.a.a.a.a.a.a.a.a.a.a.a.a.a.a.a.a.a.a.a.a.a.a.a.a.a.a.a.a.a.a.a.a.a.a.a.a.a.a.a.a.a.a.a.a.a.a.a.a.a.a.a.a.a.a.a.a.a.a.a.a.a.a.a.a.a.a.a.a.a.a.a.a.a.a.a.a.a.a.a.a.a.a.a.a.a.a.a.a.a.a.a.a.a.a.a.a.a.a.a.a.a.a.a.a.a.a.a.a.a.a.a.a.a.a.a.a.a.a.a.a.a.a.a.a.a.a.a.a.a.a.a.a.a.a.a.a.a.a.a.a.a.a.a.a.a.a.a.a.a.a.a.a.a.a.a.a.a.a.a.a.a.a.a.a.a.a.a.a.a.a.a.a.a.a.a.a.a.a.a.a.a.a.a.a.a.a.a.a.a.a.a.a.a.a.a.a.a.a.a.a.a.a.a.a.a.a.a.a.a.a.a.a.a.a.a.a.a.a.a.a.a.a.a.a.a.a.a.a.a.a.a.",
"a.a.a.a.a.a.a.a.a.a.a.a.a.a.a.a.a.a.a.a.a.a.a.a.a.a.a.a.a.a.a.a.a.a.a.a.a.a.a.a.a.a.a.a.a.a.a.a.a.a.a.a.a.a.a.a.a.a.a.a.a.a.a.a.a.a.a.a.a.a.a.a.a.a.a.a.a.a.a.a.a.a.a.a.a.a.a.a.a.a.a.a.a.a.a.a.a.a.a.a.a.a.a.a.a.a.a.a.a.a.a.a.a.a.a.a.a.a.a.a.a.a.a.a.a.a.a.a.a.a.a.a.a.a.a.a.a.a.a.a.a.a.a.a.a.a.a.a.a.a.a.a.a.a.a.a.a.a.a.a.a.a.a.a.a.a.F G T _  .&.-.-.-.6.6.:.-.-.6.t.d.g.g.n.D.D.Y.!.!.!.^.^.^.^.}.}.^.^.^.}. X}.^.^.^.^.!.!.Y.G.m.g.g.d.5.-.-.*.a.a.a.a.a.a.a.a.a.a.a.a.a.a.a.a.a.a.a.a.a.a.a.a.a.a.a.a.U E / ] } }  . . .&.-.6.t.s.d.g.g.k.k.k.D.G.Y.!.!.Y.Y.H.D.Y.Y.K.G.G.G.m.m.g.g.v.g.d.y.t.t.1.*.@.] ] / ] / S a.a.a.a.a.a.a.a.a.a.a.a.a.a.a.a.a.a.a.a.a.a.a.a.a.a.a.a.a.a.a.a.a.a.a.a.a.a.a.a...l.D.D.D.m.g.V.h.k.k.s.s.g.n.g.j.g.s.g.t.a.a.a.a.a.a.a.a.a.a.a.a.a.a.a.a.a.a.a.a.a.a.a.a.a.a.a.a.a.a.a.a.a.a.a.a.a.a.a.a.a.a.a.a.a.a.a.a.a.a.a.a.a.a.a.a.a.a.a.a.a.a.a.a.a.a.a.a.a.a.a.a.a.a.a.a.a.a.a.a.a.a.a.a.a.a.a.a.a.a.a.a.a.a.a.a.a.a.a.a.a.a.a.a.a.a.a.a.a.a.a.a.a.a.a.a.a.a.a.a.a.a.a.a.a.a.a.a.a.a.a.a.a.a.a.a.a.a.a.a.a.a.a.a.a.a.a.a.a.a.a.a.a.a.a.a.a.a.a.a.a.a.a.a.a.a.a.a.a.a.a.a.a.a.a.a.a.a.a.a.a.a.a.a.a.a.a.a.a.a.a.a.a.a.a.a.a.a.a.a.a.a.a.a.a.a.a.a.a.a.a.a.a.a.a.a.a.a.a.a.a.a.a.a.a.a.a.a.a.a.a.a.a.a.a.a.a.",
"a.a.a.a.a.a.a.a.a.a.a.a.a.a.a.a.a.a.a.a.a.a.a.a.a.a.a.a.a.a.a.a.a.a.a.a.a.a.a.a.a.a.a.a.a.a.a.a.a.a.a.a.a.a.a.a.a.a.a.a.a.a.a.a.a.a.a.a.a.a.a.a.a.a.a.a.a.a.a.a.a.a.a.a.a.a.a.a.a.a.a.a.a.a.a.a.a.a.a.a.a.a.a.a.a.a.a.a.a.a.a.a.a.a.a.a.a.a.a.a.a.a.a.a.a.a.a.a.a.a.a.a.a.a.a.a.a.a.a.a.a.a.a.a.a.a.a.a.a.a.a.a.a.a.a.a.a.a.a.a.a.a.a.a.a.F G T E _ #.&.&.&.-.-.:.-.-.6.t.t.s.g.D.D.D.Y.T.Y.!.^.^.Q.Q.^.^.^.^.^.^.}.}.^.^.!.^.!.!.Y.E.Y.G.m.g.d.t.6.&.*.<.a.a.a.a.a.a.a.a.a.a.a.a.a.a.a.a.a.a.a.a.a.a.a.a.a.a.a.U E / ] } }  . .@.&.;.6.t.s.s.d.g.k.k.k.D.D.Y.Y.Y.!.!.Y.Y.Y.E.Y.G.G.G.D.v.j.g.d.d.d.t.t.6.1.*.#.} _ / } _ S a.a.a.a.a.a.a.a.a.a.a.a.a.a.a.a.a.a.a.a.a.a.a.a.a.a.a.a.a.a.a.a.a.a.a.a.a.a.a.#.d.m.D.A.m.m.m.n.Y.Y.D.j.g.d.6.t.s.k.h.h.t.t.1.a.a.a.a.a.a.a.a.a.a.a.a.a.a.a.a.a.a.a.a.a.a.a.a.a.a.a.a.a.a.a.a.a.a.a.a.a.a.a.a.a.a.a.a.a.a.a.a.a.a.a.a.a.a.a.a.a.a.a.a.a.a.a.a.a.a.a.a.a.a.a.a.a.a.a.a.a.a.a.a.a.a.a.a.a.a.a.a.a.a.a.a.a.a.a.a.a.a.a.a.a.a.a.a.a.a.a.a.a.a.a.a.a.a.a.a.a.a.a.a.a.a.a.a.a.a.a.a.a.a.a.a.a.a.a.a.a.a.a.a.a.a.a.a.a.a.a.a.a.a.a.a.a.a.a.a.a.a.a.a.a.a.a.a.a.a.a.a.a.a.a.a.a.a.a.a.a.a.a.a.a.a.a.a.a.a.a.a.a.a.a.a.a.a.a.a.a.a.a.a.a.a.a.a.a.a.a.a.a.a.a.a.a.a.a.a.a.a.a.a.a.a.a.a.a.a.a.a.a.a.a.a.a.a.a.",
"a.a.a.a.a.a.a.a.a.a.a.a.a.a.a.a.a.a.a.a.a.a.a.a.a.a.a.a.a.a.a.a.a.a.a.a.a.a.a.a.a.a.a.a.a.a.a.a.a.a.a.a.a.a.a.a.a.a.a.a.a.a.a.a.a.a.a.a.a.a.a.a.a.a.a.a.a.a.a.a.a.a.a.a.a.a.a.a.a.a.a.a.a.a.a.a.a.a.a.a.a.a.a.a.a.a.a.a.a.a.a.a.a.a.a.a.a.a.a.a.a.a.a.a.a.a.a.a.a.a.a.a.a.a.a.a.a.a.a.a.a.a.a.a.a.a.a.a.a.a.a.a.a.a.a.a.a.a.a.a.a.a.a.a.Y F T ^ / } &.&.&.@.-.:.&.-.*.6.6.t.d.g.n.m.m.D.U.Y.!.^.!.Q.Q.^.^.^.^.^.^.!.^.^.^.^.^.!.!.Y.E.G.G.v.m.g.d.t.-.#.*.1.a.a.a.a.a.a.a.a.a.a.a.a.a.a.a.a.a.a.a.a.a.a.a.a.a.a.P R / ] } }  .@.@.*.-.t.t.t.s.d.g.g.g.k.m.G.Y.E.!.!.!.W.!.Y.!.W.Y.G.m.v.g.g.g.d.d.y.y.t.6.4.-.#. .` _ ] ] S a.a.a.a.a.a.a.a.a.a.a.a.a.a.a.a.a.a.a.a.a.a.a.a.a.a.a.a.a.a.a.a.a.a.a.a.a.a...d.g.g.j.m.g.m.m.A.Y.n.m.m.k.k.g.s.t.s.6.t.s.t.6.d.a.a.a.a.a.a.a.a.a.a.a.a.a.a.a.a.a.a.a.a.a.a.a.a.a.a.a.a.a.a.a.a.a.a.a.a.a.a.a.a.a.a.a.a.a.a.a.a.a.a.a.a.a.a.a.a.a.a.a.a.a.a.a.a.a.a.a.a.a.a.a.a.a.a.a.a.a.a.a.a.a.a.a.a.a.a.a.a.a.a.a.a.a.a.a.a.a.a.a.a.a.a.a.a.a.a.a.a.a.a.a.a.a.a.a.a.a.a.a.a.a.a.a.a.a.a.a.a.a.a.a.a.a.a.a.a.a.a.a.a.a.a.a.a.a.a.a.a.a.a.a.a.a.a.a.a.a.a.a.a.a.a.a.a.a.a.a.a.a.a.a.a.a.a.a.a.a.a.a.a.a.a.a.a.a.a.a.a.a.a.a.a.a.a.a.a.a.a.a.a.a.a.a.a.a.a.a.a.a.a.a.a.a.a.a.a.a.a.a.a.a.a.a.a.a.a.a.a.a.a.a.a.a.a.",
"a.a.a.a.a.a.a.a.a.a.a.a.a.a.a.a.a.a.a.a.a.a.a.a.a.a.a.a.a.a.a.a.a.a.a.a.a.a.a.a.a.a.a.a.a.a.a.a.a.a.a.a.a.a.a.a.a.a.a.a.a.a.a.a.a.a.a.a.a.a.a.a.a.a.a.a.a.a.a.a.a.a.a.a.a.a.a.a.a.a.a.a.a.a.a.a.a.a.a.a.a.a.a.a.a.a.a.a.a.a.a.a.a.a.a.a.a.a.a.a.a.a.a.a.a.a.a.a.a.a.a.a.a.a.a.a.a.a.a.a.a.a.a.a.a.a.a.a.a.a.a.a.a.a.a.a.a.a.a.a.a.a.a.R U T E / /  .#.&.&.@.&.&.&.&.-.1.-.t.s.g.j.k.k.m.Y.!.!.!.^.^.!.!.^.^.^.^.^.!.^.^.!.!.^.^.!.!.^.E.E.G.k.m.f.d.1.*.*.*...a.a.a.a.a.a.a.a.a.a.a.a.a.a.a.a.a.a.a.a.a.a.a.a.a.F U / _ }  .@.&.&.-.;.6.6.t.t.t.k.g.j.m.D.E.E.!.!.!.!.W.^.E.!.E.Y.G.m.g.g.d.g.d.g.y.y.t.6.4.1.*. ./ _ _ ] T a.a.a.a.a.a.a.a.a.a.a.a.a.a.a.a.a.a.a.a.a.a.a.a.a.a.a.a.a.a.a.a.a.a.a.a.a.| y.g.g.g.g.v.v.m.G.G.E.M.G.m.j.D.m.k.s.s.1.#.:.;.t.;.6...a.a.a.a.a.a.a.a.a.a.a.a.a.a.a.a.a.a.a.a.a.a.a.a.a.a.a.a.a.a.a.a.a.a.a.a.a.a.a.a.a.a.a.a.a.a.a.a.a.a.a.a.a.a.a.a.a.a.a.a.a.a.a.a.a.a.a.a.a.a.a.a.a.a.a.a.a.a.a.a.a.a.a.a.a.a.a.a.a.a.a.a.a.a.a.a.a.a.a.a.a.a.a.a.a.a.a.a.a.a.a.a.a.a.a.a.a.a.a.a.a.a.a.a.a.a.a.a.a.a.a.a.a.a.a.a.a.a.a.a.a.a.a.a.a.a.a.a.a.a.a.a.a.a.a.a.a.a.a.a.a.a.a.a.a.a.a.a.a.a.a.a.a.a.a.a.a.a.a.a.a.a.a.a.a.a.a.a.a.a.a.a.a.a.a.a.a.a.a.a.a.a.a.a.a.a.a.a.a.a.a.a.a.a.a.a.a.a.a.a.a.a.a.a.a.a.a.a.a.a.a.a.",
"a.a.a.a.a.a.a.a.a.a.a.a.a.a.a.a.a.a.a.a.a.a.a.a.a.a.a.a.a.a.a.a.a.a.a.a.a.a.a.a.a.a.a.a.a.a.a.a.a.a.a.a.a.a.a.a.a.a.a.a.a.a.a.a.a.a.a.a.a.a.a.a.a.a.a.a.a.a.a.a.a.a.a.a.a.a.a.a.a.a.a.a.a.a.a.a.a.a.a.a.a.a.a.a.a.a.a.a.a.a.a.a.a.a.a.a.a.a.a.a.a.a.a.a.a.a.a.a.a.a.a.a.a.a.a.a.a.a.a.a.a.a.a.a.a.a.a.a.a.a.a.a.a.a.a.a.a.a.a.a.a.a.J W U E / _ } #.&.&.@.@.@.&.-.-.-.-.6.t.f.h.h.k.D.E.Y.T.!.!.^.^.^.^.!.!.Q.!.!.!.!.!.!.!.Y.Y.!.!.!.Y.Y.Y.G.G.m.g.t.6.&.#...a.a.a.a.a.a.a.a.a.a.a.a.a.a.a.a.a.a.a.a.a.a.a.a.a.S U / _  . .@.#.&.-.-.6.t.t.t.d.g.g.j.I.U.Y.W.!.!.W.W.W.W.K.Q.Y.H.K.m.g.g.g.d.d.g.g.d.y.t.1.1.*. ._ / / / U a.a.a.a.a.a.a.a.a.a.a.a.a.a.a.a.a.a.a.a.a.a.a.a.a.a.a.a.a.a.a.a.a.a.a.a. .5.y.d.g.g.v.m.A.Y.T.E.!.G.T.K.D.G.D.k.g.t.t.-.;.6.&.;.6.:.| a.a.a.a.a.a.a.a.a.a.a.a.a.a.a.a.a.a.a.a.a.a.a.a.a.a.a.a.a.a.a.a.a.a.a.a.a.a.a.a.a.a.a.a.a.a.a.a.a.a.a.a.a.a.a.a.a.a.a.a.a.a.a.a.a.a.a.a.a.a.a.a.a.a.a.a.a.a.a.a.a.a.a.a.a.a.a.a.a.a.a.a.a.a.a.a.a.a.a.a.a.a.a.a.a.a.a.a.a.a.a.a.a.a.a.a.a.a.a.a.a.a.a.a.a.a.a.a.a.a.a.a.a.a.a.a.a.a.a.a.a.a.a.a.a.a.a.a.a.a.a.a.a.a.a.a.a.a.a.a.a.a.a.a.a.a.a.a.a.a.a.a.a.a.a.a.a.a.a.a.a.a.a.a.a.a.a.a.a.a.a.a.a.a.a.a.a.a.a.a.a.a.a.a.a.a.a.a.a.a.a.a.a.a.a.a.a.a.a.a.a.a.a.a.a.a.a.a.a.a.a.",
"a.a.a.a.a.a.a.a.a.a.a.a.a.a.a.a.a.a.a.a.a.a.a.a.a.a.a.a.a.a.a.a.a.a.a.a.a.a.a.a.a.a.a.a.a.a.a.a.a.a.a.a.a.a.a.a.a.a.a.a.a.a.a.a.a.a.a.a.a.a.a.a.a.a.a.a.a.a.a.a.a.a.a.a.a.a.a.a.a.a.a.a.a.a.a.a.a.a.a.a.a.a.a.a.a.a.a.a.a.a.a.a.a.a.a.a.a.a.a.a.a.a.a.a.a.a.a.a.a.a.a.a.a.a.a.a.a.a.a.a.a.a.a.a.a.a.a.a.a.a.a.a.a.a.a.a.a.a.a.a.a.a.W T P W / ]  .#.#.@.@. .#.#.&.*.-.6.t.t.t.f.k.k.D.Y.K.!.E.Y.T.!.!.^.!.^.!.!.Y.Y.Y.^.!.Y.Y.Y.Y.E.!.!.Y.G.G.D.m.g.f.t.-. ...] a.a.a.a.a.a.a.a.a.a.a.a.a.a.a.a.a.a.a.a.a.a.a.a.S T / _  . .@.&.&.&.-.6.t.d.d.d.d.g.k.I.Y.Y.Y.W.Y.W.W.E.m.m.Y.D.H.A.v.g.g.g.d.d.g.d.y.t.6.4.1.#.@.] / / / U a.a.a.a.a.a.a.a.a.a.a.a.a.a.a.a.a.a.a.a.a.a.a.a.a.a.a.a.a.a.a.a.a.a.a...5.y.y.d.g.m.G.G.E.!.!.^.^.!.!.!.!.E.Y.n.g.g.s.t.6.-.@.&.:.-.*.) a.a.a.a.a.a.a.a.a.a.a.a.a.a.a.a.a.a.a.a.a.a.a.a.a.a.a.a.a.a.a.a.a.a.a.a.a.a.a.a.a.a.a.a.a.a.a.a.a.a.a.a.a.a.a.a.a.a.a.a.a.a.a.a.a.a.a.a.a.a.a.a.a.a.a.a.a.a.a.a.a.a.a.a.a.a.a.a.a.a.a.a.a.a.a.a.a.a.a.a.a.a.a.a.a.a.a.a.a.a.a.a.a.a.a.a.a.a.a.a.a.a.a.a.a.a.a.a.a.a.a.a.a.a.a.a.a.a.a.a.a.a.a.a.a.a.a.a.a.a.a.a.a.a.a.a.a.a.a.a.a.a.a.a.a.a.a.a.a.a.a.a.a.a.a.a.a.a.a.a.a.a.a.a.a.a.a.a.a.a.a.a.a.a.a.a.a.a.a.a.a.a.a.a.a.a.a.a.a.a.a.a.a.a.a.a.a.a.a.a.a.a.a.a.a.a.a.a.a.a.",
"a.a.a.a.a.a.a.a.a.a.a.a.a.a.a.a.a.a.a.a.a.a.a.a.a.a.a.a.a.a.a.a.a.a.a.a.a.a.a.a.a.a.a.a.a.a.a.a.a.a.a.a.a.a.a.a.a.a.a.a.a.a.a.a.a.a.a.a.a.a.a.a.a.a.a.a.a.a.a.a.a.a.a.a.a.a.a.a.a.a.a.a.a.a.a.a.a.a.a.a.a.a.a.a.a.a.a.a.a.a.a.a.a.a.a.a.a.a.a.a.a.a.a.a.a.a.a.a.a.a.a.a.a.a.a.a.a.a.a.a.a.a.a.a.a.a.a.a.a.a.a.a.a.a.a.a.a.a.a.a.a.V W F U W / ]  .#.@. . . . .@.#.#.&.-.6.t.t.f.k.k.m.A.G.E.E.E.E.!.!.^.!.!.!.!.E.D.D.!.Y.Y.Y.D.Y.Y.G.K.G.m.m.m.m.g.g.t.6.&. ...Y a.a.a.a.a.a.a.a.a.a.a.a.a.a.a.a.a.a.a.a.a.a.a.S U _ ]  . .#.&.&.&.;.;.6.s.d.d.d.k.D.D.D.K.m.Y.R.H.G.G.G.G.G.G.m.m.g.g.g.g.g.d.d.d.t.t.6.6.1.*.@.] / / W W a.a.a.a.a.a.a.a.a.a.a.a.a.a.a.a.a.a.a.a.a.a.a.a.a.a.a.a.a.a.a.a.a.a.| 3.5.t.d.g.v.G.G.G.!.!.!.^.^.^.^.}.^.!.!.Y.Y.k.g.s.6.*.-.&.@.&.#...I a.a.a.a.a.a.a.a.a.a.a.a.a.a.a.a.a.a.a.a.a.a.a.a.a.a.a.a.a.a.a.a.a.a.a.a.a.a.a.a.a.a.a.a.a.a.a.a.a.a.a.a.a.a.a.a.a.a.a.a.a.a.a.a.a.a.a.a.a.a.a.a.a.a.a.a.a.a.a.a.a.a.a.a.a.a.a.a.a.a.a.a.a.a.a.a.a.a.a.a.a.a.a.a.a.a.a.a.a.a.a.a.a.a.a.a.a.a.a.a.a.a.a.a.a.a.a.a.a.a.a.a.a.a.a.a.a.a.a.a.a.a.a.a.a.a.a.a.a.a.a.a.a.a.a.a.a.a.a.a.a.a.a.a.a.a.a.a.a.a.a.a.a.a.a.a.a.a.a.a.a.a.a.a.a.a.a.a.a.a.a.a.a.a.a.a.a.a.a.a.a.a.a.a.a.a.a.a.a.a.a.a.a.a.a.a.a.a.a.a.a.a.a.a.a.a.a.a.a.",
"a.a.a.a.a.a.a.a.a.a.a.a.a.a.a.a.a.a.a.a.a.a.a.a.a.a.a.a.a.a.a.a.a.a.a.a.a.a.a.a.a.a.a.a.a.a.a.a.a.a.a.a.a.a.a.a.a.a.a.a.a.a.a.a.a.a.a.a.a.a.a.a.a.a.a.a.a.a.a.a.a.a.a.a.a.a.a.a.a.a.a.a.a.a.a.a.a.a.a.a.a.a.a.a.a.a.a.a.a.a.a.a.a.a.a.a.a.a.a.a.a.a.a.a.a.a.a.a.a.a.a.a.a.a.a.a.a.a.a.a.a.a.a.a.a.a.a.a.a.a.a.a.a.a.a.a.a.a.a.a.x Y U S F W W _ }  . . . .@.#.#.#.@.&.-.-.6.s.g.g.k.m.D.W.E.G.E.Y.E.!.!.Y.E.E.E.G.D.G.Y.D.k.D.k.k.k.k.m.k.j.j.g.g.g.g.t.t.-.&. ...a.a.a.a.a.a.a.a.a.a.a.a.a.a.a.a.a.a.a.a.a.a.a.S U ` }  . .#.&.#.*.;.t.t.s.s.g.g.g.v.m.v.m.k.m.A.D.A.G.G.G.G.K.G.j.g.d.d.g.g.d.y.y.t.t.5.1.1.-.#. ._ / E / a.a.a.a.a.a.a.a.a.a.a.a.a.a.a.a.a.a.a.a.a.a.a.a.a.a.a.a.a.a.a.a.a.[ *.t.y.d.g.j.A.G.E.E.^.^.^.^.}.}.(.}.^.^.^.T.T.Y.D.g.d.1.6.-.&. .@. .Q M a.a.a.a.a.a.a.a.a.a.a.a.a.a.a.a.a.a.a.a.a.a.a.a.a.a.a.a.a.a.a.a.a.a.a.a.a.a.a.a.a.a.a.a.a.a.a.a.a.a.a.a.a.a.a.a.a.a.a.a.a.a.a.a.a.a.a.a.a.a.a.a.a.a.a.a.a.a.a.a.a.a.a.a.a.a.a.a.a.a.a.a.a.a.a.a.a.a.a.a.a.a.a.a.a.a.a.a.a.a.a.a.a.a.a.a.a.a.a.a.a.a.a.a.a.a.a.a.a.a.a.a.a.a.a.a.a.a.a.a.a.a.a.a.a.a.a.a.a.a.a.a.a.a.a.a.a.a.a.a.a.a.a.a.a.a.a.a.a.a.a.a.a.a.a.a.a.a.a.a.a.a.a.a.a.a.a.a.a.a.a.a.a.a.a.a.a.a.a.a.a.a.a.a.a.a.a.a.a.a.a.a.a.a.a.a.a.a.a.a.a.a.a.a.a.a.a.a.",
"a.a.a.a.a.a.a.a.a.a.a.a.a.a.a.a.a.a.a.a.a.a.a.a.a.a.a.a.a.a.a.a.a.a.a.a.a.a.a.a.a.a.a.a.a.a.a.a.a.a.a.a.a.a.a.a.a.a.a.a.a.a.a.a.a.a.a.a.a.a.a.a.a.a.a.a.a.a.a.a.a.a.a.a.a.a.a.a.a.a.a.a.a.a.a.a.a.a.a.a.a.a.a.a.a.a.a.a.a.a.a.a.a.a.a.a.a.a.a.a.a.a.a.a.a.a.a.a.a.a.a.a.a.a.a.a.a.a.a.a.a.a.a.a.a.a.a.a.a.a.a.a.a.a.a.a.a.a.a.a.c Y S C P R W _ } } } `  . . . .@.#.#.*.-.-.t.f.s.g.k.A.K.Y.E.E.E.Y.Y.E.Y.Y.K.G.D.A.m.v.A.m.k.k.k.g.d.g.s.g.g.g.d.g.d.d.t.6.-. . .W a.a.a.a.a.a.a.a.a.a.a.a.a.a.a.a.a.a.a.a.a.a.S W _ }  . .#.#.#.-.t.t.t.s.g.g.g.g.g.v.v.g.j.g.k.k.D.A.G.J.G.D.G.m.m.d.d.d.d.d.y.t.5.t.5.4.1.*.#.@.] / / R a.a.a.a.a.a.a.a.a.a.a.a.a.a.a.a.a.a.a.a.a.a.a.a.a.a.a.a.a.a.a.a.] *.6.s.d.d.g.m.m.G.Y.T.!.^.}.(.}.}.XX}.^.(.^.^.T.Q.Y.n.g.t.6.-.4.:.`  .] Q s a.a.a.a.a.a.a.a.a.a.a.a.a.a.a.a.a.a.a.a.a.a.a.a.a.a.a.a.a.a.a.a.a.a.a.a.a.a.a.a.a.a.a.a.a.a.a.a.a.a.a.a.a.a.a.a.a.a.a.a.a.a.a.a.a.a.a.a.a.a.a.a.a.a.a.a.a.a.a.a.a.a.a.a.a.a.a.a.a.a.a.a.a.a.a.a.a.a.a.a.a.a.a.a.a.a.a.a.a.a.a.a.a.a.a.a.a.a.a.a.a.a.a.a.a.a.a.a.a.a.a.a.a.a.a.a.a.a.a.a.a.a.a.a.a.a.a.a.a.a.a.a.a.a.a.a.a.a.a.a.a.a.a.a.a.a.a.a.a.a.a.a.a.a.a.a.a.a.a.a.a.a.a.a.a.a.a.a.a.a.a.a.a.a.a.a.a.a.a.a.a.a.a.a.a.a.a.a.a.a.a.a.a.a.a.a.a.a.a.a.a.a.a.a.a.a.a.",
"a.a.a.a.a.a.a.a.a.a.a.a.a.a.a.a.a.a.a.a.a.a.a.a.a.a.a.a.a.a.a.a.a.a.a.a.a.a.a.a.a.a.a.a.a.a.a.a.a.a.a.a.a.a.a.a.a.a.a.a.a.a.a.a.a.a.a.a.a.a.a.a.a.a.a.a.a.a.a.a.a.a.a.a.a.a.a.a.a.a.a.a.a.a.a.a.a.a.a.a.a.a.a.a.a.a.a.a.a.a.a.a.a.a.a.a.a.a.a.a.a.a.a.a.a.a.a.a.a.a.a.a.a.a.a.a.a.a.a.a.a.a.a.a.a.a.a.a.a.a.a.a.a.a.a.a.a.a.a.d J I C Z P U W / ] _ _ _ } }  .}  .#.#.#.&.4.t.t.s.g.g.k.D.G.D.G.G.Y.K.K.G.D.D.k.k.D.m.D.m.m.D.D.j.Z.g.k.f.d.d.d.y.d.d.l.t.t.-.&. . .a.a.a.a.a.a.a.a.a.a.a.a.a.a.a.a.a.a.a.a.a.a.S W ` }  . .@.#.&.-.4.6.t.t.d.d.d.d.d.g.g.g.g.g.k.A.D.K.Y.K.D.D.Z.D.D.g.d.y.t.y.5.6.4.1.1.-.1.*.#.@. ./ E R a.a.a.a.a.a.a.a.a.a.a.a.a.a.a.a.a.a.a.a.a.a.a.a.a.a.a.a.a.a.a.U #.;.t.s.d.d.j.A.Y.Y.K.!.Q.!.!.^.^.^.(.}.^.^.Q.^.!.!.I.D.h.d.t.4.;.:.:.` ] ) S a.a.a.a.a.a.a.a.a.a.a.a.a.a.a.a.a.a.a.a.a.a.a.a.a.a.a.a.a.a.a.a.a.a.a.a.a.a.a.a.a.a.a.a.a.a.a.a.a.a.a.a.a.a.a.a.a.a.a.a.a.a.a.a.a.a.a.a.a.a.a.a.a.a.a.a.a.a.a.a.a.a.a.a.a.a.a.a.a.a.a.a.a.a.a.a.a.a.a.a.a.a.a.a.a.a.a.a.a.a.a.a.a.a.a.a.a.a.a.a.a.a.a.a.a.a.a.a.a.a.a.a.a.a.a.a.a.a.a.a.a.a.a.a.a.a.a.a.a.a.a.a.a.a.a.a.a.a.a.a.a.a.a.a.a.a.a.a.a.a.a.a.a.a.a.a.a.a.a.a.a.a.a.a.a.a.a.a.a.a.a.a.a.a.a.a.a.a.a.a.a.a.a.a.a.a.a.a.a.a.a.a.a.a.a.a.a.a.a.a.a.a.a.a.a.a.a.",
"a.a.a.a.a.a.a.a.a.a.a.a.a.a.a.a.a.a.a.a.a.a.a.a.a.a.a.a.a.a.a.a.a.a.a.a.a.a.a.a.a.a.a.a.a.a.a.a.a.a.a.a.a.a.a.a.a.a.a.a.a.a.a.a.a.a.a.a.a.a.a.a.a.a.a.a.a.a.a.a.a.a.a.a.a.a.a.a.a.a.a.a.a.a.a.a.a.a.a.a.a.a.a.a.a.a.a.a.a.a.a.a.a.a.a.a.a.a.a.a.a.a.a.a.a.a.a.a.a.a.a.a.a.a.a.a.a.a.a.a.a.a.a.a.a.a.a.a.a.a.a.a.a.a.a.a.a.a.a.c J S B B S U E / / / / _ } } } ` }  .@.#.&.-.4.t.s.g.g.A.D.k.D.K.D.G.D.m.k.m.m.m.A.K.A.m.m.g.k.D.D.j.V.k.k.k.k.j.t.f.d.t.d.y.t.#.@._ K a.a.a.a.a.a.a.a.a.a.a.a.a.a.a.a.a.a.a.a.a.S W } }  . .@.&.-.6.-.t.t.t.d.d.d.y.d.d.t.d.s.k.Z.D.Y.D.Y.Y.Y.D.k.D.A.k.g.d.t.y.6.1.-.-.1.*.*.*.&.#. ._ T R a.a.a.a.a.a.a.a.a.a.a.a.a.a.a.a.a.a.a.a.a.a.a.a.a.a.a.a.a.a.a. .-.t.f.s.d.d.g.g.g.k.j.D.D.Y.U.T.!.!.!.^.^.^.^.^.Q.Q.T.T.I.k.g.t.4.:.*.#./ W ] g a.a.a.a.a.a.a.a.a.a.a.a.a.a.a.a.a.a.a.a.a.a.a.a.a.a.a.a.a.a.a.a.a.a.a.a.a.a.a.a.a.a.a.a.a.a.a.a.a.a.a.a.a.a.a.a.a.a.a.a.a.a.a.a.a.a.a.a.a.a.a.a.a.a.a.a.a.a.a.a.a.a.a.a.a.a.a.a.a.a.a.a.a.a.a.a.a.a.a.a.a.a.a.a.a.a.a.a.a.a.a.a.a.a.a.a.a.a.a.a.a.a.a.a.a.a.a.a.a.a.a.a.a.a.a.a.a.a.a.a.a.a.a.a.a.a.a.a.a.a.a.a.a.a.a.a.a.a.a.a.a.a.a.a.a.a.a.a.a.a.a.a.a.a.a.a.a.a.a.a.a.a.a.a.a.a.a.a.a.a.a.a.a.a.a.a.a.a.a.a.a.a.a.a.a.a.a.a.a.a.a.a.a.a.a.a.a.a.a.a.a.a.a.a.a.a.",
"a.a.a.a.a.a.a.a.a.a.a.a.a.a.a.a.a.a.a.a.a.a.a.a.a.a.a.a.a.a.a.a.a.a.a.a.a.a.a.a.a.a.a.a.a.a.a.a.a.a.a.a.a.a.a.a.a.a.a.a.a.a.a.a.a.a.a.a.a.a.a.a.a.a.a.a.a.a.a.a.a.a.a.a.a.a.a.a.a.a.a.a.a.a.a.a.a.a.a.a.a.a.a.a.a.a.a.a.a.a.a.a.a.a.a.a.a.a.a.a.a.a.a.a.a.a.a.a.a.a.a.a.a.a.a.a.a.a.a.a.a.a.a.a.a.a.a.a.a.a.a.a.a.a.a.a.a.a.a.x S C l l S G E E / / / _ _ ] _ ] } }  .#.&.:.-.t.d.d.g.k.k.g.k.m.D.m.g.g.j.j.m.A.A.D.g.g.k.k.D.Y.U.D.Y.Y.Q.Q.Z.T.D.D.m.d.d.1.d.t.@.} Q a.a.a.a.a.a.a.a.a.a.a.a.a.a.a.a.a.a.a.a.a.S / ] }  .@.@.&.-.-.6.t.y.d.d.t.t.d.t.t.t.g.g.Z.Z.U.!.Q.!.!.Q.D.H.Z.D.A.m.g.g.y.t.1.*.#.&.*.*.&.#.#. .} T R a.a.a.a.a.a.a.a.a.a.a.a.a.a.a.a.a.a.a.a.a.a.a.a.a.a.a.a.a.a.#.l.Z.U.Y.Y.Y.A.D.k.g.h.j.k.g.k.k.k.I.D.T.Q.Q.!.^.Q.T.Q.T.T.D.j.j.s.7.&.#.*.} _ W Y a.a.a.a.a.a.a.a.a.a.a.a.a.a.a.a.a.a.a.a.a.a.a.a.a.a.a.a.a.a.a.a.a.a.a.a.a.a.a.a.a.a.a.a.a.a.a.a.a.a.a.a.a.a.a.a.a.a.a.a.a.a.a.a.a.a.a.a.a.a.a.a.a.a.a.a.a.a.a.a.a.a.a.a.a.a.a.a.a.a.a.a.a.a.a.a.a.a.a.a.a.a.a.a.a.a.a.a.a.a.a.a.a.a.a.a.a.a.a.a.a.a.a.a.a.a.a.a.a.a.a.a.a.a.a.a.a.a.a.a.a.a.a.a.a.a.a.a.a.a.a.a.a.a.a.a.a.a.a.a.a.a.a.a.a.a.a.a.a.a.a.a.a.a.a.a.a.a.a.a.a.a.a.a.a.a.a.a.a.a.a.a.a.a.a.a.a.a.a.a.a.a.a.a.a.a.a.a.a.a.a.a.a.a.a.a.a.a.a.a.a.a.a.a.a.a.",
"a.a.a.a.a.a.a.a.a.a.a.a.a.a.a.a.a.a.a.a.a.a.a.a.a.a.a.a.a.a.a.a.a.a.a.a.a.a.a.a.a.a.a.a.a.a.a.a.a.a.a.a.a.a.a.a.a.a.a.a.a.a.a.a.a.a.a.a.a.a.a.a.a.a.a.a.a.a.a.a.a.a.a.a.a.a.a.a.a.a.a.a.a.a.a.a.a.a.a.a.a.a.a.a.a.a.a.a.a.a.a.a.a.a.a.a.a.a.a.a.a.a.a.a.a.a.a.a.a.a.a.a.a.a.a.a.a.a.a.a.a.a.a.a.a.a.a.a.a.a.a.a.a.a.a.a.a.a.a.V Z l h k Z P E E E E W / _ _ _ ] } }  .@.#.-.:.6.s.d.g.d.g.g.g.g.g.g.g.g.g.g.g.d.g.g.h.Z.V.D.Y.Q.~.~./.^.!.^.^.^.Q.Q.!.E.!.D.D.k.d.6.| S a.a.a.a.a.a.a.a.a.a.a.a.a.a.a.a.a.a.a.a.F / `  . .@.#.*.-.-.5.y.y.y.t.6.6.t.t.y.g.k.V.Z.W.^.^.(.^.Q.Q.U.U.H.H.D.H.A.j.g.d.s.4.#.@.*.*.*.*.:. .] T P a.a.a.a.a.a.a.a.a.a.a.a.a.a.a.a.a.a.a.a.a.a.a.a.a.a.a.} y.G.E.^.^.^.^.^.!.!.Y.Y.D.D.k.j.g.k.k.h.h.g.k.D.I.Y.!.Q.T.!.T.I.I.h.f.d.6.;.&.#.*.E / W ] a.a.a.a.a.a.a.a.a.a.a.a.a.a.a.a.a.a.a.a.a.a.a.a.a.a.a.a.a.a.a.a.a.a.a.a.a.a.a.a.a.a.a.a.a.a.a.a.a.a.a.a.a.a.a.a.a.a.a.a.a.a.a.a.a.a.a.a.a.a.a.a.a.a.a.a.a.a.a.a.a.a.a.a.a.a.a.a.a.a.a.a.a.a.a.a.a.a.a.a.a.a.a.a.a.a.a.a.a.a.a.a.a.a.a.a.a.a.a.a.a.a.a.a.a.a.a.a.a.a.a.a.a.a.a.a.a.a.a.a.a.a.a.a.a.a.a.a.a.a.a.a.a.a.a.a.a.a.a.a.a.a.a.a.a.a.a.a.a.a.a.a.a.a.a.a.a.a.a.a.a.a.a.a.a.a.a.a.a.a.a.a.a.a.a.a.a.a.a.a.a.a.a.a.a.a.a.a.a.a.a.a.a.a.a.a.a.a.a.a.a.a.a.a.a.",
"a.a.a.a.a.a.a.a.a.a.a.a.a.a.a.a.a.a.a.a.a.a.a.a.a.a.a.a.a.a.a.a.a.a.a.a.a.a.a.a.a.a.a.a.a.a.a.a.a.a.a.a.a.a.a.a.a.a.a.a.a.a.a.a.a.a.a.a.a.a.a.a.a.a.a.a.a.a.a.a.a.a.a.a.a.a.a.a.a.a.a.a.a.a.a.a.a.a.a.a.a.a.a.a.a.a.a.a.a.a.a.a.a.a.a.a.a.a.a.a.a.a.a.a.a.a.a.a.a.a.a.a.a.a.a.a.a.a.a.a.a.a.a.a.a.a.a.a.a.a.a.a.a.a.a.a.a.a.m V C d s h C S R T T R E / / / / _ } } }  .#.*.:.6.t.t.t.d.s.g.g.d.s.d.d.d.g.d.t.t.t.g.B.I.U.I.!.!.Q.Q.L.^.~.U.U.^.!.Q.!.!.^.Q.!.Y.Y.E.J.y.1.] a.a.a.a.a.a.a.a.a.a.a.a.a.a.a.a.a.a.U / _  . .&.&.&.-.6.y.y.y.y.-.6.t.t.f.k.g.V.U.U.!.(.!.(.(.^.^.W.Q.U.U.H.H.H.G.m.A.j.y.t.*. .#.*.&.#.@.} / F V a.a.a.a.a.a.a.a.a.a.a.a.a.a.a.a.a.a.a.a.a.a.a.4.z.J.E.^.^.^.^.^.^.(.^.!.Q.Q.!.Y.Y.j.k.g.g.d.d.d.s.g.g.k.D.T.Y.Y.T.T.n.j.g.f.s.6.;.&. . . .E E W W a.a.a.a.a.a.a.a.a.a.a.a.a.a.a.a.a.a.a.a.a.a.a.a.a.a.a.a.a.a.a.a.a.a.a.a.a.a.a.a.a.a.a.a.a.a.a.a.a.a.a.a.a.a.a.a.a.a.a.a.a.a.a.a.a.a.a.a.a.a.a.a.a.a.a.a.a.a.a.a.a.a.a.a.a.a.a.a.a.a.a.a.a.a.a.a.a.a.a.a.a.a.a.a.a.a.a.a.a.a.a.a.a.a.a.a.a.a.a.a.a.a.a.a.a.a.a.a.a.a.a.a.a.a.a.a.a.a.a.a.a.a.a.a.a.a.a.a.a.a.a.a.a.a.a.a.a.a.a.a.a.a.a.a.a.a.a.a.a.a.a.a.a.a.a.a.a.a.a.a.a.a.a.a.a.a.a.a.a.a.a.a.a.a.a.a.a.a.a.a.a.a.a.a.a.a.a.a.a.a.a.a.a.a.a.a.a.a.a.a.a.a.a.a.",
"a.a.a.a.a.a.a.a.a.a.a.a.a.a.a.a.a.a.a.a.a.a.a.a.a.a.a.a.a.a.a.a.a.a.a.a.a.a.a.a.a.a.a.a.a.a.a.a.a.a.a.a.a.a.a.a.a.a.a.a.a.a.a.a.a.a.a.a.a.a.a.a.a.a.a.a.a.a.a.a.a.a.a.a.a.a.a.a.a.a.a.a.a.a.a.a.a.a.a.a.a.a.a.a.a.a.a.a.a.a.a.a.a.a.a.a.a.a.a.a.a.a.a.a.a.a.a.a.a.a.a.a.a.a.a.a.a.a.a.a.a.a.a.a.a.a.a.a.a.a.a.a.a.a.a.a.a.a.V B m s p s B S U U U U R E W W W / _ ] } }  .#.-.6.t.t.d.g.d.g.l.d.s.y.t.t.t.t.;.f.V.V.I.T.U.Q.Y.Q.^.~.^.~.~.~.Q.T.!.W.Q.!.!.!.!.^.!.!.!.!.G.G.A.7.4.a.a.a.a.a.a.a.a.a.a.a.a.a.a.a.T / _ }  .@.@.&.6.6.y.t.5.t.y.d.g.j.V.k.Z.Z.D.U.!.^.^.(.(.^.^.W.!.Q.Y.W.U.K.W.D.U.D.m.g.g.1. .#. .#.@. .} S D a.a.a.a.a.a.a.a.a.a.a.a.a.a.a.a.a.a.a.a.a.m.E.T.!.!.^.!.(.^.^.^.^.^.^.^.^.!.^.U.!.Y.U.k.g.d.d.d.s.t.t.s.k.D.Y.Y.I.I.I.j.g.d.t.t.;.&. . . .T _ T ] ] a.a.a.a.a.a.a.a.a.a.a.a.a.a.a.a.a.a.a.a.a.a.a.a.a.a.a.a.a.a.a.a.a.a.a.a.a.a.a.a.a.a.a.a.a.a.a.a.a.a.a.a.a.a.a.a.a.a.a.a.a.a.a.a.a.a.a.a.a.a.a.a.a.a.a.a.a.a.a.a.a.a.a.a.a.a.a.a.a.a.a.a.a.a.a.a.a.a.a.a.a.a.a.a.a.a.a.a.a.a.a.a.a.a.a.a.a.a.a.a.a.a.a.a.a.a.a.a.a.a.a.a.a.a.a.a.a.a.a.a.a.a.a.a.a.a.a.a.a.a.a.a.a.a.a.a.a.a.a.a.a.a.a.a.a.a.a.a.a.a.a.a.a.a.a.a.a.a.a.a.a.a.a.a.a.a.a.a.a.a.a.a.a.a.a.a.a.a.a.a.a.a.a.a.a.a.a.a.a.a.a.a.a.a.a.a.a.a.a.a.a.a.a.",
"a.a.a.a.a.a.a.a.a.a.a.a.a.a.a.a.a.a.a.a.a.a.a.a.a.a.a.a.a.a.a.a.a.a.a.a.a.a.a.a.a.a.a.a.a.a.a.a.a.a.a.a.a.a.a.a.a.a.a.a.a.a.a.a.a.a.a.a.a.a.a.a.a.a.a.a.a.a.a.a.a.a.a.a.a.a.a.a.a.a.a.a.a.a.a.a.a.a.a.a.a.a.a.a.a.a.a.a.a.a.a.a.a.a.a.a.a.a.a.a.a.a.a.a.a.a.a.a.a.a.a.a.a.a.a.a.a.a.a.a.a.a.a.a.a.a.a.a.a.a.a.a.a.a.a.a.a.a.V l n p t t m S P G F U U R E E E W / _ ] }  .#.&.-.-.t.t.y.t.t.t.t.t.6.4.-.-.t.g.k.L.U.Z.Q.U.U.Q.R.~.Q.Q.^.^.W.T.Q.(.(.Q.^.^.^.!.!.!.!.Q.Q.!.Y.W.K.G.v.v.3.a.a.a.a.a.a.a.a.a.a.a.a.U W _ }  ...#.-.5.t.5.t.y.d.j.j.k.m.D.D.H.H.Q.!.!.^.^.(.(.(.^.^.!.!.W.Q.!.Y.!.!.Q.!.E.G.m.v.g.y.@.` @.@.] J S a.a.a.a.a.a.a.a.a.a.a.a.a.a.a.a.a.] i.J.W.W.!.^.^.(.Q.(.^.^.(.^.!.^.^.^.!.!.^.!.!.Y.Y.Y.G.m.g.d.s.s.t.s.g.g.j.I.D.j.n.j.g.d.9.6.-.*. . .] / T / W  ./ a.a.a.a.a.a.a.a.a.a.a.a.a.a.a.a.a.a.a.a.a.a.a.a.a.a.a.a.a.a.a.a.a.a.a.a.a.a.a.a.a.a.a.a.a.a.a.a.a.a.a.a.a.a.a.a.a.a.a.a.a.a.a.a.a.a.a.a.a.a.a.a.a.a.a.a.a.a.a.a.a.a.a.a.a.a.a.a.a.a.a.a.a.a.a.a.a.a.a.a.a.a.a.a.a.a.a.a.a.a.a.a.a.a.a.a.a.a.a.a.a.a.a.a.a.a.a.a.a.a.a.a.a.a.a.a.a.a.a.a.a.a.a.a.a.a.a.a.a.a.a.a.a.a.a.a.a.a.a.a.a.a.a.a.a.a.a.a.a.a.a.a.a.a.a.a.a.a.a.a.a.a.a.a.a.a.a.a.a.a.a.a.a.a.a.a.a.a.a.a.a.a.a.a.a.a.a.a.a.a.a.a.a.a.a.a.a.a.a.a.a.a.",
"a.a.a.a.a.a.a.a.a.a.a.a.a.a.a.a.a.a.a.a.a.a.a.a.a.a.a.a.a.a.a.a.a.a.a.a.a.a.a.a.a.a.a.a.a.a.a.a.a.a.a.a.a.a.a.a.a.a.a.a.a.a.a.a.a.a.a.a.a.a.a.a.a.a.a.a.a.a.a.a.a.a.a.a.a.a.a.a.a.a.a.a.a.a.a.a.a.a.a.a.a.a.a.a.a.a.a.a.a.a.a.a.a.a.a.a.a.a.a.a.a.a.a.a.a.a.a.a.a.a.a.a.a.a.a.a.a.a.a.a.a.a.a.a.a.a.a.a.a.a.a.a.a.a.a.a.a.a.l l l t 9 t l Z F F S F G U T T R E / / _ _ } @.#.&.&.4.t.t.t.t.6.6.-.-.&.t.y.g.V.Z.C.L.R.U.!.~.Q.Q.(.^.^.!.^.^.^.^.^.^.^.^.).^.!.!.W.Y.!.Q.!.Q.^.Y.Y.D.D.K.g.v.d.2.a.a.a.a.a.a.a.D U W ] }  ...1.5.t.t.t.g.m.D.D.G.D.D.H.H.Y.W.W.!.^.(.(.(.^.!.(.!.!.!.W.!.!.W.Y.!.!.!.!.!.Y.J.G.G.v.t.4.} _ U m a.a.a.a.a.a.a.a.a.a.a.a.a.a.a.#.y.A.E.^.^.!.^.(.^.^.^.^.^.^.^.^.!.Q.^.Q.Q.Q.^.!.Y.Q.Y.E.Y.G.A.k.g.d.s.s.t.s.s.g.j.k.j.g.f.d.t.6.-.*.#.} ] / U / W _ _ W a.a.a.a.a.a.a.a.a.a.a.a.a.a.a.a.a.a.a.a.a.a.a.a.a.a.a.a.a.a.a.a.a.a.a.a.a.a.a.a.a.a.a.a.a.a.a.a.a.a.a.a.a.a.a.a.a.a.a.a.a.a.a.a.a.a.a.a.a.a.a.a.a.a.a.a.a.a.a.a.a.a.a.a.a.a.a.a.a.a.a.a.a.a.a.a.a.a.a.a.a.a.a.a.a.a.a.a.a.a.a.a.a.a.a.a.a.a.a.a.a.a.a.a.a.a.a.a.a.a.a.a.a.a.a.a.a.a.a.a.a.a.a.a.a.a.a.a.a.a.a.a.a.a.a.a.a.a.a.a.a.a.a.a.a.a.a.a.a.a.a.a.a.a.a.a.a.a.a.a.a.a.a.a.a.a.a.a.a.a.a.a.a.a.a.a.a.a.a.a.a.a.a.a.a.a.a.a.a.a.a.a.a.a.a.a.a.a.a.a.a.",
"a.a.a.a.a.a.a.a.a.a.a.a.a.a.a.a.a.a.a.a.a.a.a.a.a.a.a.a.a.a.a.a.a.a.a.a.a.a.a.a.a.a.a.a.a.a.a.a.a.a.a.a.a.a.a.a.a.a.a.a.a.a.a.a.a.a.a.a.a.a.a.a.a.a.a.a.a.a.a.a.a.a.a.a.a.a.a.a.a.a.a.a.a.a.a.a.a.a.a.a.a.a.a.a.a.a.a.a.a.a.a.a.a.a.a.a.a.a.a.a.a.a.a.a.a.a.a.a.a.a.a.a.a.a.a.a.a.a.a.a.a.a.a.a.a.a.a.a.a.a.a.a.a.a.a.a.a.a.l k h 9 8 9 d C S S S F F G G U T R E / / ` }  .@.@.&.-.6.6.6.6.-.&.&.-.t.g.k.k.k.Z.W.W.R.W.C.Z.L.~.~.~.^.^.^.(.^.^.^.^.(.^.^.^.^.!.W.Q.!.!.Y.T.Q.!.!.W.Q.U.Y.H.G.m.g.y.<.>.a.a.a.C T W _ }  .#.5.5.d.g.m.A.G.K.D.H.G.D.H.H.K.U.W.^.^.Q.^.^.!.Q.^.Y.!.Q.~.W.Q.!.!.^.!.!.Y.^.W.W.W.J.J.A.v.d.4.] J p a.a.a.a.a.a.a.a.a.a.a.*.y.m.G.Y.!.!.^.^.^.^.^.^.(.(.^.^.Q.U.U.U.Q.Q.Q.!.Q.Y.Q.U.!.!.Y.Y.Y.Y.Z.k.k.g.d.d.s.t.s.s.g.j.g.g.d.t.6.-.*.#.} ] / G E R / _ W ] a.a.a.a.a.a.a.a.a.a.a.a.a.a.a.a.a.a.a.a.a.a.a.a.a.a.a.a.a.a.a.a.a.a.a.a.a.a.a.a.a.a.a.a.a.a.a.a.a.a.a.a.a.a.a.a.a.a.a.a.a.a.a.a.a.a.a.a.a.a.a.a.a.a.a.a.a.a.a.a.a.a.a.a.a.a.a.a.a.a.a.a.a.a.a.a.a.a.a.a.a.a.a.a.a.a.a.a.a.a.a.a.a.a.a.a.a.a.a.a.a.a.a.a.a.a.a.a.a.a.a.a.a.a.a.a.a.a.a.a.a.a.a.a.a.a.a.a.a.a.a.a.a.a.a.a.a.a.a.a.a.a.a.a.a.a.a.a.a.a.a.a.a.a.a.a.a.a.a.a.a.a.a.a.a.a.a.a.a.a.a.a.a.a.a.a.a.a.a.a.a.a.a.a.a.a.a.a.a.a.a.a.a.a.a.a.a.a.a.a.",
"a.a.a.a.a.a.a.a.a.a.a.a.a.a.a.a.a.a.a.a.a.a.a.a.a.a.a.a.a.a.a.a.a.a.a.a.a.a.a.a.a.a.a.a.a.a.a.a.a.a.a.a.a.a.a.a.a.a.a.a.a.a.a.a.a.a.a.a.a.a.a.a.a.a.a.a.a.a.a.a.a.a.a.a.a.a.a.a.a.a.a.a.a.a.a.a.a.a.a.a.a.a.a.a.a.a.a.a.a.a.a.a.a.a.a.a.a.a.a.a.a.a.a.a.a.a.a.a.a.a.a.a.a.a.a.a.a.a.a.a.a.a.a.a.a.a.a.a.a.a.a.a.a.a.a.a.a.a.k h s 8 8 8 s B Z C Z S F F F F U T E E W / ] }  .@.*.*.6.6.6.6.&.&.-.t.g.g.V.V.W.U.L.U.L.R.C.W.W.W.~.(./.^.(./.^.^.(.^.(.(.Q.^.^.^.Q.Q.U.!.!.^.!.^.E.!.Y.U.!.Y.W.K.A.m.m.A.z.d.t.1.-.t.5.t.y.d.t.g.m.m.G.E.W.!.H.H.K.Y.W.H.K.U.!.!.!.Q.W.!.!.!.!.!.W.W.W.U.Y.W.Y.W.!.!.E.K.Y.Y.E.E.K.E.J.G.m.d.y.<.] B a.a.a.a.a.a.1.z.A.v.A.E.W.!.^.~.^.!.^.}.}.}.(.^.^.Q.!.Q.Y.U.U.U.^.U.!.Q.Q.Y.!.!.!.!.Y.Y.U.D.k.k.g.d.d.t.t.t.s.k.g.d.s.6.-.:.&. .} / W U T E E _ E ] a.a.a.a.a.a.a.a.a.a.a.a.a.a.a.a.a.a.a.a.a.a.a.a.a.a.a.a.a.a.a.a.a.a.a.a.a.a.a.a.a.a.a.a.a.a.a.a.a.a.a.a.a.a.a.a.a.a.a.a.a.a.a.a.a.a.a.a.a.a.a.a.a.a.a.a.a.a.a.a.a.a.a.a.a.a.a.a.a.a.a.a.a.a.a.a.a.a.a.a.a.a.a.a.a.a.a.a.a.a.a.a.a.a.a.a.a.a.a.a.a.a.a.a.a.a.a.a.a.a.a.a.a.a.a.a.a.a.a.a.a.a.a.a.a.a.a.a.a.a.a.a.a.a.a.a.a.a.a.a.a.a.a.a.a.a.a.a.a.a.a.a.a.a.a.a.a.a.a.a.a.a.a.a.a.a.a.a.a.a.a.a.a.a.a.a.a.a.a.a.a.a.a.a.a.a.a.a.a.a.a.a.a.a.a.a.a.a.a.a.",
"a.a.a.a.a.a.a.a.a.a.a.a.a.a.a.a.a.a.a.a.a.a.a.a.a.a.a.a.a.a.a.a.a.a.a.a.a.a.a.a.a.a.a.a.a.a.a.a.a.a.a.a.a.a.a.a.a.a.a.a.a.a.a.a.a.a.a.a.a.a.a.a.a.a.a.a.a.a.a.a.a.a.a.a.a.a.a.a.a.a.a.a.a.a.a.a.a.a.a.a.a.a.a.a.a.a.a.a.a.a.a.a.a.a.a.a.a.a.a.a.a.a.a.a.a.a.a.a.a.a.a.a.a.a.a.a.a.a.a.a.a.a.a.a.a.a.a.a.a.a.a.a.a.a.a.a.a.a.s s p 8 5 5 t l C C C Z C S F F G T R E E / _ _  . .#.&.-.&.&.#.@.-.t.s.k.k.k.Z.H.Z.Z.C.C.L.L.L.R.W.~.~.^.Q.(.(.(.).(.(.(.^.Q.^.R.~.W.Q.W.R.Q.W.Y.!.!.Y.E.E.^.E.!.!.!.!.G.E.G.k.g.j.j.k.m.A.A.G.K.Y.K.E.!.!.E.Y.W.W.W.U.H.D.H.U.Q.W.!.!.!.^.!.W.Y.W.H.W.W.Y.W.W.W.^.W.E.W.W.W.W.^.!.!.E.Y.W.D.E.E.G.G.m.m.A.v.m.G.E.G.Y.H.v.A.!.^.^.^.^.}.^.(.^.^.^.^.^.^.!.Y.T.Q.Y.U.D.D.!.Y.Q.Q.Y.^.!.^.!.Q.Q.Q.U.Y.I.k.y.t.t.t.;.t.s.s.d.s.6.6.-.&. .] / W U U Z U W _ E ] a.a.a.a.a.a.a.a.a.a.a.a.a.a.a.a.a.a.a.a.a.a.a.a.a.a.a.a.a.a.a.a.a.a.a.a.a.a.a.a.a.a.a.a.a.a.a.a.a.a.a.a.a.a.a.a.a.a.a.a.a.a.a.a.a.a.a.a.a.a.a.a.a.a.a.a.a.a.a.a.a.a.a.a.a.a.a.a.a.a.a.a.a.a.a.a.a.a.a.a.a.a.a.a.a.a.a.a.a.a.a.a.a.a.a.a.a.a.a.a.a.a.a.a.a.a.a.a.a.a.a.a.a.a.a.a.a.a.a.a.a.a.a.a.a.a.a.a.a.a.a.a.a.a.a.a.a.a.a.a.a.a.a.a.a.a.a.a.a.a.a.a.a.a.a.a.a.a.a.a.a.a.a.a.a.a.a.a.a.a.a.a.a.a.a.a.a.a.a.a.a.a.a.a.a.a.a.a.a.a.a.a.a.a.a.a.a.a.a.",
"a.a.a.a.a.a.a.a.a.a.a.a.a.a.a.a.a.a.a.a.a.a.a.a.a.a.a.a.a.a.a.a.a.a.a.a.a.a.a.a.a.a.a.a.a.a.a.a.a.a.a.a.a.a.a.a.a.a.a.a.a.a.a.a.a.a.a.a.a.a.a.a.a.a.a.a.a.a.a.a.a.a.a.a.a.a.a.a.a.a.a.a.a.a.a.a.a.a.a.a.a.a.a.a.a.a.a.a.a.a.a.a.a.a.a.a.a.a.a.a.a.a.a.a.a.a.a.a.a.a.a.a.a.a.a.a.a.a.a.a.a.a.a.a.a.a.a.a.a.a.a.a.a.a.a.a.a.a.t t p 6 , , 7 k B B B C C Z F F U T T E E / / _ } @.#.#.#.#.#.@.&.6.y.g.k.k.H.H.Z.C.W.Q.W.R.U.~.W.R.~.^.Q.Q.~.(. X X(.(.^.^.Q.!.W.W.!.Q.^.^.!.Q.W.W.!.Y.^.!.!.!.!.!.!.!.E.!.K.K.A.m.D.A.G.G.E.E.!.!.!.!.^.!.!.E.E.K.H.D.K.U.U.Y.W.W.!.W.!.^.^.!.!.Y.Y.!.W.E.K.Y.E.E.Y.E.G.W.W.E.}.!.!.E.Y.!.W.E.E.E.E.G.A.G.G.E.E.W.W.!.Y.!.!.!.^.}.!.^.}.^.}.^.}.^.(.(.!.^.^.Q.T.I.Z.U.U.T.U.~.Q.!.!.^.^.^.!.^.Q.Y.Y.D.D.j.d.t.6.6.-.t.t.t.6.;.-.&.&...} / W U S S S W T T ] W a.a.a.a.a.a.a.a.a.a.a.a.a.a.a.a.a.a.a.a.a.a.a.a.a.a.a.a.a.a.a.a.a.a.a.a.a.a.a.a.a.a.a.a.a.a.a.a.a.a.a.a.a.a.a.a.a.a.a.a.a.a.a.a.a.a.a.a.a.a.a.a.a.a.a.a.a.a.a.a.a.a.a.a.a.a.a.a.a.a.a.a.a.a.a.a.a.a.a.a.a.a.a.a.a.a.a.a.a.a.a.a.a.a.a.a.a.a.a.a.a.a.a.a.a.a.a.a.a.a.a.a.a.a.a.a.a.a.a.a.a.a.a.a.a.a.a.a.a.a.a.a.a.a.a.a.a.a.a.a.a.a.a.a.a.a.a.a.a.a.a.a.a.a.a.a.a.a.a.a.a.a.a.a.a.a.a.a.a.a.a.a.a.a.a.a.a.a.a.a.a.a.a.a.a.a.a.a.a.a.a.a.a.a.a.a.a.a.",
"a.a.a.a.a.a.a.a.a.a.a.a.a.a.a.a.a.a.a.a.a.a.a.a.a.a.a.a.a.a.a.a.a.a.a.a.a.a.a.a.a.a.a.a.a.a.a.a.a.a.a.a.a.a.a.a.a.a.a.a.a.a.a.a.a.a.a.a.a.a.a.a.a.a.a.a.a.a.a.a.a.a.a.a.a.a.a.a.a.a.a.a.a.a.a.a.a.a.a.a.a.a.a.a.a.a.a.a.a.a.a.a.a.a.a.a.a.a.a.a.a.a.a.a.a.a.a.a.a.a.a.a.a.a.a.a.a.a.a.a.a.a.a.a.a.a.a.a.a.a.a.a.a.a.a.a.a.a.9 8 t 5 > - , s l l n B C C S S G U T R T E E / _ }  .@.@.@. .#.6.d.g.g.Z.Z.Z.Z.T.T.~.U.U.R.R.U.Q.U.C.U.U.^.^.}. X(.}.(.^.(.^.Q.W.Q.Q.!.Y.^.^.^.^.^.!.!.!.!.!.!.W.!.!.E.W.W.Y.K.K.K.G.m.K.J.E.!.!.^.^.!.W.!.E.W.E.E.D.A.D.D.U.Y.W.W.~.W.!.!.!.!.!.Y.E.W.E.E.Y.G.D.K.E.!.K.K.J.A.E.W.J.!.J.E.E.E.E.G.K.E.K.W.E.!.E.!.!.!.!.^.^.^.^.^.^.^.(.^.}.^.^.^.^.^.^.^.^.!.Q.U.D.D.D.D.Y.T.Q.Q.Q.Q.!.!.!.!.^.!.!.Y.D.j.g.t.6.6.-.6.5.6.6.-.:.*.&...] / R U A S C P U F E ] a.a.a.a.a.a.a.a.a.a.a.a.a.a.a.a.a.a.a.a.a.a.a.a.a.a.a.a.a.a.a.a.a.a.a.a.a.a.a.a.a.a.a.a.a.a.a.a.a.a.a.a.a.a.a.a.a.a.a.a.a.a.a.a.a.a.a.a.a.a.a.a.a.a.a.a.a.a.a.a.a.a.a.a.a.a.a.a.a.a.a.a.a.a.a.a.a.a.a.a.a.a.a.a.a.a.a.a.a.a.a.a.a.a.a.a.a.a.a.a.a.a.a.a.a.a.a.a.a.a.a.a.a.a.a.a.a.a.a.a.a.a.a.a.a.a.a.a.a.a.a.a.a.a.a.a.a.a.a.a.a.a.a.a.a.a.a.a.a.a.a.a.a.a.a.a.a.a.a.a.a.a.a.a.a.a.a.a.a.a.a.a.a.a.a.a.a.a.a.a.a.a.a.a.a.a.a.a.a.a.a.a.a.a.a.a.a.a.",
"a.a.a.a.a.a.a.a.a.a.a.a.a.a.a.a.a.a.a.a.a.a.a.a.a.a.a.a.a.a.a.a.a.a.a.a.a.a.a.a.a.a.a.a.a.a.a.a.a.a.a.a.a.a.a.a.a.a.a.a.a.a.a.a.a.a.a.a.a.a.a.a.a.a.a.a.a.a.a.a.a.a.a.a.a.a.a.a.a.a.a.a.a.a.a.a.a.a.a.a.a.a.a.a.a.a.a.a.a.a.a.a.a.a.a.a.a.a.a.a.a.a.a.a.a.a.a.a.a.a.a.a.a.a.a.a.a.a.a.a.a.a.a.a.a.a.a.a.a.a.a.a.a.a.a.a.a.a.7 8 9 5 , - ; r l k l m B C C S G G U T T E E / _ }  . . . .@.1.t.d.g.k.B.k.L.Q.Q.!.~.R.R.W.U.Z.Z.H.U.~.!.^.!.^.^.^.^.^.^.^.^.!.W.!.W.!.!.^.Y.!.!.!.T.!.!.!.!.!.W.W.W.!.W.W.W.K.E.Y.Y.G.G.G.Y.!.W.W.E.W.!.W.E.K.G.G.m.m.D.D.Y.Y.D.Y.Y.Y.Q.!.!.!.!.E.!.Y.K.E.E.E.K.E.W.Y.K.E.E.A.K.J.W.W.G.E.E.E.E.E.E.K.E.W.E.!.!.W.^.}.^.!.^.^.^.{.^.^.^.^.^.^.^.^.(.^.^.Q.^.Y.Y.Y.Y.k.k.g.D.D.Q.Y.!.Q.Q.!.!.Q.!.Q.Q.Y.Y.n.g.t.t.6.*.-.4.6.4.:.:.*.#. .] / E U S A B Z F F U ] Y a.a.a.a.a.a.a.a.a.a.a.a.a.a.a.a.a.a.a.a.a.a.a.a.a.a.a.a.a.a.a.a.a.a.a.a.a.a.a.a.a.a.a.a.a.a.a.a.a.a.a.a.a.a.a.a.a.a.a.a.a.a.a.a.a.a.a.a.a.a.a.a.a.a.a.a.a.a.a.a.a.a.a.a.a.a.a.a.a.a.a.a.a.a.a.a.a.a.a.a.a.a.a.a.a.a.a.a.a.a.a.a.a.a.a.a.a.a.a.a.a.a.a.a.a.a.a.a.a.a.a.a.a.a.a.a.a.a.a.a.a.a.a.a.a.a.a.a.a.a.a.a.a.a.a.a.a.a.a.a.a.a.a.a.a.a.a.a.a.a.a.a.a.a.a.a.a.a.a.a.a.a.a.a.a.a.a.a.a.a.a.a.a.a.a.a.a.a.a.a.a.a.a.a.a.a.a.a.a.a.a.a.a.a.a.a.a.",
"a.a.a.a.a.a.a.a.a.a.a.a.a.a.a.a.a.a.a.a.a.a.a.a.a.a.a.a.a.a.a.a.a.a.a.a.a.a.a.a.a.a.a.a.a.a.a.a.a.a.a.a.a.a.a.a.a.a.a.a.a.a.a.a.a.a.a.a.a.a.a.a.a.a.a.a.a.a.a.a.a.a.a.a.a.a.a.a.a.a.a.a.a.a.a.a.a.a.a.a.a.a.a.a.a.a.a.a.a.a.a.a.a.a.a.a.a.a.a.a.a.a.a.a.p.a.a.a.a.a.a.a.a.a.a.a.a.a.a.a.a.a.a.a.a.a.a.a.a.a.a.a.a.a.a.a.a.a.6 3 8 6 - - - < h k l l m B C Z F G P U T E T E /  . .}  .#.-.t.s.g.D.D.U.U.Q.R.U.^.^.(.Q.H.H.H.U.W.U.R.U.^.!.(.(.(.}.(. X(.^.!.W.Q.Q.W.Q.!.^.^.^.^.^.Q.^.!.!.{.^.^.^.!.W.E.!.E.E.K.Y.D.G.A.D.W.W.E.E.E.Y.Y.K.G.A.k.m.m.D.D.D.Y.Y.Y.!.Y.!.Y.Y.W.!.E.E.E.G.G.G.G.A.A.G.D.G.A.J.G.E.J.J.G.K.E.E.Y.E.Y.E.E.!.W.E.W.E.{.W.E.{.!.!.!.!.!.{.{.{.^.^.}.^.^.^.!.^.!.^.Q.^.Y.Y.Y.D.k.Z.D.Q.!.!.!.Q.Y.!.!.!.Q.!.!.Y.n.g.d.d.6.*.*.1.6.-.*.*.#.#. .} / U F C B l C Z Z G W W a.a.a.a.a.a.a.a.a.a.a.a.a.a.a.a.a.a.a.a.a.a.a.a.a.a.a.a.a.a.a.a.a.a.a.a.a.a.a.a.a.a.a.a.a.a.a.a.a.a.a.a.a.a.a.a.a.a.a.a.a.a.a.a.a.a.a.a.a.a.a.a.a.a.a.a.a.a.a.a.a.a.a.a.a.a.a.a.a.a.a.a.a.a.a.a.a.a.a.a.a.a.a.a.a.a.a.a.a.a.a.a.a.a.a.a.a.a.a.a.a.a.a.a.a.a.a.a.a.a.a.a.a.a.a.a.a.a.a.a.a.a.a.a.a.a.a.a.a.a.a.a.a.a.a.a.a.a.a.a.a.a.a.a.a.a.a.a.a.a.a.a.a.a.a.a.a.a.a.a.a.a.a.a.a.a.a.a.a.a.a.a.a.a.a.a.a.a.a.a.a.a.a.a.a.a.a.a.a.a.a.a.a.a.a.a.a.",
"a.a.a.a.a.a.a.a.a.a.a.a.a.a.a.a.a.a.a.a.a.a.a.a.a.a.a.a.a.a.a.a.a.a.a.a.a.a.a.a.a.a.a.a.a.a.a.a.a.a.a.a.a.a.a.a.a.a.a.a.a.a.a.a.a.a.a.a.a.a.a.a.a.a.a.a.a.a.a.a.a.a.a.a.a.a.a.a.a.a.a.a.a.a.a.a.a.a.a.a.a.a.a.a.a.a.a.a.a.a.a.] d.d.3.*.<.U a.a.a.a.a.a.a.a.a.a.a.a.a.a.a.a.a.a.a.a.a.a.a.a.a.a.a.a.a.a.a.a.a.a.a.a.a.a.a.a.a., 5 8 , & & - t h h k n B B C S F G U T R R T / } }  . .#.5.5.t.d.g.k.W.W.^.^.^.^.(.^.U.R.Q.U.U.U.U.R.R.!.!.^.^.^.}.^.^.^.^.!.W.W.W.W.Q.!.!.^.Q.^.^.^.!.!.!.!.{.^.{.!.W.W.!.E.W.Y.D.Y.D.A.Z.K.U.W.H.Y.Y.Y.D.D.D.D.H.D.D.D.D.G.D.Y.Y.!.W.Y.W.W.W.G.A.G.J.m.A.A.G.J.G.G.J.G.G.J.G.J.E.G.Y.Y.W.E.E.E.!.!.E.E.!.E.E.E.E.W.^.{.^.!.^.!.{.{.}.(.^.(.^.!.^.^.!.Y.Q.^.^.!.^.D.D.Y.Y.D.A.Y.Y.D.Y.!.Q.!.Q.Q.Q.Y.I.m.g.d.t.t.6.*.*.-.1.-.#.#... .] / R S B l l m V C F W U D a.a.a.a.a.a.a.a.a.a.a.a.a.a.a.a.a.a.a.a.a.a.a.a.a.a.a.a.a.a.a.a.a.a.a.a.a.a.a.a.a.a.a.a.a.a.a.a.a.a.a.a.a.a.a.a.a.a.a.a.a.a.a.a.a.a.a.a.a.a.a.a.a.a.a.a.a.a.a.a.a.a.a.a.a.a.a.a.a.a.a.a.a.a.a.a.a.a.a.a.a.a.a.a.a.a.a.a.a.a.a.a.a.a.a.a.a.a.a.a.a.a.a.a.a.a.a.a.a.a.a.a.a.a.a.a.a.a.a.a.a.a.a.a.a.a.a.a.a.a.a.a.a.a.a.a.a.a.a.a.a.a.a.a.a.a.a.a.a.a.a.a.a.a.a.a.a.a.a.a.a.a.a.a.a.a.a.a.a.a.a.a.a.a.a.a.a.a.a.a.a.a.a.a.a.a.a.a.a.a.a.a.a.a.a.a.",
"a.a.a.a.a.a.a.a.a.a.a.a.a.a.a.a.a.a.a.a.a.a.a.a.a.a.a.a.a.a.a.a.a.a.a.a.a.a.a.a.a.a.a.a.a.a.a.a.a.a.a.a.a.a.a.a.a.a.a.a.a.a.a.a.a.a.a.a.a.a.a.a.a.a.a.a.a.a.a.a.a.a.a.a.a.a.a.a.a.a.a.a.a.a.a.a.a.a.a.a.a.a.a.a.a.a.a.@.4.t.g.m.G.Y.!.^.Y.m.M.5.a.a.a.a.a.a.a.a.a.a.a.a.a.a.a.a.a.a.a.a.a.a.a.a.a.a.a.a.a.a.a.a.a.a.a.a.a.a.a.- ; 8 5 : & $ 5 p d l l n m B S F S G U T T T / } } } #.-.4.y.g.D.Y.!./.!.(.(.(.(.^.^.U.W.Q.Y.H.W.H.H.W.W.W.!.(.(.(.!.^.^.(.Q.W.W.W.W.Q.!.!.^.!.!.!.!.Q.^.!.^.{.!.E.^.^.!.!.E.!.Y.Y.Y.K.K.H.H.H.H.D.K.Y.Y.Y.D.D.Y.Y.D.D.D.K.K.G.Y.E.Y.Y.Y.E.E.J.G.K.K.K.G.A.G.G.G.A.J.G.E.G.m.m.A.G.G.E.Y.Y.K.E.E.E.E.!.E.E.K.!.K.J.J.!.^.^.!.!.!.{.!.!.!.!.W.!.E.!.!.^.^.!.!.^.!.!.!.!.Y.D.D.Y.Y.Y.Y.Y.Y.Y.Q.Y.Y.Y.U.Y.D.g.d.t.6.6.*.&.#.*.*.#..... .] _ U C B s h l m B A E S J a.a.a.a.a.a.a.a.a.a.a.a.a.a.a.a.a.a.a.a.a.a.a.a.a.a.a.a.a.a.a.a.a.a.a.a.a.a.a.a.a.a.a.a.a.a.a.a.a.a.a.a.a.a.a.a.a.a.a.a.a.a.a.a.a.a.a.a.a.a.a.a.a.a.a.a.a.a.a.a.a.a.a.a.a.a.a.a.a.a.a.a.a.a.a.a.a.a.a.a.a.a.a.a.a.a.a.a.a.a.a.a.a.a.a.a.a.a.a.a.a.a.a.a.a.a.a.a.a.a.a.a.a.a.a.a.a.a.a.a.a.a.a.a.a.a.a.a.a.a.a.a.a.a.a.a.a.a.a.a.a.a.a.a.a.a.a.a.a.a.a.a.a.a.a.a.a.a.a.a.a.a.a.a.a.a.a.a.a.a.a.a.a.a.a.a.a.a.a.a.a.a.a.a.a.a.a.a.a.a.a.a.a.a.a.a.",
"a.a.a.a.a.a.a.a.a.a.a.a.a.a.a.a.a.a.a.a.a.a.a.a.a.a.a.a.a.a.a.a.a.a.a.a.a.a.a.a.a.a.a.a.a.a.a.a.a.a.a.a.a.a.a.a.a.a.a.a.a.a.a.a.a.a.a.a.a.a.a.a.a.a.a.a.a.a.a.a.a.a.a.a.a.a.a.a.a.a.a.a.a.a.a.a.a.a.a.a.a.a.a.a.T 5.d.t.D.k.D.Y.^.(. X^.W.!.D.m.g.*.a.a.a.a.a.a.a.a.a.a.a.a.a.a.a.a.a.a.a.a.a.a.a.a.a.a.a.a.a.a.a.a.a.a.a.a.a.- * < 7 < & o > t s h d l l B A S S F G U U U / _ }  .-.4.t.y.g.D.Y.Y.!.}.(.(.(.(.Q.Q.!.H.Z.Z.k.k.Z.Z.Z.H.U.!.!.^.^.!.}.^.^.!.Q.Q.U.U.Y.Y.T.!.!.Q.Q.!.Q.^.E.^.E.!.^.E.!.!.!.!.!.Y.!.!.Q.H.D.H.H.U.H.Y.Y.E.Y.U.Y.Y.U.D.G.D.Y.Y.Y.Y.D.D.J.E.E.Y.A.K.W.K.K.G.A.K.G.E.A.G.J.G.K.K.J.G.G.A.Y.E.K.Y.E.K.E.!.E.E.J.E.!.J.E.!.!.^.W.^.{.{.{.^.^.!.!.!.!.E.W.!.W.E.!.!.!.!.!.Y.W.!.^.K.Y.D.E.Y.!.Q.Y.Y.Y.Q.!.Y.D.k.j.d.t.t.6.*.#.#.#.#.#. . .} ] W G C B s p s x c C G S J a.a.a.a.a.a.a.a.a.a.a.a.a.a.a.a.a.a.a.a.a.a.a.a.a.a.a.a.a.a.a.a.a.a.a.a.a.a.a.a.a.a.a.a.a.a.a.a.a.a.a.a.a.a.a.a.a.a.a.a.a.a.a.a.a.a.a.a.a.a.a.a.a.a.a.a.a.a.a.a.a.a.a.a.a.a.a.a.a.a.a.a.a.a.a.a.a.a.a.a.a.a.a.a.a.a.a.a.a.a.a.a.a.a.a.a.a.a.a.a.a.a.a.a.a.a.a.a.a.a.a.a.a.a.a.a.a.a.a.a.a.a.a.a.a.a.a.a.a.a.a.a.a.a.a.a.a.a.a.a.a.a.a.a.a.a.a.a.a.a.a.a.a.a.a.a.a.a.a.a.a.a.a.a.a.a.a.a.a.a.a.a.a.a.a.a.a.a.a.a.a.a.a.a.a.a.a.a.a.a.a.a.a.a.a.a.",
"a.a.a.a.a.a.a.a.a.a.a.a.a.a.a.a.a.a.a.a.a.a.a.a.a.a.a.a.a.a.a.a.a.a.a.a.a.a.a.a.a.a.a.a.a.a.a.a.a.a.a.a.a.a.a.a.a.a.a.a.a.a.a.a.a.a.a.a.a.a.a.a.a.a.a.a.a.a.a.a.a.a.a.a.a.a.a.a.a.a.a.a.a.a.a.a.a.a.a.a.a.a.} d.k.h.h.W.D.Y.!.}.OX^.^.Q.!.!.H.A.D.g.1.R a.a.a.a.a.a.a.a.a.a.a.a.a.a.a.a.a.a.a.a.a.a.a.a.a.a.a.a.a.a.a.a.a.a.a.a.& & 1 5 = o o 8 t s h k l n C S S S P G G U W _  .1.-.t.d.g.K.!.^.}.(.}.}.(.(.(.~.^.W.W.U.Z.k.k.V.V.k.D.W.Q.W.(.(.!.(.(.^.^.Q.Q.U.W.Y.Y.U.Y.!.Q.Q.!.^.!.!.!.^.!.E.!.!.!.E.!.!.!.Y.!.U.U.U.U.H.W.Y.U.!.Y.Y.U.U.D.D.D.D.G.Y.E.E.E.G.E.!.E.!.E.K.W.W.^.E.G.K.G.J.G.m.E.J.A.A.G.G.G.W.G.E.E.K.Y.!.E.E.E.E.[.E.E.W.G.J.E.K.!.!.^.!.!.!.!.^.^.!.!.!.!.E.W.E.Y.Y.!.!.!.!.!.!.!.Y.E.Y.G.E.D.!.!.!.D.Y.Y.Y.D.k.j.g.d.t.t.6.-.#. . .@. .} } } ] / G B k t t s j l B F C B g a.a.a.a.a.a.a.a.a.a.a.a.a.a.a.a.a.a.a.a.a.a.a.a.a.a.a.a.a.a.a.a.a.a.a.a.a.a.a.a.a.a.a.a.a.a.a.a.a.a.a.a.a.a.a.a.a.a.a.a.a.a.a.a.a.a.a.a.a.a.a.a.a.a.a.a.a.a.a.a.a.a.a.a.a.a.a.a.a.a.a.a.a.a.a.a.a.a.a.a.a.a.a.a.a.a.a.a.a.a.a.a.a.a.a.a.a.a.a.a.a.a.a.a.a.a.a.a.a.a.a.a.a.a.a.a.a.a.a.a.a.a.a.a.a.a.a.a.a.a.a.a.a.a.a.a.a.a.a.a.a.a.a.a.a.a.a.a.a.a.a.a.a.a.a.a.a.a.a.a.a.a.a.a.a.a.a.a.a.a.a.a.a.a.a.a.a.a.a.a.a.a.a.a.a.a.a.a.a.a.a.a.a.a.a.",
"a.a.a.a.a.a.a.a.a.a.a.a.a.a.a.a.a.a.a.a.a.a.a.a.a.a.a.a.a.a.a.a.a.a.a.a.a.a.a.a.a.a.a.a.a.a.a.a.a.a.a.a.a.a.a.a.a.a.a.a.a.a.a.a.a.a.a.a.a.a.a.a.a.a.a.a.a.a.a.a.a.a.a.a.a.a.a.a.a.a.a.a.a.a.a.a.a.a.a.a.6.g.g.h.t.k.V.V.W.!.OX#XY.E.^.^.}.XX}.}.^.!.d.v.1.a.a.a.a.a.a.a.a.a.a.a.a.a.a.a.a.a.a.a.a.a.a.a.a.a.a.a.a.a.a.a.a.a.a.a.# o & < : o . 1 t s s h h l C Z S S G U U R / ] #.y.g.g.m.G.Y.!.(. X(.(. X(.(.(.Q.Q.Y.Y.D.V.k.k.V.k.Z.D.U.Y.^.^.^.^. X^.^.}.(.(.!.Q.!.W.W.H.Y.Y.Y.!.Y.!.!.!.!.^.E.W.!.!.!.Y.!.!.Y.Y.Y.Q.Y.Y.!.Y.!.Y.Y.D.Y.Y.Y.D.D.D.D.G.K.Y.Y.E.W.Y.!.E.!.!.Y.E.E.!.E.E.!.E.J.J.G.A.m.G.m.Y.Y.G.K.E.Y.E.Y.!.!.!.E.E.E.E.J.J.E.J.E.E.E.G.E.!.!.!.{.{.^.!.{.^.!.!.!.!.!.!.!.^.!.E.Y.!.!.!.!.!.!.Y.!.Y.D.K.Y.D.D.D.D.D.D.k.d.d.t.t.6.*. . . .}  .} } [ ] W S l s 8 8 t s s l A n x d a.a.a.a.a.a.a.a.a.a.a.a.a.a.a.a.a.a.a.a.a.a.a.a.a.a.a.a.a.a.a.a.a.a.a.a.a.a.a.a.a.a.a.a.a.a.a.a.a.a.a.a.a.a.a.a.a.a.a.a.a.a.a.a.a.a.a.a.a.a.a.a.a.a.a.a.a.a.a.a.a.a.a.a.a.a.a.a.a.a.a.a.a.a.a.a.a.a.a.a.a.a.a.a.a.a.a.a.a.a.a.a.a.a.a.a.a.a.a.a.a.a.a.a.a.a.a.a.a.a.a.a.a.a.a.a.a.a.a.a.a.a.a.a.a.a.a.a.a.a.a.a.a.a.a.a.a.a.a.a.a.a.a.a.a.a.a.a.a.a.a.a.a.a.a.a.a.a.a.a.a.a.a.a.a.a.a.a.a.a.a.a.a.a.a.a.a.a.a.a.a.a.a.a.a.a.a.a.a.a.a.a.a.a.a.",
"a.a.a.a.a.a.a.a.a.a.a.a.a.a.a.a.a.a.a.a.a.a.a.a.a.a.a.a.a.a.a.a.a.a.a.a.a.a.a.a.a.a.a.a.a.a.a.a.a.a.a.a.a.a.a.a.a.a.a.a.a.a.a.a.a.a.a.a.a.a.a.a.a.a.a.a.a.a.a.a.a.a.a.a.a.a.a.a.a.a.a.a.a.a.a.a.a.a.t.k.T.U.f.h.h.k.D.^.}.+XXXD.D.!.}.}.XXXX}.{.!.W.A.D.m.3.W a.a.a.a.a.a.a.a.a.a.a.a.a.a.a.a.a.a.a.a.a.a.a.a.a.a.a.a.a.a.a.a.a.a.o . O : * o * 6 t t s s l B A S A F S F T _ #.y.y.m.D.Y.^.^.}.}.XXoXXX XXX X(.^.!.Q.U.Z.k.k.k.k.k.Z.D.Y.Y.!.^.^.(.(.^.^.Q.^.^.^.!.^.W.Q.R.W.H.W.W.Y.E.^.W.^.W.^.W.!.!.W.E.E.Y.!.!.Y.^.Y.Y.Y.Y.Q.D.Y.D.Y.D.D.G.D.G.G.G.G.G.G.Y.E.E.!.!.!.!.!.W.{.E.E.E.E.E.E.E.J.G.G.G.J.E.W.K.K.G.E.E.E.E.Y.E.E.!.!.!.E.K.E.J.G.J.A.H.E.E.W.!.!.E.!.!.^.^.^.!.W.!.!.!.!.!.!.!.^.!.!.!.!.!.!.Y.!.!.D.G.G.m.m.k.k.m.D.k.g.d.t.6.6.*.#. .} } } }  . ./ E S d 8 7 r 9 t t d B k s g a.a.a.a.a.a.a.a.a.a.a.a.a.a.a.a.a.a.a.a.a.a.a.a.a.a.a.a.a.a.a.a.a.a.a.a.a.a.a.a.a.a.a.a.a.a.a.a.a.a.a.a.a.a.a.a.a.a.a.a.a.a.a.a.a.a.a.a.a.a.a.a.a.a.a.a.a.a.a.a.a.a.a.a.a.a.a.a.a.a.a.a.a.a.a.a.a.a.a.a.a.a.a.a.a.a.a.a.a.a.a.a.a.a.a.a.a.a.a.a.a.a.a.a.a.a.a.a.a.a.a.a.a.a.a.a.a.a.a.a.a.a.a.a.a.a.a.a.a.a.a.a.a.a.a.a.a.a.a.a.a.a.a.a.a.a.a.a.a.a.a.a.a.a.a.a.a.a.a.a.a.a.a.a.a.a.a.a.a.a.a.a.a.a.a.a.a.a.a.a.a.a.a.a.a.a.a.a.a.a.a.a.a.a.a.",
"a.a.a.a.a.a.a.a.a.a.a.a.a.a.a.a.a.a.a.a.a.a.a.a.a.a.a.a.a.a.a.a.a.a.a.a.a.a.a.a.a.a.a.a.a.a.a.a.a.a.a.a.a.a.a.a.a.a.a.a.a.a.a.a.a.a.a.a.a.a.a.a.a.a.a.a.a.a.a.a.a.a.a.a.a.a.a.a.a.a.a.a.a.a.a.a.s.g.n.s.g.g.h.k.T.^.^.XXoX}.k.Y.!.^.(.!.^.^.^.^.}.!.H.W.D.g.d.2.a.a.a.a.a.a.a.a.a.a.a.a.a.a.a.a.a.a.a.a.a.a.a.a.a.a.a.a.a.a.a.a.a.o     o * % o 5 9 9 p s h m C C C S F S T #.d.m.j.G.Y.^.^.^.^.(.}.XXXX}.}.^.}.(.!.!.D.k.Z.D.k.k.k.Z.D.Y.Y.Y.!.^.^.(.^. X^.^.^.(.!.W.!.!.H.H.Y.H.W.Y.K.!.Y.!.W.K.W.E.Y.!.E.E.W.!.!.!.T.!.Y.Y.K.Y.U.Y.G.G.A.H.H.D.D.D.D.G.G.G.Y.E.W.W.!.W.!.!.K.W.E.E.E.J.K.E.E.E.K.J.J.G.E.W.!.!.!.!.!.!.!.!.{.!.!.!.E.K.Y.E.G.G.J.G.W.W.W.!.W.E.!.^.!.!.W.W.E.E.W.!.!.!.E.!.!.Y.^.^.^.!.!.Y.E.E.E.G.G.G.G.m.g.k.k.m.k.g.d.t.6.1.*.#. .} } } } } ] / R V h 6 6 7 8 9 9 s l s s c a.a.a.a.a.a.a.a.a.a.a.a.a.a.a.a.a.a.a.a.a.a.a.a.a.a.a.a.a.a.a.a.a.a.a.a.a.a.a.a.a.a.a.a.a.a.a.a.a.a.a.a.a.a.a.a.a.a.a.a.a.a.a.a.a.a.a.a.a.a.a.a.a.a.a.a.a.a.a.a.a.a.a.a.a.a.a.a.a.a.a.a.a.a.a.a.a.a.a.a.a.a.a.a.a.a.a.a.a.a.a.a.a.a.a.a.a.a.a.a.a.a.a.a.a.a.a.a.a.a.a.a.a.a.a.a.a.a.a.a.a.a.a.a.a.a.a.a.a.a.a.a.a.a.a.a.a.a.a.a.a.a.a.a.a.a.a.a.a.a.a.a.a.a.a.a.a.a.a.a.a.a.a.a.a.a.a.a.a.a.a.a.a.a.a.a.a.a.a.a.a.a.a.a.a.a.a.a.a.a.a.a.a.a.a.",
"a.a.a.a.a.a.a.a.a.a.a.a.a.a.a.a.a.a.a.a.a.a.a.a.a.a.a.a.a.a.a.a.a.a.a.a.a.a.a.a.a.a.a.a.a.a.a.a.a.a.a.a.a.a.a.a.a.a.a.a.a.a.a.a.a.a.a.a.a.a.a.a.a.a.a.a.a.a.a.a.a.a.a.a.a.a.a.a.a.a.a.a.a.a.;.h.V.k.t.s.h.k.Q. XoXOX@XOX^.D.Y.!.!.Y.Y.^.XXXXXX}.XX^.^.!.!.I.Y.d.5.W a.a.a.a.a.a.a.a.a.a.a.a.a.a.a.a.a.a.a.a.a.a.a.a.a.a.a.a.a.a.a.a.X     o O   * r 9 t t s l B B C S S F #.d.g.A.K.!.E.!.!.}.}.XXXXXXXX X(.}.}.}.^.Q.Y.U.k.k.k.k.k.Z.D.D.U.Y.Q.^.^.^.^.(.^.^.^.^.W.!.!.Q.W.H.Y.K.K.G.D.E.E.E.E.K.K.K.Y.G.Y.E.!.Y.Y.G.!.!.Y.Y.Y.E.E.D.G.G.A.D.G.D.G.K.G.E.K.K.Y.!.!.!.!.!.!.!.!.!.E.G.E.W.E.E.E.E.E.E.J.E.!.!.^.Y.!.^.{.!.!.Y.!.!.!.Y.Y.E.E.W.J.J.E.J.W.W.!.E.^.E.E.!.!.W.!.W.!.!.E.!.!.!.!.!.!.!.!.!.!.!.!.!.!.E.E.E.G.A.k.j.g.d.d.g.g.d.t.t.6.-.*.#.} _ ] _ ] ] _ W T B 9 3 5 5 6 8 8 s h 9 r a.a.a.a.a.a.a.a.a.a.a.a.a.a.a.a.a.a.a.a.a.a.a.a.a.a.a.a.a.a.a.a.a.a.a.a.a.a.a.a.a.a.a.a.a.a.a.a.a.a.a.a.a.a.a.a.a.a.a.a.a.a.a.a.a.a.a.a.a.a.a.a.a.a.a.a.a.a.a.a.a.a.a.a.a.a.a.a.a.a.a.a.a.a.a.a.a.a.a.a.a.a.a.a.a.a.a.a.a.a.a.a.a.a.a.a.a.a.a.a.a.a.a.a.a.a.a.a.a.a.a.a.a.a.a.a.a.a.a.a.a.a.a.a.a.a.a.a.a.a.a.a.a.a.a.a.a.a.a.a.a.a.a.a.a.a.a.a.a.a.a.a.a.a.a.a.a.a.a.a.a.a.a.a.a.a.a.a.a.a.a.a.a.a.a.a.a.a.a.a.a.a.a.a.a.a.a.a.a.a.a.a.a.a.a.a.",
"a.a.a.a.a.a.a.a.a.a.a.a.a.a.a.a.a.a.a.a.a.a.a.a.a.a.a.a.a.a.a.a.a.a.a.a.a.a.a.a.a.a.a.a.a.a.a.a.a.a.a.a.a.a.a.a.a.a.a.a.a.a.a.a.a.a.a.a.a.a.a.a.a.a.a.a.a.a.a.a.a.a.a.a.a.a.a.a.a.a.a.a.-.t.h.h.s.h.k.Y.^.XXOX$X%X$X!.k.k.Y.Y.Y.T.^.}.}.XX}.}.^.^.^.Q.!.Q.I.k.j.v.7.>.a.a.a.a.a.a.a.a.a.a.a.a.a.a.a.a.a.a.a.a.a.a.a.a.a.a.a.a.a.a.a.a..   .   . o 5 8 t t 9 l B C C A E 4.g.j.A.G.W.!.E.{.(.(.(.}.|.}.}. X(.!.(.!.!.!.U.Z.k.k.k.k.k.k.D.Z.Z.U.T.Y.!.^.^.^.(.Q.!.!.Q.Q.(.W.Q.Y.W.W.W.G.A.E.E.K.Y.W.K.W.K.A.K.E.K.Y.E.G.!.E.K.Y.G.K.G.G.G.G.G.Y.Y.G.K.G.A.G.E.E.E.E.W.!.!.{.^.!.G.E.W.E.J.E.G.E.W.E.[.!.E.E.!.!.!.!.!.E.!.!.W.!.E.!.!.!.!.!.T.E.G.J.J.J.K.K.E.E.E.E.!.E.!.!.!.W.!.!.E.!.!.!.!.^.!.!.!.^.!.!.Y.E.Y.E.E.Y.A.m.g.g.d.d.y.y.d.d.t.6.*.#.#.#. ./ _ / W _ / W F c r 1 1 3 3 6 9 9 t 8 6 a.a.a.a.a.a.a.a.a.a.a.a.a.a.a.a.a.a.a.a.a.a.a.a.a.a.a.a.a.a.a.a.a.a.a.a.a.a.a.a.a.a.a.a.a.a.a.a.a.a.a.a.a.a.a.a.a.a.a.a.a.a.a.a.a.a.a.a.a.a.a.a.a.a.a.a.a.a.a.a.a.a.a.a.a.a.a.a.a.a.a.a.a.a.a.a.a.a.a.a.a.a.a.a.a.a.a.a.a.a.a.a.a.a.a.a.a.a.a.a.a.a.a.a.a.a.a.a.a.a.a.a.a.a.a.a.a.a.a.a.a.a.a.a.a.a.a.a.a.a.a.a.a.a.a.a.a.a.a.a.a.a.a.a.a.a.a.a.a.a.a.a.a.a.a.a.a.a.a.a.a.a.a.a.a.a.a.a.a.a.a.a.a.a.a.a.a.a.a.a.a.a.a.a.a.a.a.a.a.a.a.a.a.a.a.a.",
"a.a.a.a.a.a.a.a.a.a.a.a.a.a.a.a.a.a.a.a.a.a.a.a.a.a.a.a.a.a.a.a.a.a.a.a.a.a.a.a.a.a.a.a.a.a.a.a.a.a.a.a.a.a.a.a.a.a.a.a.a.a.a.a.a.a.a.a.a.a.a.a.a.a.a.a.a.a.a.a.a.a.a.a.a.a.5.z.d.@.-.=.h.k.h.g.I.Q.}.@X@X$XoX@XI.j.k.D.k.U.D.^.}.}.XXXX}.}.}.}.^.^.^.^.!.Y.D.k.s.s.d.4.a.a.a.a.a.a.a.a.a.a.a.a.a.a.a.a.a.a.a.a.a.a.a.a.a.a.a.a.a.a.a.a.          : 6 7 9 9 s n B C T 5.y.A.G.!.!.^.!.}.^.|.|.}.(.(. X X X}.(.(.^.^.Y.D.k.k.k.k.k.g.k.k.k.Z.I.U.!.(.!.^.!.^.!.^.(./.!.!.!.Q.!.!.W.Y.G.G.E.G.G.K.K.K.G.A.G.K.Y.Y.E.K.G.E.G.G.G.Y.D.Y.Y.K.K.G.G.G.D.G.Y.Y.E.E.E.W.W.!.^.{.{.W.!.E.!.!.E.E.G.J.J.W.W.{.!.E.E.E.!.E.!.!.^.!.!.!.Y.^.^.!.!.!.E.!.!.Y.E.E.E.W.K.K.E.W.E.E.!.W.W.!.!.!.!.!.!.^.!.!.!.E.!.^.!.!.!.!.E.E.E.K.G.A.m.v.g.d.y.t.t.d.y.t.5.-.&.#.#. ./ / W W / / W P l 6 < , , < 5 6 9 8 4 a.a.a.a.a.a.a.a.a.a.a.a.a.a.a.a.a.a.a.a.a.a.a.a.a.a.a.a.a.a.a.a.a.a.a.a.a.a.a.a.a.a.a.a.a.a.a.a.a.a.a.a.a.a.a.a.a.a.a.a.a.a.a.a.a.a.a.a.a.a.a.a.a.a.a.a.a.a.a.a.a.a.a.a.a.a.a.a.a.a.a.a.a.a.a.a.a.a.a.a.a.a.a.a.a.a.a.a.a.a.a.a.a.a.a.a.a.a.a.a.a.a.a.a.a.a.a.a.a.a.a.a.a.a.a.a.a.a.a.a.a.a.a.a.a.a.a.a.a.a.a.a.a.a.a.a.a.a.a.a.a.a.a.a.a.a.a.a.a.a.a.a.a.a.a.a.a.a.a.a.a.a.a.a.a.a.a.a.a.a.a.a.a.a.a.a.a.a.a.a.a.a.a.a.a.a.a.a.a.a.a.a.a.a.a.a.a.",
"a.a.a.a.a.a.a.a.a.a.a.a.a.a.a.a.a.a.a.a.a.a.a.a.a.a.a.a.a.a.a.a.a.a.a.a.a.a.a.a.a.a.a.a.a.a.a.a.a.a.a.a.a.a.a.a.a.a.a.a.a.a.a.a.a.a.a.a.a.a.a.a.a.a.a.a.a.a.a.a.a.a.a.a.a.3.&.&. .@.&.s.f.k.A.!.}.oXOXXXQ.U.k.k.U.D.k.k.D.!.}. X}.XX}.}.}.}.}.^.{.^.^.!.Y.Y.Y.m.g.s.d.6.7.a.a.a.a.a.a.a.a.a.a.a.a.a.a.a.a.a.a.a.a.a.a.a.a.a.a.a.a.a.a.a.a.        o 5 8 8 9 9 k C } d.v.G.A.E.W.W.^.{.}.}.(.(.}.}.(.}.}.}.(.^.^.W.W.!.Y.U.D.Z.k.k.k.k.g.g.k.D.Y.^.Q.!.^.^.!.(.!.^./.(.^.!.^.!.!.!.W.E.E.E.G.K.K.A.E.m.A.A.H.K.E.Y.G.m.K.K.E.E.G.G.K.G.G.G.G.K.K.G.G.K.E.W.W.!.!.!.!.{.{.^.^.^.^.!.}.{.}.!.E.A.J.J.E.!.E.E.W.W.W.^.^.!.!.!.^.^.!.^.!.!.!.!.!.!.Y.E.!.!.W.K.E.!.!.!.!.!.!.!.!.W.^.^.{.^.}.^.^.{.^.!.!.^.^.!.!.!.!.E.E.E.G.A.m.m.g.d.y.t.y.t.5.5.-.*.#. . .W W E W W W R S j 5 - : > , 5 5 8 , : a.a.a.a.a.a.a.a.a.a.a.a.a.a.a.a.a.a.a.a.a.a.a.a.a.a.a.a.a.a.a.a.a.a.a.a.a.a.a.a.a.a.a.a.a.a.a.a.a.a.a.a.a.a.a.a.a.a.a.a.a.a.a.a.a.a.a.a.a.a.a.a.a.a.a.a.a.a.a.a.a.a.a.a.a.a.a.a.a.a.a.a.a.a.a.a.a.a.a.a.a.a.a.a.a.a.a.a.a.a.a.a.a.a.a.a.a.a.a.a.a.a.a.a.a.a.a.a.a.a.a.a.a.a.a.a.a.a.a.a.a.a.a.a.a.a.a.a.a.a.a.a.a.a.a.a.a.a.a.a.a.a.a.a.a.a.a.a.a.a.a.a.a.a.a.a.a.a.a.a.a.a.a.a.a.a.a.a.a.a.a.a.a.a.a.a.a.a.a.a.a.a.a.a.a.a.a.a.a.a.a.a.a.a.a.a.a.",
"a.a.a.a.a.a.a.a.a.a.a.a.a.a.a.a.a.a.a.a.a.a.a.a.a.a.a.a.a.a.a.a.a.a.a.a.a.a.a.a.a.a.a.a.a.a.a.a.a.a.a.a.a.a.a.a.a.a.a.a.a.a.a.a.a.a.a.a.a.a.a.a.a.a.a.a.a.a.a.a.a.a.a.1.1.6.t.&.@. .-.g.j.D.!.XX(.D.I.D.Y.Q.Q.Y.D.k.Z.Q.^.^.^.}.^.}.}.}.}.}.^.^.}.^.}.{.E.E.Y.D.m.j.g.k.d.6...a.a.a.a.a.a.a.a.a.a.a.a.a.a.a.a.a.a.a.a.a.a.a.a.a.a.a.a.a.a.a.        - 5 8 8 k _ d.G.G.G.G.!.E.^.^.{.{.}.}.}.(.(.XX(.(.^.(.|.}.(.!.Y.Y.D.D.k.Z.k.D.k.k.k.g.k.Z.Y.Y.Q.Q.Q.^.!.(.^.(./.!.(.Q.!.^.!.!.W.!.E.^.W.Y.D.G.G.m.G.m.A.K.E.Y.W.G.G.G.Y.G.E.Y.G.W.Y.E.K.K.K.E.E.E.E.W.W.W.!.!.!.!.^.{.^.!.!.!.!.!.E.!.E.E.E.J.J.W.E.E.E.E.E.!.!.Y.!.^.!.{.!.!.!.!.!.!.!.!.!.!.!.E.W.W.E.W.!.!.W.E.E.^.!.!.!.W.^.^.{.^.^.^.!.^.^.!.!.^.!.!.!.!.W.W.J.A.m.A.g.g.y.t.5.t.6.6.-.*.#. . .W R E T E W U Z u , * * - , < 6 , * a.a.a.a.a.a.a.a.a.a.a.a.a.a.a.a.a.a.a.a.a.a.a.a.a.a.a.a.a.a.a.a.a.a.a.a.a.a.a.a.a.a.a.a.a.a.a.a.a.a.a.a.a.a.a.a.a.a.a.a.a.a.a.a.a.a.a.a.a.a.a.a.a.a.a.a.a.a.a.a.a.a.a.a.a.a.a.a.a.a.a.a.a.a.a.a.a.a.a.a.a.a.a.a.a.a.a.a.a.a.a.a.a.a.a.a.a.a.a.a.a.a.a.a.a.a.a.a.a.a.a.a.a.a.a.a.a.a.a.a.a.a.a.a.a.a.a.a.a.a.a.a.a.a.a.a.a.a.a.a.a.a.a.a.a.a.a.a.a.a.a.a.a.a.a.a.a.a.a.a.a.a.a.a.a.a.a.a.a.a.a.a.a.a.a.a.a.a.a.a.a.a.a.a.a.a.a.a.a.a.a.a.a.a.a.a.a.a.",
"a.a.a.a.a.a.a.a.a.a.a.a.a.a.a.a.a.a.a.a.a.a.a.a.a.a.a.a.a.a.a.a.a.a.a.a.a.a.a.a.a.a.a.a.a.a.a.a.a.a.a.a.a.a.a.a.a.a.a.a.a.a.a.a.a.a.a.a.a.a.a.a.a.a.a.a.a.a.a.a.a.a. .#.6.-.&. . .&.y.k.H.Y.K.V.k.D.!.^.!.Q.k.k.D.U.W.!.!.^.^.^.^.}.}.^.^.^.^.}.}.^.^.!.!.!.!.Y.Y.n.D.g.k.d.7.2.a.a.a.a.a.a.a.a.a.a.a.a.a.a.a.a.a.a.a.a.a.a.a.a.a.a.a.a.a.a.a.+   . o 8 h _ d.G.G.Y.Y.!.!.!.^.^.}.}.(.(.^.}.}.}.}.}.}.}.XX}.}.^.!.!.Y.U.Y.D.D.G.k.g.k.g.k.k.D.Y.Y.Q.!.!.(.^.^.!.^.!.^.!.!.!.!.!.!.W.!.G.!.^.!.K.E.E.A.E.E.J.G.G.G.G.G.G.D.D.G.Y.E.G.G.Y.G.Y.E.E.E.E.E.E.E.W.E.E.!.!.{.!.!.{.!.!.^.!.W.!.E.!.E.J.K.J.!.E.E.W.W.!.!.E.E.!.^.!.Y.!.!.!.Y.!.!.!.!.!.!.{.^.W.W.E.E.^.^.!.^.^.!.!.!.{.^.!.^.^.^.!.!.!.!.!.!.!.{.{.^.!.!.!.W.W.E.J.G.m.v.d.d.t.4.6.4.1.*.#.} } _ U E U T T S Z 9 - $ & - , > : * a.a.a.a.a.a.a.a.a.a.a.a.a.a.a.a.a.a.a.a.a.a.a.a.a.a.a.a.a.a.a.a.a.a.a.a.a.a.a.a.a.a.a.a.a.a.a.a.a.a.a.a.a.a.a.a.a.a.a.a.a.a.a.a.a.a.a.a.a.a.a.a.a.a.a.a.a.a.a.a.a.a.a.a.a.a.a.a.a.a.a.a.a.a.a.a.a.a.a.a.a.a.a.a.a.a.a.a.a.a.a.a.a.a.a.a.a.a.a.a.a.a.a.a.a.a.a.a.a.a.a.a.a.a.a.a.a.a.a.a.a.a.a.a.a.a.a.a.a.a.a.a.a.a.a.a.a.a.a.a.a.a.a.a.a.a.a.a.a.a.a.a.a.a.a.a.a.a.a.a.a.a.a.a.a.a.a.a.a.a.a.a.a.a.a.a.a.a.a.a.a.a.a.a.a.a.a.a.a.a.a.a.a.a.a.a.a.a.a.",
"a.a.a.a.a.a.a.a.a.a.a.a.a.a.a.a.a.a.a.a.a.a.a.a.a.a.a.a.a.a.a.a.a.a.a.a.a.a.a.a.a.a.a.a.a.a.a.a.a.a.a.a.a.a.a.a.a.a.a.a.a.a.a.a.a.a.a.a.a.a.a.a.a.a.a.a.a.a.a.a.a.} @.6.-.@. .}  .-.s.j.A.V.k.k.U.^.!.!.D.g.D.Y.!.W.H.D.!.^.^.^.^.^.^.^.^.^.^.}.^.^.^.^.^.!.^.!.T.Y.E.k.m.g.l.3.1.a.a.a.a.a.a.a.a.a.a.a.a.a.a.a.a.a.a.a.a.a.a.a.a.a.a.a.a.a.a.a.a.> p 1.m.m.Y.Q.Y.Y.^.(.^.^.^.(.}.XX}.}.}.}.}.XX}.}. XXX}.(.^.!.!.Q.!.Y.D.D.D.D.k.k.k.k.k.k.D.U.Y.Y.W.!.!.^.!.Q.^.^.W.^.!.^.!.W.W.^.^.!.!.E.E.G.Y.Y.J.G.G.J.A.G.G.K.K.K.K.K.E.K.G.A.D.D.E.E.E.E.E.E.E.E.!.W.!.W.W.!.W.E.!.^.{.{.{.W.E.E.E.E.E.J.E.E.E.E.E.W.G.K.!.Y.E.E.E.Y.E.!.!.!.!.K.E.!.!.^.^.W.W.J.W.E.W.^.{.^.!.!.!.!.!.!.!.^.}.^.{.}.{.!.^.!.!.{.{.^.!.!.!.!.W.W.E.Y.G.A.m.m.g.d.5.-.1.1.*...} } ] S U U U U Z m , o o - - , O O a.a.a.a.a.a.a.a.a.a.a.a.a.a.a.a.a.a.a.a.a.a.a.a.a.a.a.a.a.a.a.a.a.a.a.a.a.a.a.a.a.a.a.a.a.a.a.a.a.a.a.a.a.a.a.a.a.a.a.a.a.a.a.a.a.a.a.a.a.a.a.a.a.a.a.a.a.a.a.a.a.a.a.a.a.a.a.a.a.a.a.a.a.a.a.a.a.a.a.a.a.a.a.a.a.a.a.a.a.a.a.a.a.a.a.a.a.a.a.a.a.a.a.a.a.a.a.a.a.a.a.a.a.a.a.a.a.a.a.a.a.a.a.a.a.a.a.a.a.a.a.a.a.a.a.a.a.a.a.a.a.a.a.a.a.a.a.a.a.a.a.a.a.a.a.a.a.a.a.a.a.a.a.a.a.a.a.a.a.a.a.a.a.a.a.a.a.a.a.a.a.a.a.a.a.a.a.a.a.a.a.a.a.a.a.a.a.a.a.a.",
"a.a.a.a.a.a.a.a.a.a.a.a.a.a.a.a.a.a.a.a.a.a.a.a.a.a.a.a.a.a.a.a.a.a.a.a.a.a.a.a.a.a.a.a.a.a.a.a.a.a.a.a.a.a.a.a.a.a.a.a.a.a.a.a.a.a.a.a.a.a.a.a.a.a.a.a.a.a.a.a.] } 6.@. .@._ _ @.6.t.d.g.k.k.D.Y.^.Q.k.j.D.!.!.D.H.W.Q.!.^.^.^.^.!.^.^.^.^.^.^.^.^.!.!.!.W.Y.Y.!.Y.G.D.n.D.g.d.4.3.a.a.a.a.a.a.a.a.a.a.a.a.a.a.a.a.a.a.a.a.a.a.a.a.a.a.a.a.a.P <.y.G.m.E.Y.!.!.^.^.!.^.^.}.}.}.}.}.}.|.XX|.}.}.}. X}.XX^.^.^.^.Q.Y.D.Y.D.D.D.k.k.k.j.k.k.Z.Z.U.Y.Q.Q.!.Y.Y.W.!.!.!.!.!.!.^.^.^.W.!.}.^.!.!.E.E.E.G.G.G.G.J.A.A.A.A.A.m.A.D.G.G.G.E.Y.!.W.E.E.E.E.E.E.E.W.E.!.!.!.!.!.!.E.E.W.E.E.!.E.E.E.E.G.G.G.J.!.!.!.!.E.E.!.G.W.E.E.!.!.!.!.^.W.^.^.!.!.!.!.!.^.W.W.^.^.W.W.E.W.E.W.!.!.{.}.{.{.{.}.{.{.{.^.!.{.{.{.{.^.!.!.!.!.W.E.Y.G.G.m.m.g.g.y.4.*.1.*... .} / S G S S S Z j * o O O * o o a.a.a.a.a.a.a.a.a.a.a.a.a.a.a.a.a.a.a.a.a.a.a.a.a.a.a.a.a.a.a.a.a.a.a.a.a.a.a.a.a.a.a.a.a.a.a.a.a.a.a.a.a.a.a.a.a.a.a.a.a.a.a.a.a.a.a.a.a.a.a.a.a.a.a.a.a.a.a.a.a.a.a.a.a.a.a.a.a.a.a.a.a.a.a.a.a.a.a.a.a.a.a.a.a.a.a.a.a.a.a.a.a.a.a.a.a.a.a.a.a.a.a.a.a.a.a.a.a.a.a.a.a.a.a.a.a.a.a.a.a.a.a.a.a.a.a.a.a.a.a.a.a.a.a.a.a.a.a.a.a.a.a.a.a.a.a.a.a.a.a.a.a.a.a.a.a.a.a.a.a.a.a.a.a.a.a.a.a.a.a.a.a.a.a.a.a.a.a.a.a.a.a.a.a.a.a.a.a.a.a.a.a.a.a.a.a.a.a.a.a.",
"a.a.a.a.a.a.a.a.a.a.a.a.a.a.a.a.a.a.a.a.a.a.a.a.a.a.a.a.a.a.a.a.a.a.a.a.a.a.a.a.a.a.a.a.a.a.a.a.a.a.a.a.a.a.a.a.a.a.a.a.a.a.a.a.a.a.a.a.a.a.a.a.a.a.a.a.a.a.a.U _ &.@. . ._ / _ @.-.t.s.g.g.m.Y.Q.U.g.k.Y.Y.U.D.D.W.!.Q.!.^.!.!.!.^.^.^.^.^.^.!.!.Y.Y.!.!.!.Y.!.Y.!.m.D.A.D.m.d.d.t.5.R a.a.a.a.a.a.a.a.a.a.a.a.a.a.a.a.a.a.a.a.a.a.a.] 2.7.v.v.m.E.E.E.^.!.!.}.^.^.^.^.^.}.}.}.(.}. X X}.XX X XXX}.}.(.^.^.^.Q.!.Q.!.Y.D.D.D.k.D.k.k.Z.Z.Z.j.D.Y.Y.U.Y.W.Y.W.~.Q.^.!.!.}.(.!.!.}.!.^.^.E.E.G.D.G.J.G.G.G.G.G.G.G.G.G.Y.E.Y.K.E.G.G.E.E.E.G.E.E.E.E.E.E.Y.!.!.!.!.!.^.^.!.E.E.W.!.W.K.G.E.E.E.E.E.E.W.E.E.!.!.E.W.W.Y.!.!.E.Y.^.{.{.!.!.^.^.^.!.!.^.!.E.!.!.^.^.{.{.!.^.^.^.{.^.!.{.}.}.{.^.}.}.}.}.}.{.}.{.^.{.^.!.!.!.!.E.J.G.m.m.v.l.y.5.1.*.#... ._ / G S Z S Z B s & X o O     a.a.a.a.a.a.a.a.a.a.a.a.a.a.a.a.a.a.a.a.a.a.a.a.a.a.a.a.a.a.a.a.a.a.a.a.a.a.a.a.a.a.a.a.a.a.a.a.a.a.a.a.a.a.a.a.a.a.a.a.a.a.a.a.a.a.a.a.a.a.a.a.a.a.a.a.a.a.a.a.a.a.a.a.a.a.a.a.a.a.a.a.a.a.a.a.a.a.a.a.a.a.a.a.a.a.a.a.a.a.a.a.a.a.a.a.a.a.a.a.a.a.a.a.a.a.a.a.a.a.a.a.a.a.a.a.a.a.a.a.a.a.a.a.a.a.a.a.a.a.a.a.a.a.a.a.a.a.a.a.a.a.a.a.a.a.a.a.a.a.a.a.a.a.a.a.a.a.a.a.a.a.a.a.a.a.a.a.a.a.a.a.a.a.a.a.a.a.a.a.a.a.a.a.a.a.a.a.a.a.a.a.a.a.a.a.a.a.a.a.a.a.",
"a.a.a.a.a.a.a.a.a.a.a.a.a.a.a.a.a.a.a.a.a.a.a.a.a.a.a.a.a.a.a.a.a.a.a.a.a.a.a.a.a.a.a.a.a.a.a.a.a.a.a.a.a.a.a.a.a.a.a.a.a.a.a.a.a.a.a.a.a.a.a.a.a.a.a.a.a.a.I ] @.*.#.` ] T / ` @.-.y.d.d.g.D.T.k.h.k.Y.Y.D.Z.Z.Y.W.W.Q.Q.Y.Y.!.!.^.!.!.!.Y.Y.!.Y.D.Y.Y.Y.Y.D.Y.Y.D.m.m.g.g.j.k.k.g.d.4.*.a.a.a.a.a.a.a.a.a.a.a.a.a.a.a.a.a.a.a.6.z.M.G.m.A.K.!.W.^.!.!.!.!.^.!.!.^.}. X}.}.(.}.^. XXX}.(. X(.}.XX}.}.}.^.^.!.^.!.Q.Y.D.D.k.k.k.D.D.k.k.D.D.D.D.Y.Y.H.H.Y.Y.D.H.W.!.^.^.^.^.^.!.!.W.!.}.!.K.G.m.G.G.G.G.m.A.v.m.G.E.A.G.K.!.K.G.!.Y.Y.^.E.K.E.E.E.E.Y.Y.E.W.!.^.!.W.W.W.E.W.!.W.W.!.W.J.J.E.E.E.E.E.!.E.W.E.E.!.W.!.Y.E.!.!.!.!.!.^.^.!.!.{.!.^.^.!.^.{.!.!.^.!.^.^.^.!.^.^.{.{.^.!.!.{.XX}.}.}.^.}.^.^.|.{.{.{.^.{.{.!.W.E.J.G.m.m.m.g.d.y.5.*... . .} / G Z C C C l 9 & X o   . a.a.a.a.a.a.a.a.a.a.a.a.a.a.a.a.a.a.a.a.a.a.a.a.a.a.a.a.a.a.a.a.a.a.a.a.a.a.a.a.a.a.a.a.a.a.a.a.a.a.a.a.a.a.a.a.a.a.a.a.a.a.a.a.a.a.a.a.a.a.a.a.a.a.a.a.a.a.a.a.a.a.a.a.a.a.a.a.a.a.a.a.a.a.a.a.a.a.a.a.a.a.a.a.a.a.a.a.a.a.a.a.a.a.a.a.a.a.a.a.a.a.a.a.a.a.a.a.a.a.a.a.a.a.a.a.a.a.a.a.a.a.a.a.a.a.a.a.a.a.a.a.a.a.a.a.a.a.a.a.a.a.a.a.a.a.a.a.a.a.a.a.a.a.a.a.a.a.a.a.a.a.a.a.a.a.a.a.a.a.a.a.a.a.a.a.a.a.a.a.a.a.a.a.a.a.a.a.a.a.a.a.a.a.a.a.a.a.a.a.a.a.a.",
"a.a.a.a.a.a.a.a.a.a.a.a.a.a.a.a.a.a.a.a.a.a.a.a.a.a.a.a.a.a.a.a.a.a.a.a.a.a.a.a.a.a.a.a.a.a.a.a.a.a.a.a.a.a.a.a.a.a.a.a.a.a.a.a.a.a.a.a.a.a.a.a.a.a.a.a.a.a.Q W &.&._ _ T F T } #.t.t.d.d.j.A.g.s.k.U.Y.D.k.D.U.U.U.Y.Y.D.D.Y.Y.Y.Y.Y.Y.Y.Y.Y.Y.D.D.Y.Y.Y.Y.Y.Y.Y.K.G.G.m.m.m.m.k.g.f.t.y.1.a.a.a.a.a.a.a.a.a.a.a.a.a.a.5.m.G.A.E.m.G.K.Y.W.W.Q.!.!.^.^.^.!.(.^.^.^.^.^.}.(.^.}.^.(.}.}.}.}.}.(.(.(.^.^.^.^.!.Q.Q.Y.Y.U.U.D.Z.D.D.k.Z.k.k.Z.D.D.I.U.H.K.H.H.K.W.W.^.!.^.^.!.!.!.!.!.!.!.W.E.G.m.A.m.m.m.A.G.A.A.m.G.K.K.K.K.Y.K.Y.K.Y.!.K.K.W.W.W.!.E.E.W.!.!.^.!.E.!.!.!.^.E.!.W.E.!.E.E.!.E.E.W.!.!.W.^.!.!.!.E.!.!.Y.^.!.{.{.W.W.^.^.^.W.^.^.{.{.{.{.^.!.^.^.{.^.^.!.^.^.{.^.!.W.!.}.{.{.^.}.{.{.{.!.}.}.}.!.{.{.!.!.W.E.K.G.G.m.m.v.d.y.y.1.#. ...] / Z C B c x s <       < a.a.a.a.a.a.a.a.a.a.a.a.a.a.a.a.a.a.a.a.a.a.a.a.a.a.a.a.a.a.a.a.a.a.a.a.a.a.a.a.a.a.a.a.a.a.a.a.a.a.a.a.a.a.a.a.a.a.a.a.a.a.a.a.a.a.a.a.a.a.a.a.a.a.a.a.a.a.a.a.a.a.a.a.a.a.a.a.a.a.a.a.a.a.a.a.a.a.a.a.a.a.a.a.a.a.a.a.a.a.a.a.a.a.a.a.a.a.a.a.a.a.a.a.a.a.a.a.a.a.a.a.a.a.a.a.a.a.a.a.a.a.a.a.a.a.a.a.a.a.a.a.a.a.a.a.a.a.a.a.a.a.a.a.a.a.a.a.a.a.a.a.a.a.a.a.a.a.a.a.a.a.a.a.a.a.a.a.a.a.a.a.a.a.a.a.a.a.a.a.a.a.a.a.a.a.a.a.a.a.a.a.a.a.a.a.a.a.a.a.a.a.a.a.",
"a.a.a.a.a.a.a.a.a.a.a.a.a.a.a.a.a.a.a.a.a.a.a.a.a.a.a.a.a.a.a.a.a.a.a.a.a.a.a.a.a.a.a.a.a.a.a.a.a.a.a.a.a.a.a.a.a.a.a.a.a.a.a.a.a.a.a.a.a.a.a.a.a.a.a.a.a.D W E  .} ] ] R U / } -.6.y.y.d.m.g.s.g.D.U.k.k.Z.D.D.D.H.D.D.D.U.Y.D.D.D.D.D.Y.D.K.G.Y.Y.D.Y.Y.T.Y.!.Y.Y.G.G.G.v.G.m.m.A.l.g.d.t.1.R a.a.a.a.a.a.a.a.a.d.M.m.D.Y.U.Y.^.W.!.!.W.W.^.(.!.!.^.}.{.^.{.^.^.^.^.^.^.(.^. X(.}.}.^.}.}.^.(.}.^.^.^.^.^.!.Q.Y.!.D.D.D.D.G.D.D.D.D.k.k.D.D.Z.Z.D.H.D.A.H.K.W.W.W.^.^.^.!.!.!.!.!.!.!.E.J.G.G.A.m.A.m.A.A.A.G.E.G.j.m.j.j.A.A.k.A.G.D.K.W.Y.K.Y.E.E.W.E.E.!.W.!.!.{.!.!.E.W.!.!.W.W.E.E.E.E.E.K.E.W.!.W.W.G.E.W.E.!.!.!.!.!.!.^.!.!.{.^.{.^.}.}.{.!.^.{.{.{.^.{.!.^.^.^.^.^.^.{.!.!.^.!.}.^.{.{.^.}.}.}.{.^.!.{.^.!.!.!.E.E.J.G.G.m.v.g.y.y.5.*.} }  ./ W n l l h t : + : y a.a.a.a.a.a.a.a.a.a.a.a.a.a.a.a.a.a.a.a.a.a.a.a.a.a.a.a.a.a.a.a.a.a.a.a.a.a.a.a.a.a.a.a.a.a.a.a.a.a.a.a.a.a.a.a.a.a.a.a.a.a.a.a.a.a.a.a.a.a.a.a.a.a.a.a.a.a.a.a.a.a.a.a.a.a.a.a.a.a.a.a.a.a.a.a.a.a.a.a.a.a.a.a.a.a.a.a.a.a.a.a.a.a.a.a.a.a.a.a.a.a.a.a.a.a.a.a.a.a.a.a.a.a.a.a.a.a.a.a.a.a.a.a.a.a.a.a.a.a.a.a.a.a.a.a.a.a.a.a.a.a.a.a.a.a.a.a.a.a.a.a.a.a.a.a.a.a.a.a.a.a.a.a.a.a.a.a.a.a.a.a.a.a.a.a.a.a.a.a.a.a.a.a.a.a.a.a.a.a.a.a.a.a.a.a.a.a.a.a.a.a.a.a.a.",
"a.a.a.a.a.a.a.a.a.a.a.a.a.a.a.a.a.a.a.a.a.a.a.a.a.a.a.a.a.a.a.a.a.a.a.a.a.a.a.a.a.a.a.a.a.a.a.a.a.a.a.a.a.a.a.a.a.a.a.a.a.a.a.a.a.a.a.a.a.a.a.a.a.a.a.a.a.c U / _ / ] / Z U / ] -.6.t.y.g.d.t.f.D.D.k.g.k.k.D.D.D.D.D.D.Y.Y.D.D.D.D.Y.U.D.D.Y.K.Y.!.Y.^.Y.!.Y.Y.E.D.Y.K.m.v.A.m.G.m.z.g.m.g.d.1.1.a.a.a.a.#.v.m.D.D.T.!.^.^.Q.^.!.Q.!.!.!.^.^.^.!.^.^.{.!.W.W.}.(.^.(.(.^.(.^.}.(.}.^.^.(.}.^.^.(.!.^.^.!.!.!.T.Y.Y.Y.D.Y.D.A.D.D.D.D.D.D.Z.D.k.Z.U.D.A.A.H.H.K.W.!.^.!.{.!.!.!.!.E.!.!.J.G.G.K.A.A.m.G.v.G.E.G.A.A.k.m.j.A.Y.K.A.D.A.A.A.K.K.E.Y.K.E.!.E.E.^.W.W.!.!.^.!.!.!.!.!.!.!.E.!.E.J.E.E.E.!.^.W.E.E.!.!.E.E.!.^.^.{.{.{.!.{.^.^.{.}.|.|.}.{.}.{.{.^.^.}.{.!.!.!.!.!.{.{.[.^.{.}.{.{.}.{.!.^.}.^.^.^.^.{.{.{.!.E.E.E.E.J.G.m.v.g.y.y.5.1.#.} } _ R h d h s 5 w z a.a.a.a.a.a.a.a.a.a.a.a.a.a.a.a.a.a.a.a.a.a.a.a.a.a.a.a.a.a.a.a.a.a.a.a.a.a.a.a.a.a.a.a.a.a.a.a.a.a.a.a.a.a.a.a.a.a.a.a.a.a.a.a.a.a.a.a.a.a.a.a.a.a.a.a.a.a.a.a.a.a.a.a.a.a.a.a.a.a.a.a.a.a.a.a.a.a.a.a.a.a.a.a.a.a.a.a.a.a.a.a.a.a.a.a.a.a.a.a.a.a.a.a.a.a.a.a.a.a.a.a.a.a.a.a.a.a.a.a.a.a.a.a.a.a.a.a.a.a.a.a.a.a.a.a.a.a.a.a.a.a.a.a.a.a.a.a.a.a.a.a.a.a.a.a.a.a.a.a.a.a.a.a.a.a.a.a.a.a.a.a.a.a.a.a.a.a.a.a.a.a.a.a.a.a.a.a.a.a.a.a.a.a.a.a.a.a.a.a.a.a.a.a.a.a.a.",
"a.a.a.a.a.a.a.a.a.a.a.a.a.a.a.a.a.a.a.a.a.a.a.a.a.a.a.a.a.a.a.a.a.a.a.a.a.a.a.a.a.a.a.a.a.a.a.a.a.a.a.a.a.a.a.a.a.a.a.a.a.a.a.a.a.a.a.a.a.a.a.a.a.a.a.a.a B G _ / / W W S R / ] &.4.t.d.d.6.t.g.g.g.g.k.k.k.D.D.H.D.D.U.D.H.D.m.D.A.k.m.k.D.E.D.Y.Y.Y.!.Y.Y.Y.D.D.K.G.G.G.m.G.m.v.m.v.m.v.j.d.g.t.6.1.l.m.G.k.D.H.T.Q.Q.T.(.^.!.!.(.(.}.^.^.^.!.!.^.}.{.[.^.{.{.^.^.(.^.}.^.^.}.(.}.(.^.(.}.!.(.^.W.!.!.!.W.Y.Y.D.D.H.D.U.D.A.H.D.D.D.D.k.k.D.j.Z.U.H.H.H.K.W.!.W.^.^.^.^.!.!.W.E.W.J.E.J.G.G.J.A.m.A.D.A.J.G.A.G.K.G.m.m.m.A.v.A.A.m.m.G.A.G.J.K.K.W.!.E.E.!.!.!.E.W.!.!.W.E.W.!.!.!.W.!.E.G.J.E.E.E.W.!.!.!.!.W.!.{.!.E.!.!.!.{.{.^.^.^.{.}.{.{.{.{.}.}.}.}.{.{.{.^.{.!.^.{.^.^.{.^.^.}.^.(.}.^.{.}.{.^.!.{.^.!.!.!.!.E.W.E.E.J.G.m.v.g.d.y.5.5.1.@.] ] R s h s t 6 a.a.a.a.a.a.a.a.a.a.a.a.a.a.a.a.a.a.a.a.a.a.a.a.a.a.a.a.a.a.a.a.a.a.a.a.a.a.a.a.a.a.a.a.a.a.a.a.a.a.a.a.a.a.a.a.a.a.a.a.a.a.a.a.a.a.a.a.a.a.a.a.a.a.a.a.a.a.a.a.a.a.a.a.a.a.a.a.a.a.a.a.a.a.a.a.a.a.a.a.a.a.a.a.a.a.a.a.a.a.a.a.a.a.a.a.a.a.a.a.a.a.a.a.a.a.a.a.a.a.a.a.a.a.a.a.a.a.a.a.a.a.a.a.a.a.a.a.a.a.a.a.a.a.a.a.a.a.a.a.a.a.a.a.a.a.a.a.a.a.a.a.a.a.a.a.a.a.a.a.a.a.a.a.a.a.a.a.a.a.a.a.a.a.a.a.a.a.a.a.a.a.a.a.a.a.a.a.a.a.a.a.a.a.a.a.a.a.a.a.a.a.a.a.a.a.a.a.a.",
"a.a.a.a.a.a.a.a.a.a.a.a.a.a.a.a.a.a.a.a.a.a.a.a.a.a.a.a.a.a.a.a.a.a.a.a.a.a.a.a.a.a.a.a.a.a.a.a.a.a.a.a.a.a.a.a.a.a.a.a.a.a.a.a.a.a.a.a.a.a.a.a.a.a.a.a.d Z T _ W W R U A W ) } #.1.t.y.5.4.t.d.y.t.g.h.g.Z.k.k.Z.D.A.D.k.A.m.A.D.A.k.m.G.Y.!.Y.!.E.W.E.G.G.Y.G.K.G.G.E.E.D.G.D.m.G.D.G.k.k.g.s.h.j.D.D.D.D.Q.!.!.~.Q.^.Q.!.^.!.^.(.^.}.}.}.}.!.^.^.{.{.}.{.^.{.^.^.{.!.^.{.}.{.!.{.^.Q.^.^.!.!.!.!.E.Y.Y.E.I.G.G.H.U.D.Z.V.D.H.H.V.k.V.V.Z.D.V.V.H.D.Y.D.Y.Y.!.!.!.^.Q.!.!.W.E.E.W.J.G.J.J.G.K.J.J.D.D.K.A.K.K.Y.A.J.K.A.m.K.A.m.m.m.m.G.A.G.K.J.E.E.G.A.J.J.E.E.!.!.E.!.W.E.!.!.!.W.W.!.!.W.E.E.E.E.W.!.!.E.W.E.E.[.W.^.^.W.!.^.{.{.{.^.^.}.}.}.{.}.}.}.{.}.}.}.{.{.^.}.{.}.{.^.{.{.^.^.{.{.^.}.}.}.^.{.^.{.{.{.^.!.E.!.!.E.E.J.G.m.m.v.g.d.y.5.4.#.} ] W B 9 t 7 a.a.a.a.a.a.a.a.a.a.a.a.a.a.a.a.a.a.a.a.a.a.a.a.a.a.a.a.a.a.a.a.a.a.a.a.a.a.a.a.a.a.a.a.a.a.a.a.a.a.a.a.a.a.a.a.a.a.a.a.a.a.a.a.a.a.a.a.a.a.a.a.a.a.a.a.a.a.a.a.a.a.a.a.a.a.a.a.a.a.a.a.a.a.a.a.a.a.a.a.a.a.a.a.a.a.a.a.a.a.a.a.a.a.a.a.a.a.a.a.a.a.a.a.a.a.a.a.a.a.a.a.a.a.a.a.a.a.a.a.a.a.a.a.a.a.a.a.a.a.a.a.a.a.a.a.a.a.a.a.a.a.a.a.a.a.a.a.a.a.a.a.a.a.a.a.a.a.a.a.a.a.a.a.a.a.a.a.a.a.a.a.a.a.a.a.a.a.a.a.a.a.a.a.a.a.a.a.a.a.a.a.a.a.a.a.a.a.a.a.a.a.a.a.a.a.a.a.a.a.",
"a.a.a.a.a.a.a.a.a.a.a.a.a.a.a.a.a.a.a.a.a.a.a.a.a.a.a.a.a.a.a.a.a.a.a.a.a.a.a.a.a.a.a.a.a.a.a.a.a.a.a.a.a.a.a.a.a.a.a.a.a.a.a.a.a.a.a.a.a.a.a.a.a.a.a.a.x S W E R R R Z B R ) } #.1.t.5.1.6.t.t.6.s.s.s.k.k.k.k.Z.Z.k.A.g.k.k.k.k.k.k.m.K.K.Y.Y.E.E.G.K.Y.G.E.G.W.E.Y.E.E.Y.K.G.D.D.D.g.s.g.k.D.D.D.W.D.W.W.!.!.^.!.^.^.^.^.^./.(.}.}.^.^.}.^.^.^.^.{.!.}.^.^.{.{.!.{.}.{.!.^.!.!.!.Q.!.^.!.Q.!.!.!.E.E.Y.Y.Y.Y.G.H.H.Z.Z.Z.V.Z.V.k.V.D.A.Z.V.A.Z.H.D.U.Y.U.Y.!.!.^.!.!.!.W.E.K.E.J.J.J.J.A.J.G.J.G.K.D.K.K.A.A.K.K.A.K.v.m.G.G.G.A.K.K.G.J.E.J.J.J.J.J.G.E.E.J.J.E.!.{.!.!.W.{.^.!.!.!.W.^.!.!.E.E.E.E.E.E.E.E.E.W.!.!.^.!.!.^.^.!.^.!.^.{.{.}.}.{.}.}.{.^.^.{.^.{.}.^.^.^.{.{.{.{.{.{.^.{.{.^.^.}.}.^.}.^.^.[.{.{.E.E.!.E.E.E.E.G.G.m.v.g.d.y.y.6.1.#.] W B t 9 4 a.a.a.a.a.a.a.a.a.a.a.a.a.a.a.a.a.a.a.a.a.a.a.a.a.a.a.a.a.a.a.a.a.a.a.a.a.a.a.a.a.a.a.a.a.a.a.a.a.a.a.a.a.a.a.a.a.a.a.a.a.a.a.a.a.a.a.a.a.a.a.a.a.a.a.a.a.a.a.a.a.a.a.a.a.a.a.a.a.a.a.a.a.a.a.a.a.a.a.a.a.a.a.a.a.a.a.a.a.a.a.a.a.a.a.a.a.a.a.a.a.a.a.a.a.a.a.a.a.a.a.a.a.a.a.a.a.a.a.a.a.a.a.a.a.a.a.a.a.a.a.a.a.a.a.a.a.a.a.a.a.a.a.a.a.a.a.a.a.a.a.a.a.a.a.a.a.a.a.a.a.a.a.a.a.a.a.a.a.a.a.a.a.a.a.a.a.a.a.a.a.a.a.a.a.a.a.a.a.a.a.a.a.a.a.a.a.a.a.a.a.a.a.a.a.a.a.a.a.a.",
"a.a.a.a.a.a.a.a.a.a.a.a.a.a.a.a.a.a.a.a.a.a.a.a.a.a.a.a.a.a.a.a.a.a.a.a.a.a.a.a.a.a.a.a.a.a.a.a.a.a.a.a.a.a.a.a.a.a.a.a.a.a.a.a.a.a.a.a.a.a.a.a.a.a.a.a.D S T U U U U C B U W ] #.1.4.5.*.5.6.6.6.t.s.g.k.g.k.n.j.k.g.g.d.g.j.g.g.k.g.k.D.K.G.E.D.G.m.A.K.K.K.W.K.W.Y.K.D.G.D.D.k.g.k.g.k.k.k.U.H.I.Q.^.~.~.^.~.!.^.(.(.(.^.(.(.(.(.}.(. X}.^.^.!.^.{.!.{.{.^.^.^.^.!.{.!.!.^.^.!.^.^.^.^.!.!.!.!.!.E.E.K.G.K.K.G.D.D.Z.V.Z.V.k.k.V.A.D.V.A.V.D.A.H.Y.U.Y.Y.Y.!.!.^.^.!.!.!.E.J.G.G.E.G.K.K.G.G.E.E.E.K.Y.G.G.D.D.G.A.Y.G.E.K.K.W.K.K.K.K.W.W.W.W.W.E.E.E.E.K.W.!.E.W.J.E.!.E.!.{.W.G.!.W.!.[.!.E.E.E.E.E.E.!.E.E.J.!.E.!.^.!.!.^.}.{.^.{.{.{.{.^.!.^.^.!.^.}.{.{.}.}.^.}.}.{.{.{.{.{.{.^.^.{.{.{.{.{.^.}.^.^.!.!.!.W.E.!.E.E.E.E.J.m.m.v.d.d.y.y.5.1.#. ./ m 9 5 a.a.a.a.a.a.a.a.a.a.a.a.a.a.a.a.a.a.a.a.a.a.a.a.a.a.a.a.a.a.a.a.a.a.a.a.a.a.a.a.a.a.a.a.a.a.a.a.a.a.a.a.a.a.a.a.a.a.a.a.a.a.a.a.a.a.a.a.a.a.a.a.a.a.a.a.a.a.a.a.a.a.a.a.a.a.a.a.a.a.a.a.a.a.a.a.a.a.a.a.a.a.a.a.a.a.a.a.a.a.a.a.a.a.a.a.a.a.a.a.a.a.a.a.a.a.a.a.a.a.a.a.a.a.a.a.a.a.a.a.a.a.a.a.a.a.a.a.a.a.a.a.a.a.a.a.a.a.a.a.a.a.a.a.a.a.a.a.a.a.a.a.a.a.a.a.a.a.a.a.a.a.a.a.a.a.a.a.a.a.a.a.a.a.a.a.a.a.a.a.a.a.a.a.a.a.a.a.a.a.a.a.a.a.a.a.a.a.a.a.a.a.a.a.a.a.a.a.a.a.a.",
"a.a.a.a.a.a.a.a.a.a.a.a.a.a.a.a.a.a.a.a.a.a.a.a.a.a.a.a.a.a.a.a.a.a.a.a.a.a.a.a.a.a.a.a.a.a.a.a.a.a.a.a.a.a.a.a.a.a.a.a.a.a.a.a.a.a.a.a.a.a.a.a.a.a.a.c B U U P F U F S Z U W ]  .*.1.*.*.1.-.4.;.6.t.g.g.g.g.k.g.g.g.g.d.g.d.d.g.g.g.k.D.G.D.K.D.D.G.G.D.K.G.Y.G.E.Y.Y.D.D.k.j.g.s.g.g.k.Z.L.U.H.Q.^.Q.^.(.(.^.^.(.(.^.(.^.^.}.(.!.^.}.(.!.!.^.^.^.^.^.!.{.^.{.^.!.!.W.E.!.W.!.!.!.^.!.!.!.!.!.!.Q.!.W.Y.H.Y.H.D.D.D.Z.V.V.V.k.V.Z.A.V.V.V.H.D.D.H.Y.G.H.D.Y.!.!.Q.!.E.Y.E.A.J.D.G.K.A.G.W.J.E.E.E.E.E.!.G.E.W.W.!.K.D.K.!.!.Y.E.Y.W.W.W.Y.W.^.E.E.E.E.E.E.E.E.E.J.E.E.J.E.E.E.E.E.E.[.[.E.!.E.E.E.E.E.E.J.E.J.J.!.!.!.!.^.{.^.^.{.^.^.}.}.^.}.{.^.{.{.^.{.}.}.{.{.}.}.}.^.}.{.^.{.{.{.^.^.{.{.{.{.{.{.{.!.{.!.!.!.E.E.E.E.E.E.E.J.m.v.m.g.d.t.7.7.1.1.#._ B 5 , a.a.a.a.a.a.a.a.a.a.a.a.a.a.a.a.a.a.a.a.a.a.a.a.a.a.a.a.a.a.a.a.a.a.a.a.a.a.a.a.a.a.a.a.a.a.a.a.a.a.a.a.a.a.a.a.a.a.a.a.a.a.a.a.a.a.a.a.a.a.a.a.a.a.a.a.a.a.a.a.a.a.a.a.a.a.a.a.a.a.a.a.a.a.a.a.a.a.a.a.a.a.a.a.a.a.a.a.a.a.a.a.a.a.a.a.a.a.a.a.a.a.a.a.a.a.a.a.a.a.a.a.a.a.a.a.a.a.a.a.a.a.a.a.a.a.a.a.a.a.a.a.a.a.a.a.a.a.a.a.a.a.a.a.a.a.a.a.a.a.a.a.a.a.a.a.a.a.a.a.a.a.a.a.a.a.a.a.a.a.a.a.a.a.a.a.a.a.a.a.a.a.a.a.a.a.a.a.a.a.a.a.a.a.a.a.a.a.a.a.a.a.a.a.a.a.a.a.a.a.a.",
"a.a.a.a.a.a.a.a.a.a.a.a.a.a.a.a.a.a.a.a.a.a.a.a.a.a.a.a.a.a.a.a.a.a.a.a.a.a.a.a.a.a.a.a.a.a.a.a.a.a.a.a.a.a.a.a.a.a.a.a.a.a.a.a.a.a.a.a.a.a.a.a.a.a.a.B S F F Z S S S C S U W ]  .#.*.#.*.*.-.-.-.6.t.s.f.g.g.j.g.g.d.s.s.s.d.d.d.g.k.j.m.k.A.D.D.D.G.G.G.G.G.G.G.Y.Y.Y.H.k.g.g.s.s.g.k.k.V.U.U.R.Q.^.^.^./.(.(.^.^.(.^. X(.^.^.(.^.^.(.^.^.^.^.^.{.{.{.!.{.^.!.^.!.{.{.!.!.!.!.W.E.!.!.!.!.!.!.!.!.!.Y.Y.Y.D.D.D.D.V.V.V.V.V.V.Z.D.A.D.K.H.H.D.D.G.D.D.Y.Y.Y.!.!.Y.K.K.G.G.m.K.G.G.G.E.A.E.E.!.!.!.E.!.!.E.!.!.E.!.!.Y.W.W.^.!.!.W.W.!.Y.Y.!.!.^.W.!.E.!.E.!.E.!.E.!.E.J.J.E.E.J.E.E.E.E.!.E.!.!.E.[.E.E.!.W.J.E.!.!.!.E.!.!.W.^.{.^.^.{.{.^.{.^.{.}.^.^.^.^.{.{.{.^.}.|.}.}.{.^.{.{.{.{.}.{.{.{.{.{.{.!.!.^.!.W.!.W.J.J.E.J.G.J.G.m.v.g.g.d.y.y.5.4.1.*. .B 3 a.a.a.a.a.a.a.a.a.a.a.a.a.a.a.a.a.a.a.a.a.a.a.a.a.a.a.a.a.a.a.a.a.a.a.a.a.a.a.a.a.a.a.a.a.a.a.a.a.a.a.a.a.a.a.a.a.a.a.a.a.a.a.a.a.a.a.a.a.a.a.a.a.a.a.a.a.a.a.a.a.a.a.a.a.a.a.a.a.a.a.a.a.a.a.a.a.a.a.a.a.a.a.a.a.a.a.a.a.a.a.a.a.a.a.a.a.a.a.a.a.a.a.a.a.a.a.a.a.a.a.a.a.a.a.a.a.a.a.a.a.a.a.a.a.a.a.a.a.a.a.a.a.a.a.a.a.a.a.a.a.a.a.a.a.a.a.a.a.a.a.a.a.a.a.a.a.a.a.a.a.a.a.a.a.a.a.a.a.a.a.a.a.a.a.a.a.a.a.a.a.a.a.a.a.a.a.a.a.a.a.a.a.a.a.a.a.a.a.a.a.a.a.a.a.a.a.a.a.a.a.a.",
"a.a.a.a.a.a.a.a.a.a.a.a.a.a.a.a.a.a.a.a.a.a.a.a.a.a.a.a.a.a.a.a.a.a.a.a.a.a.a.a.a.a.a.a.a.a.a.a.a.a.a.a.a.a.a.a.a.a.a.a.a.a.a.a.a.a.a.a.a.a.a.a.a.a.a.B B G S B C S Z C P U W ]  .#.#.#.#.*.-.&.&.6.6.t.s.f.f.s.s.s.t.t.t.t.t.d.d.g.g.g.g.g.k.m.m.D.G.G.D.G.D.G.G.n.D.D.D.j.h.s.g.k.g.k.V.V.Q.R.W.Q.(.(.^.(.(.(.(.(.}. X^.(.^.^.^.(.^.^.(.^.}.(.!.^.!.^.!.^.^.{.!.!.!.!.!.E.!.!.E.Y.!.E.!.!.Y.Y.Y.Y.Y.Y.Y.U.D.D.k.k.V.V.D.H.V.D.H.D.H.K.K.A.D.D.D.D.Y.D.U.Y.!.!.Y.D.G.G.G.A.G.A.m.m.J.J.J.E.W.^.^.Y.!.!.E.W.E.E.Y.W.!.!.W.!.W.^.(.!.!.^.!.(.(.!.{.^.!.!.[.!.[.!.[.[.!.E.J.W.E.E.E.G.J.W.J.E.E.E.E.E.E.E.W.E.E.!.E.E.!.!.!.!.W.!.^.^.!.^.{.{.^.{.}.}.}.{.{.^.!.{.}.}.{.}.{.{.}.}.}.}.}.^.!.{.{.^.{.{.{.{.^.!.^.!.W.W.E.G.G.G.G.m.m.m.m.v.g.g.d.y.7.5.5.1.1...T 3 a.a.a.a.a.a.a.a.a.a.a.a.a.a.a.a.a.a.a.a.a.a.a.a.a.a.a.a.a.a.a.a.a.a.a.a.a.a.a.a.a.a.a.a.a.a.a.a.a.a.a.a.a.a.a.a.a.a.a.a.a.a.a.a.a.a.a.a.a.a.a.a.a.a.a.a.a.a.a.a.a.a.a.a.a.a.a.a.a.a.a.a.a.a.a.a.a.a.a.a.a.a.a.a.a.a.a.a.a.a.a.a.a.a.a.a.a.a.a.a.a.a.a.a.a.a.a.a.a.a.a.a.a.a.a.a.a.a.a.a.a.a.a.a.a.a.a.a.a.a.a.a.a.a.a.a.a.a.a.a.a.a.a.a.a.a.a.a.a.a.a.a.a.a.a.a.a.a.a.a.a.a.a.a.a.a.a.a.a.a.a.a.a.a.a.a.a.a.a.a.a.a.a.a.a.a.a.a.a.a.a.a.a.a.a.a.a.a.a.a.a.a.a.a.a.a.a.a.a.a.a.a.",
"a.a.a.a.a.a.a.a.a.a.a.a.a.a.a.a.a.a.a.a.a.a.a.a.a.a.a.a.a.a.a.a.a.a.a.a.a.a.a.a.a.a.a.a.a.a.a.a.a.a.a.a.a.a.a.a.a.a.a.a.a.a.a.a.a.a.a.a.a.a.a.a.a.a.a.c B F Z c B Z Z Z U R W ] ] ..#...#.*.&.&.&.-.6.6.s.d.d.t.d.t.t.t.t.t.t.s.d.d.d.g.g.k.g.g.k.k.A.m.m.m.k.m.m.k.k.h.g.f.h.h.g.g.k.V.Z.U.U.W.W.Q.^.^.^.(.^.^.^.(.^. X(.(.^.^.(.^.^.(.}.!.^.^.!.!.E.!.!.!.!.!.E.!.!.!.!.W.E.E.E.Y.Y.Y.Y.Y.Y.D.D.U.Y.U.Y.U.D.U.D.D.Z.Z.H.H.H.D.H.H.H.H.H.V.D.D.D.m.Y.Y.Y.Y.!.!.Y.G.K.G.G.J.m.K.G.A.J.G.E.E.^.^.{.!.^.!.!.!.E.W.!.{.!.!.^.!.!.^.^.}.!.^.Q.(.^.W.!.^.!.!.!.^.}.!.!.!.E.^.[.!.E.J.J.J.E.J.J.E.E.J.K.J.E.E.E.E.E.E.E.E.!.W.W.^.!.!.!.^.!.^.^.{.^.{.{.{.{.{.{.}.{.{.}.}.}.^.{.XXXX}.^.}.{.{.^.}.^.{.{.}.^.{.!.!.^.!.W.!.E.G.G.G.G.M.M.m.m.v.g.g.y.y.y.t.6.4.-.#.Q a.a.a.a.a.a.a.a.a.a.a.a.a.a.a.a.a.a.a.a.a.a.a.a.a.a.a.a.a.a.a.a.a.a.a.a.a.a.a.a.a.a.a.a.a.a.a.a.a.a.a.a.a.a.a.a.a.a.a.a.a.a.a.a.a.a.a.a.a.a.a.a.a.a.a.a.a.a.a.a.a.a.a.a.a.a.a.a.a.a.a.a.a.a.a.a.a.a.a.a.a.a.a.a.a.a.a.a.a.a.a.a.a.a.a.a.a.a.a.a.a.a.a.a.a.a.a.a.a.a.a.a.a.a.a.a.a.a.a.a.a.a.a.a.a.a.a.a.a.a.a.a.a.a.a.a.a.a.a.a.a.a.a.a.a.a.a.a.a.a.a.a.a.a.a.a.a.a.a.a.a.a.a.a.a.a.a.a.a.a.a.a.a.a.a.a.a.a.a.a.a.a.a.a.a.a.a.a.a.a.a.a.a.a.a.a.a.a.a.a.a.a.a.a.a.a.a.a.a.a.a.a.a.",
"a.a.a.a.a.a.a.a.a.a.a.a.a.a.a.a.a.a.a.a.a.a.a.a.a.a.a.a.a.a.a.a.a.a.a.a.a.a.a.a.a.a.a.a.a.a.a.a.a.a.a.a.a.a.a.a.a.a.a.a.a.a.a.a.a.a.a.a.a.a.a.a.a.a.a.l l Z Z m B Z B C P R W _ ]  .....#.#.#.&.-.-.6.t.s.d.s.t.t.t.t.s.t.t.t.y.d.d.s.d.g.j.d.s.g.g.k.g.g.g.k.k.D.j.h.g.h.s.f.h.s.h.k.I.U.Q.Q./.(./.(.(.(./.^.^.(. X(.^.(.(.^.^.(.(.^.^.Q.!.!.!.!.W.!.!.!.!.!.E.W.!.E.!.!.E.W.!.E.E.E.D.Y.Y.D.D.D.U.D.D.D.D.D.D.k.H.A.H.D.A.H.D.H.K.H.K.H.H.H.K.H.K.K.W.W.K.K.K.K.W.K.A.G.G.A.E.K.E.E.Y.E.^.!.{.!.^.^.!.^.!.!.^.^.^.!.^.(.^.(.!.!.(.!.^.!.!.^.!.(.^.^.^.^.{.}.^.^.!.!.[.!.^.!.E.[.}.!.E.E.!.E.J.J.W.E.E.E.E.!.^.E.E.W.!.!.E.!.!.W.!.!.!.!.!.^.{.^.^.{.^.{.^.{.^.{.^.}.}.^.{.}.{.^.!.{.{.{.{.{.}.}.}.{.^.^.!.!.!.E.E.E.G.G.J.G.m.m.v.g.d.d.d.y.t.y.t.6.6.1.*.#.a.a.a.a.a.a.a.a.a.a.a.a.a.a.a.a.a.a.a.a.a.a.a.a.a.a.a.a.a.a.a.a.a.a.a.a.a.a.a.a.a.a.a.a.a.a.a.a.a.a.a.a.a.a.a.a.a.a.a.a.a.a.a.a.a.a.a.a.a.a.a.a.a.a.a.a.a.a.a.a.a.a.a.a.a.a.a.a.a.a.a.a.a.a.a.a.a.a.a.a.a.a.a.a.a.a.a.a.a.a.a.a.a.a.a.a.a.a.a.a.a.a.a.a.a.a.a.a.a.a.a.a.a.a.a.a.a.a.a.a.a.a.a.a.a.a.a.a.a.a.a.a.a.a.a.a.a.a.a.a.a.a.a.a.a.a.a.a.a.a.a.a.a.a.a.a.a.a.a.a.a.a.a.a.a.a.a.a.a.a.a.a.a.a.a.a.a.a.a.a.a.a.a.a.a.a.a.a.a.a.a.a.a.a.a.a.a.a.a.a.a.a.a.a.a.a.a.a.a.a.a.a.a.",
"a.a.a.a.a.a.a.a.a.a.a.a.a.a.a.a.a.a.a.a.a.a.a.a.a.a.a.a.a.a.a.a.a.a.a.a.a.a.a.a.a.a.a.a.a.a.a.a.a.a.a.a.a.a.a.a.a.a.a.a.a.a.a.a.a.a.a.a.a.a.a.a.a.a.a.s k C C l B C m C F T W / ] }  . . . . .@.:.-.;.6.6.t.6.;.;.6.6.6.6.6.s.t.t.t.y.f.f.f.y.y.s.s.g.g.s.g.g.g.j.j.g.s.s.h.g.k.g.V.j.T.T.T.Q.Q.^.^.^./.^.Q.^./.(.^. X^.^.!.^.Q.^.^.^.^.W.!.!.W.!.W.!.!.!.E.E.K.Y.W.!.!.W.E.E.W.E.G.E.E.m.D.Y.Y.Y.Y.H.V.H.k.A.A.D.D.V.D.D.D.H.H.H.H.H.Y.H.H.H.K.K.W.H.K.K.K.G.G.K.J.J.J.m.G.A.K.E.E.E.W.W.^.!.!.^.W.^.^.^.^.!.!.!.{.W.^.(.!.}.(.^.^.!.!.(.^.^.}.(.(.(.!.!.^.}.!.W.!.[.{.^.W.^.!.{.^.E.E.E.E.E.E.E.!.E.E.E.E.^.J.!.!.!.!.E.E.E.E.E.E.!.!.^.^.!.^.^.{.^.}.^.{.^.^.{.{.{.}.{.{.}.}.}.^.^.{.{.^.^.}.}.{.!.!.^.^.^.!.E.J.E.G.K.G.A.G.m.v.g.d.d.d.y.y.t.5.5.6.-.&...J a.a.a.p.a.a.a.a.a.a.a.a.a.a.a.a.a.a.a.a.a.a.a.a.a.a.a.a.a.a.a.a.a.a.a.a.a.a.a.a.a.a.a.a.a.a.a.a.a.a.a.a.a.a.a.a.a.a.a.a.a.a.a.a.a.a.a.a.a.a.a.a.a.a.a.a.a.a.a.a.a.a.a.a.a.a.a.a.a.a.a.a.a.a.a.a.a.a.a.a.a.a.a.a.a.a.a.a.a.a.a.a.a.a.a.a.a.a.a.a.a.a.a.a.a.a.a.a.a.a.a.a.a.a.a.a.a.a.a.a.a.a.a.a.a.a.a.a.a.a.a.a.a.a.a.a.a.a.a.a.a.a.a.a.a.a.a.a.a.a.a.a.a.a.a.a.a.a.a.a.a.a.a.a.a.a.a.a.a.a.a.a.a.a.a.a.a.a.a.a.a.a.a.a.a.a.a.a.a.a.a.a.a.a.a.a.a.a.a.a.a.a.a.a.a.a.a.a.a.a.a.a.",
"a.a.a.a.a.a.a.a.a.a.a.a.a.a.a.a.a.a.a.a.a.a.a.a.a.a.a.a.a.a.a.a.a.a.a.a.a.a.a.a.a.a.a.a.a.a.a.a.a.a.a.a.a.a.a.a.a.a.a.a.a.a.a.a.a.a.a.a.a.a.a.a.a.a.a.t s n N l l B B Z S U E W ] ] ] } } }  .@.&.-.;.;.;.;.;.;.;.-.6.;.;.6.6.t.t.t.f.s.s.f.y.y.t.s.f.s.s.g.s.k.s.s.s.g.t.g.k.j.Z.D.I.U.Q.Q.Q.^.^.(.(.^.^.^.(.(.^.(.^.^.^.Q.^.!.Q.!.!.^.!.!.!.!.W.W.W.E.E.E.K.K.K.W.W.!.E.E.E.E.E.Y.G.A.K.D.Y.Y.Y.Y.H.H.H.V.D.D.H.A.Z.D.H.H.K.H.H.H.K.Y.H.K.W.K.R.K.K.H.D.K.E.K.J.E.G.A.A.A.J.E.E.W.W.^.!.!.{.!.^.^.^.^.!.^.!.!.^.!.^.(.}.^.!.(.(.}.(.^.^.^.(.(.(.^.!.!.^.!.!.^.^.W.^.}.^.^.^.^.^.^.W.E.E.!.E.E.W.E.E.E.E.[.!.E.E.E.E.E.E.E.E.E.E.E.!.!.!.^.^.^.^.^.^.{.}.}.{.^.^.{.^.^.{.^.}.{.!.{.{.{.{.{.{.^.^.{.^.^.^.^.W.!.!.E.E.K.G.J.A.m.v.v.v.d.d.d.y.y.y.t.y.6.4.:.#.W a.a.a.a.a.a.a.a.a.a.a.a.a.a.a.a.a.a.a.a.a.a.a.a.a.a.a.a.a.a.a.a.a.a.a.a.a.a.a.a.a.a.a.a.a.a.a.a.a.a.a.a.a.a.a.a.a.a.a.a.a.a.a.a.a.a.a.a.a.a.a.a.a.a.a.a.a.a.a.a.a.a.a.a.a.a.a.a.a.a.a.a.a.a.a.a.a.a.a.a.a.a.a.a.a.a.a.a.a.a.a.a.a.a.a.a.a.a.a.a.a.a.a.a.a.a.a.a.a.a.a.a.a.a.a.a.a.a.a.a.a.a.a.a.a.a.a.a.a.a.a.a.a.a.a.a.a.a.a.a.a.a.a.a.a.a.a.a.a.a.a.a.a.a.a.a.a.a.a.a.a.a.a.a.a.a.a.a.a.a.a.a.a.a.a.a.a.a.a.a.a.a.a.a.a.a.a.a.a.a.a.a.a.a.a.a.a.a.a.a.a.a.a.a.a.a.a.a.a.a.a.a.",
"a.a.a.a.a.a.a.a.a.a.a.a.a.a.a.a.a.a.a.a.a.a.a.a.a.a.a.a.a.a.a.a.a.a.a.a.a.a.a.a.a.a.a.a.a.a.a.a.a.a.a.a.a.a.a.a.a.a.a.a.a.a.a.a.a.a.a.a.a.a.a.a.a.a.a.9 9 k l h l c B Z F U R W ] ] ] ] ] } }  .&.&.-.-.-.;.-.;.;.-.-.;.;.-.;.6.t.t.y.t.t.t.t.t.t.t.s.s.s.s.g.f.s.s.t.f.s.k.k.k.U.U.I.U.~.Q.!.^.^.^.(.^.^.(.(.~.^.^.^.^.^.Q.Q.!.!.!.Q.W.W.!.W.W.W.W.E.Y.G.Y.Y.K.K.K.E.W.E.Y.E.G.E.G.E.K.K.Y.H.Y.K.K.H.D.H.A.A.A.H.H.A.A.Y.H.H.H.K.K.Y.W.Y.Y.W.W.W.Y.D.Y.Y.H.K.K.A.E.J.G.K.K.K.E.E.E.^.^.!.!.^.!.W.!.!.^.!.^.^.!.^.}.^.^.(.!.}.(.^.(.(.}.(.(.(.(.^.(.(.^.(.(.(.^.^.^.}.}.^.^.^.^.^.^.W.E.^.E.E.E.E.E.E.E.E.!.G.E.J.E.!.E.!.E.E.J.E.E.!.!.!.{.{.^.{.{.{.^.{.{.^.{.^.^.{.{.{.{.{.{.!.{.^.{.}.}.^.^.^.{.^.!.^.!.!.E.!.W.E.G.J.J.J.J.m.v.g.d.d.d.y.y.y.5.t.5.4.1.#...a.a.a.a.a.a.a.a.a.a.a.a.a.a.a.a.a.a.a.a.a.a.a.a.a.a.a.a.a.a.a.a.a.a.a.a.a.a.a.a.a.a.a.a.a.a.a.a.a.a.a.a.a.a.a.a.a.a.a.a.a.a.a.a.a.a.a.a.a.a.a.a.a.a.a.a.a.a.a.a.a.a.a.a.a.a.a.a.a.a.a.a.a.a.a.a.a.a.a.a.a.a.a.a.a.a.a.a.a.a.a.a.a.a.a.a.a.a.a.a.a.a.a.a.a.a.a.a.a.a.a.a.a.a.a.a.a.a.a.a.a.a.a.a.a.a.a.a.a.a.a.a.a.a.a.a.a.a.a.a.a.a.a.a.a.a.a.a.a.a.a.a.a.a.a.a.a.a.a.a.a.a.a.a.a.a.a.a.a.a.a.a.a.a.a.a.a.a.a.a.a.a.a.a.a.a.a.a.a.a.a.a.a.a.a.a.a.a.a.a.a.a.a.a.a.a.a.a.a.a.a.a.",
"a.a.a.a.a.a.a.a.a.a.a.a.a.a.a.a.a.a.a.a.a.a.a.a.a.a.a.a.a.a.a.a.a.a.a.a.a.a.a.a.a.a.a.a.a.a.a.a.a.a.a.a.a.a.a.a.a.a.a.a.a.a.a.a.a.a.a.a.a.a.a.a.a.a.a.r 9 s s s d l c Z P U R W _ _ _ ] _ _ `  .@.:.&.-.-.-.-.-.-.-.-.-.6.;.6.6.t.t.t.6.;.6.;.t.t.t.t.t.s.s.s.t.s.s.s.f.h.h.k.j.Z.I.U.U.~.Q.^.Q.^.^.(.^.(.^.(.^.(.^.(.!.!.^.Q.T.Y.W.W.K.K.W.W.Y.Y.K.E.G.G.K.G.K.E.K.W.E.W.K.G.D.G.Y.Y.K.G.G.G.G.K.K.G.H.D.D.K.m.V.D.H.D.H.H.H.H.H.H.H.H.H.H.W.W.W.Y.U.W.W.H.G.Y.J.E.G.A.m.G.E.!.!.!.!.!.!.!.!.W.!.!.!.^.!.^.!.}.}.}.^.!.(.(. X}. X}.(.}.}.(.}.}.(.(.^.^.(.^.^.(.^.!.}.}.}.}.^.^.^.!.E.E.E.E.E.!.E.J.!.^.E.E.G.E.E.J.E.E.E.E.E.E.E.E.!.^.{.{.{.{.}.{.!.^.{.{.^.^.{.{.}.}.}.^.{.{.{.}.{.^.^.{.{.{.^.{.{.^.^.!.W.W.E.E.E.J.E.J.J.A.v.v.g.d.y.y.y.y.t.5.t.5.5.-.*...R a.a.a.a.a.a.a.a.a.a.a.a.a.a.a.a.a.a.a.a.a.a.a.a.a.a.a.a.a.a.a.a.a.a.a.a.a.a.a.a.a.a.a.a.a.a.a.a.a.a.a.a.a.a.a.a.a.a.a.a.a.a.a.a.a.a.a.a.a.a.a.a.a.a.a.a.a.a.a.a.a.a.a.a.a.a.a.a.a.a.a.a.a.a.a.a.a.a.a.a.a.a.a.a.a.a.a.a.a.a.a.a.a.a.a.a.a.a.a.a.a.a.a.a.a.a.a.a.a.a.a.a.a.a.a.a.a.a.a.a.a.a.a.a.a.a.a.a.a.a.a.a.a.a.a.a.a.a.a.a.a.a.a.a.a.a.a.a.a.a.a.a.a.a.a.a.a.a.a.a.a.a.a.a.a.a.a.a.a.a.a.a.a.a.a.a.a.a.a.a.a.a.a.a.a.a.a.a.a.a.a.a.a.a.a.a.a.a.a.a.a.a.a.a.a.a.a.a.a.a.a.",
"a.a.a.a.a.a.a.a.a.a.a.a.a.a.a.a.a.a.a.a.a.a.a.a.a.a.a.a.a.a.a.a.a.a.a.a.a.a.a.a.a.a.a.a.a.a.a.a.a.a.a.a.a.a.a.a.a.a.a.a.a.a.a.a.a.a.a.a.a.a.a.a.a.a.a.a.7 t 9 t t h l Z U U R E / _ / / / / `  .&.&.&.&.&.&.*.&.&.&.&.-.-.;.6.6.6.t.t.t.t.t.t.t.t.;.;.t.t.t.6.;.t.s.s.f.g.k.h.j.Z.I.U.U.Q.Q.!.!.^.(.^.^.Q./.^.(.^.^.^.!.Q.Q.!.Q.!.Y.Y.W.H.K.G.G.E.K.E.G.G.K.Y.K.E.E.E.E.J.Y.G.G.D.K.Y.E.K.Y.G.K.G.A.D.V.D.A.H.V.V.A.H.H.H.H.H.H.Y.W.H.H.H.H.K.Y.K.K.V.D.W.H.G.K.G.E.G.D.G.!.!.!.!.!.!.W.{.!.!.!.^.!.Y.Y.!.^.}.^.^.}.(.}.(.(. X X}. X^.(.(.(.(.}.(.(.(.(.^.}.}.^.(.(.}.}.}.}.}.^.^.^.!.E.E.W.E.E.E.E.E.E.E.E.E.E.E.J.E.E.!.!.E.E.E.E.!.^.^.^.{.{.^.^.{.{.{.!.{.{.^.}.}.}.}.}.}.^.^.{.{.^.!.!.!.{.^.^.{.!.!.!.!.E.!.E.!.J.E.J.J.m.m.m.v.d.d.y.y.y.t.5.t.6.4.1.-...[ a.a.a.a.a.a.a.a.a.a.a.a.a.a.a.a.a.a.a.a.a.a.a.a.a.a.a.a.a.a.a.a.a.a.a.a.a.a.a.a.a.a.a.a.a.a.a.a.a.a.a.a.a.a.a.a.a.a.a.a.a.a.a.a.a.a.a.a.a.a.a.a.a.a.a.a.a.a.a.a.a.a.a.a.a.a.a.a.a.a.a.a.a.a.a.a.a.a.a.a.a.a.a.a.a.a.a.a.a.a.a.a.a.a.a.a.a.a.a.a.a.a.a.a.a.a.a.a.a.a.a.a.a.a.a.a.a.a.a.a.a.a.a.a.a.a.a.a.a.a.a.a.a.a.a.a.a.a.a.a.a.a.a.a.a.a.a.a.a.a.a.a.a.a.a.a.a.a.a.a.a.a.a.a.a.a.a.a.a.a.a.a.a.a.a.a.a.a.a.a.a.a.a.a.a.a.a.a.a.a.a.a.a.a.a.a.a.a.a.a.a.a.a.a.a.a.a.a.a.a.a.",
"a.a.a.a.a.a.a.a.a.a.a.a.a.a.a.a.a.a.a.a.a.a.a.a.a.a.a.a.a.a.a.a.a.a.a.a.a.a.a.a.a.a.a.a.a.a.a.a.a.a.a.a.a.a.a.a.a.a.a.a.a.a.a.a.a.a.a.a.a.a.a.a.a.a.a.a.5 9 9 5 r u j Z U U U R / _ / / W / _ '  .&.@.#.#.#.#.#.@.#.&.&.-.-.-.;.;.6.;.;.t.;.;.;.;.6.;.t.;.;.-.=.;.s.f.g.h.j.j.Z.Z.I.U.U.T.T.!.!.Q.^.Q.!.Q.^.^.Q.!.!.!.!.!.Q.!.W.!.Y.Y.W.Y.Y.W.W.W.Y.E.E.G.E.Y.K.K.W.E.K.G.Y.m.G.G.K.W.!.G.Y.W.K.K.A.D.H.D.V.A.D.D.D.D.H.H.H.H.H.W.H.H.H.H.H.K.Y.H.D.H.D.H.V.E.A.G.A.E.G.G.!.!.!.^.^.!.W.W.{.E.!.!.!.!.!.^.}.^.(.^.^.^.}.}.}.(.(.}.}.(.}.(.(.(.(.(.(.(.}.}.(.}.(.(.(.}.}.}.}.}.}.}.}.^.!.[.!.[.[.[.^.!.E.E.E.E.E.E.W.E.E.E.E.!.!.E.E.!.^.^.^.^.{.^.^.{.{.{.{.{.^.{.{.{.{.{.{.{.{.{.^.{.^.^.^.^.!.^.{.!.!.^.W.W.E.!.E.!.E.E.J.A.m.m.v.g.d.y.y.5.y.5.5.t.y.5.-.-.#...a.a.a.a.a.a.a.a.a.a.a.a.a.a.a.a.a.a.a.a.a.a.a.a.a.a.a.a.a.a.a.a.a.a.a.a.a.a.a.a.a.a.a.a.a.a.a.a.a.a.a.a.a.a.a.a.a.a.a.a.a.a.a.a.a.a.a.a.a.a.a.a.a.a.a.a.a.a.a.a.a.a.a.a.a.a.a.a.a.a.a.a.a.a.a.a.a.a.a.a.a.a.a.a.a.a.a.a.a.a.a.a.a.a.a.a.a.a.a.a.a.a.a.a.a.a.a.a.a.a.a.a.a.a.a.a.a.a.a.a.a.a.a.a.a.a.a.a.a.a.a.a.a.a.a.a.a.a.a.a.a.a.a.a.a.a.a.a.a.a.a.a.a.a.a.a.a.a.a.a.a.a.a.a.a.a.a.a.a.a.a.a.a.a.a.a.a.a.a.a.a.a.a.a.a.a.a.a.a.a.a.a.a.a.a.a.a.a.a.a.a.a.a.a.a.a.a.a.a.a.a.",
"a.a.a.a.a.a.a.a.a.a.a.a.a.a.a.a.a.a.a.a.a.a.a.a.a.a.a.a.a.a.a.a.a.a.a.a.a.a.a.a.a.a.a.a.a.a.a.a.a.a.a.a.a.a.a.a.a.a.a.a.a.a.a.a.a.a.a.a.a.a.a.a.a.a.a.a.< 5 8 , 8 t d Z U U U U W / W W E E _ `  .@.+.@.#.&.@.@.@.@.&.&.&.-.-.-.-.6.6.;.;.;.6.;.;.;.t.;.;.-.-.-.6.s.g.g.k.j.j.Z.U.I.T.Y.Y.Q.!.!.Q.!.!.!.!.^.(.^.!.!.!.!.Q.!.!.Q.!.Y.Y.U.Y.Y.W.K.K.H.G.K.G.Y.G.A.K.K.G.Y.D.D.D.K.K.E.Y.E.G.Y.K.A.G.A.A.H.D.k.k.V.A.V.H.H.H.K.K.K.H.H.Y.Y.Y.Y.W.W.K.K.A.D.V.H.D.A.G.G.D.K.E.{.^.^.^.^.W.!.E.[.E.!.!.^.^.^.(.}.^.^.}.!.!.(.}.}.(.(.}.(.}.(.}.}.(. X(.(.}.}.(.(.(.}.(.(.}.}.^.}.}.}.^.^.E.W.[.E.!.{.{.!.E.E.E.E.E.E.E.E.E.E.!.E.E.!.!.W.!.!.^.!.!.!.^.^.{.{.{.^.{.!.^.}.{.{.{.{.^.^.^.{.^.!.^.!.{.!.{.}.^.!.^.!.!.E.E.E.E.J.E.J.J.A.m.v.v.d.y.t.t.t.5.5.t.5.5.1.1.#.| U a.a.a.a.a.a.a.a.a.a.a.a.a.a.a.a.a.a.a.a.a.a.a.a.a.a.a.a.a.a.a.a.a.a.a.a.a.a.a.a.a.a.a.a.a.a.a.a.a.a.a.a.a.a.a.a.a.a.a.a.a.a.a.a.a.a.a.a.a.a.a.a.a.a.a.a.a.a.a.a.a.a.a.a.a.a.a.a.a.a.a.a.a.a.a.a.a.a.a.a.a.a.a.a.a.a.a.a.a.a.a.a.a.a.a.a.a.a.a.a.a.a.a.a.a.a.a.a.a.a.a.a.a.a.a.a.a.a.a.a.a.a.a.a.a.a.a.a.a.a.a.a.a.a.a.a.a.a.a.a.a.a.a.a.a.a.a.a.a.a.a.a.a.a.a.a.a.a.a.a.a.a.a.a.a.a.a.a.a.a.a.a.a.a.a.a.a.a.a.a.a.a.a.a.a.a.a.a.a.a.a.a.a.a.a.a.a.a.a.a.a.a.a.a.a.a.a.a.a.a.",
"a.a.a.a.a.a.a.a.a.a.a.a.a.a.a.a.a.a.a.a.a.a.a.a.a.a.a.a.a.a.a.a.a.a.a.a.a.a.a.a.a.a.a.a.a.a.a.a.a.a.a.a.a.a.a.a.a.a.a.a.a.a.a.a.a.a.a.a.a.a.a.a.a.a.a.a.6 , 5 , 5 9 s V U U U U E W E E R E / _  . . .@.@.&.@.@.#.@.#.@.&.-.-.*.-.-.;.;.;.-.-.;.4.t.;.;.-.&.-.;.t.s.g.h.h.h.h.k.j.Z.I.Z.U.U.T.T.W.Y.Q.Q.!.!.!.!.!.W.!.!.!.Y.E.!.Y.Y.Y.W.W.K.G.G.G.K.G.G.Y.K.Y.G.K.m.A.D.G.A.D.G.E.K.D.D.K.D.G.A.G.A.K.j.G.G.A.A.m.V.V.H.H.H.H.H.H.H.K.K.W.W.D.H.K.K.K.G.A.G.A.A.G.G.m.G.E.^.!.^.!.!.^.!.^.!.!.^.^.(.!.^.^.(.^.^.^.(.^.}.}.}.(.}.(.}.}.^.}. X(.}.(.(.(.}.}.}.(.}.}.}.}.{.^.}.}.[.!.E.!.!.[.E.!.[.^.[.[.E.[.[.[.[.^.!.!.!.^.!.!.^.!.!.!.{.^.!.^.!.!.^.^.{.!.{.^.^.}.{.{.{.{.^.^.^.^.{.^.{.{.{.{.{.^.^.^.^.!.!.!.E.W.W.E.E.E.J.G.A.m.m.v.d.d.y.y.t.5.6.5.t.5.-.:.#...W a.a.a.a.a.a.a.a.a.a.a.a.a.a.a.a.a.a.a.a.a.a.a.a.a.a.a.a.a.a.a.a.a.a.a.a.a.a.a.a.a.a.a.a.a.a.a.a.a.a.a.a.a.a.a.a.a.a.a.a.a.a.a.a.a.a.a.a.a.a.a.a.a.a.a.a.a.a.a.a.a.a.a.a.a.a.a.a.a.a.a.a.a.a.a.a.a.a.a.a.a.a.a.a.a.a.a.a.a.a.a.a.a.a.a.a.a.a.a.a.a.a.a.a.a.a.a.a.a.a.a.a.a.a.a.a.a.a.a.a.a.a.a.a.a.a.a.a.a.a.a.a.a.a.a.a.a.a.a.a.a.a.a.a.a.a.a.a.a.a.a.a.a.a.a.a.a.a.a.a.a.a.a.a.a.a.a.a.a.a.a.a.a.a.a.a.a.a.a.a.a.a.a.a.a.a.a.a.a.a.a.a.a.a.a.a.a.a.a.a.a.a.a.a.a.a.a.a.a.a.",
"a.a.a.a.a.a.a.a.a.a.a.a.a.a.a.a.a.a.a.a.a.a.a.a.a.a.a.a.a.a.a.a.a.a.a.a.a.a.a.a.a.a.a.a.a.a.a.a.a.a.a.a.a.a.a.a.a.a.a.a.a.a.a.a.a.a.a.a.a.a.a.a.a.a.a.a.a.> > , , 5 u C S U U U R R R R R E W _ ` `  . . . . .@.@.@.@. .@.#.#.&.-.&.&.-.-.-.-.-.-.-.-.-.&.-.;.t.t.t.s.h.h.h.h.h.k.Z.I.U.U.H.U.U.D.Y.Q.Y.Y.Q.Y.W.E.Y.W.!.W.Y.Y.Y.Y.K.Y.E.E.G.G.K.G.G.Y.A.D.G.G.K.G.G.V.k.H.H.V.V.K.H.K.K.H.A.H.A.V.k.m.G.m.m.m.D.D.A.V.H.H.H.A.H.K.H.K.D.K.Y.K.G.G.G.D.G.G.G.D.m.G.G.A.D.W.W.W.W.W.K.W.Y.W.!.!.W.!.^.!.!.!.^.!.}.}.^.!.^.}.}.}.XX X}.!.}.}.(.^.}.(.(.}.^.(.}.(.(.^.^.{.{.}.}.}.[.^.^.}.}.}.}.^.^.^.^.{.W.E.E.!.!.!.!.^.!.^.!.!.^.^.^.^.{.^.!.^.}.^.!.^.^.{.{.{.{.^.{.^.}.}.}.{.^.}.{.{.^.!.{.{.{.^.!.!.E.!.!.E.E.E.E.E.E.J.G.G.G.m.g.g.g.d.y.t.5.5.6.6.t.5.1.1.#.....a.a.a.a.a.a.a.a.a.a.a.a.a.a.a.a.a.a.a.a.a.a.a.a.a.a.a.a.a.a.a.a.a.a.a.a.a.a.a.a.a.a.a.a.a.a.a.a.a.a.a.a.a.a.a.a.a.a.a.a.a.a.a.a.a.a.a.a.a.a.a.a.a.a.a.a.a.a.a.a.a.a.a.a.a.a.a.a.a.a.a.a.a.a.a.a.a.a.a.a.a.a.a.a.a.a.a.a.a.a.a.a.a.a.a.a.a.a.a.a.a.a.a.a.a.a.a.a.a.a.a.a.a.a.a.a.a.a.a.a.a.a.a.a.a.a.a.a.a.a.a.a.a.a.a.a.a.a.a.a.a.a.a.a.a.a.a.a.a.a.a.a.a.a.a.a.a.a.a.a.a.a.a.a.a.a.a.a.a.a.a.a.a.a.a.a.a.a.a.a.a.a.a.a.a.a.a.a.a.a.a.a.a.a.a.a.a.a.a.a.a.a.a.a.a.a.a.a.a.a.",
"a.a.a.a.a.a.a.a.a.a.a.a.a.a.a.a.a.a.a.a.a.a.a.a.a.a.a.a.a.a.a.a.a.a.a.a.a.a.a.a.a.a.a.a.a.a.a.a.a.a.a.a.a.a.a.a.a.a.a.a.a.a.a.a.a.a.a.a.a.a.a.a.a.a.a.a.a.6 * , - , 9 c D G G U U U U T R T E / _ ` }  . . . . . . .+.+.@.#.&.&.:.&.&.-.-.-.-.-.-.-.-.&.&.:.;.t.t.s.h.h.h.h.k.k.j.Z.Z.I.H.Z.D.H.D.D.U.U.U.D.Y.D.D.W.W.Y.Y.Y.D.H.D.G.G.K.E.G.G.G.D.D.A.k.m.A.A.D.A.G.A.A.H.H.A.H.D.K.A.A.H.k.V.V.V.j.m.m.m.D.A.D.m.G.V.H.H.H.H.H.H.H.K.K.K.G.G.D.D.G.D.G.D.m.G.D.G.D.K.Y.W.W.W.W.!.W.Y.!.!.^.!.!.!.^.!.^.^.^.^.(.^.!.(.}.}.}.}.(.}.}.(.(.(.}.}.(.^.^.(.^.!.}.}.(.^.(.}.{.}.}.}.{.[.[.}.}.^.}.^.^.}.^.^.E.!.E.J.E.E.[.!.!.^.^.!.!.^.^.}.{.{.{.!.^.!.!.{.^.{.{.}.^.}.}.}.}.}.}.{.}.}.{.{.}.^.{.{.{.^.^.E.E.!.E.E.E.E.E.W.E.G.G.G.G.A.v.v.v.g.y.t.6.6.6.6.t.4.1.1.#...} c a.a.a.a.a.a.a.a.a.a.a.a.a.a.a.a.a.a.a.a.a.a.a.a.a.a.a.a.a.a.a.a.a.a.a.a.a.a.a.a.a.a.a.a.a.a.a.a.a.a.a.a.a.a.a.a.a.a.a.a.a.a.a.a.a.a.a.a.a.a.a.a.a.a.a.a.a.a.a.a.a.a.a.a.a.a.a.a.a.a.a.a.a.a.a.a.a.a.a.a.a.a.a.a.a.a.a.a.a.a.a.a.a.a.a.a.a.a.a.a.a.a.a.a.a.a.a.a.a.a.a.a.a.a.a.a.a.a.a.a.a.a.a.a.a.a.a.a.a.a.a.a.a.a.a.a.a.a.a.a.a.a.a.a.a.a.a.a.a.a.a.a.a.a.a.a.a.a.a.a.a.a.a.a.a.a.a.a.a.a.a.a.a.a.a.a.a.a.a.a.a.a.a.a.a.a.a.a.a.a.a.a.a.a.a.a.a.a.a.a.a.a.a.a.a.a.a.a.a.",
"a.a.a.a.a.a.a.a.a.a.a.a.a.a.a.a.a.a.a.a.a.a.a.a.a.a.a.a.a.a.a.a.a.a.a.a.a.a.a.a.a.a.a.a.a.a.a.a.a.a.a.a.a.a.a.a.a.a.a.a.a.a.a.a.a.a.a.a.a.a.a.a.a.a.a.a.a.a.< - : - 5 h B S F P U U U G T T R W / ` `  . .}  . . . . .@.@.@.@.#.#.&.*.-.-.-.-.-.-.-.&.@.&.;.;.t.s.f.h.h.h.h.h.k.k.k.k.j.j.V.k.V.V.V.D.Y.Y.D.Y.H.G.G.G.G.G.G.D.G.A.G.G.D.G.G.G.G.A.m.m.m.D.m.m.A.G.m.H.H.D.H.K.H.A.A.V.V.V.V.V.V.k.k.m.m.m.A.D.G.j.m.m.D.D.D.A.A.H.D.G.Y.G.G.G.G.K.Y.D.D.G.G.D.G.Y.K.H.K.W.W.!.W.W.!.!.!.^.W.W.!.^.!.!.(.^.^.(.}.(.!.(.}.(.}.(.^.(.(.(.}.(.!.(.}.(.!.(.}.(.(.}.}.(.(.{.}.}.}.}.[.{.{.}.}.^.^.^.W.^.W.^.E.!.J.E.!.E.!.!.{.{.{.^.{.{.^.^.^.}.{.^.{.{.{.^.{.^.!.{.^.{.^.{.}.^.}.}.}.^.^.{.}.{.^.{.{.[.[.!.!.E.E.E.E.W.E.E.J.K.A.m.m.m.v.m.v.g.d.t.6.4.6.6.5.6.-.*.<...} R a.a.a.a.a.a.a.a.a.a.a.a.a.a.a.a.a.a.a.a.a.a.a.a.a.a.a.a.a.a.a.a.a.a.a.a.a.a.a.a.a.a.a.a.a.a.a.a.a.a.a.a.a.a.a.a.a.a.a.a.a.a.a.a.a.a.a.a.a.a.a.a.a.a.a.a.a.a.a.a.a.a.a.a.a.a.a.a.a.a.a.a.a.a.a.a.a.a.a.a.a.a.a.a.a.a.a.a.a.a.a.a.a.a.a.a.a.a.a.a.a.a.a.a.a.a.a.a.a.a.a.a.a.a.a.a.a.a.a.a.a.a.a.a.a.a.a.a.a.a.a.a.a.a.a.a.a.a.a.a.a.a.a.a.a.a.a.a.a.a.a.a.a.a.a.a.a.a.a.a.a.a.a.a.a.a.a.a.a.a.a.a.a.a.a.a.a.a.a.a.a.a.a.a.a.a.a.a.a.a.a.a.a.a.a.a.a.a.a.a.a.a.a.a.a.a.a.a.a.",
"a.a.a.a.a.a.a.a.a.a.a.a.a.a.a.a.a.a.a.a.a.a.a.a.a.a.a.a.a.a.a.a.a.a.a.a.a.a.a.a.a.a.a.a.a.a.a.a.a.a.a.a.a.a.a.a.a.a.a.a.a.a.a.a.a.a.a.a.a.a.a.a.a.a.a.a.a.a.a.> * - , t x S S F U P F G G G T W / _ _ } } } } }  . .@.@.&.@.@.#.&.&.&.-.-.-.-.-.&.@.@.@.-.;.;.;.s.s.f.h.h.h.k.h.k.k.k.k.k.k.k.k.k.g.j.Z.D.D.D.D.A.m.D.D.G.D.A.G.m.A.D.D.D.D.A.A.m.m.A.m.D.G.m.D.G.K.G.Y.D.Y.H.m.V.m.V.A.V.j.j.k.k.g.k.A.m.A.m.D.A.m.V.m.H.H.A.Y.K.A.A.G.G.G.G.G.G.K.G.D.D.D.G.K.Y.!.Y.W.W.W.!.!.!.^.!.!.!.^.!.!.(.(.!.^.^.!.!.(.(.^.^.^.^.(.(.}.}. X}.}.(.(.}.}.(.(.(.(.(.(.(.^.^.!.{.}.{.^.|.}.[.[.}.}.^.W.W.W.W.^.!.E.J.E.[.[.E.E.!.^.^.{.^.!.^.!.^.{.^.!.^.^.^.{.{.{.{.^.^.^.{.^.{.^.{.{.}.^.}.}.{.[.[.{.{.[.{.{.!.!.E.E.E.E.W.E.J.J.G.A.A.m.m.v.v.g.g.t.t.6.1.4.6.6.4.*.#.<.#.} R a.a.a.a.a.a.a.a.a.a.a.a.a.a.a.a.a.a.a.a.a.a.a.a.a.a.a.a.a.a.a.a.a.a.a.a.a.a.a.a.a.a.a.a.a.a.a.a.a.a.a.a.a.a.a.a.a.a.a.a.a.a.a.a.a.a.a.a.a.a.a.a.a.a.a.a.a.a.a.a.a.a.a.a.a.a.a.a.a.a.a.a.a.a.a.a.a.a.a.a.a.a.a.a.a.a.a.a.a.a.a.a.a.a.a.a.a.a.a.a.a.a.a.a.a.a.a.a.a.a.a.a.a.a.a.a.a.a.a.a.a.a.a.a.a.a.a.a.a.a.a.a.a.a.a.a.a.a.a.a.a.a.a.a.a.a.a.a.a.a.a.a.a.a.a.a.a.a.a.a.a.a.a.a.a.a.a.a.a.a.a.a.a.a.a.a.a.a.a.a.a.a.a.a.a.a.a.a.a.a.a.a.a.a.a.a.a.a.a.a.a.a.a.a.a.a.a.a.a.",
"a.a.a.a.a.a.a.a.a.a.a.a.a.a.a.a.a.a.a.a.a.a.a.a.a.a.a.a.a.a.a.a.a.a.a.a.a.a.a.a.a.a.a.a.a.a.a.a.a.a.a.a.a.a.a.a.a.a.a.a.a.a.a.a.a.a.a.a.a.a.a.a.a.a.a.a.a.a.a.a.< * # 6 s B Z S S F S S F G T E / / _ ` ` } } }  . .@.@.#.@.@.&.&.&.&.:.&.-.-.:.&. . .@.=.;.;.s.s.h.h.h.h.h.k.k.k.B.k.f.h.k.k.h.f.k.k.k.k.k.k.A.m.k.m.m.m.m.A.A.m.m.m.A.D.m.m.m.m.D.G.m.G.A.G.Y.E.G.H.H.D.A.A.V.A.A.A.A.V.j.V.j.j.j.m.m.k.k.A.m.A.m.A.m.D.D.H.D.H.A.A.G.G.A.G.G.G.A.D.D.G.A.G.E.E.Y.K.W.^.W.!.!.^.!.!.!.^.!.^.!.(.(.^.^.(.!.!.^.(.(.!.!.!.^.}.^.(.}.}.}.}.}.}.}.}.}.(.}.(.(.(.(.(.(.{.}.}.}.}.^.^.[.}.}.^.^.^.}.}.^.E.E.E.E.W.E.E.W.!.^.^.^.^.!.!.!.!.!.{.^.W.^.!.!.^.^.}.^.{.{.^.^.{.!.^.{.^.{.}.^.{.[.^.^.^.{.{.^.!.[.E.!.E.E.E.J.J.G.A.A.A.m.m.v.v.g.d.y.4.1.y.6.6.1.1.1.1.#.#. .| x a.a.a.a.a.a.a.a.a.a.a.a.a.a.a.a.a.a.a.a.a.a.a.a.a.a.a.a.a.a.a.a.a.a.a.a.a.a.a.a.a.a.a.a.a.a.a.a.a.a.a.a.a.a.a.a.a.a.a.a.a.a.a.a.a.a.a.a.a.a.a.a.a.a.a.a.a.a.a.a.a.a.a.a.a.a.a.a.a.a.a.a.a.a.a.a.a.a.a.a.a.a.a.a.a.a.a.a.a.a.a.a.a.a.a.a.a.a.a.a.a.a.a.a.a.a.a.a.a.a.a.a.a.a.a.a.a.a.a.a.a.a.a.a.a.a.a.a.a.a.a.a.a.a.a.a.a.a.a.a.a.a.a.a.a.a.a.a.a.a.a.a.a.a.a.a.a.a.a.a.a.a.a.a.a.a.a.a.a.a.a.a.a.a.a.a.a.a.a.a.a.a.a.a.a.a.a.a.a.a.a.a.a.a.a.a.a.a.a.a.a.a.a.a.a.a.a.a.",
"a.a.a.a.a.a.a.a.a.a.a.a.a.a.a.a.a.a.a.a.a.a.a.a.a.a.a.a.a.a.a.a.a.a.a.a.a.a.a.a.a.a.a.a.a.a.a.a.a.a.a.a.a.a.a.a.a.a.a.a.a.a.a.a.a.a.a.a.a.a.a.a.a.a.a.a.a.a.a.a.a.> o > r l B Z S S S S S S G E E / / ` _ ` } } }  . . .@. .@.@.@.&.&.:.:.:.&.&.@. . .&.;.;.s.s.f.h.h.h.h.h.h.h.h.f.h.h.f.h.f.s.s.h.g.k.k.k.k.V.m.k.g.k.g.k.m.k.m.k.j.k.m.k.k.A.A.G.D.D.Y.D.Y.Y.W.K.K.H.H.D.H.A.H.A.A.V.j.k.k.k.j.A.m.m.m.k.m.G.A.m.D.V.A.D.D.V.D.D.G.K.G.G.G.G.G.m.A.G.K.A.E.K.E.Y.Y.W.^.W.!.^.^.Q.}.^.(.(.^.^.^.^.(.^.!.^.!.^.(.(.(.(.(.(.!.(.}.XX(.(.}.}.}.}.(.(.}.(.(.(.}.}.(.(.{.{.}.}.^.[.{.}.^.}.}.^.}.}.}.^.[.[.!.^.W.[.{.!.!.!.!.!.^.^.!.!.!.!.^.!.!.^.!.!.{.{.^.^.^.^.{.^.}.}.^.^.{.}.}.}.{.[.!.!.!.^.^.[.!.!.J.!.E.E.J.G.E.J.G.A.A.v.v.v.m.g.d.y.5.1.1.1.6.1.1.1.1.*... .[ x a.a.a.a.a.a.a.a.a.a.a.a.a.a.a.a.a.a.a.a.a.a.a.a.a.a.a.a.a.a.a.a.a.a.a.a.a.a.a.a.a.a.a.a.a.a.a.a.a.a.a.a.a.a.a.a.a.a.a.a.a.a.a.a.a.a.a.a.a.a.a.a.a.a.a.a.a.a.a.a.a.a.a.a.a.a.a.a.a.a.a.a.a.a.a.a.a.a.a.a.a.a.a.a.a.a.a.a.a.a.a.a.a.a.a.a.a.a.a.a.a.a.a.a.a.a.a.a.a.a.a.a.a.a.a.a.a.a.a.a.a.a.a.a.a.a.a.a.a.a.a.a.a.a.a.a.a.a.a.a.a.a.a.a.a.a.a.a.a.a.a.a.a.a.a.a.a.a.a.a.a.a.a.a.a.a.a.a.a.a.a.a.a.a.a.a.a.a.a.a.a.a.a.a.a.a.a.a.a.a.a.a.a.a.a.a.a.a.a.a.a.a.a.a.a.a.a.a.",
"a.a.a.a.a.a.a.a.a.a.a.a.a.a.a.a.a.a.a.a.a.a.a.a.a.a.a.a.a.a.a.a.a.a.a.a.a.a.a.a.a.a.a.a.a.a.a.a.a.a.a.a.a.a.a.a.a.a.a.a.a.a.a.a.a.a.a.a.a.a.a.a.a.a.a.a.a.a.a.a.a.a.> - 8 s l C Z Z Z Z S S F U E / / _ _ _ ] ] } } }  . .@.@.@.#.&.*.*.&.*.&.@. . .@.=.;.e.s.s.f.k.h.h.f.k.h.h.h.h.h.h.f.s.t.t.t.s.s.g.k.g.k.B.g.g.j.j.j.k.j.g.g.g.g.g.g.k.j.A.m.D.D.Y.Y.Y.Y.Y.Y.K.K.H.H.D.D.A.D.A.A.k.j.k.k.k.f.k.j.k.m.k.m.D.A.D.V.V.D.V.A.V.D.H.G.G.D.G.G.D.G.G.D.G.Y.G.Y.E.E.E.^.!.!.!.Q.^.(.(.!.!.!.^.^.^.^.}.^.!.!.!.^.(.^.!.!.}.XX!.(.(.(.(.}.(.(.}.}.(.}. X X}.}.(.}.(.^.(.{.{.}.^.^.!.}.^.^.}.}.^.}.^.^.{.{.}.[.[.{.[.!.[.!.^.{.^.!.!.W.!.!.!.!.!.^.!.^.^.{.{.{.{.{.^.{.}.{.{.{.{.^.{.{.{.{.!.^.[.!.E.E.E.!.!.E.!.J.J.E.E.E.J.G.A.m.v.v.g.g.g.g.d.5.5.6.1.*.1.1.1.1.*.#.#.[ Y a.a.a.a.a.a.a.a.a.a.a.a.a.a.a.a.a.a.a.a.a.a.a.a.a.a.a.a.a.a.a.a.a.a.a.a.a.a.a.a.a.a.a.a.a.a.a.a.a.a.a.a.a.a.a.a.a.a.a.a.a.a.a.a.a.a.a.a.a.a.a.a.a.a.a.a.a.a.a.a.a.a.a.a.a.a.a.a.a.a.a.a.a.a.a.a.a.a.a.a.a.a.a.a.a.a.a.a.a.a.a.a.a.a.a.a.a.a.a.a.a.a.a.a.a.a.a.a.a.a.a.a.a.a.a.a.a.a.a.a.a.a.a.a.a.a.a.a.a.a.a.a.a.a.a.a.a.a.a.a.a.a.a.a.a.a.a.a.a.a.a.a.a.a.a.a.a.a.a.a.a.a.a.a.a.a.a.a.a.a.a.a.a.a.a.a.a.a.a.a.a.a.a.a.a.a.a.a.a.a.a.a.a.a.a.a.a.a.a.a.a.a.a.a.a.a.a.a.",
"a.a.a.a.a.a.a.a.a.a.a.a.a.a.a.a.a.a.a.a.a.a.a.a.a.a.a.a.a.a.a.a.a.a.a.a.a.a.a.a.a.a.a.a.a.a.a.a.a.a.a.a.a.a.a.a.a.a.a.a.a.a.a.a.a.a.a.a.a.a.a.a.a.a.a.a.a.a.a.a.a.a.a.a.4 r s x B B V Z C A S F T W / _ _ _ _ _ ] } }  . .@.@.@.&.&.*.&.&.&.@. .' @.&.;.;.s.f.h.h.h.h.h.f.h.h.h.f.h.k.h.h.h.f.s.s.t.s.s.g.g.g.h.g.g.g.j.j.g.g.g.d.g.g.g.g.k.m.m.A.A.D.K.D.K.W.K.Y.D.H.H.D.H.D.D.D.D.V.j.j.j.j.k.g.j.j.k.k.k.m.A.A.A.k.A.D.V.A.D.A.H.A.A.A.K.D.D.K.A.K.D.K.Y.H.W.W.W.!.!.W.W.!.^.(.(.!.!.(.!.^.(.^.(.^.!.(.!.(.^.!.^.^.^.^.^.(.^.(.}. X(.}. XXX}.}.}.|.}.}.}.(.}.}.(.{.{.{.}.}.{.|.}.}.}.}.}.}.}.}.{.}.}.[.^.[.[.}.{.!.!.^.!.^.{.!.!.E.!.!.!.!.^.!.!.{.{.!.^.!.!.{.{.!.^.^.^.^.{.{.{.[.!.!.E.!.!.E.E.^.!.!.!.E.W.E.E.J.J.A.A.m.m.j.g.g.g.d.y.5.1.1.1.1.1.*.1.1.*.#...} R a.a.a.a.a.a.a.a.a.a.a.a.a.a.a.a.a.a.a.a.a.a.a.a.a.a.a.a.a.a.a.a.a.a.a.a.a.a.a.a.a.a.a.a.a.a.a.a.a.a.a.a.a.a.a.a.a.a.a.a.a.a.a.a.a.a.a.a.a.a.a.a.a.a.a.a.a.a.a.a.a.a.a.a.a.a.a.a.a.a.a.a.a.a.a.a.a.a.a.a.a.a.a.a.a.a.a.a.a.a.a.a.a.a.a.a.a.a.a.a.a.a.a.a.a.a.a.a.a.a.a.a.a.a.a.a.a.a.a.a.a.a.a.a.a.a.a.a.a.a.a.a.a.a.a.a.a.a.a.a.a.a.a.a.a.a.a.a.a.a.a.a.a.a.a.a.a.a.a.a.a.a.a.a.a.a.a.a.a.a.a.a.a.a.a.a.a.a.a.a.a.a.a.a.a.a.a.a.a.a.a.a.a.a.a.a.a.a.a.a.a.a.a.a.a.a.a.a.",
"a.a.a.a.a.a.a.a.a.a.a.a.a.a.a.a.a.a.a.a.a.a.a.a.a.a.a.a.a.a.a.a.a.a.a.a.a.a.a.a.a.a.a.a.a.a.a.a.a.a.a.a.a.a.a.a.a.a.a.a.a.a.a.a.a.a.a.a.a.a.a.a.a.a.a.a.a.a.a.a.a.a.a.a.a.5 9 s l m B B B C Z S G E / / / / / _ ` } } }  .@.@.@.&.#.&.&.#.@. . .' @.*.;.e.s.h.h.f.h.f.h.k.h.h.h.s.h.h.k.h.t.s.t.s.t.t.s.s.g.g.g.g.g.g.g.g.g.g.g.d.d.g.g.k.k.k.j.m.m.G.G.G.G.G.G.G.A.D.D.D.D.K.m.A.m.k.j.k.k.j.v.j.m.A.A.A.A.k.A.A.A.V.D.A.V.V.D.V.A.V.V.A.H.A.D.H.H.H.D.K.Y.G.G.W.Q.W.!.W.W.!.^.!.!.!.W.(.W.^.(.(.^.(.!.^.(.!.!.!.^.(.!.^.^.!.(.!.(.}.}. X}.}.}.|.}.}.}.}.}.}.}.(.^.{.}.}.}.^.^.}.}.}.}.}.}.}.}.}.}.}.}.}.}.^.^.}.}.}.{.{.^.{.{.^.!.E.J.J.!.[.E.W.[.!.W.!.!.!.^.!.!.^.}.!.^.{.^.!.{.{.[.[.!.!.!.E.E.E.E.W.E.E.W.W.E.J.K.A.G.m.v.g.g.g.g.d.y.1.5.6.1.#.-.4.*.*.*.#. .] | d a.a.a.a.a.a.a.a.a.a.a.a.a.a.a.a.a.a.a.a.a.a.a.a.a.a.a.a.a.a.a.a.a.a.a.a.a.a.a.a.a.a.a.a.a.a.a.a.a.a.a.a.a.a.a.a.a.a.a.a.a.a.a.a.a.a.a.a.a.a.a.a.a.a.a.a.a.a.a.a.a.a.a.a.a.a.a.a.a.a.a.a.a.a.a.a.a.a.a.a.a.a.a.a.a.a.a.a.a.a.a.a.a.a.a.a.a.a.a.a.a.a.a.a.a.a.a.a.a.a.a.a.a.a.a.a.a.a.a.a.a.a.a.a.a.a.a.a.a.a.a.a.a.a.a.a.a.a.a.a.a.a.a.a.a.a.a.a.a.a.a.a.a.a.a.a.a.a.a.a.a.a.a.a.a.a.a.a.a.a.a.a.a.a.a.a.a.a.a.a.a.a.a.a.a.a.a.a.a.a.a.a.a.a.a.a.a.a.a.a.a.a.a.a.a.a.a.",
"a.a.a.a.a.a.a.a.a.a.a.a.a.a.a.a.a.a.a.a.a.a.a.a.a.a.a.a.a.a.a.a.a.a.a.a.a.a.a.a.a.a.a.a.a.a.a.a.a.a.a.a.a.a.a.a.a.a.a.a.a.a.a.a.a.a.a.a.a.a.a.a.a.a.a.a.a.a.a.a.a.a.a.a.a.a., 9 s j l l m B A S G T W / / / / / / ` } } }  . .@.#.#.#.&.@. . .`  .&.-.;.e.s.s.h.k.k.k.k.k.k.k.h.h.h.h.h.s.s.t.t.t.t.t.s.s.s.s.s.s.s.g.d.d.g.g.d.d.d.d.d.g.j.m.k.m.k.m.A.A.A.K.G.G.G.K.G.G.Y.G.D.D.A.V.V.V.V.V.A.m.V.A.D.A.A.A.A.A.D.A.V.V.A.A.V.D.k.A.V.H.D.H.H.H.W.H.D.K.W.G.Y.W.!.W.W.W.!.^.^.!.^.^.!.(.^.(.(.^.!.(.^.!.!.^.(.^.!.W.!.^.}.!.(.(.}.^.}.}.}.}.}.}.}.XX(.(.}.}.(.}.(.}.}.{.^.{.}.{.}.{.}.}.}.}.}.|.}.}.|.}.(.}.}./.}.^.!.{.}.{.!.!.{.E.!.{.E.E.E.!.E.!.{.^.!.{.^.!.!.!.{.{.{.^.^.{.{.!.!.!.[.[.E.E.E.!.E.E.E.E.J.J.E.G.G.A.A.j.j.g.g.g.g.d.y.1.5.4.4.1.1.1.-.#.*.#. .] W g a.a.a.a.a.a.a.a.a.a.a.a.a.a.a.a.a.a.a.a.a.a.a.a.a.a.a.a.a.a.a.a.a.a.a.a.a.a.a.a.a.a.a.a.a.a.a.a.a.a.a.a.a.a.a.a.a.a.a.a.a.a.a.a.a.a.a.a.a.a.a.a.a.a.a.a.a.a.a.a.a.a.a.a.a.a.a.a.a.a.a.a.a.a.a.a.a.a.a.a.a.a.a.a.a.a.a.a.a.a.a.a.a.a.a.a.a.a.a.a.a.a.a.a.a.a.a.a.a.a.a.a.a.a.a.a.a.a.a.a.a.a.a.a.a.a.a.a.a.a.a.a.a.a.a.a.a.a.a.a.a.a.a.a.a.a.a.a.a.a.a.a.a.a.a.a.a.a.a.a.a.a.a.a.a.a.a.a.a.a.a.a.a.a.a.a.a.a.a.a.a.a.a.a.a.a.a.a.a.a.a.a.a.a.a.a.a.a.a.a.a.a.a.a.a.a.a.",
"a.a.a.a.a.a.a.a.a.a.a.a.a.a.a.a.a.a.a.a.a.a.a.a.a.a.a.a.a.a.a.a.a.a.a.a.a.a.a.a.a.a.a.a.a.a.a.a.a.a.a.a.a.a.a.a.a.a.a.a.a.a.a.a.a.a.a.a.a.a.a.a.a.a.a.a.a.a.a.a.a.a.a.a.a.a.- , 8 p s l l m B A F T E W / W E / / _ _ ` } } }  .#.@.@.@. . .` `  .=.;.t.s.s.h.h.f.h.k.h.k.h.k.h.h.h.h.f.s.s.f.s.t.t.t.t.t.s.s.s.s.s.d.g.d.d.d.d.d.d.d.d.d.g.k.m.m.m.m.A.K.D.G.K.Y.G.G.G.G.G.G.D.A.V.V.V.A.D.m.m.V.j.j.j.m.k.k.A.A.A.H.D.A.A.D.V.A.A.D.V.D.V.V.A.H.K.Y.K.W.Y.H.K.K.Y.W.W.W.!.!.^.^.^.(.}.^.(.!.(.^.^.^.}.^.!.}.!.!.!.W.!.!.!.}.}.^.(.}.^.(.(.(.}.}.}.(.(.}.^.}.(.^.(.}.{.{.}.}.}.{.}.!.^.}.}.}.}.}.}.{.}.}.{.}.}.}.}.}.}.}.}.}.{.^.!.!.E.E.E.E.E.E.!.!.!.!.!.E.E.^.{.W.!.{.!.{.[.!.^.[.!.[.[.E.!.E.E.[.!.E.E.E.E.E.E.J.K.G.A.j.v.j.g.g.d.y.t.6.y.-.#.-.1.1.*.-.#... .[ ] Y a.a.a.a.a.a.a.a.a.a.a.a.a.a.a.a.a.a.a.a.a.a.a.a.a.a.a.a.a.a.a.a.a.a.a.a.a.a.a.a.a.a.a.a.a.a.a.a.a.a.a.a.a.a.a.a.a.a.a.a.a.a.a.a.a.a.a.a.a.a.a.a.a.a.a.a.a.a.a.a.a.a.a.a.a.a.a.a.a.a.a.a.a.a.a.a.a.a.a.a.a.a.a.a.a.a.a.a.a.a.a.a.a.a.a.a.a.a.a.a.a.a.a.a.a.a.a.a.a.a.a.a.a.a.a.a.a.a.a.a.a.a.a.a.a.a.a.a.a.a.a.a.a.a.a.a.a.a.a.a.a.a.a.a.a.a.a.a.a.a.a.a.a.a.a.a.a.a.a.a.a.a.a.a.a.a.a.a.a.a.a.a.a.a.a.a.a.a.a.a.a.a.a.a.a.a.a.a.a.a.a.a.a.a.a.a.a.a.a.a.a.a.a.a.a.a.a.",
"a.a.a.a.a.a.a.a.a.a.a.a.a.a.a.a.a.a.a.a.a.a.a.a.a.a.a.a.a.a.a.a.a.a.a.a.a.a.a.a.a.a.a.a.a.a.a.a.a.a.a.a.a.a.a.a.a.a.a.a.a.a.a.a.a.a.a.a.a.a.a.a.a.a.a.a.a.a.a.a.a.a.a.a.a.a.a.& , 7 t h h k m C S U E W / E E / / / _ _ ] } }  .@.#.#.@. .' ` ` @.-.;.t.s.f.h.h.h.h.h.h.h.k.k.h.g.h.h.s.s.t.t.s.t.t.t.t.t.t.s.s.s.s.s.s.s.y.y.y.d.d.d.d.g.g.j.g.m.m.m.m.A.m.D.A.G.G.D.D.m.D.k.m.A.A.V.V.A.H.V.V.A.m.V.V.V.k.k.V.D.A.H.D.D.H.D.V.V.H.D.V.A.A.A.H.H.H.H.Y.H.H.K.Y.W.W.W.!.W.!.!.^.!.!.!.!.!.^.!.(.(.^.!.^.!.(.!.!.^.!.!.!.(.}.^.XX}.}.(.(.XX(.}.(.!.(.(.}.}.}.}.(.}.(.{.{.}..X{.{.}.}.}.}.XX}.{.}.|.|.}.}.}.}.}.^.|.}.|.}.{.}.^.^.{.{.!.E.E.!.E.!.E.E.!.!.[.!.E.E.E.E.E.!.!.{.[.!.!.[.!.E.E.E.!.!.J.E.E.E.E.J.J.E.J.G.G.G.G.G.m.v.j.g.g.g.y.y.5.6.4.4.1.1.1.*.#.*.#. . .) J a.a.a.a.a.a.a.a.a.a.a.a.a.a.a.a.a.a.a.a.a.a.a.a.a.a.a.a.a.a.a.a.a.a.a.a.a.a.a.a.a.a.a.a.a.a.a.a.a.a.a.a.a.a.a.a.a.a.a.a.a.a.a.a.a.a.a.a.a.a.a.a.a.a.a.a.a.a.a.a.a.a.a.a.a.a.a.a.a.a.a.a.a.a.a.a.a.a.a.a.a.a.a.a.a.a.a.a.a.a.a.a.a.a.a.a.a.a.a.a.a.a.a.a.a.a.a.a.a.a.a.a.a.a.a.a.a.a.a.a.a.a.a.a.a.a.a.a.a.a.a.a.a.a.a.a.a.a.a.a.a.a.a.a.a.a.a.a.a.a.a.a.a.a.a.a.a.a.a.a.a.a.a.a.a.a.a.a.a.a.a.a.a.a.a.a.a.a.a.a.a.a.a.a.a.a.a.a.a.a.a.a.a.a.a.a.a.a.a.a.a.a.a.a.a.a.a.",
"a.a.a.a.a.a.a.a.a.a.a.a.a.a.a.a.a.a.a.a.a.a.a.a.a.a.a.a.a.a.a.a.a.a.a.a.a.a.a.a.a.a.a.a.a.a.a.a.a.a.a.a.a.a.a.a.a.a.a.a.a.a.a.a.a.a.a.a.a.a.a.a.a.a.a.a.a.a.a.a.a.a.a.a.a.a.a.O O > 6 t h h l B A U U W W E E W W / / / _ ] }  . .@.@. .` ` _  .&.-.;.t.s.f.h.s.h.k.k.h.g.g.g.g.g.f.f.s.t.t.t.e.;.;.e.t.t.t.s.s.s.s.s.s.y.t.t.t.y.d.d.d.d.d.g.j.g.m.m.A.D.G.G.D.D.D.A.m.m.D.m.k.j.V.A.V.A.D.A.V.k.k.k.j.V.V.A.A.V.A.H.V.A.V.H.A.V.H.H.A.D.K.V.H.K.Y.D.H.H.G.K.W.!.!.W.W.!.(.W.^.^.^.W.!.^.W.!.^.!.W.W.(.W.^.^.!.^.(.!.^.^.W.}.^.(.(.}.}.(.}.^.^.(.}.}.}.}.}.}.(.}.}.}.^.}.{.{.}.{.}.|.XX.XXX{.}.{.{.}.}.{.}.}.}.}.{.{.{.{.{.{.{.^.^.E.E.!.E.W.E.E.E.E.E.!.!.[.!.!.!.E.E.E.!.!.!.[.!.^.[.E.E.J.!.E.E.!.!.E.J.E.E.J.J.G.A.A.A.m.j.g.d.d.d.y.t.5.4.1.4.-.*.1.*.-.#.....} ] J y a.a.a.a.a.a.a.a.a.a.a.a.a.a.a.a.a.a.a.a.a.a.a.a.a.a.a.a.a.a.a.a.a.a.a.a.a.a.a.a.a.a.a.a.a.a.a.a.a.a.a.a.a.a.a.a.a.a.a.a.a.a.a.a.a.a.a.a.a.a.a.a.a.a.a.a.a.a.a.a.a.a.a.a.a.a.a.a.a.a.a.a.a.a.a.a.a.a.a.a.a.a.a.a.a.a.a.a.a.a.a.a.a.a.a.a.a.a.a.a.a.a.a.a.a.a.a.a.a.a.a.a.a.a.a.a.a.a.a.a.a.a.a.a.a.a.a.a.a.a.a.a.a.a.a.a.a.a.a.a.a.a.a.a.a.a.a.a.a.a.a.a.a.a.a.a.a.a.a.a.a.a.a.a.a.a.a.a.a.a.a.a.a.a.a.a.a.a.a.a.a.a.a.a.a.a.a.a.a.a.a.a.a.a.a.a.a.a.a.a.a.a.a.a.a.a.",
"a.a.a.a.a.a.a.a.a.a.a.a.a.a.a.a.a.a.a.a.a.a.a.a.a.a.a.a.a.a.a.a.a.a.a.a.a.a.a.a.a.a.a.a.a.a.a.a.a.a.a.a.a.a.a.a.a.a.a.a.a.a.a.a.a.a.a.a.a.a.a.a.a.a.a.a.a.a.a.a.a.a.a.a.a.a.a.a.O o > 7 t s h l Z F U R R R R E E / / / / _ ]  . . . . .` _ ` @.&.;.s.s.s.s.s.h.k.g.k.k.k.g.g.h.g.f.s.s.s.s.t.;.-.;.;.t.t.t.t.t.t.s.s.y.t.t.t.y.y.t.y.d.g.g.g.g.g.j.m.m.m.A.m.m.m.m.m.m.m.m.k.k.A.H.V.k.V.m.m.V.B.A.V.k.k.k.V.V.A.H.H.H.K.H.A.D.A.A.H.H.H.H.A.A.A.H.D.H.K.Y.Y.W.W.!.W.W.W.W.W.!.!.W.!.!.W.!.!.!.!.!.^.(.!.!.^.(.^.W.^.W.W.^.^.(.U.!.!.(.!.!.(.(.(.(.(.!.!.!.(.(.^.}.!.^.}.}.}.^.!.{.}.}.{.^.}.}.{.}.}.}.}.}.^.}.^.{.}.}.{.{.{.^.!.!.E.[.E.E.E.J.E.E.E.E.E.{.!.!.!.!.E.E.J.E.!.!.E.E.!.!.E.E.[.[.J.E.E.E.G.J.!.E.G.J.A.A.G.A.v.j.v.g.g.d.y.t.1.5.6.1.1.1.1.1.*.*.#. .} ] Q a a.a.a.a.a.a.a.a.a.a.a.a.a.a.a.a.a.a.a.a.a.a.a.a.a.a.a.a.a.a.a.a.a.a.a.a.a.a.a.a.a.a.a.a.a.a.a.a.a.a.a.a.a.a.a.a.a.a.a.a.a.a.a.a.a.a.a.a.a.a.a.a.a.a.a.a.a.a.a.a.a.a.a.a.a.a.a.a.a.a.a.a.a.a.a.a.a.a.a.a.a.a.a.a.a.a.a.a.a.a.a.a.a.a.a.a.a.a.a.a.a.a.a.a.a.a.a.a.a.a.a.a.a.a.a.a.a.a.a.a.a.a.a.a.a.a.a.a.a.a.a.a.a.a.a.a.a.a.a.a.a.a.a.a.a.a.a.a.a.a.a.a.a.a.a.a.a.a.a.a.a.a.a.a.a.a.a.a.a.a.a.a.a.a.a.a.a.a.a.a.a.a.a.a.a.a.a.a.a.a.a.a.a.a.a.a.a.a.a.a.a.a.a.a.a.a.",
"a.a.a.a.a.a.a.a.a.a.a.a.a.a.a.a.a.a.a.a.a.a.a.a.a.a.a.a.a.a.a.a.a.a.a.a.a.a.a.a.a.a.a.a.a.a.a.a.a.a.a.a.a.a.a.a.a.a.a.a.a.a.a.a.a.a.a.a.a.a.a.a.a.a.a.a.a.a.a.a.a.a.a.a.a.a.a.a.a.o o , 8 t s k C F F U U T T T E E / / / / ` }  . . .` _ / ' @.@.;.s.s.s.s.s.h.k.h.h.h.h.g.g.g.g.f.s.s.s.t.e.;.-.-.;.;.t.t.t.t.t.t.t.t.t.t.t.t.t.y.d.d.d.d.g.g.g.j.m.m.k.m.m.m.j.g.m.m.m.j.m.j.m.j.m.m.V.V.j.m.v.k.k.k.A.A.D.A.A.V.V.V.A.V.V.H.D.V.D.D.D.A.V.D.D.A.H.K.K.W.Y.W.W.W.W.!.W.!.!.!.!.Y.!.!.W.(.!.W.W.!.(.^.^.!.^.W.W.!.Q.^.!.W.^.!.(.Q.(.!.^.(.XX}.(.}.!.!.!.^.^.!.!.(.!.!.{.{.{.^.{.}.}.}.{.{.|.|.}.{.}.}.}.{.}.}.{.}.{.{.{.^.{.{.{.[.E.E.E.E.E.E.E.E.E.E.E.!.!.!.E.!.J.J.E.J.E.!.E.!.!.!.E.E.E.E.E.E.E.E.E.E.E.J.G.J.G.A.A.A.G.A.v.g.g.d.y.y.t.5.4.1.4.*.*.*.#.*.#... ...Y a a.a.a.a.a.a.a.a.a.a.a.a.a.a.a.a.a.a.a.a.a.a.a.a.a.a.a.a.a.a.a.a.a.a.a.a.a.a.a.a.a.a.a.a.a.a.a.a.a.a.a.a.a.a.a.a.a.a.a.a.a.a.a.a.a.a.a.a.a.a.a.a.a.a.a.a.a.a.a.a.a.a.a.a.a.a.a.a.a.a.a.a.a.a.a.a.a.a.a.a.a.a.a.a.a.a.a.a.a.a.a.a.a.a.a.a.a.a.a.a.a.a.a.a.a.a.a.a.a.a.a.a.a.a.a.a.a.a.a.a.a.a.a.a.a.a.a.a.a.a.a.a.a.a.a.a.a.a.a.a.a.a.a.a.a.a.a.a.a.a.a.a.a.a.a.a.a.a.a.a.a.a.a.a.a.a.a.a.a.a.a.a.a.a.a.a.a.a.a.a.a.a.a.a.a.a.a.a.a.a.a.a.a.a.a.a.a.a.a.a.a.a.a.a.a.a.",
"a.a.a.a.a.a.a.a.a.a.a.a.a.a.a.a.a.a.a.a.a.a.a.a.a.a.a.a.a.a.a.a.a.a.a.a.a.a.a.a.a.a.a.a.a.a.a.a.a.a.a.a.a.a.a.a.a.a.a.a.a.a.a.a.a.a.a.a.a.a.a.a.a.a.a.a.a.a.a.a.a.a.a.a.a.a.a.a.a.a.O o 3 7 8 s l B S G U G T R E W W / / _ _ }  .} } _ _ _ ` @.:.;.s.s.s.f.f.s.f.k.k.g.g.g.g.k.g.g.s.s.s.t.6.;.;.;.;.;.;.t.t.t.t.t.t.t.t.t.t.6.t.t.y.d.d.d.d.g.g.j.g.g.g.m.m.j.g.g.g.g.k.g.k.j.m.j.k.j.V.k.k.V.k.j.j.k.V.j.A.V.V.D.A.V.A.V.V.D.V.A.A.m.D.D.A.D.H.K.K.E.W.W.W.Y.W.W.!.Y.!.W.Y.W.!.Y.!.!.^.^.!.Q.^.(.!.^.^.}.!.W.!.W.Q.!.^.!.(.!.(.}.!.^.XX}.Y.(.}.}.}.(.^.!.{.{.{.}.^.}.}.^.}.^.}.{.XXXX.X}.}.|..X}..X}.}.}.}.}.{.{.^.{.^.!.!.!.!.E.[.!.[.E.E.E.E.E.E.E.E.!.!.!.!.!.E.E.E.J.E.!.E.E.E.E.E.E.!.[.E.E.E.E.E.J.K.J.J.J.A.A.m.v.v.j.v.g.g.y.d.t.y.5.4.4.1.*.*.1.1.#.#.#.} ] R s a.a.a.a.a.a.a.a.a.a.a.a.a.a.a.a.a.a.a.a.a.a.a.a.a.a.a.a.a.a.a.a.a.a.a.a.a.a.a.a.a.a.a.a.a.a.a.a.a.a.a.a.a.a.a.a.a.a.a.a.a.a.a.a.a.a.a.a.a.a.a.a.a.a.a.a.a.a.a.a.a.a.a.a.a.a.a.a.a.a.a.a.a.a.a.a.a.a.a.a.a.a.a.a.a.a.a.a.a.a.a.a.a.a.a.a.a.a.a.a.a.a.a.a.a.a.a.a.a.a.a.a.a.a.a.a.a.a.a.a.a.a.a.a.a.a.a.a.a.a.a.a.a.a.a.a.a.a.a.a.a.a.a.a.a.a.a.a.a.a.a.a.a.a.a.a.a.a.a.a.a.a.a.a.a.a.a.a.a.a.a.a.a.a.a.a.a.a.a.a.a.a.a.a.a.a.a.a.a.a.a.a.a.a.a.a.a.a.a.a.a.a.a.a.a.a.",
"a.a.a.a.a.a.a.a.a.a.a.a.a.a.a.a.a.a.a.a.a.a.a.a.a.a.a.a.a.a.a.a.a.a.a.a.a.a.a.a.a.a.a.a.a.a.a.a.a.a.a.a.a.a.a.a.a.a.a.a.a.a.a.a.a.a.a.a.a.a.a.a.a.a.a.a.a.a.a.a.a.a.a.a.a.a.a.a.a.a.a.: % 5 6 9 p l Z S F F G T R W W / / / _ _ } } } _ / ` ' @.-.t.t.s.s.f.f.f.f.h.g.g.k.k.k.k.g.g.s.s.s.t.t.t.t.;.6.6.t.t.t.t.6.6.6.6.6.t.6.6.6.t.y.s.s.d.d.d.g.g.g.g.g.g.j.m.m.g.g.g.k.g.j.k.m.j.j.j.k.j.k.j.j.k.j.k.V.j.V.A.V.V.V.V.A.A.V.V.D.D.D.m.D.D.D.A.G.G.K.E.W.W.Y.Y.W.W.Y.W.W.W.W.!.^.!.!.(.^.U.W.!.(.!.W.!.!.!.W.W.W.!.!.}.^.(.!.(.(.^.^.}.!.!.^.^.!.{.}.^.^.}.}.{.^.}.}.^.^.}.}.}.}.}.}.}.}.}.|.}.{.^.{.}.{.}.^.{.^.}.{.{.^.{.[.!.!.!.!.!.!.!.!.!.E.!.E.E.E.E.E.E.E.E.E.E.E.E.E.[.E.E.E.J.E.[.[.E.E.!.J.E.J.J.G.J.K.K.m.m.v.v.m.m.v.g.g.d.d.t.t.5.5.5.1.1.1.#.#.1.*...} ) Y d a.a.a.a.a.a.a.a.a.a.a.a.a.a.a.a.a.a.a.a.a.a.a.a.a.a.a.a.a.a.a.a.a.a.a.a.a.a.a.a.a.a.a.a.a.a.a.a.a.a.a.a.a.a.a.a.a.a.a.a.a.a.a.a.a.a.a.a.a.a.a.a.a.a.a.a.a.a.a.a.a.a.a.a.a.a.a.a.a.a.a.a.a.a.a.a.a.a.a.a.a.a.a.a.a.a.a.a.a.a.a.a.a.a.a.a.a.a.a.a.a.a.a.a.a.a.a.a.a.a.a.a.a.a.a.a.a.a.a.a.a.a.a.a.a.a.a.a.a.a.a.a.a.a.a.a.a.a.a.a.a.a.a.a.a.a.a.a.a.a.a.a.a.a.a.a.a.a.a.a.a.a.a.a.a.a.a.a.a.a.a.a.a.a.a.a.a.a.a.a.a.a.a.a.a.a.a.a.a.a.a.a.a.a.a.a.a.a.a.a.a.a.a.a.a.a.",
"a.a.a.a.a.a.a.a.a.a.a.a.a.a.a.a.a.a.a.a.a.a.a.a.a.a.a.a.a.a.a.a.a.a.a.a.a.a.a.a.a.a.a.a.a.a.a.a.a.a.a.a.a.a.a.a.a.a.a.a.a.a.a.a.a.a.a.a.a.a.a.a.a.a.a.a.a.a.a.a.a.a.a.a.a.a.a.a.a.a.a.a.a.> 5 8 0 k B C S S F G T E E W W / / _ _ _ _ _ / _ ' @.-.;.t.s.s.s.h.h.f.h.g.k.k.k.k.g.k.g.f.s.t.t.s.t.e.;.6.t.t.t.t.t.t.t.t.6.6.6.6.6.t.t.t.s.s.d.d.d.g.d.g.g.g.g.g.g.g.g.g.g.g.j.k.k.m.m.j.j.j.j.k.k.j.j.j.j.j.j.V.V.V.k.V.V.V.V.V.V.A.D.D.m.A.D.H.G.E.G.H.G.R.Y.Y.W.!.!.!.Y.W.!.!.W.W.!.W.!.Y.Q.W.W.~.W.!.^.!.W.!.^.!.^.!.!.!.!.(.(.W.!.^.}.!.}.!.}.}.^.^.!.(.^.}.}.}.E.^.}.}.{.^.(.|.}.{.}.}.}.{.{.[.{.{.}.}.}.}.}.}.|.}.{.}.}.{.{.{.!.{.!.E.E.!.E.E.!.E.E.E.E.E.E.E.E.J.E.J.E.E.E.E.E.E.E.J.E.E.E.!.E.E.E.G.K.J.G.G.G.G.A.v.v.j.g.g.g.g.d.y.d.t.6.4.6.4.1.1.1.1.#.#...} ] Y x a.a.a.a.a.a.a.a.a.a.a.a.a.a.a.a.a.a.a.a.a.a.a.a.a.a.a.a.a.a.a.a.a.a.a.a.a.a.a.a.a.a.a.a.a.a.a.a.a.a.a.a.a.a.a.a.a.a.a.a.a.a.a.a.a.a.a.a.a.a.a.a.a.a.a.a.a.a.a.a.a.a.a.a.a.a.a.a.a.a.a.a.a.a.a.a.a.a.a.a.a.a.a.a.a.a.a.a.a.a.a.a.a.a.a.a.a.a.a.a.a.a.a.a.a.a.a.a.a.a.a.a.a.a.a.a.a.a.a.a.a.a.a.a.a.a.a.a.a.a.a.a.a.a.a.a.a.a.a.a.a.a.a.a.a.a.a.a.a.a.a.a.a.a.a.a.a.a.a.a.a.a.a.a.a.a.a.a.a.a.a.a.a.a.a.a.a.a.a.a.a.a.a.a.a.a.a.a.a.a.a.a.a.a.a.a.a.a.a.a.a.a.a.a.a.a.",
"a.a.a.a.a.a.a.a.a.a.a.a.a.a.a.a.a.a.a.a.a.a.a.a.a.a.a.a.a.a.a.a.a.a.a.a.a.a.a.a.a.a.a.a.a.a.a.a.a.a.a.a.a.a.a.a.a.a.a.a.a.a.a.a.a.a.a.a.a.a.a.a.a.a.a.a.a.a.a.a.a.a.a.a.a.a.a.a.a.a.a.a.a.a.7 3 8 s n B Z Z S S G R R R E / / _ _ _ _ / / _ ` #.:.;.t.t.s.s.s.h.h.h.k.k.k.g.g.g.g.s.d.s.6.t.6.t.t.6.6.t.t.t.t.t.t.t.6.;.-.6.6.t.t.t.y.y.t.s.d.d.d.d.d.d.g.g.g.d.d.d.g.g.g.g.g.g.g.g.g.g.g.k.k.k.k.j.j.j.k.k.V.k.k.j.V.V.V.j.j.j.k.k.m.m.m.H.H.G.Y.G.G.K.Y.W.K.U.D.D.W.D.Y.W.^.!.W.!.H.!.W.W.^.Q.!.^.!.!.Y.W.W.!.!.(.!.!.^.!.^.Q.W.!.!.{.!.^.{.^.^.{.(.^.^.^.{.!.}.^.^.^.E.^.{.}.}.[.}..X}..X}..X}.}.}.}.}.}.}.}.}.{.{.}.{.{.[.{.{.[.{.!.!.!.!.!.E.!.E.E.E.E.E.E.E.E.J.J.E.E.E.E.E.E.E.J.E.E.E.E.E.E.E.E.G.G.J.G.E.G.K.A.j.v.v.g.g.g.g.d.y.y.5.5.5.4.1.3.*.#.*.#......./ R Y y a.a.a.a.a.a.a.a.a.a.a.a.a.a.a.a.a.a.a.a.a.a.a.a.a.a.a.a.a.a.a.a.a.a.a.a.a.a.a.a.a.a.a.a.a.a.a.a.a.a.a.a.a.a.a.a.a.a.a.a.a.a.a.a.a.a.a.a.a.a.a.a.a.a.a.a.a.a.a.a.a.a.a.a.a.a.a.a.a.a.a.a.a.a.a.a.a.a.a.a.a.a.a.a.a.a.a.a.a.a.a.a.a.a.a.a.a.a.a.a.a.a.a.a.a.a.a.a.a.a.a.a.a.a.a.a.a.a.a.a.a.a.a.a.a.a.a.a.a.a.a.a.a.a.a.a.a.a.a.a.a.a.a.a.a.a.a.a.a.a.a.a.a.a.a.a.a.a.a.a.a.a.a.a.a.a.a.a.a.a.a.a.a.a.a.a.a.a.a.a.a.a.a.a.a.a.a.a.a.a.a.a.a.a.a.a.a.a.a.a.a.a.a.a.a.",
"a.a.a.a.a.a.a.a.a.a.a.a.a.a.a.a.a.a.a.a.a.a.a.a.a.a.a.a.a.a.a.a.a.a.a.a.a.a.a.a.a.a.a.a.a.a.a.a.a.a.a.a.a.a.a.a.a.a.a.a.a.a.a.a.a.a.a.a.a.a.a.a.a.a.a.a.a.a.a.a.a.a.a.a.a.a.a.a.a.a.a.a.a.a.a.< 5 9 h l B C Z S U U T R R E / / _ / / E / `  .&.*.-.t.t.s.s.t.s.h.g.g.k.k.k.k.j.g.f.d.s.t.t.t.6.t.t.6.6.6.6.6.6.t.t.6.;.6.6.6.t.t.t.t.y.t.y.d.d.s.d.g.d.d.d.g.g.d.d.g.g.g.g.g.g.k.g.d.g.k.j.k.g.k.k.k.k.k.k.k.k.j.j.V.j.V.V.j.k.k.k.k.D.A.D.A.D.K.H.H.D.W.G.W.W.G.K.K.W.!.W.W.!.!.W.^.!.U.!.!.Q.^.^.!.!.!.!.^.!.!.W.W.!.W.W.!.W.!.^.!.^.!.^.{.!.{.!.{.{.!.{.^.^.^.^.!.[.{.{.{.}.}.{.}.}.}.}.}.}.}.}.}.}.}.}.}.{.{.}.}.}.{.{.{.{.{.{.!.!.{.!.!.!.!.E.E.!.E.E.E.E.E.E.J.E.E.E.E.E.E.E.J.J.J.J.J.E.E.E.J.E.E.G.G.m.m.m.G.m.v.g.m.v.g.g.y.d.y.d.t.t.t.6.1.1.*.*.#.#.#...| ] Y V z a.a.a.a.a.a.a.a.a.a.a.a.a.a.a.a.a.a.a.a.a.a.a.a.a.a.a.a.a.a.a.a.a.a.a.a.a.a.a.a.a.a.a.a.a.a.a.a.a.a.a.a.a.a.a.a.a.a.a.a.a.a.a.a.a.a.a.a.a.a.a.a.a.a.a.a.a.a.a.a.a.a.a.a.a.a.a.a.a.a.a.a.a.a.a.a.a.a.a.a.a.a.a.a.a.a.a.a.a.a.a.a.a.a.a.a.a.a.a.a.a.a.a.a.a.a.a.a.a.a.a.a.a.a.a.a.a.a.a.a.a.a.a.a.a.a.a.a.a.a.a.a.a.a.a.a.a.a.a.a.a.a.a.a.a.a.a.a.a.a.a.a.a.a.a.a.a.a.a.a.a.a.a.a.a.a.a.a.a.a.a.a.a.a.a.a.a.a.a.a.a.a.a.a.a.a.a.a.a.a.a.a.a.a.a.a.a.a.a.a.a.a.a.a.a.",
"a.a.a.a.a.a.a.a.a.a.a.a.a.a.a.a.a.a.a.a.a.a.a.a.a.a.a.a.a.a.a.a.a.a.a.a.a.a.a.a.a.a.a.a.a.a.a.a.a.a.a.a.a.a.a.a.a.a.a.a.a.a.a.a.a.a.a.a.a.a.a.a.a.a.a.a.a.a.a.a.a.a.a.a.a.a.a.a.a.a.a.a.a.a.a.6 , 8 9 h l m B Z F U U U T T E / / W W E / `  .@.&.-.e.t.s.s.s.s.f.h.g.h.k.g.k.g.g.d.g.d.s.t.t.t.t.t.t.t.t.6.6.6.6.6.6.;.4.4.6.6.6.6.t.s.s.s.d.d.s.d.s.d.d.d.d.d.s.d.d.d.d.g.g.g.g.d.d.g.k.k.k.k.k.k.d.d.k.f.d.k.j.j.k.j.k.j.V.k.j.j.H.K.H.m.m.m.H.D.K.G.G.D.G.Y.Y.W.K.!.H.W.!.^.!.W.!.W.U.W.Q.W.!.W.^.!.W.!.!.!.^.!.W.!.!.W.H.W.W.W.^.{.!.^.^.!.{.{.{.{.!.!.^.^.!.}.[.}.}.}.}.}.!.{.{.{.{.{.{.{.{.}.}.{.{.{.{.{.{.{.{.[.[.[.{.[.[.[.[.!.[.[.!.!.!.!.!.E.!.!.E.E.E.E.E.E.J.J.J.E.E.J.E.E.J.J.E.E.E.J.E.E.E.E.m.m.G.m.m.m.j.j.g.v.y.g.d.d.y.t.t.5.6.1.*.1.*.#.#.#...|  .] Y V a a.a.a.a.a.a.a.a.a.a.a.a.a.a.a.a.a.a.a.a.a.a.a.a.a.a.a.a.a.a.a.a.a.a.a.a.a.a.a.a.a.a.a.a.a.a.a.a.a.a.a.a.a.a.a.a.a.a.a.a.a.a.a.a.a.a.a.a.a.a.a.a.a.a.a.a.a.a.a.a.a.a.a.a.a.a.a.a.a.a.a.a.a.a.a.a.a.a.a.a.a.a.a.a.a.a.a.a.a.a.a.a.a.a.a.a.a.a.a.a.a.a.a.a.a.a.a.a.a.a.a.a.a.a.a.a.a.a.a.a.a.a.a.a.a.a.a.a.a.a.a.a.a.a.a.a.a.a.a.a.a.a.a.a.a.a.a.a.a.a.a.a.a.a.a.a.a.a.a.a.a.a.a.a.a.a.a.a.a.a.a.a.a.a.a.a.a.a.a.a.a.a.a.a.a.a.a.a.a.a.a.a.a.a.a.a.a.a.a.a.a.a.a.a.a.",
"a.a.a.a.a.a.a.a.a.a.a.a.a.a.a.a.a.a.a.a.a.a.a.a.a.a.a.a.a.a.a.a.a.a.a.a.a.a.a.a.a.a.a.a.a.a.a.a.a.a.a.a.a.a.a.a.a.a.a.a.a.a.a.a.a.a.a.a.a.a.a.a.a.a.a.a.a.a.a.a.a.a.a.a.a.a.a.a.a.a.a.a.a.a.a.a.> 3 9 s s l c B S F U U U R E ^ W W W R E _  .@.&.-.;.e.t.t.t.f.g.g.g.k.k.g.k.g.g.d.d.d.t.t.t.t.t.t.t.t.6.4.6.6.-.4.6.4.4.6.6.6.6.6.t.t.d.s.d.d.s.d.d.d.d.d.d.d.d.d.d.d.g.g.d.d.d.g.g.k.g.f.d.d.k.g.f.d.f.f.g.k.j.k.j.j.k.V.k.k.k.j.A.H.H.A.H.A.D.K.A.K.m.K.K.Y.Y.W.W.H.W.A.!.W.W.W.H.U.W.Q.W.Q.!.Q.^.!.W.W.^.W.W.W.W.W.Y.K.W.W.!.!.^.^.!.!.^.^.^.^.^.!.^.^.^.!.^.}.}.[.[.[.{.[.!.{.{.{.{.}.}.!.{.{.[.}.[.{.{.{.{.[.[.{.{.{.{.[.E.!.!.!.{.{.[.{.!.E.!.E.!.!.!.E.E.E.J.J.J.E.J.J.J.J.E.E.J.J.J.J.J.J.J.J.J.A.m.m.A.m.v.j.g.j.m.g.g.g.g.d.y.t.y.t.6.1.-.1.1.*.#.#...|  .] Y V d a.a.a.a.a.a.a.a.a.a.a.a.a.a.a.a.a.a.a.a.a.a.a.a.a.a.a.a.a.a.a.a.a.a.a.a.a.a.a.a.a.a.a.a.a.a.a.a.a.a.a.a.a.a.a.a.a.a.a.a.a.a.a.a.a.a.a.a.a.a.a.a.a.a.a.a.a.a.a.a.a.a.a.a.a.a.a.a.a.a.a.a.a.a.a.a.a.a.a.a.a.a.a.a.a.a.a.a.a.a.a.a.a.a.a.a.a.a.a.a.a.a.a.a.a.a.a.a.a.a.a.a.a.a.a.a.a.a.a.a.a.a.a.a.a.a.a.a.a.a.a.a.a.a.a.a.a.a.a.a.a.a.a.a.a.a.a.a.a.a.a.a.a.a.a.a.a.a.a.a.a.a.a.a.a.a.a.a.a.a.a.a.a.a.a.a.a.a.a.a.a.a.a.a.a.a.a.a.a.a.a.a.a.a.a.a.a.a.a.a.a.a.a.a.a.",
"a.a.a.a.a.a.a.a.a.a.a.a.a.a.a.a.a.a.a.a.a.a.a.a.a.a.a.a.a.a.a.a.a.a.a.a.a.a.a.a.a.a.a.a.a.a.a.a.a.a.a.a.a.a.a.a.a.a.a.a.a.a.a.a.a.a.a.a.a.a.a.a.a.a.a.a.a.a.a.a.a.a.a.a.a.a.a.a.a.a.a.a.a.a.a.a.e , 6 9 p s d n C S S F G R R T E E E T E `  .@.@.:.;.;.;.t.e.s.h.g.g.k.k.k.g.g.g.g.d.d.y.y.t.t.t.t.6.6.-.-.4.4.6.6.6.6.4.4.6.6.6.t.t.y.d.y.s.d.s.d.d.d.d.s.d.d.d.d.d.s.d.d.d.d.d.g.g.g.g.g.f.f.f.f.d.d.g.k.k.k.d.k.k.d.k.j.d.k.k.j.m.V.j.j.m.m.V.m.m.H.m.G.K.K.D.A.H.W.V.K.W.W.W.W.W.Q.W.W.!.!.!.^.W.!.!.W.!.W.W.!.!.W.K.K.W.W.W.!.W.!.!.!.{.{.!.!.{.!.^.^.^.!.!.!.{.{.{.{.{.{.{.{.{.[.}.}.{.{.!.!.{.{.{.{.!.!.!.[.[.[.[.!.E.E.E.E.E.E.[.!.!.[.[.[.!.E.E.E.!.E.E.E.E.E.J.J.J.J.J.J.J.J.J.J.G.A.A.A.J.J.J.A.J.m.v.m.m.v.g.g.v.g.g.g.g.g.y.d.t.5.5.6.1.1.*.1.#.#... .} ] R V z a.a.a.a.a.a.a.a.a.a.a.a.a.a.a.a.a.a.a.a.a.a.a.a.a.a.a.a.a.a.a.a.a.a.a.a.a.a.a.a.a.a.a.a.a.a.a.a.a.a.a.a.a.a.a.a.a.a.a.a.a.a.a.a.a.a.a.a.a.a.a.a.a.a.a.a.a.a.a.a.a.a.a.a.a.a.a.a.a.a.a.a.a.a.a.a.a.a.a.a.a.a.a.a.a.a.a.a.a.a.a.a.a.a.a.a.a.a.a.a.a.a.a.a.a.a.a.a.a.a.a.a.a.a.a.a.a.a.a.a.a.a.a.a.a.a.a.a.a.a.a.a.a.a.a.a.a.a.a.a.a.a.a.a.a.a.a.a.a.a.a.a.a.a.a.a.a.a.a.a.a.a.a.a.a.a.a.a.a.a.a.a.a.a.a.a.a.a.a.a.a.a.a.a.a.a.a.a.a.a.a.a.a.a.a.a.a.a.a.a.a.a.a.a.a.",
"a.a.a.a.a.a.a.a.a.a.a.a.a.a.a.a.a.a.a.a.a.a.a.a.a.a.a.a.a.a.a.a.a.a.a.a.a.a.a.a.a.a.a.a.a.a.a.a.a.a.a.a.a.a.a.a.a.a.a.a.a.a.a.a.a.a.a.a.a.a.a.a.a.a.a.a.a.a.a.a.a.a.a.a.a.a.a.a.a.a.a.a.a.a.a.a.a.5 ; 8 8 t s d B C S F U T R E T R T R / _  .@.&.&.-.;.;.e.t.f.f.g.g.k.k.k.j.g.g.g.d.y.t.t.t.t.t.6.6.;.-.6.;.6.6.6.6.6.6.6.t.t.y.t.y.y.y.y.s.s.y.d.y.d.d.s.y.s.d.s.d.s.y.y.d.d.d.d.d.s.f.d.d.f.f.f.t.f.f.f.k.g.d.d.k.j.j.k.k.k.k.V.j.V.j.V.j.m.V.m.D.D.H.H.D.H.D.Y.H.R.~.W.Y.W.!.W.Q.!.W.!.!.Q.Q.Q.Q.Q.W.W.!.W.!.Y.G.G.E.E.W.W.W.E.W.^.^.!.{.^.!.!.!.!.!.!.[.!.!.!.E.E.E.[.}.|.[.E.!.!.^.!.!.[.E.[.[.E.[.[.!.E.E.E.[.[.E.E.J.E.E.E.E.E.!.E.!.!.E.E.E.E.J.E.E.E.E.E.G.J.J.J.J.J.J.G.G.E.G.G.J.G.G.m.J.A.A.m.v.v.v.v.m.m.m.m.m.g.g.g.g.y.t.5.5.5.4.1.1.1.1.#.#.#.....} ) W J d a.a.a.a.a.a.a.a.a.a.a.a.a.a.a.a.a.a.a.a.a.a.a.a.a.a.a.a.a.a.a.a.a.a.a.a.a.a.a.a.a.a.a.a.a.a.a.a.a.a.a.a.a.a.a.a.a.a.a.a.a.a.a.a.a.a.a.a.a.a.a.a.a.a.a.a.a.a.a.a.a.a.a.a.a.a.a.a.a.a.a.a.a.a.a.a.a.a.a.a.a.a.a.a.a.a.a.a.a.a.a.a.a.a.a.a.a.a.a.a.a.a.a.a.a.a.a.a.a.a.a.a.a.a.a.a.a.a.a.a.a.a.a.a.a.a.a.a.a.a.a.a.a.a.a.a.a.a.a.a.a.a.a.a.a.a.a.a.a.a.a.a.a.a.a.a.a.a.a.a.a.a.a.a.a.a.a.a.a.a.a.a.a.a.a.a.a.a.a.a.a.a.a.a.a.a.a.a.a.a.a.a.a.a.a.a.a.a.a.a.a.a.a.a.a.",
"a.a.a.a.a.a.a.a.a.a.a.a.a.a.a.a.a.a.a.a.a.a.a.a.a.a.a.a.a.a.a.a.a.a.a.a.a.a.a.a.a.a.a.a.a.a.a.a.a.a.a.a.a.a.a.a.a.a.a.a.a.a.a.a.a.a.a.a.a.a.a.a.a.a.a.a.a.a.a.a.a.a.a.a.a.a.a.a.a.a.a.a.a.a.a.a.a.a.4 < 6 7 t p l B Z S P U R R E E U E E ] } @.&.:.;.e.t.s.s.h.h.k.k.k.k.g.g.g.d.g.d.d.d.t.t.t.t.t.t.t.t.6.6.6.6.-.-.6.6.4.6.t.t.t.y.y.s.s.y.s.t.d.d.d.d.s.t.d.d.d.t.y.d.s.y.s.d.d.f.f.d.f.f.f.f.f.t.f.f.f.k.d.f.d.k.k.k.k.j.j.k.k.j.k.k.m.j.j.k.C.D.Z.D.D.U.H.Y.Q.D.D.U.Y.U.H.U.Q.!.!.W.^.!.!.Q.W.!.!.W.W.W.H.!.Y.E.E.E.E.!.!.W.W.!.!.!.^.^.^.!.{.!.!.E.!.E.E.E.W.!.[.^.[.E.!.{.!.E.{.{.[.E.E.E.[.[.[.[.[.E.J.{.E.E.J.E.J.G.A.J.J.J.G.G.G.G.G.G.G.G.G.G.G.G.G.G.G.m.m.m.m.m.m.m.v.m.J.J.J.J.G.G.G.A.A.m.m.v.v.v.v.v.v.v.v.g.v.g.d.g.d.y.y.y.t.5.3.1.1.*.#.*.#.....[ ] W J z a.a.a.a.a.a.a.a.a.a.a.a.a.a.a.a.a.a.a.a.a.a.a.a.a.a.a.a.a.a.a.a.a.a.a.a.a.a.a.a.a.a.a.a.a.a.a.a.a.a.a.a.a.a.a.a.a.a.a.a.a.a.a.a.a.a.a.a.a.a.a.a.a.a.a.a.a.a.a.a.a.a.a.a.a.a.a.a.a.a.a.a.a.a.a.a.a.a.a.a.a.a.a.a.a.a.a.a.a.a.a.a.a.a.a.a.a.a.a.a.a.a.a.a.a.a.a.a.a.a.a.a.a.a.a.a.a.a.a.a.a.a.a.a.a.a.a.a.a.a.a.a.a.a.a.a.a.a.a.a.a.a.a.a.a.a.a.a.a.a.a.a.a.a.a.a.a.a.a.a.a.a.a.a.a.a.a.a.a.a.a.a.a.a.a.a.a.a.a.a.a.a.a.a.a.a.a.a.a.a.a.a.a.a.a.a.a.a.a.a.a.a.a.a.a.",
"a.a.a.a.a.a.a.a.a.a.a.a.a.a.a.a.a.a.a.a.a.a.a.a.a.a.a.a.a.a.a.a.a.a.a.a.a.a.a.a.a.a.a.a.a.a.a.a.a.a.a.a.a.a.a.a.a.a.a.a.a.a.a.a.a.a.a.a.a.a.a.a.a.a.a.a.a.a.a.a.a.a.a.a.a.a.a.a.a.a.a.a.a.a.a.a.a.a.a.> 5 8 8 9 s l B Z F U U U T T U T W _ }  .&.-.-.;.t.s.s.s.h.k.k.k.k.g.k.j.g.g.d.d.d.y.y.t.t.6.6.t.t.t.t.t.6.;.-.4.4.6.4.t.t.t.y.y.t.y.y.y.y.d.d.d.s.y.s.d.y.d.s.y.y.y.s.d.d.d.s.f.f.y.f.f.s.y.y.y.y.y.d.f.f.k.k.f.g.g.j.V.k.k.k.j.j.V.V.V.k.A.V.D.k.Z.H.H.W.H.W.U.Y.U.W.H.U.U.W.!.!.!.!.^.~.Q.W.W.!.Q.Y.H.Y.E.Y.E.E.!.E.E.!.{.!.^.^.^.^.{.{.[.[.!.!.E.!.[.[.^.!.!.!.!.}.[.E.{.E.E.E.{.E.!.E.!.J.E.J.J.E.J.{.[.E.J.E.J.J.G.G.A.M.G.M.m.g.g.v.g.g.m.m.v.g.g.v.m.m.v.m.v.v.v.v.v.J.G.m.J.J.G.J.A.m.m.m.m.v.v.v.v.v.v.g.v.v.g.g.d.d.y.5.y.y.y.5.1.1.1.1.*.#.......} ) Q J a a.a.a.a.a.a.a.a.a.a.a.a.a.a.a.a.a.a.a.a.a.a.a.a.a.a.a.a.a.a.a.a.a.a.a.a.a.a.a.a.a.a.a.a.a.a.a.a.a.a.a.a.a.a.a.a.a.a.a.a.a.a.a.a.a.a.a.a.a.a.a.a.a.a.a.a.a.a.a.a.a.a.a.a.a.a.a.a.a.a.a.a.a.a.a.a.a.a.a.a.a.a.a.a.a.a.a.a.a.a.a.a.a.a.a.a.a.a.a.a.a.a.a.a.a.a.a.a.a.a.a.a.a.a.a.a.a.a.a.a.a.a.a.a.a.a.a.a.a.a.a.a.a.a.a.a.a.a.a.a.a.a.a.a.a.a.a.a.a.a.a.a.a.a.a.a.a.a.a.a.a.a.a.a.a.a.a.a.a.a.a.a.a.a.a.a.a.a.a.a.a.a.a.a.a.a.a.a.a.a.a.a.a.a.a.a.a.a.a.a.a.a.a.a.a.",
"a.a.a.a.a.a.a.a.a.a.a.a.a.a.a.a.a.a.a.a.a.a.a.a.a.a.a.a.a.a.a.a.a.a.a.a.a.a.a.a.a.a.a.a.a.a.a.a.a.a.a.a.a.a.a.a.a.a.a.a.a.a.a.a.a.a.a.a.a.a.a.a.a.a.a.a.a.a.a.a.a.a.a.a.a.a.a.a.a.a.a.a.a.a.a.a.a.a.a.a., 1 5 8 p d m C S F G U U U U E W _ }  .&.-.;.;.t.s.s.s.f.k.k.k.k.g.g.g.g.d.y.y.d.t.y.t.t.6.6.6.6.6.6.6.4.4.6.6.t.t.6.t.y.y.f.y.t.t.y.y.y.d.s.s.d.s.s.d.s.y.t.t.s.y.y.s.d.s.t.s.s.f.y.s.s.s.y.t.s.s.f.f.d.d.k.d.k.k.k.k.d.k.k.V.m.V.V.V.j.m.V.V.V.V.Z.Z.D.D.W.H.H.H.W.W.U.U.W.Q.!.!.Q.!.~.Q.W.W.W.U.!.W.E.E.G.!.E.!.E.W.!.!.!.{.^.!.!.!.^.!.!.!.E.E.!.!.E.E.E.E.!.!.!.{.E.J.!.[.!.[.E.J.E.E.[.[.[.[.!.!.!.[.E.!.!.E.[.E.!.E.E.E.E.E.E.G.G.m.G.m.m.m.g.g.d.d.d.y.d.d.g.g.z.v.v.m.m.m.m.v.v.v.v.v.v.v.v.z.v.v.v.v.g.g.z.d.v.v.g.y.y.y.t.5.5.5.1.1.1.*.#...| | ..] R J z a.a.a.a.a.a.a.a.a.a.a.a.a.a.a.a.a.a.a.a.a.a.a.a.a.a.a.a.a.a.a.a.a.a.a.a.a.a.a.a.a.a.a.a.a.a.a.a.a.a.a.a.a.a.a.a.a.a.a.a.a.a.a.a.a.a.a.a.a.a.a.a.a.a.a.a.a.a.a.a.a.a.a.a.a.a.a.a.a.a.a.a.a.a.a.a.a.a.a.a.a.a.a.a.a.a.a.a.a.a.a.a.a.a.a.a.a.a.a.a.a.a.a.a.a.a.a.a.a.a.a.a.a.a.a.a.a.a.a.a.a.a.a.a.a.a.a.a.a.a.a.a.a.a.a.a.a.a.a.a.a.a.a.a.a.a.a.a.a.a.a.a.a.a.a.a.a.a.a.a.a.a.a.a.a.a.a.a.a.a.a.a.a.a.a.a.a.a.a.a.a.a.a.a.a.a.a.a.a.a.a.a.a.a.a.a.a.a.a.a.a.a.a.a.a.",
"a.a.a.a.a.a.a.a.a.a.a.a.a.a.a.a.a.a.a.a.a.a.a.a.a.a.a.a.a.a.a.a.a.a.a.a.a.a.a.a.a.a.a.a.a.a.a.a.a.a.a.a.a.a.a.a.a.a.a.a.a.a.a.a.a.a.a.a.a.a.a.a.a.a.a.a.a.a.a.a.a.a.a.a.a.a.a.a.a.a.a.a.a.a.a.a.a.a.a.a.5 > < , 7 s x B Z S G G G G U E / _ }  .@.&.-.-.;.t.s.g.k.g.k.g.k.j.g.j.d.d.g.y.t.t.t.t.t.t.t.6.6.4.6.6.6.-.4.-.6.6.6.t.y.y.y.s.y.y.y.f.s.d.d.d.d.d.d.s.d.t.y.y.t.t.t.t.s.y.y.f.s.s.t.s.d.f.t.t.t.f.f.f.f.f.g.g.k.k.k.f.d.k.d.j.k.j.j.j.j.m.k.k.H.Z.H.V.V.D.Z.Z.H.U.Q.Q.W.U.U.Q.Q.Q.W.Q.W.!.W.W.W.W.!.W.E.E.E.E.!.W.W.!.!.!.!.!.!.!.!.!.^.!.!.!.E.E.!.E.J.!.E.E.E.E.W.E.E.E.E.E.E.E.G.E.E.[.}.E.E.!.E.E.[.{.E.E.!.E.^.!.!.[.[.!.[.{.!.[.^.!.!.!.E.G.E.E.G.m.g.d.y.y.5.y.y.y.d.v.v.v.v.v.v.m.v.v.z.v.v.g.z.g.v.v.g.d.d.g.d.d.d.y.y.t.y.5.3.3.1.*.*.#.#.#...} ..} ) J d a.a.a.a.a.a.a.a.a.a.a.a.a.a.a.a.a.a.a.a.a.a.a.a.a.a.a.a.a.a.a.a.a.a.a.a.a.a.a.a.a.a.a.a.a.a.a.a.a.a.a.a.a.a.a.a.a.a.a.a.a.a.a.a.a.a.a.a.a.a.a.a.a.a.a.a.a.a.a.a.a.a.a.a.a.a.a.a.a.a.a.a.a.a.a.a.a.a.a.a.a.a.a.a.a.a.a.a.a.a.a.a.a.a.a.a.a.a.a.a.a.a.a.a.a.a.a.a.a.a.a.a.a.a.a.a.a.a.a.a.a.a.a.a.a.a.a.a.a.a.a.a.a.a.a.a.a.a.a.a.a.a.a.a.a.a.a.a.a.a.a.a.a.a.a.a.a.a.a.a.a.a.a.a.a.a.a.a.a.a.a.a.a.a.a.a.a.a.a.a.a.a.a.a.a.a.a.a.a.a.a.a.a.a.a.a.a.a.a.a.a.a.a.a.a.",
"a.a.a.a.a.a.a.a.a.a.a.a.a.a.a.a.a.a.a.a.a.a.a.a.a.a.a.a.a.a.a.a.a.a.a.a.a.a.a.a.a.a.a.a.a.a.a.a.a.a.a.a.a.a.a.a.a.a.a.a.a.a.a.a.a.a.a.a.a.a.a.a.a.a.a.a.a.a.a.a.a.a.a.a.a.a.a.a.a.a.a.a.a.a.a.a.a.a.a.a.a.< > , , 8 d n Z S F G F G U E / _ }  .@.&.:.;.6.t.s.g.k.g.g.g.g.g.d.d.d.d.g.d.t.y.y.t.t.t.t.t.t.t.6.t.6.4.-.4.6.6.6.t.t.y.t.y.s.y.y.y.y.t.s.d.s.y.s.s.y.t.t.t.t.t.t.t.y.s.s.y.t.t.t.s.s.y.t.s.s.f.f.f.s.f.g.d.d.d.g.g.k.k.j.m.j.j.j.k.k.A.Z.V.V.V.k.Z.Z.H.H.Z.U.W.W.!.W.W.W.Q.Y.W.Y.^.!.Q.Y.!.Q.W.W.W.W.W.!.^.!.W.!.!.!.!.W.W.!.!.!.^.{.{.E.E.E.E.!.[.!.E.E.J.E.E.E.!.E.E.!.!.E.J.!.E.E.W.E.[.[.}.{.!.E.[.!.W.[.!.[.[.[.{.}.}.{..X|.}.}.}.}.}.{.{.{.{.[.[.!.E.J.g.y.5.1.1.5.y.y.v.v.v.d.v.v.v.d.v.z.g.d.d.d.d.y.y.y.y.y.y.y.y.t.y.t.t.5.1.1.1.4.*.#...| ..} ] W J d a.a.a.a.a.a.a.a.a.a.a.a.a.a.a.a.a.a.a.a.a.a.a.a.a.a.a.a.a.a.a.a.a.a.a.a.a.a.a.a.a.a.a.a.a.a.a.a.a.a.a.a.a.a.a.a.a.a.a.a.a.a.a.a.a.a.a.a.a.a.a.a.a.a.a.a.a.a.a.a.a.a.a.a.a.a.a.a.a.a.a.a.a.a.a.a.a.a.a.a.a.a.a.a.a.a.a.a.a.a.a.a.a.a.a.a.a.a.a.a.a.a.a.a.a.a.a.a.a.a.a.a.a.a.a.a.a.a.a.a.a.a.a.a.a.a.a.a.a.a.a.a.a.a.a.a.a.a.a.a.a.a.a.a.a.a.a.a.a.a.a.a.a.a.a.a.a.a.a.a.a.a.a.a.a.a.a.a.a.a.a.a.a.a.a.a.a.a.a.a.a.a.a.a.a.a.a.a.a.a.a.a.a.a.a.a.a.a.a.a.a.a.a.a.a.",
"a.a.a.a.a.a.a.a.a.a.a.a.a.a.a.a.a.a.a.a.a.a.a.a.a.a.a.a.a.a.a.a.a.a.a.a.a.a.a.a.a.a.a.a.a.a.a.a.a.a.a.a.a.a.a.a.a.a.a.a.a.a.a.a.a.a.a.a.a.a.a.a.a.a.a.a.a.a.a.a.a.a.a.a.a.a.a.a.a.a.a.a.a.a.a.a.a.a.a.a.a.a.- * - 6 s x C Z S S F G U E / / ` @. .@.&.;.t.s.s.f.g.k.g.g.g.g.d.d.d.g.g.g.y.t.t.t.t.t.t.t.t.t.6.4.6.6.6.4.4.4.t.t.t.t.y.f.s.y.f.y.y.t.y.d.d.s.y.t.y.t.y.t.t.y.t.t.t.t.t.y.t.t.t.t.y.t.t.t.t.f.s.f.f.f.k.d.f.f.f.k.k.d.k.k.k.j.k.B.k.k.V.k.k.V.V.Z.H.H.Z.U.U.W.U.W.W.W.Q.Q.Q.W.!.W.U.!.U.Q.Y.!.W.W.!.^.!.W.!.!.!.!.!.E.E.!.!.W.E.!.!.!.E.E.E.!.E.J.G.E.E.E.E.[.!.!.J.E.[.!.E.E.E.!.E.!.[.}.!.W.!.^.[.{.(.}.}.{.{.!.}..X.X.XXX.X.XoX.X|.}.}.}.}..X.X}.}.{.[.[.E.J.v.y.4.-.1.5.y.d.z.z.z.d.d.d.v.g.g.d.y.y.y.y.y.y.y.y.y.y.y.t.4.4.5.5.5.1.1.1.1.#...[ } [ ] ) Y z a.a.a.a.a.a.a.a.a.a.a.a.a.a.a.a.a.a.a.a.a.a.a.a.a.a.a.a.a.a.a.a.a.a.a.a.a.a.a.a.a.a.a.a.a.a.a.a.a.a.a.a.a.a.a.a.a.a.a.a.a.a.a.a.a.a.a.a.a.a.a.a.a.a.a.a.a.a.a.a.a.a.a.a.a.a.a.a.a.a.a.a.a.a.a.a.a.a.a.a.a.a.a.a.a.a.a.a.a.a.a.a.a.a.a.a.a.a.a.a.a.a.a.a.a.a.a.a.a.a.a.a.a.a.a.a.a.a.a.a.a.a.a.a.a.a.a.a.a.a.a.a.a.a.a.a.a.a.a.a.a.a.a.a.a.a.a.a.a.a.a.a.a.a.a.a.a.a.a.a.a.a.a.a.a.a.a.a.a.a.a.a.a.a.a.a.a.a.a.a.a.a.a.a.a.a.a.a.a.a.a.a.a.a.a.a.a.a.a.a.a.a.a.a.a.",
"a.a.a.a.a.a.a.a.a.a.a.a.a.a.a.a.a.a.a.a.a.a.a.a.a.a.a.a.a.a.a.a.a.a.a.a.a.a.a.a.a.a.a.a.a.a.a.a.a.a.a.a.a.a.a.a.a.a.a.a.a.a.a.a.a.a.a.a.a.a.a.a.a.a.a.a.a.a.a.a.a.a.a.a.a.a.a.a.a.a.a.a.a.a.a.a.a.a.a.a.a.a.a.- & - t d m B C Z F G G R W / _  .@.#.&.;.t.t.d.d.d.d.g.j.g.g.g.j.d.d.g.d.t.t.t.y.t.t.t.t.t.t.t.t.4.4.4.4.6.6.t.t.t.y.f.y.y.s.f.f.d.s.y.f.s.d.y.y.s.t.y.s.s.y.t.y.s.s.t.t.t.y.t.s.y.t.t.t.t.y.y.s.f.g.d.f.f.f.f.d.d.d.k.k.k.d.k.j.V.k.B.V.k.D.V.V.H.V.H.W.U.U.Y.W.U.W.Q.!.!.Y.Q.!.!.W.W.Y.Y.!.!.Q.Y.Y.!.G.E.!.!.E.E.E.E.E.E.!.K.W.!.^.W.E.E.W.E.E.[.!.!.{.{.[.[.E.E.E.E.E.E.^.!.E.[.{.^.{.^.{.}.}.{.}.}.|.|.}.}..X{.}..X.X.X.X.XXX.X.X.X.XoXoXoXoXoXoXoX.X{.[.E.J.A.z.y.4.#.1.y.y.d.d.d.d.y.d.d.d.d.y.y.y.y.y.y.y.y.y.y.t.y.y.y.t.5.1.1.1.*.*.#.....[ } ] W I d a.a.a.a.a.a.a.a.a.a.a.a.a.a.a.a.a.a.a.a.a.a.a.a.a.a.a.a.a.a.a.a.a.a.a.a.a.a.a.a.a.a.a.a.a.a.a.a.a.a.a.a.a.a.a.a.a.a.a.a.a.a.a.a.a.a.a.a.a.a.a.a.a.a.a.a.a.a.a.a.a.a.a.a.a.a.a.a.a.a.a.a.a.a.a.a.a.a.a.a.a.a.a.a.a.a.a.a.a.a.a.a.a.a.a.a.a.a.a.a.a.a.a.a.a.a.a.a.a.a.a.a.a.a.a.a.a.a.a.a.a.a.a.a.a.a.a.a.a.a.a.a.a.a.a.a.a.a.a.a.a.a.a.a.a.a.a.a.a.a.a.a.a.a.a.a.a.a.a.a.a.a.a.a.a.a.a.a.a.a.a.a.a.a.a.a.a.a.a.a.a.a.a.a.a.a.a.a.a.a.a.a.a.a.a.a.a.a.a.a.a.a.a.a.a.",
"a.a.a.a.a.a.a.a.a.a.a.a.a.a.a.a.a.a.a.a.a.a.a.a.a.a.a.a.a.a.a.a.a.a.a.a.a.a.a.a.a.a.a.a.a.a.a.a.a.a.a.a.a.a.a.a.a.a.a.a.a.a.a.a.a.a.a.a.a.a.a.a.a.a.a.a.a.a.a.a.a.a.a.a.a.a.a.a.a.a.a.a.a.a.a.a.a.a.a.a.a.a.a.a.% o 3 p m B C A S P U T W / _  .@.&.-.-.6.s.t.g.d.g.j.k.j.g.d.g.d.d.d.d.y.d.t.t.t.t.y.4.6.t.6.6.6.4.4.4.t.t.t.t.y.y.y.y.y.y.y.y.f.f.f.f.s.y.s.y.t.s.t.d.t.t.t.t.y.y.t.t.t.s.t.t.t.t.t.t.t.y.s.y.y.f.f.f.d.f.d.d.d.f.f.f.d.d.k.j.k.V.k.k.k.D.V.D.H.W.H.U.U.Y.Y.W.W.U.W.!.W.Y.!.W.W.Q.Y.Y.W.!.W.W.!.W.E.E.E.E.E.Y.E.!.W.W.E.E.E.E.E.E.E.E.E.E.!.!.!.!.E.E.!.E.E.E.E.E.W.W.J.W.{.{.{.}.{.{.}.{.^.}.}.}.}.}.}..X.X}.oX.XoX.X}.XXXXoXoXoXoX.XoXOXoXoXoXoX.X}.|.}.{.{.[.E.A.v.t.#.#.7.d.7.d.d.d.y.y.y.y.y.y.d.y.y.y.y.y.5.y.y.5.5.5.5.5.5.6.5.1.#.......[ [ ] R Y d a.a.a.a.a.a.a.a.a.a.a.a.a.a.a.a.a.a.a.a.a.a.a.a.a.a.a.a.a.a.a.a.a.a.a.a.a.a.a.a.a.a.a.a.a.a.a.a.a.a.a.a.a.a.a.a.a.a.a.a.a.a.a.a.a.a.a.a.a.a.a.a.a.a.a.a.a.a.a.a.a.a.a.a.a.a.a.a.a.a.a.a.a.a.a.a.a.a.a.a.a.a.a.a.a.a.a.a.a.a.a.a.a.a.a.a.a.a.a.a.a.a.a.a.a.a.a.a.a.a.a.a.a.a.a.a.a.a.a.a.a.a.a.a.a.a.a.a.a.a.a.a.a.a.a.a.a.a.a.a.a.a.a.a.a.a.a.a.a.a.a.a.a.a.a.a.a.a.a.a.a.a.a.a.a.a.a.a.a.a.a.a.a.a.a.a.a.a.a.a.a.a.a.a.a.a.a.a.a.a.a.a.a.a.a.a.a.a.a.a.a.a.a.a.a.",
"a.a.a.a.a.a.a.a.a.a.a.a.a.a.a.a.a.a.a.a.a.a.a.a.a.a.a.a.a.a.a.a.a.a.a.a.a.a.a.a.a.a.a.a.a.a.a.a.a.a.a.a.a.a.a.a.a.a.a.a.a.a.a.a.a.a.a.a.a.a.a.a.a.a.a.a.a.a.a.a.a.a.a.a.a.a.a.a.a.a.a.a.a.a.a.a.a.a.a.a.a.a.a.a.a.o > t d B B C S F U R W / _ }  .&.&.-.6.t.t.f.d.g.g.g.k.A.j.g.j.d.y.y.d.d.t.y.t.t.t.t.t.t.y.t.6.4.6.6.4.6.t.t.t.y.s.s.s.d.d.d.s.y.y.f.d.s.d.y.t.y.t.s.t.e.t.t.t.t.t.t.t.t.t.t.t.e.t.t.t.t.s.s.y.f.f.f.f.f.f.f.f.f.k.k.k.k.k.k.k.k.k.k.k.k.k.V.H.H.U.H.H.H.W.U.U.U.W.W.W.W.Y.W.W.Y.^.W.W.W.Y.W.W.W.!.E.Y.E.E.E.K.E.E.W.E.E.E.E.E.E.E.E.E.E.!.!.E.E.J.E.E.!.!.E.E.E.E.E.E.!.[.{.{.[.{.[.{.{.{.}.}.}.}..X.X}.}.}..X.XoXXXXXoXoXoXoXoXoX.XoXoXoX+X+XoXoX.X.X}.{.{.{.!.E.J.m.d.#.#.4.y.y.y.y.y.y.y.y.y.y.y.y.y.y.y.y.y.y.y.7.7.7.5.5.5.5.1.*.#.#...[ } ] ) Q J z a.a.a.a.a.a.a.a.a.a.a.a.a.a.a.a.a.a.a.a.a.a.a.a.a.a.a.a.a.a.a.a.a.a.a.a.a.a.a.a.a.a.a.a.a.a.a.a.a.a.a.a.a.a.a.a.a.a.a.a.a.a.a.a.a.a.a.a.a.a.a.a.a.a.a.a.a.a.a.a.a.a.a.a.a.a.a.a.a.a.a.a.a.a.a.a.a.a.a.a.a.a.a.a.a.a.a.a.a.a.a.a.a.a.a.a.a.a.a.a.a.a.a.a.a.a.a.a.a.a.a.a.a.a.a.a.a.a.a.a.a.a.a.a.a.a.a.a.a.a.a.a.a.a.a.a.a.a.a.a.a.a.a.a.a.a.a.a.a.a.a.a.a.a.a.a.a.a.a.a.a.a.a.a.a.a.a.a.a.a.a.a.a.a.a.a.a.a.a.a.a.a.a.a.a.a.a.a.a.a.a.a.a.a.a.a.a.a.a.a.a.a.a.a.a.",
"a.a.a.a.a.a.a.a.a.a.a.a.a.a.a.a.a.a.a.a.a.a.a.a.a.a.a.a.a.a.a.a.a.a.a.a.a.a.a.a.a.a.a.a.a.a.a.a.a.a.a.a.a.a.a.a.a.a.a.a.a.a.a.a.a.a.a.a.a.a.a.a.a.a.a.a.a.a.a.a.a.a.a.a.a.a.a.a.a.a.a.a.a.a.a.a.a.a.a.a.a.a.a.a.a.a.$ 7 s n B C Z F U R E / ] }  .&.-.-.6.t.t.d.d.g.k.g.d.m.m.k.j.g.d.y.t.t.t.d.t.t.t.t.t.t.t.t.t.t.6.t.t.t.y.t.t.y.s.d.d.d.d.y.y.y.f.f.y.y.y.y.y.s.s.t.t.t.e.t.t.t.t.t.t.t.e.e.e.t.t.t.t.t.t.f.f.f.f.f.f.f.f.d.g.d.k.k.k.k.g.k.k.j.k.k.V.j.A.A.H.W.U.H.U.Y.W.H.H.Y.K.W.!.W.W.W.W.!.Y.W.W.W.W.Y.W.W.E.E.E.W.K.K.G.E.G.G.G.K.E.E.K.E.E.E.E.E.E.J.J.J.E.E.!.W.E.J.E.E.E.!.{.!.{.[.E.{.}.{.[.[.{.{.}.}.}.{.}..X.X.XoXoXoX.XoXoXoXOX#XOX.X.XoXoXoXOXOXOXoX.X.X}.}.{.{.!.E.E.A.m.z.*. .4.y.y.y.y.y.y.t.y.y.y.y.y.y.7.5.5.7.y.y.5.7.5.6.1.1.*.1.*.#...} } ] ] Y Y d a.a.a.a.a.a.a.a.a.a.a.a.a.a.a.a.a.a.a.a.a.a.a.a.a.a.a.a.a.a.a.a.a.a.a.a.a.a.a.a.a.a.a.a.a.a.a.a.a.a.a.a.a.a.a.a.a.a.a.a.a.a.a.a.a.a.a.a.a.a.a.a.a.a.a.a.a.a.a.a.a.a.a.a.a.a.a.a.a.a.a.a.a.a.a.a.a.a.a.a.a.a.a.a.a.a.a.a.a.a.a.a.a.a.a.a.a.a.a.a.a.a.a.a.a.a.a.a.a.a.a.a.a.a.a.a.a.a.a.a.a.a.a.a.a.a.a.a.a.a.a.a.a.a.a.a.a.a.a.a.a.a.a.a.a.a.a.a.a.a.a.a.a.a.a.a.a.a.a.a.a.a.a.a.a.a.a.a.a.a.a.a.a.a.a.a.a.a.a.a.a.a.a.a.a.a.a.a.a.a.a.a.a.a.a.a.a.a.a.a.a.a.a.a.a.",
"a.a.a.a.a.a.a.a.a.a.a.a.a.a.a.a.a.a.a.a.a.a.a.a.a.a.a.a.a.a.a.a.a.a.a.a.a.a.a.a.a.a.a.a.a.a.a.a.a.a.a.a.a.a.a.a.a.a.a.a.a.a.a.a.a.a.a.a.a.a.a.a.a.a.a.a.a.a.a.a.a.a.a.a.a.a.a.a.a.a.a.a.a.a.a.a.a.a.a.a.a.a.a.a.a.a.a.7 t k m C Z F P U E W _ }  .&.-.6.6.t.t.d.d.g.g.g.j.m.j.j.g.d.y.y.y.t.t.y.y.d.y.t.t.t.t.4.4.4.4.6.t.t.t.y.y.t.y.d.s.y.y.y.s.s.y.y.t.t.t.f.y.f.s.y.f.t.e.t.e.t.t.t.y.t.e.t.t.t.t.t.t.t.t.f.t.f.f.y.f.f.f.d.d.d.k.f.d.k.g.k.k.j.k.j.j.V.V.A.H.H.H.H.Y.W.W.W.U.Y.K.W.W.W.W.W.!.!.W.!.W.W.G.K.Y.H.G.K.E.E.Y.G.m.D.G.G.E.E.E.W.E.E.E.W.W.W.W.W.W.W.^.E.E.J.J.J.E.E.!.!.!.E.E.!.}.{.{.{.^.[.{.{.}.{.}.|.XX}.oX.X.X|..XoX+XoXoXoXoX.X}..X.X.XoXOXOXoXoX.X.X}.}.}.{.{.!.[.J.m.v.y.#.#.1.5.y.y.7.y.7.5.y.y.y.t.y.t.t.5.5.5.y.4.5.y.y.5.1.1.#.#.#...[ [ ] } R J g a.a.a.a.a.a.a.a.a.a.a.a.a.a.a.a.a.a.a.a.a.a.a.a.a.a.a.a.a.a.a.a.a.a.a.a.a.a.a.a.a.a.a.a.a.a.a.a.a.a.a.a.a.a.a.a.a.a.a.a.a.a.a.a.a.a.a.a.a.a.a.a.a.a.a.a.a.a.a.a.a.a.a.a.a.a.a.a.a.a.a.a.a.a.a.a.a.a.a.a.a.a.a.a.a.a.a.a.a.a.a.a.a.a.a.a.a.a.a.a.a.a.a.a.a.a.a.a.a.a.a.a.a.a.a.a.a.a.a.a.a.a.a.a.a.a.a.a.a.a.a.a.a.a.a.a.a.a.a.a.a.a.a.a.a.a.a.a.a.a.a.a.a.a.a.a.a.a.a.a.a.a.a.a.a.a.a.a.a.a.a.a.a.a.a.a.a.a.a.a.a.a.a.a.a.a.a.a.a.a.a.a.a.a.a.a.a.a.a.a.a.a.a.a.a.",
"a.a.a.a.a.a.a.a.a.a.a.a.a.a.a.a.a.a.a.a.a.a.a.a.a.a.a.a.a.a.a.a.a.a.a.a.a.a.a.a.a.a.a.a.a.a.a.a.a.a.a.a.a.a.a.a.a.a.a.a.a.a.a.a.a.a.a.a.a.a.a.a.a.a.a.a.a.a.a.a.a.a.a.a.a.a.a.a.a.a.a.a.a.a.a.a.a.a.a.a.a.a.a.a.a.a.a.a.a.p l B C S F U R W / }  .#.&.-.6.t.t.s.s.d.d.g.g.g.g.g.g.g.y.y.y.y.y.t.t.y.t.t.t.6.6.t.6.t.t.t.t.t.t.t.y.y.s.d.y.y.d.d.y.y.t.t.y.y.y.f.y.y.y.s.d.t.t.t.t.t.t.t.t.e.t.t.t.t.t.s.t.y.t.t.f.f.t.y.y.f.f.f.d.d.k.k.k.f.g.g.k.k.k.j.V.j.A.A.H.H.U.U.U.Y.U.W.W.H.Y.W.K.W.W.W.W.!.W.W.W.G.G.W.W.G.K.Y.K.G.K.A.A.K.K.G.K.Y.K.K.K.K.K.E.Y.E.E.W.W.E.E.E.E.E.E.E.J.E.!.!.W.!.^.!.E.!.{.[.^.!.{.}.}.}.}.XX}.XX.XXXXXXXXXXXoXoXoXoXoXoXoXXXXXXXXXXXXX.XoX.X.X|.|.}.{.{.{.!.[.E.m.v.g. .#.4.5.7.y.y.y.5.t.5.y.6.t.t.5.5.5.5.5.5.5.5.5.4.4.1.1.1.#...} [ ] / R J a.a.a.a.a.a.a.a.a.a.a.a.a.a.a.a.a.a.a.a.a.a.a.a.a.a.a.a.a.a.a.a.a.a.a.a.a.a.a.a.a.a.a.a.a.a.a.a.a.a.a.a.a.a.a.a.a.a.a.a.a.a.a.a.a.a.a.a.a.a.a.a.a.a.a.a.a.a.a.a.a.a.a.a.a.a.a.a.a.a.a.a.a.a.a.a.a.a.a.a.a.a.a.a.a.a.a.a.a.a.a.a.a.a.a.a.a.a.a.a.a.a.a.a.a.a.a.a.a.a.a.a.a.a.a.a.a.a.a.a.a.a.a.a.a.a.a.a.a.a.a.a.a.a.a.a.a.a.a.a.a.a.a.a.a.a.a.a.a.a.a.a.a.a.a.a.a.a.a.a.a.a.a.a.a.a.a.a.a.a.a.a.a.a.a.a.a.a.a.a.a.a.a.a.a.a.a.a.a.a.a.a.a.a.a.a.a.a.a.a.a.a.a.a.a.a.",
"a.a.a.a.a.a.a.a.a.a.a.a.a.a.a.a.a.a.a.a.a.a.a.a.a.a.a.a.a.a.a.a.a.a.a.a.a.a.a.a.a.a.a.a.a.a.a.a.a.a.a.a.a.a.a.a.a.a.a.a.a.a.a.a.a.a.a.a.a.a.a.a.a.a.a.a.a.a.a.a.a.a.a.a.a.a.a.a.a.a.a.a.a.a.a.a.a.a.a.a.a.a.a.a.a.a.a.a.a.t d B C F U U R W / }  .#.-.-.6.t.y.s.d.d.g.j.v.g.g.g.g.g.t.t.t.t.y.y.t.t.t.t.y.t.t.6.6.6.6.t.t.y.y.y.d.d.d.s.f.d.y.f.y.y.y.y.y.y.y.t.y.s.d.s.y.t.t.t.t.t.t.t.t.t.t.t.t.t.t.t.y.t.t.t.s.f.y.s.f.f.k.g.f.s.f.k.d.d.k.g.m.k.j.k.j.V.j.A.H.W.H.U.Y.Y.W.W.U.H.Y.W.W.W.W.W.Y.Y.K.D.A.H.W.Y.K.H.G.G.A.m.m.A.Y.K.K.G.A.J.K.Y.K.K.W.W.K.K.W.K.K.!.W.W.K.W.W.W.W.W.!.[.[.^.^.[.[.{.{.{.{.}.{.{.{.}.}.}.}.}.{.}.}.}.}.|.}.XX.XoX.XXXXXXX|.|.}.}.}.}.}.{.}.}.}.}.}.}.{.!.!.E.G.m.g.d. .#.4.d.5.y.5.5.5.6.5.5.6.5.5.5.5.5.1.5.5.5.7.5.4.4.1.#.#...] ] ] ) R J a.a.a.a.a.a.a.a.a.a.a.a.a.a.a.a.a.a.a.a.a.a.a.a.a.a.a.a.a.a.a.a.a.a.a.a.a.a.a.a.a.a.a.a.a.a.a.a.a.a.a.a.a.a.a.a.a.a.a.a.a.a.a.a.a.a.a.a.a.a.a.a.a.a.a.a.a.a.a.a.a.a.a.a.a.a.a.a.a.a.a.a.a.a.a.a.a.a.a.a.a.a.a.a.a.a.a.a.a.a.a.a.a.a.a.a.a.a.a.a.a.a.a.a.a.a.a.a.a.a.a.a.a.a.a.a.a.a.a.a.a.a.a.a.a.a.a.a.a.a.a.a.a.a.a.a.a.a.a.a.a.a.a.a.a.a.a.a.a.a.a.a.a.a.a.a.a.a.a.a.a.a.a.a.a.a.a.a.a.a.a.a.a.a.a.a.a.a.a.a.a.a.a.a.a.a.a.a.a.a.a.a.a.a.a.a.a.a.a.a.a.a.a.a.a.a.",
"a.a.a.a.a.a.a.a.a.a.a.a.a.a.a.a.a.a.a.a.a.a.a.a.a.a.a.a.a.a.a.a.a.a.a.a.a.a.a.a.a.a.a.a.a.a.a.a.a.a.a.a.a.a.a.a.a.a.a.a.a.a.a.a.a.a.a.a.a.a.a.a.a.a.a.a.a.a.a.a.a.a.a.a.a.a.a.a.a.a.a.a.a.a.a.a.a.a.a.a.a.a.a.a.a.a.a.a.a.9 s l C S P U T W / }  .#.*.1.6.t.y.d.d.d.g.g.g.g.g.g.g.d.t.y.g.y.d.d.y.t.t.t.6.6.6.6.t.t.t.t.t.t.y.d.d.d.y.t.y.d.y.y.d.t.y.y.y.y.y.y.y.y.d.s.t.t.t.t.t.y.t.t.t.t.t.t.t.t.t.t.t.t.f.f.f.f.y.y.s.s.f.f.d.f.d.d.f.f.f.k.j.k.k.j.k.m.V.H.H.H.U.U.H.H.U.Y.H.U.H.W.W.H.W.Y.W.Y.K.K.K.W.D.H.G.K.G.G.G.m.G.G.K.A.G.m.A.J.E.G.G.G.G.K.E.W.K.E.W.W.J.W.W.^.W.W.W.W.E.!.!.!.[.[.{.}.{.{.{.}.}.}.{.}.}.}.}.}.^.}.}.}.|.|.XXoXXXXX|.XXXXXXXXXXXXXX|.}.}.}.{.^.{.{.{.{.{.!.!.!.J.m.d.d.t...#.1.y.y.4.4.6.6.6.6.4.6.6.6.5.1.6.5.6.4.1.4.4.1.1.#.#...} ] ] Q R K a.a.a.a.a.a.a.a.a.a.a.a.a.a.a.a.a.a.a.a.a.a.a.a.a.a.a.a.a.a.a.a.a.a.a.a.a.a.a.a.a.a.a.a.a.a.a.a.a.a.a.a.a.a.a.a.a.a.a.a.a.a.a.a.a.a.a.a.a.a.a.a.a.a.a.a.a.a.a.a.a.a.a.a.a.a.a.a.a.a.a.a.a.a.a.a.a.a.a.a.a.a.a.a.a.a.a.a.a.a.a.a.a.a.a.a.a.a.a.a.a.a.a.a.a.a.a.a.a.a.a.a.a.a.a.a.a.a.a.a.a.a.a.a.a.a.a.a.a.a.a.a.a.a.a.a.a.a.a.a.a.a.a.a.a.a.a.a.a.a.a.a.a.a.a.a.a.a.a.a.a.a.a.a.a.a.a.a.a.a.a.a.a.a.a.a.a.a.a.a.a.a.a.a.a.a.a.a.a.a.a.a.a.a.a.a.a.a.a.a.a.a.a.a.a.a.",
"a.a.a.a.a.a.a.a.a.a.a.a.a.a.a.a.a.a.a.a.a.a.a.a.a.a.a.a.a.a.a.a.a.a.a.a.a.a.a.a.a.a.a.a.a.a.a.a.a.a.a.a.a.a.a.a.a.a.a.a.a.a.a.a.a.a.a.a.a.a.a.a.a.a.a.a.a.a.a.a.a.a.a.a.a.a.a.a.a.a.a.a.a.a.a.a.a.a.a.a.a.a.a.a.a.a.a.a.a.a.t l C S F U U W / }  .#.-.1.-.6.t.d.d.d.g.g.g.d.y.y.y.y.y.t.d.t.t.t.6.6.t.t.t.y.6.t.t.t.t.t.t.t.y.y.d.y.y.y.y.f.y.t.y.y.y.y.y.y.y.y.t.s.s.s.s.t.t.y.t.y.t.t.t.t.t.t.t.y.t.t.y.y.t.t.f.s.s.f.f.f.d.f.f.y.f.f.f.d.k.k.j.k.k.j.v.j.V.A.H.H.H.H.H.H.U.Z.Z.H.W.W.Y.H.Y.K.W.E.G.H.W.Y.K.H.A.k.G.G.G.G.G.A.G.Y.K.v.E.G.G.A.G.A.K.E.K.K.E.G.K.W.E.!.^.^.W.W.W.W.[.[.[.{.{.!.^.[.}.}.{.[.{.}.{.}.XX}.^.^.}.}.}.}.}.(.}.XXXX|.}.}.|.XX}.}.}.}.}.^.(.{.{.[.{.{.{.}.}.[.[.[.E.J.m.g.y.5. .#.4.4.4.4.6.4.6.1.1.4.4.4.5.1.5.6.5.5.5.5.4.#.1.1.#...} [ ) / T D a.a.a.a.a.a.a.a.a.a.a.a.a.a.a.a.a.a.a.a.a.a.a.a.a.a.a.a.a.a.a.a.a.a.a.a.a.a.a.a.a.a.a.a.a.a.a.a.a.a.a.a.a.a.a.a.a.a.a.a.a.a.a.a.a.a.a.a.a.a.a.a.a.a.a.a.a.a.a.a.a.a.a.a.a.a.a.a.a.a.a.a.a.a.a.a.a.a.a.a.a.a.a.a.a.a.a.a.a.a.a.a.a.a.a.a.a.a.a.a.a.a.a.a.a.a.a.a.a.a.a.a.a.a.a.a.a.a.a.a.a.a.a.a.a.a.a.a.a.a.a.a.a.a.a.a.a.a.a.a.a.a.a.a.a.a.a.a.a.a.a.a.a.a.a.a.a.a.a.a.a.a.a.a.a.a.a.a.a.a.a.a.a.a.a.a.a.a.a.a.a.a.a.a.a.a.a.a.a.a.a.a.a.a.a.a.a.a.a.a.a.a.a.a.a.a.",
"a.a.a.a.a.a.a.a.a.a.a.a.a.a.a.a.a.a.a.a.a.a.a.a.a.a.a.a.a.a.a.a.a.a.a.a.a.a.a.a.a.a.a.a.a.a.a.a.a.a.a.a.a.a.a.a.a.a.a.a.a.a.a.a.a.a.a.a.a.a.a.a.a.a.a.a.a.a.a.a.a.a.a.a.a.a.a.a.a.a.a.a.a.a.a.a.a.a.a.a.a.a.a.a.a.a.a.a.a.a.8 l C S P U U W / } ..#.#.:.4.t.t.d.g.d.g.g.d.d.g.g.d.d.d.t.t.y.y.y.t.y.d.t.t.t.t.6.t.6.t.y.y.t.t.t.d.t.y.s.y.t.y.t.y.t.s.y.s.s.y.y.y.y.d.y.t.t.t.t.t.e.s.y.t.t.t.t.t.t.t.t.s.f.f.f.f.f.f.f.d.f.g.f.f.f.d.f.f.f.f.f.f.d.j.k.j.j.H.A.H.W.H.D.K.H.H.H.W.W.K.H.H.H.H.D.Y.Y.H.A.m.H.K.V.V.m.D.A.A.G.K.G.G.A.G.G.G.J.J.G.G.K.K.Y.K.W.K.E.W.W.^.W.W.W.E.W.!.^.E.[.{.!.{.^.^.^.{.{.{.{.{.{.{.{.{.}.^.{.^.^.^.}.}.}.}.}.}.}.}.}.}.}.}.}.(.}.}.!.^.!.^.^.!.^.{.{.[.!.{.{.[.J.m.v.d.d.4.} *.1.1.1.1.4.1.1.1.1.6.6.1.5.6.1.5.6.4.1.1.1.1.*.1...[ ] ) / U D a.a.a.a.a.a.a.a.a.a.a.a.a.a.a.a.a.a.a.a.a.a.a.a.a.a.a.a.a.a.a.a.a.a.a.a.a.a.a.a.a.a.a.a.a.a.a.a.a.a.a.a.a.a.a.a.a.a.a.a.a.a.a.a.a.a.a.a.a.a.a.a.a.a.a.a.a.a.a.a.a.a.a.a.a.a.a.a.a.a.a.a.a.a.a.a.a.a.a.a.a.a.a.a.a.a.a.a.a.a.a.a.a.a.a.a.a.a.a.a.a.a.a.a.a.a.a.a.a.a.a.a.a.a.a.a.a.a.a.a.a.a.a.a.a.a.a.a.a.a.a.a.a.a.a.a.a.a.a.a.a.a.a.a.a.a.a.a.a.a.a.a.a.a.a.a.a.a.a.a.a.a.a.a.a.a.a.a.a.a.a.a.a.a.a.a.a.a.a.a.a.a.a.a.a.a.a.a.a.a.a.a.a.a.a.a.a.a.a.a.a.a.a.a.a.a.",
"a.a.a.a.a.a.a.a.a.a.a.a.a.a.a.a.a.a.a.a.a.a.a.a.a.a.a.a.a.a.a.a.a.a.a.a.a.a.a.a.a.a.a.a.a.a.a.a.a.a.a.a.a.a.a.a.a.a.a.a.a.a.a.a.a.a.a.a.a.a.a.a.a.a.a.a.a.a.a.a.a.a.a.a.a.a.a.a.a.a.a.a.a.a.a.a.a.a.a.a.a.a.a.a.a.a.a.a.a.a.5 h N Z F P R E / ]  .#.#.-.1.5.t.d.d.d.d.d.d.d.d.d.d.d.y.d.y.t.y.y.t.t.t.t.t.t.6.6.t.t.t.t.t.s.t.y.d.y.d.y.y.s.y.s.s.d.s.t.t.t.s.y.y.t.y.y.y.t.t.t.t.y.y.t.y.s.y.f.y.s.y.s.s.f.f.d.f.f.f.f.d.f.f.s.s.s.f.f.f.f.f.g.d.d.k.j.j.V.m.m.A.H.H.G.Y.G.E.Y.G.K.Y.A.D.K.K.H.K.K.D.D.G.G.G.m.m.A.m.m.m.A.v.v.m.m.E.K.G.K.G.K.K.W.K.J.E.W.K.K.W.J.W.W.!.W.W.W.!.!.!.!.!.E.^.^.{.{.^.{.^.{.^.!.!.^.^.}.}.{.!.^.^.}.}.{.^.}.{.}.{.}.}.}.}.}.}.^.^.!.W.W.!.!.W.Y.!.!.!.!.!.[.!.E.J.v.v.d.y.&._ *.4.4.1.1.1.1.1.1.1.6.5.1.1.1.1.6.1.1.1.1.#.<.....[ ] ) W U V a.a.a.a.a.a.a.a.a.a.a.a.a.a.a.a.a.a.a.a.a.a.a.a.a.a.a.a.a.a.a.a.a.a.a.a.a.a.a.a.a.a.a.a.a.a.a.a.a.a.a.a.a.a.a.a.a.a.a.a.a.a.a.a.a.a.a.a.a.a.a.a.a.a.a.a.a.a.a.a.a.a.a.a.a.a.a.a.a.a.a.a.a.a.a.a.a.a.a.a.a.a.a.a.a.a.a.a.a.a.a.a.a.a.a.a.a.a.a.a.a.a.a.a.a.a.a.a.a.a.a.a.a.a.a.a.a.a.a.a.a.a.a.a.a.a.a.a.a.a.a.a.a.a.a.a.a.a.a.a.a.a.a.a.a.a.a.a.a.a.a.a.a.a.a.a.a.a.a.a.a.a.a.a.a.a.a.a.a.a.a.a.a.a.a.a.a.a.a.a.a.a.a.a.a.a.a.a.a.a.a.a.a.a.a.a.a.a.a.a.a.a.a.a.a.a.",
"a.a.a.a.a.a.a.a.a.a.a.a.a.a.a.a.a.a.a.a.a.a.a.a.a.a.a.a.a.a.a.a.a.a.a.a.a.a.a.a.a.a.a.a.a.a.a.a.a.a.a.a.a.a.a.a.a.a.a.a.a.a.a.a.a.a.a.a.a.a.a.a.a.a.a.a.a.a.a.a.a.a.a.a.a.a.a.a.a.a.a.a.a.a.a.a.a.a.a.a.a.a.a.a.a.a.a.a.a.a.4 s C S F P U E / } ..#.#.-.-.4.6.t.d.d.d.d.g.g.g.y.y.d.y.y.y.6.t.t.t.t.t.t.t.6.4.6.t.t.6.;.t.d.s.y.s.y.d.d.d.d.t.s.t.s.s.t.y.y.s.d.s.t.t.t.y.s.t.e.t.t.t.t.y.f.f.f.y.y.y.f.f.d.f.d.f.f.f.f.y.f.f.f.f.f.s.s.f.f.f.k.d.g.k.k.B.k.k.m.A.A.D.G.E.Y.G.D.A.G.Y.A.D.A.A.D.H.K.A.G.G.D.m.k.A.m.A.A.A.A.m.m.A.A.A.K.K.Y.K.K.K.G.K.Y.W.W.W.W.W.W.W.W.W.E.E.E.E.E.!.!.!.!.!.!.!.^.!.!.^.^.{.^.!.^.}.^.!.{.!.!.^.^.^.^.!.!.!.^.^.^.^.^.^.^.!.Y.Y.Y.Y.H.Y.W.E.Y.E.E.E.E.E.E.E.E.J.m.v.d.y.5... .1.#.1.1.1.1.1.1.1.1.1.4.1.4.1.1.1.1.1.1.1.1...} } ] W W U B a.a.a.a.a.a.a.a.a.a.a.a.a.a.a.a.a.a.a.a.a.a.a.a.a.a.a.a.a.a.a.a.a.a.a.a.a.a.a.a.a.a.a.a.a.a.a.a.a.a.a.a.a.a.a.a.a.a.a.a.a.a.a.a.a.a.a.a.a.a.a.a.a.a.a.a.a.a.a.a.a.a.a.a.a.a.a.a.a.a.a.a.a.a.a.a.a.a.a.a.a.a.a.a.a.a.a.a.a.a.a.a.a.a.a.a.a.a.a.a.a.a.a.a.a.a.a.a.a.a.a.a.a.a.a.a.a.a.a.a.a.a.a.a.a.a.a.a.a.a.a.a.a.a.a.a.a.a.a.a.a.a.a.a.a.a.a.a.a.a.a.a.a.a.a.a.a.a.a.a.a.a.a.a.a.a.a.a.a.a.a.a.a.a.a.a.a.a.a.a.a.a.a.a.a.a.a.a.a.a.a.a.a.a.a.a.a.a.a.a.a.a.a.a.a.a.",
"a.a.a.a.a.a.a.a.a.a.a.a.a.a.a.a.a.a.a.a.a.a.a.a.a.a.a.a.a.a.a.a.a.a.a.a.a.a.a.a.a.a.a.a.a.a.a.a.a.a.a.a.a.a.a.a.a.a.a.a.a.a.a.a.a.a.a.a.a.a.a.a.a.a.a.a.a.a.a.a.a.a.a.a.a.a.a.a.a.a.a.a.a.a.a.a.a.a.a.a.a.a.a.a.a.a.a.a.a.a.a.9 B S F P R W _ }  .#.#.*.-.4.5.t.d.y.y.y.y.d.g.d.y.y.y.t.t.d.y.t.6.t.6.t.6.6.t.6.4.t.t.6.t.y.d.d.s.s.d.d.d.s.s.y.s.s.t.t.s.y.s.d.d.f.t.t.t.y.t.t.t.t.y.t.y.s.f.f.d.f.y.s.f.f.f.d.f.f.f.f.f.f.f.f.f.d.s.f.f.f.k.k.k.d.j.V.V.A.j.A.V.H.D.D.K.G.A.A.G.G.m.A.D.j.A.A.m.k.A.D.m.k.A.A.G.m.A.A.A.A.A.A.m.m.K.W.D.K.W.Y.K.E.K.E.W.K.E.K.K.W.W.!.!.^.^.!.W.W.Y.E.W.!.!.!.W.W.!.!.!.!.!.{.^.!.!.^.{.{.!.!.^.^.^.{.{.!.!.^.!.!.{.!.^.^.!.!.!.!.!.!.W.W.E.K.Y.E.E.E.E.J.J.G.A.m.v.d.y.7.4.W #.1.#.*.*.*.*.*.*.1.1.5.1.1.1.1.1.1.4.*.<.#...[ [ } / R U a.a.a.a.a.a.a.a.a.a.a.a.a.a.a.a.a.a.a.a.a.a.a.a.a.a.a.a.a.a.a.a.a.a.a.a.a.a.a.a.a.a.a.a.a.a.a.a.a.a.a.a.a.a.a.a.a.a.a.a.a.a.a.a.a.a.a.a.a.a.a.a.a.a.a.a.a.a.a.a.a.a.a.a.a.a.a.a.a.a.a.a.a.a.a.a.a.a.a.a.a.a.a.a.a.a.a.a.a.a.a.a.a.a.a.a.a.a.a.a.a.a.a.a.a.a.a.a.a.a.a.a.a.a.a.a.a.a.a.a.a.a.a.a.a.a.a.a.a.a.a.a.a.a.a.a.a.a.a.a.a.a.a.a.a.a.a.a.a.a.a.a.a.a.a.a.a.a.a.a.a.a.a.a.a.a.a.a.a.a.a.a.a.a.a.a.a.a.a.a.a.a.a.a.a.a.a.a.a.a.a.a.a.a.a.a.a.a.a.a.a.a.a.a.a.a.a.",
"a.a.a.a.a.a.a.a.a.a.a.a.a.a.a.a.a.a.a.a.a.a.a.a.a.a.a.a.a.a.a.a.a.a.a.a.a.a.a.a.a.a.a.a.a.a.a.a.a.a.a.a.a.a.a.a.a.a.a.a.a.a.a.a.a.a.a.a.a.a.a.a.a.a.a.a.a.a.a.a.a.a.a.a.a.a.a.a.a.a.a.a.a.a.a.a.a.a.a.a.a.a.a.a.a.a.a.a.a.a.a.8 m Z F P U E _ }  .@.@.#.-.4.t.t.d.d.y.y.y.t.d.d.d.d.d.t.t.y.d.t.t.t.t.t.6.6.t.t.6.t.t.t.t.t.s.d.d.d.d.d.y.s.d.t.d.y.s.d.d.y.y.d.d.s.t.t.t.t.t.t.u.t.y.y.y.f.f.f.s.f.s.f.f.f.f.f.f.d.s.y.f.s.f.f.s.f.f.f.f.f.k.k.d.g.d.k.j.j.V.V.j.V.D.D.G.A.A.A.D.m.V.j.V.D.k.m.m.m.k.k.m.A.A.A.m.m.A.m.v.A.A.A.A.A.K.K.K.K.G.K.K.W.!.J.J.J.K.W.W.W.W.^.!.!.E.E.W.W.W.!.!.!.!.W.E.E.W.W.E.!.!.!.W.!.^.!.!.{.!.!.!.^.!.!.!.!.!.!.!.^.^.!.!.!.!.!.E.E.W.W.Y.Y.K.G.J.K.G.E.J.J.J.G.A.m.v.v.y.7.5.4.) #.#.#.#.#.#.#.*.1.1.1.1.4.1.1.1.1.1.1.1.1.#.[ [ } W U I a.a.a.a.a.a.a.a.a.a.a.a.a.a.a.a.a.a.a.a.a.a.a.a.a.a.a.a.a.a.a.a.a.a.a.a.a.a.a.a.a.a.a.a.a.a.a.a.a.a.a.a.a.a.a.a.a.a.a.a.a.a.a.a.a.a.a.a.a.a.a.a.a.a.a.a.a.a.a.a.a.a.a.a.a.a.a.a.a.a.a.a.a.a.a.a.a.a.a.a.a.a.a.a.a.a.a.a.a.a.a.a.a.a.a.a.a.a.a.a.a.a.a.a.a.a.a.a.a.a.a.a.a.a.a.a.a.a.a.a.a.a.a.a.a.a.a.a.a.a.a.a.a.a.a.a.a.a.a.a.a.a.a.a.a.a.a.a.a.a.a.a.a.a.a.a.a.a.a.a.a.a.a.a.a.a.a.a.a.a.a.a.a.a.a.a.a.a.a.a.a.a.a.a.a.a.a.a.a.a.a.a.a.a.a.a.a.a.a.a.a.a.a.a.a.a.a.",
"a.a.a.a.a.a.a.a.a.a.a.a.a.a.a.a.a.a.a.a.a.a.a.a.a.a.a.a.a.a.a.a.a.a.a.a.a.a.a.a.a.a.a.a.a.a.a.a.a.a.a.a.a.a.a.a.a.a.a.a.a.a.a.a.a.a.a.a.a.a.a.a.a.a.a.a.a.a.a.a.a.a.a.a.a.a.a.a.a.a.a.a.a.a.a.a.a.a.a.a.a.a.a.a.a.a.a.a.a.a.a.r B S F P U W _ }  .@.@.#.1.4.t.t.t.d.y.y.y.t.y.y.y.y.y.d.d.d.t.t.6.4.-.6.t.4.-.6.6.t.6.t.t.t.t.y.d.d.s.d.y.s.y.s.d.s.t.s.y.y.y.s.s.y.t.t.t.t.t.t.t.t.t.y.y.f.f.f.s.f.f.f.f.f.f.f.f.k.f.f.f.d.f.f.s.y.s.f.f.f.f.f.f.k.d.j.j.j.B.j.A.j.G.m.v.m.g.j.k.m.j.k.V.m.j.j.m.j.m.m.A.D.A.m.A.G.G.A.m.A.v.v.v.m.K.K.D.G.D.G.K.E.W.E.K.E.W.W.W.W.W.E.E.E.E.E.J.J.W.W.E.W.E.E.Y.K.Y.G.Y.E.!.W.W.!.W.W.!.!.^.{.^.^.!.!.!.!.^.!.E.!.!.!.!.E.E.Y.Y.E.Y.K.K.K.G.G.J.G.G.G.J.G.G.G.m.v.v.v.d.7.3.4...] ....#.#.#.#.*.:.*.*.1.1.4.1.*.1.1.1.1.#...[ [ ] W T J a.a.a.a.a.a.a.a.a.a.a.a.a.a.a.a.a.a.a.a.a.a.a.a.a.a.a.a.a.a.a.a.a.a.a.a.a.a.a.a.a.a.a.a.a.a.a.a.a.a.a.a.a.a.a.a.a.a.a.a.a.a.a.a.a.a.a.a.a.a.a.a.a.a.a.a.a.a.a.a.a.a.a.a.a.a.a.a.a.a.a.a.a.a.a.a.a.a.a.a.a.a.a.a.a.a.a.a.a.a.a.a.a.a.a.a.a.a.a.a.a.a.a.a.a.a.a.a.a.a.a.a.a.a.a.a.a.a.a.a.a.a.a.a.a.a.a.a.a.a.a.a.a.a.a.a.a.a.a.a.a.a.a.a.a.a.a.a.a.a.a.a.a.a.a.a.a.a.a.a.a.a.a.a.a.a.a.a.a.a.a.a.a.a.a.a.a.a.a.a.a.a.a.a.a.a.a.a.a.a.a.a.a.a.a.a.a.a.a.a.a.a.a.a.a.a.a.",
"a.a.a.a.a.a.a.a.a.a.a.a.a.a.a.a.a.a.a.a.a.a.a.a.a.a.a.a.a.a.a.a.a.a.a.a.a.a.a.a.a.a.a.a.a.a.a.a.a.a.a.a.a.a.a.a.a.a.a.a.a.a.a.a.a.a.a.a.a.a.a.a.a.a.a.a.a.a.a.a.a.a.a.a.a.a.a.a.a.a.a.a.a.a.a.a.a.a.a.a.a.a.a.a.a.a.a.a.a.a.a.8 m S F P R W _ }  .@.@.#.1.4.5.t.t.d.d.y.d.d.d.y.y.d.d.y.y.y.t.t.t.6.4.-.4.6.4.t.t.s.t.s.t.t.t.s.d.d.d.d.s.s.s.d.s.y.s.y.t.d.y.s.y.s.t.y.t.t.t.t.e.s.y.s.t.f.f.f.s.f.k.d.d.d.f.f.d.f.f.y.f.f.f.f.s.s.s.f.f.f.f.d.k.k.d.k.j.j.j.j.A.j.j.j.j.j.j.j.j.j.k.V.V.k.B.k.V.A.m.A.A.A.A.A.A.A.v.m.A.A.m.m.m.A.A.K.A.A.K.K.K.J.W.W.W.E.E.E.J.E.E.E.E.E.!.E.E.E.E.E.E.E.E.K.D.G.G.G.K.E.E.E.Y.Y.Y.E.E.!.!.!.!.!.E.E.E.E.E.!.!.W.W.W.E.E.E.E.Y.Y.K.A.G.G.A.m.m.m.A.G.M.m.m.m.v.g.v.v.d.t.5.1.4.W ......#.#.#.#.*.1.1.1.1.1.*.#.*.1.1.1.1.#.[ [ ] ] Y J a.a.a.a.a.a.a.a.a.a.a.a.a.a.a.a.a.a.a.a.a.a.a.a.a.a.a.a.a.a.a.a.a.a.a.a.a.a.a.a.a.a.a.a.a.a.a.a.a.a.a.a.a.a.a.a.a.a.a.a.a.a.a.a.a.a.a.a.a.a.a.a.a.a.a.a.a.a.a.a.a.a.a.a.a.a.a.a.a.a.a.a.a.a.a.a.a.a.a.a.a.a.a.a.a.a.a.a.a.a.a.a.a.a.a.a.a.a.a.a.a.a.a.a.a.a.a.a.a.a.a.a.a.a.a.a.a.a.a.a.a.a.a.a.a.a.a.a.a.a.a.a.a.a.a.a.a.a.a.a.a.a.a.a.a.a.a.a.a.a.a.a.a.a.a.a.a.a.a.a.a.a.a.a.a.a.a.a.a.a.a.a.a.a.a.a.a.a.a.a.a.a.a.a.a.a.a.a.a.a.a.a.a.a.a.a.a.a.a.a.a.a.a.a.a.a.a.",
"a.a.a.a.a.a.a.a.a.a.a.a.a.a.a.a.a.a.a.a.a.a.a.a.a.a.a.a.a.a.a.a.a.a.a.a.a.a.a.a.a.a.a.a.a.a.a.a.a.a.a.a.a.a.a.a.a.a.a.a.a.a.a.a.a.a.a.a.a.a.a.a.a.a.a.a.a.a.a.a.a.a.a.a.a.a.a.a.a.a.a.a.a.a.a.a.a.a.a.a.a.a.a.a.a.a.a.a.a.a.a.7 c S F F R W _  . .@.@.#.1.1.5.t.t.y.y.t.d.d.y.t.y.y.t.t.t.t.6.6.t.t.t.t.4.4.4.-.t.t.6.t.t.d.t.d.d.d.d.d.s.t.t.t.s.d.s.s.s.s.t.y.y.y.t.t.t.t.t.t.t.y.u.s.t.s.f.f.d.f.f.f.f.f.f.d.f.f.f.s.s.f.f.f.f.f.d.d.f.d.k.k.j.k.d.k.j.k.j.j.j.j.d.j.j.d.v.j.j.d.k.j.j.k.k.k.j.k.j.A.A.m.A.m.v.m.v.v.A.m.m.v.m.m.D.K.A.A.K.K.W.W.E.E.E.E.E.E.E.!.!.E.E.E.E.E.E.E.E.E.Y.Y.Y.K.G.K.Y.G.Y.E.K.K.Y.G.K.Y.E.E.!.!.Y.Y.Y.Y.Y.E.W.!.!.!.E.W.!.!.E.E.K.E.K.H.G.A.A.v.v.m.v.m.m.m.m.m.m.v.v.v.d.y.5.4.1.} ] [  ...#.#...#.#.*.1.1.1.1.*.#.*.#.#.#...| [ ] W U J a.a.a.a.a.a.a.a.a.a.a.a.a.a.a.a.a.a.a.a.a.a.a.a.a.a.a.a.a.a.a.a.a.a.a.a.a.a.a.a.a.a.a.a.a.a.a.a.a.a.a.a.a.a.a.a.a.a.a.a.a.a.a.a.a.a.a.a.a.a.a.a.a.a.a.a.a.a.a.a.a.a.a.a.a.a.a.a.a.a.a.a.a.a.a.a.a.a.a.a.a.a.a.a.a.a.a.a.a.a.a.a.a.a.a.a.a.a.a.a.a.a.a.a.a.a.a.a.a.a.a.a.a.a.a.a.a.a.a.a.a.a.a.a.a.a.a.a.a.a.a.a.a.a.a.a.a.a.a.a.a.a.a.a.a.a.a.a.a.a.a.a.a.a.a.a.a.a.a.a.a.a.a.a.a.a.a.a.a.a.a.a.a.a.a.a.a.a.a.a.a.a.a.a.a.a.a.a.a.a.a.a.a.a.a.a.a.a.a.a.a.a.a.a.a.a.a.",
"a.a.a.a.a.a.a.a.a.a.a.a.a.a.a.a.a.a.a.a.a.a.a.a.a.a.a.a.a.a.a.a.a.a.a.a.a.a.a.a.a.a.a.a.a.a.a.a.a.a.a.a.a.a.a.a.a.a.a.a.a.a.a.a.a.a.a.a.a.a.a.a.a.a.a.a.a.a.a.a.a.a.a.a.a.a.a.a.a.a.a.a.a.a.a.a.a.a.a.a.a.a.a.a.a.a.a.a.a.a.a.a.m Z F U R W _ }  .@.@.#.-.1.5.t.t.t.t.t.y.t.y.y.d.y.y.y.y.t.6.t.t.t.t.t.t.t.t.6.t.6.t.t.t.s.s.s.t.y.s.s.s.t.t.s.y.s.t.t.y.t.t.t.y.t.t.t.t.t.t.t.y.t.t.y.y.s.f.s.s.d.f.f.f.f.f.f.f.s.f.f.f.f.f.s.f.f.g.g.g.k.k.k.k.d.d.d.g.g.g.j.j.d.g.g.g.d.g.g.g.g.g.k.k.j.m.k.k.A.m.A.m.m.m.m.A.m.m.m.A.A.G.A.A.G.G.G.G.J.W.E.W.E.E.E.!.!.!.!.^.!.!.^.!.E.^.E.E.!.E.E.K.K.K.K.G.G.K.G.K.Y.G.E.E.E.K.E.W.E.!.!.E.!.!.!.!.W.!.!.E.!.!.W.E.E.E.E.Y.Y.E.Y.G.A.D.m.m.m.v.m.v.v.g.l.v.g.v.v.y.y.5.4.4.1./ } } ..#.#.@.#.#.*.1.1.1.1.1.*.#.#.<.#...] ] ) W U V a.a.a.a.a.a.a.a.a.a.a.a.a.a.a.a.a.a.a.a.a.a.a.a.a.a.a.a.a.a.a.a.a.a.a.a.a.a.a.a.a.a.a.a.a.a.a.a.a.a.a.a.a.a.a.a.a.a.a.a.a.a.a.a.a.a.a.a.a.a.a.a.a.a.a.a.a.a.a.a.a.a.a.a.a.a.a.a.a.a.a.a.a.a.a.a.a.a.a.a.a.a.a.a.a.a.a.a.a.a.a.a.a.a.a.a.a.a.a.a.a.a.a.a.a.a.a.a.a.a.a.a.a.a.a.a.a.a.a.a.a.a.a.a.a.a.a.a.a.a.a.a.a.a.a.a.a.a.a.a.a.a.a.a.a.a.a.a.a.a.a.a.a.a.a.a.a.a.a.a.a.a.a.a.a.a.a.a.a.a.a.a.a.a.a.a.a.a.a.a.a.a.a.a.a.a.a.a.a.a.a.a.a.a.a.a.a.a.a.a.a.a.a.a.a.a.a.",
"a.a.a.a.a.a.a.a.a.a.a.a.a.a.a.a.a.a.a.a.a.a.a.a.a.a.a.a.a.a.a.a.a.a.a.a.a.a.a.a.a.a.a.a.a.a.a.a.a.a.a.a.a.a.a.a.a.a.a.a.a.a.a.a.a.a.a.a.a.a.a.a.a.a.a.a.a.a.a.a.a.a.a.a.a.a.a.a.a.a.a.a.a.a.a.a.a.a.a.a.a.a.a.a.a.a.a.a.a.a.a.a.x S P U R W _ }  .@.@.#.-.-.t.t.6.t.t.y.y.t.d.y.d.t.d.t.t.t.6.6.t.6.-.4.4.;.t.t.t.6.t.t.s.s.d.d.s.s.s.y.y.t.y.s.t.y.y.t.t.s.t.t.t.t.t.t.t.t.t.t.t.t.t.t.y.s.f.d.f.d.f.f.d.d.f.f.f.f.f.f.f.f.f.s.f.s.f.f.d.g.k.k.k.d.d.g.k.j.k.d.d.d.g.g.g.d.g.g.d.d.g.g.j.g.j.j.j.m.v.v.m.m.g.j.m.m.A.A.A.A.G.G.G.G.G.K.E.E.J.J.E.E.E.!.E.W.!.!.!.E.!.!.E.E.!.E.E.E.J.G.G.K.J.K.J.K.G.m.G.G.G.G.G.G.K.J.J.J.E.E.E.E.E.E.E.W.!.^.!.Y.Y.!.!.!.W.E.W.Y.E.Y.G.G.m.m.m.g.g.g.v.g.g.g.v.v.v.d.d.y.7.4.1.1.2.) } } #.#.....*.*.1.1.1.4.1.1.#.#.*.1.#.} ] W Y I a.a.a.a.a.a.a.a.a.a.a.a.a.a.a.a.a.a.a.a.a.a.a.a.a.a.a.a.a.a.a.a.a.a.a.a.a.a.a.a.a.a.a.a.a.a.a.a.a.a.a.a.a.a.a.a.a.a.a.a.a.a.a.a.a.a.a.a.a.a.a.a.a.a.a.a.a.a.a.a.a.a.a.a.a.a.a.a.a.a.a.a.a.a.a.a.a.a.a.a.a.a.a.a.a.a.a.a.a.a.a.a.a.a.a.a.a.a.a.a.a.a.a.a.a.a.a.a.a.a.a.a.a.a.a.a.a.a.a.a.a.a.a.a.a.a.a.a.a.a.a.a.a.a.a.a.a.a.a.a.a.a.a.a.a.a.a.a.a.a.a.a.a.a.a.a.a.a.a.a.a.a.a.a.a.a.a.a.a.a.a.a.a.a.a.a.a.a.a.a.a.a.a.a.a.a.a.a.a.a.a.a.a.a.a.a.a.a.a.a.a.a.a.a.a.a.a.a.",
"a.a.a.a.a.a.a.a.a.a.a.a.a.a.a.a.a.a.a.a.a.a.a.a.a.a.a.a.a.a.a.a.a.a.a.a.a.a.a.a.a.a.a.a.a.a.a.a.a.a.a.a.a.a.a.a.a.a.a.a.a.a.a.a.a.a.a.a.a.a.a.a.a.a.a.a.a.a.a.a.a.a.a.a.a.a.a.a.a.a.a.a.a.a.a.a.a.a.a.a.a.a.a.a.a.a.a.a.a.a.a.a.x S F U R / ]  ...@.@.#.-.-.5.t.t.t.t.t.t.t.y.y.t.t.y.d.t.t.4.-.4.6.4.-.-.4.6.-.;.t.d.t.t.t.t.d.d.s.t.y.s.f.t.y.y.t.t.t.t.t.t.t.t.t.t.t.t.t.s.t.t.t.y.y.s.s.s.d.f.d.y.s.f.f.f.y.s.f.f.f.f.f.s.f.f.d.f.f.f.k.g.k.d.d.d.d.d.k.f.k.y.d.g.g.g.d.g.g.d.g.y.g.v.g.v.j.g.j.v.v.k.g.m.m.A.A.A.A.G.G.G.G.K.K.K.E.E.W.J.E.E.E.E.E.E.!.!.!.E.E.E.E.E.E.E.E.E.E.E.J.G.G.E.G.G.A.A.G.A.A.A.A.G.J.J.J.J.E.E.E.E.J.E.E.J.W.!.!.^.^.!.W.!.!.W.W.E.J.K.D.D.D.D.D.m.j.d.d.g.g.d.l.g.d.d.d.y.y.5.5.1.*.*.W } [ .. .....#.*.1.1.1.1.1.1.1.*.#.| } ] ] / W I a.a.a.a.a.a.a.a.a.a.a.a.a.a.a.a.a.a.a.a.a.a.a.a.a.a.a.a.a.a.a.a.a.a.a.a.a.a.a.a.a.a.a.a.a.a.a.a.a.a.a.a.a.a.a.a.a.a.a.a.a.a.a.a.a.a.a.a.a.a.a.a.a.a.a.a.a.a.a.a.a.a.a.a.a.a.a.a.a.a.a.a.a.a.a.a.a.a.a.a.a.a.a.a.a.a.a.a.a.a.a.a.a.a.a.a.a.a.a.a.a.a.a.a.a.a.a.a.a.a.a.a.a.a.a.a.a.a.a.a.a.a.a.a.a.a.a.a.a.a.a.a.a.a.a.a.a.a.a.a.a.a.a.a.a.a.a.a.a.a.a.a.a.a.a.a.a.a.a.a.a.a.a.a.a.a.a.a.a.a.a.a.a.a.a.a.a.a.a.a.a.a.a.a.a.a.a.a.a.a.a.a.a.a.a.a.a.a.a.a.a.a.a.a.a.a.a.a.",
"a.a.a.a.a.a.a.a.a.a.a.a.a.a.a.a.a.a.a.a.a.a.a.a.a.a.a.a.a.a.a.a.a.a.a.a.a.a.a.a.a.a.a.a.a.a.a.a.a.a.a.a.a.a.a.a.a.a.a.a.a.a.a.a.a.a.a.a.a.a.a.a.a.a.a.a.a.a.a.a.a.a.a.a.a.a.a.a.a.a.a.a.a.a.a.a.a.a.a.a.a.a.a.a.a.a.a.a.a.a.a.a.x S U U E / ] }  . .@.#.*.1.4.t.y.y.t.t.y.y.t.5.t.y.4.t.t.y.y.-.-.;.6.6.t.t.t.t.t.t.d.s.y.t.s.d.s.y.s.s.t.t.t.t.t.t.y.y.e.t.s.y.t.t.t.s.t.e.t.t.t.t.d.s.d.s.s.f.f.f.d.f.d.d.f.f.f.f.f.f.f.s.s.f.f.g.d.f.g.k.k.k.f.d.k.d.d.d.d.d.y.d.g.d.d.g.d.d.d.g.g.j.g.y.v.v.g.g.j.v.v.v.A.v.m.m.A.A.A.A.G.G.G.E.E.J.E.E.E.E.E.E.E.E.[.!.!.!.!.E.[.!.!.!.E.E.E.E.E.E.J.J.E.J.A.A.A.G.A.A.A.G.K.E.J.E.E.E.W.W.E.J.J.E.E.E.Y.E.E.E.E.E.W.E.Y.E.E.K.K.K.D.D.G.m.k.g.g.d.d.d.d.d.d.d.d.y.y.t.5.5.1.1.#.1.W ] } }  ...#.*.1.1.1.1.1.1.*.#.#.#.X.[ ) W Y I a.a.a.a.a.a.a.a.a.a.a.a.a.a.a.a.a.a.a.a.a.a.a.a.a.a.a.a.a.a.a.a.a.a.a.a.a.a.a.a.a.a.a.a.a.a.a.a.a.a.a.a.a.a.a.a.a.a.a.a.a.a.a.a.a.a.a.a.a.a.a.a.a.a.a.a.a.a.a.a.a.a.a.a.a.a.a.a.a.a.a.a.a.a.a.a.a.a.a.a.a.a.a.a.a.a.a.a.a.a.a.a.a.a.a.a.a.a.a.a.a.a.a.a.a.a.a.a.a.a.a.a.a.a.a.a.a.a.a.a.a.a.a.a.a.a.a.a.a.a.a.a.a.a.a.a.a.a.a.a.a.a.a.a.a.a.a.a.a.a.a.a.a.a.a.a.a.a.a.a.a.a.a.a.a.a.a.a.a.a.a.a.a.a.a.a.a.a.a.a.a.a.a.a.a.a.a.a.a.a.a.a.a.a.a.a.a.a.a.a.a.a.a.a.a.a.a.a.",
"a.a.a.a.a.a.a.a.a.a.a.a.a.a.a.a.a.a.a.a.a.a.a.a.a.a.a.a.a.a.a.a.a.a.a.a.a.a.a.a.a.a.a.a.a.a.a.a.a.a.a.a.a.a.a.a.a.a.a.a.a.a.a.a.a.a.a.a.a.a.a.a.a.a.a.a.a.a.a.a.a.a.a.a.a.a.a.a.a.a.a.a.a.a.a.a.a.a.a.a.a.a.a.a.a.a.a.a.a.a.a.a.x S U U E / ]  . . .@.#.-.1.4.4.t.t.t.t.t.t.t.y.y.y.t.6.-.t.6.4.t.6.r.r.t.-.6.y.t.t.t.t.t.t.s.d.d.t.e.t.t.t.t.t.e.t.s.t.t.t.t.t.t.t.t.y.t.t.t.t.y.s.s.s.s.s.f.f.s.f.f.f.f.f.s.f.d.f.f.s.s.s.f.s.f.f.d.k.k.k.k.d.k.k.d.d.f.f.d.d.y.y.d.y.y.d.d.y.y.g.d.d.g.g.g.g.v.v.g.v.v.m.m.A.A.G.m.A.A.A.G.G.J.J.J.J.E.J.E.E.E.E.!.!.[.!.!.[.!.E.E.E.E.J.E.E.E.E.W.E.G.G.J.E.E.E.G.J.G.G.G.G.K.J.E.E.K.E.W.E.E.E.J.J.J.K.K.K.E.Y.G.Y.K.E.K.K.E.K.G.D.m.m.m.k.j.g.d.d.d.d.d.d.d.d.y.y.d.t.5.5.1.1.#.../ ] ] } }  ...#.1.1.1.1.1.1.*.#.#.<.[ [ ) W Y J a.a.a.a.a.a.a.a.a.a.a.a.a.a.a.a.a.a.a.a.a.a.a.a.a.a.a.a.a.a.a.a.a.a.a.a.a.a.a.a.a.a.a.a.a.a.a.a.a.a.a.a.a.a.a.a.a.a.a.a.a.a.a.a.a.a.a.a.a.a.a.a.a.a.a.a.a.a.a.a.a.a.a.a.a.a.a.a.a.a.a.a.a.a.a.a.a.a.a.a.a.a.a.a.a.a.a.a.a.a.a.a.a.a.a.a.a.a.a.a.a.a.a.a.a.a.a.a.a.a.a.a.a.a.a.a.a.a.a.a.a.a.a.a.a.a.a.a.a.a.a.a.a.a.a.a.a.a.a.a.a.a.a.a.a.a.a.a.a.a.a.a.a.a.a.a.a.a.a.a.a.a.a.a.a.a.a.a.a.a.a.a.a.a.a.a.a.a.a.a.a.a.a.a.a.a.a.a.a.a.a.a.a.a.a.a.a.a.a.a.a.a.a.a.a.a.a.a.",
"a.a.a.a.a.a.a.a.a.a.a.a.a.a.a.a.a.a.a.a.a.a.a.a.a.a.a.a.a.a.a.a.a.a.a.a.a.a.a.a.a.a.a.a.a.a.a.a.a.a.a.a.a.a.a.a.a.a.a.a.a.a.a.a.a.a.a.a.a.a.a.a.a.a.a.a.a.a.a.a.a.a.a.a.a.a.a.a.a.a.a.a.a.a.a.a.a.a.a.a.a.a.a.a.a.a.a.a.a.a.a.a.m F U U E / ]  .@. .@.#.#.1.5.5.5.t.t.t.6.6.6.t.t.t.y.t.6.4.6.-.4.t.6.4.t.6.4.t.s.t.t.t.t.t.t.d.s.y.y.t.t.t.t.t.t.t.y.t.t.t.t.t.t.t.t.t.t.t.t.t.t.s.y.y.s.s.s.f.f.f.f.f.g.f.y.y.f.s.s.y.y.y.f.f.f.d.d.f.d.d.f.f.d.k.d.d.f.d.y.y.y.s.d.y.y.d.d.t.y.d.g.d.g.g.v.g.g.v.g.v.m.m.v.m.A.G.A.G.G.G.G.J.E.J.G.E.E.J.J.E.!.!.!.!.[.^.!.!.!.!.!.!.!.E.E.E.E.W.W.E.J.K.W.E.E.J.G.G.J.J.K.K.K.E.E.E.E.J.W.E.J.J.E.J.G.D.G.K.Y.E.K.D.A.A.G.Y.G.G.G.G.D.D.m.k.j.g.g.d.d.y.d.d.d.d.d.d.y.y.5.6.4.1.:.#.*.E _ ]  .....#.1.1.1.1.*.1.#.*...1...[ ) W U S a.a.a.a.a.a.a.a.a.a.a.a.a.a.a.a.a.a.a.a.a.a.a.a.a.a.a.a.a.a.a.a.a.a.a.a.a.a.a.a.a.a.a.a.a.a.a.a.a.a.a.a.a.a.a.a.a.a.a.a.a.a.a.a.a.a.a.a.a.a.a.a.a.a.a.a.a.a.a.a.a.a.a.a.a.a.a.a.a.a.a.a.a.a.a.a.a.a.a.a.a.a.a.a.a.a.a.a.a.a.a.a.a.a.a.a.a.a.a.a.a.a.a.a.a.a.a.a.a.a.a.a.a.a.a.a.a.a.a.a.a.a.a.a.a.a.a.a.a.a.a.a.a.a.a.a.a.a.a.a.a.a.a.a.a.a.a.a.a.a.a.a.a.a.a.a.a.a.a.a.a.a.a.a.a.a.a.a.a.a.a.a.a.a.a.a.a.a.a.a.a.a.a.a.a.a.a.a.a.a.a.a.a.a.a.a.a.a.a.a.a.a.a.a.a.a.a.a.",
"a.a.a.a.a.a.a.a.a.a.a.a.a.a.a.a.a.a.a.a.a.a.a.a.a.a.a.a.a.a.a.a.a.a.a.a.a.a.a.a.a.a.a.a.a.a.a.a.a.a.a.a.a.a.a.a.a.a.a.a.a.a.a.a.a.a.a.a.a.a.a.a.a.a.a.a.a.a.a.a.a.a.a.a.a.a.a.a.a.a.a.a.a.a.a.a.a.a.a.a.a.a.a.a.a.a.a.a.a.a.a.a.m F U R W / ] }  . .@.#.#.-.4.t.t.t.t.t.t.t.4.t.y.t.t.t.t.4.4.t.4.-.4.4.4.y.t.6.y.t.t.t.t.t.t.t.t.t.y.t.t.t.t.t.e.t.f.t.t.t.t.t.t.t.t.t.t.t.t.y.t.y.y.y.s.y.y.f.g.f.f.f.f.s.t.f.f.y.s.y.y.s.f.f.f.d.f.f.f.g.k.d.f.f.d.y.y.y.y.y.y.d.y.t.t.y.d.y.d.g.g.d.d.d.g.g.g.v.g.g.j.v.A.m.m.A.G.G.G.J.J.J.E.K.G.K.E.E.E.E.W.!.^.{.{.{.{.{.{.{.E.E.E.E.E.E.J.J.J.J.J.E.J.J.J.K.G.G.E.E.E.E.E.E.J.J.E.E.E.E.E.E.E.E.G.G.D.D.K.E.E.m.D.Y.Y.Y.G.D.D.G.A.m.k.m.k.j.g.d.d.d.d.d.d.d.d.d.d.t.6.5.6.-.1.#. .E _ ] ..[  .....*.#.*.*.#.#.#.#.<...[ ] W U Z a.a.a.a.a.a.a.a.a.a.a.a.a.a.a.a.a.a.a.a.a.a.a.a.a.a.a.a.a.a.a.a.a.a.a.a.a.a.a.a.a.a.a.a.a.a.a.a.a.a.a.a.a.a.a.a.a.a.a.a.a.a.a.a.a.a.a.a.a.a.a.a.a.a.a.a.a.a.a.a.a.a.a.a.a.a.a.a.a.a.a.a.a.a.a.a.a.a.a.a.a.a.a.a.a.a.a.a.a.a.a.a.a.a.a.a.a.a.a.a.a.a.a.a.a.a.a.a.a.a.a.a.a.a.a.a.a.a.a.a.a.a.a.a.a.a.a.a.a.a.a.a.a.a.a.a.a.a.a.a.a.a.a.a.a.a.a.a.a.a.a.a.a.a.a.a.a.a.a.a.a.a.a.a.a.a.a.a.a.a.a.a.a.a.a.a.a.a.a.a.a.a.a.a.a.a.a.a.a.a.a.a.a.a.a.a.a.a.a.a.a.a.a.a.a.a.a.a.",
"a.a.a.a.a.a.a.a.a.a.a.a.a.a.a.a.a.a.a.a.a.a.a.a.a.a.a.a.a.a.a.a.a.a.a.a.a.a.a.a.a.a.a.a.a.a.a.a.a.a.a.a.a.a.a.a.a.a.a.a.a.a.a.a.a.a.a.a.a.a.a.a.a.a.a.a.a.a.a.a.a.a.a.a.a.a.a.a.a.a.a.a.a.a.a.a.a.a.a.a.a.a.a.a.a.a.a.a.a.a.a.a.a.S U E / / ] }  . .@.#.#.-.1.5.t.6.6.t.t.t.t.6.t.6.t.t.6.t.6.-.t.6.4.4.4.6.y.t.t.6.;.y.t.t.d.s.t.t.t.t.t.e.t.t.e.t.s.t.y.t.t.t.t.t.t.t.t.t.t.s.u.t.s.y.s.s.s.f.g.f.f.s.f.f.f.f.y.s.s.t.t.f.s.f.f.f.f.f.f.d.g.f.d.f.d.y.d.d.y.t.t.y.y.y.d.y.y.y.d.g.y.y.g.g.d.g.g.g.v.m.A.A.m.A.A.G.m.G.J.E.G.E.E.J.W.W.W.E.E.E.!.{.^.^.{.{.{.{.{.{.!.E.E.!.W.W.E.E.E.J.J.E.K.K.J.E.J.K.E.E.J.E.E.E.J.J.J.E.E.E.E.K.G.G.G.G.G.G.D.D.D.m.A.G.G.G.G.m.A.A.A.A.m.m.k.k.g.d.d.d.d.d.y.y.y.y.d.d.y.t.t.4.#.1.1.@.U _ [ [  ...#.*.#...#.#.#.#.#.#...[ ] W U a.a.a.a.a.a.a.a.a.a.a.a.a.a.a.a.a.a.a.a.a.a.a.a.a.a.a.a.a.a.a.a.a.a.a.a.a.a.a.a.a.a.a.a.a.a.a.a.a.a.a.a.a.a.a.a.a.a.a.a.a.a.a.a.a.a.a.a.a.a.a.a.a.a.a.a.a.a.a.a.a.a.a.a.a.a.a.a.a.a.a.a.a.a.a.a.a.a.a.a.a.a.a.a.a.a.a.a.a.a.a.a.a.a.a.a.a.a.a.a.a.a.a.a.a.a.a.a.a.a.a.a.a.a.a.a.a.a.a.a.a.a.a.a.a.a.a.a.a.a.a.a.a.a.a.a.a.a.a.a.a.a.a.a.a.a.a.a.a.a.a.a.a.a.a.a.a.a.a.a.a.a.a.a.a.a.a.a.a.a.a.a.a.a.a.a.a.a.a.a.a.a.a.a.a.a.a.a.a.a.a.a.a.a.a.a.a.a.a.a.a.a.a.a.a.a.a.a.a.",
"a.a.a.a.a.a.a.a.a.a.a.a.a.a.a.a.a.a.a.a.a.a.a.a.a.a.a.a.a.a.a.a.a.a.a.a.a.a.a.a.a.a.a.a.a.a.a.a.a.a.a.a.a.a.a.a.a.a.a.a.a.a.a.a.a.a.a.a.a.a.a.a.a.a.a.a.a.a.a.a.a.a.a.a.a.a.a.a.a.a.a.a.a.a.a.a.a.a.a.a.a.a.a.a.a.a.a.a.a.a.a.a.a.F U W W _ ]  . . .@.#.#.-.4.5.5.t.t.t.6.-.t.t.t.t.6.6.-.-.6.6.4.4.4.4.t.5.t.6.t.6.t.t.t.t.t.t.t.t.t.e.t.t.y.t.t.t.t.t.t.y.t.t.t.t.t.t.s.t.y.f.t.s.y.y.t.t.s.s.s.f.s.f.f.f.f.f.y.s.y.t.y.s.s.d.d.d.d.d.d.d.f.f.d.y.d.y.y.y.y.t.y.t.t.t.t.y.y.d.d.d.t.y.g.g.g.g.g.j.v.v.m.m.g.A.A.m.A.J.J.G.G.G.E.E.!.E.E.E.E.E.E.E.!.^.{.!.^.^.!.!.^.^.^.{.^.^.!.E.E.E.E.E.E.E.W.J.K.G.J.J.E.J.J.E.E.E.J.E.E.E.J.G.K.K.G.G.G.D.D.D.A.A.A.A.A.D.D.G.D.G.A.G.A.m.k.g.g.g.g.d.d.d.d.d.d.d.y.t.y.y.5.1.4.-.#.1.E R ] [ } ..#.#.....#.#.#.#.#.....} ) W T a.a.a.a.a.a.a.a.a.a.a.a.a.a.a.a.a.a.a.a.a.a.a.a.a.a.a.a.a.a.a.a.a.a.a.a.a.a.a.a.a.a.a.a.a.a.a.a.a.a.a.a.a.a.a.a.a.a.a.a.a.a.a.a.a.a.a.a.a.a.a.a.a.a.a.a.a.a.a.a.a.a.a.a.a.a.a.a.a.a.a.a.a.a.a.a.a.a.a.a.a.a.a.a.a.a.a.a.a.a.a.a.a.a.a.a.a.a.a.a.a.a.a.a.a.a.a.a.a.a.a.a.a.a.a.a.a.a.a.a.a.a.a.a.a.a.a.a.a.a.a.a.a.a.a.a.a.a.a.a.a.a.a.a.a.a.a.a.a.a.a.a.a.a.a.a.a.a.a.a.a.a.a.a.a.a.a.a.a.a.a.a.a.a.a.a.a.a.a.a.a.a.a.a.a.a.a.a.a.a.a.a.a.a.a.a.a.a.a.a.a.a.a.a.a.a.a.a.a.",
"a.a.a.a.a.a.a.a.a.a.a.a.a.a.a.a.a.a.a.a.a.a.a.a.a.a.a.a.a.a.a.a.a.a.a.a.a.a.a.a.a.a.a.a.a.a.a.a.a.a.a.a.a.a.a.a.a.a.a.a.a.a.a.a.a.a.a.a.a.a.a.a.a.a.a.a.a.a.a.a.a.a.a.a.a.a.a.a.a.a.a.a.a.a.a.a.a.a.a.a.a.a.a.a.a.a.a.a.a.a.a.a.a.P U W W _ ]  . .@.@.#.-.-.1.4.6.t.4.6.t.-.6.t.6.t.t.t.-.4.4.6.4.-.r.1.4.6.t.6.t.6.t.t.t.t.d.d.d.y.y.e.t.e.e.t.6.t.t.t.t.t.t.t.e.t.t.s.f.s.s.y.t.f.t.s.t.y.s.f.f.f.y.f.f.f.f.t.s.t.y.y.y.f.f.f.d.d.d.d.d.s.f.y.y.y.y.y.t.t.t.t.t.y.t.t.t.y.d.y.t.t.t.d.y.y.d.g.g.j.m.g.v.A.A.G.A.m.G.K.J.G.J.J.J.E.E.W.E.!.!.E.!.E.!.!.^.^.{.{.{.{.{.{.^.^.{.^.!.!.E.E.E.J.E.E.E.J.J.J.J.K.J.E.E.E.W.E.E.E.E.E.J.K.K.J.J.G.J.A.G.A.m.k.k.k.k.A.A.A.m.m.m.m.m.k.g.g.g.g.g.d.d.g.d.d.d.y.y.y.t.t.t.6.4.1.*.#.#.R W ] [ [ ....#.#.#.#...#.......| ] W U a.a.a.a.a.a.a.a.a.a.a.a.a.a.a.a.a.a.a.a.a.a.a.a.a.a.a.a.a.a.a.a.a.a.a.a.a.a.a.a.a.a.a.a.a.a.a.a.a.a.a.a.a.a.a.a.a.a.a.a.a.a.a.a.a.a.a.a.a.a.a.a.a.a.a.a.a.a.a.a.a.a.a.a.a.a.a.a.a.a.a.a.a.a.a.a.a.a.a.a.a.a.a.a.a.a.a.a.a.a.a.a.a.a.a.a.a.a.a.a.a.a.a.a.a.a.a.a.a.a.a.a.a.a.a.a.a.a.a.a.a.a.a.a.a.a.a.a.a.a.a.a.a.a.a.a.a.a.a.a.a.a.a.a.a.a.a.a.a.a.a.a.a.a.a.a.a.a.a.a.a.a.a.a.a.a.a.a.a.a.a.a.a.a.a.a.a.a.a.a.a.a.a.a.a.a.a.a.a.a.a.a.a.a.a.a.a.a.a.a.a.a.a.a.a.a.a.a.a.",
"a.a.a.a.a.a.a.a.a.a.a.a.a.a.a.a.a.a.a.a.a.a.a.a.a.a.a.a.a.a.a.a.a.a.a.a.a.a.a.a.a.a.a.a.a.a.a.a.a.a.a.a.a.a.a.a.a.a.a.a.a.a.a.a.a.a.a.a.a.a.a.a.a.a.a.a.a.a.a.a.a.a.a.a.a.a.a.a.a.a.a.a.a.a.a.a.a.a.a.a.a.a.a.a.a.a.a.a.a.a.a.a.a.S R R / / ]  .#.#.#.#.#.-.6.1.4.t.6.4.6.6.6.t.t.6.6.y.4.4.-.4.6.-.4.4.6.4.6.t.-.6.t.t.y.t.y.t.d.t.t.e.t.t.t.y.t.y.t.t.t.t.t.t.e.t.e.y.t.t.y.t.y.f.t.y.y.f.f.s.f.f.y.f.f.s.y.y.s.t.y.y.y.y.f.f.d.d.d.d.s.y.s.y.y.f.t.t.t.t.6.t.6.t.t.t.t.y.t.t.t.y.t.y.y.g.g.g.g.j.v.v.v.m.A.m.A.G.K.J.J.K.E.J.J.E.W.E.E.E.G.E.E.^.!.^.}.{.{.{.{.{.}.{.{.{.{.^.!.!.W.E.J.J.J.E.K.K.G.K.E.G.J.E.E.E.E.E.E.E.E.E.J.K.G.E.E.G.A.A.G.G.A.A.A.A.j.j.A.A.A.A.m.m.k.j.g.j.g.g.g.g.g.d.d.g.g.d.d.y.t.t.t.t.5.4.1.*.#.] W } ] [ ..#.#.#.#...#..... ...| ] W U a.a.a.a.a.a.a.a.a.a.a.a.a.a.a.a.a.a.a.a.a.a.a.a.a.a.a.a.a.a.a.a.a.a.a.a.a.a.a.a.a.a.a.a.a.a.a.a.a.a.a.a.a.a.a.a.a.a.a.a.a.a.a.a.a.a.a.a.a.a.a.a.a.a.a.a.a.a.a.a.a.a.a.a.a.a.a.a.a.a.a.a.a.a.a.a.a.a.a.a.a.a.a.a.a.a.a.a.a.a.a.a.a.a.a.a.a.a.a.a.a.a.a.a.a.a.a.a.a.a.a.a.a.a.a.a.a.a.a.a.a.a.a.a.a.a.a.a.a.a.a.a.a.a.a.a.a.a.a.a.a.a.a.a.a.a.a.a.a.a.a.a.a.a.a.a.a.a.a.a.a.a.a.a.a.a.a.a.a.a.a.a.a.a.a.a.a.a.a.a.a.a.a.a.a.a.a.a.a.a.a.a.a.a.a.a.a.a.a.a.a.a.a.a.a.a.a.a.a.",
"a.a.a.a.a.a.a.a.a.a.a.a.a.a.a.a.a.a.a.a.a.a.a.a.a.a.a.a.a.a.a.a.a.a.a.a.a.a.a.a.a.a.a.a.a.a.a.a.a.a.a.a.a.a.a.a.a.a.a.a.a.a.a.a.a.a.a.a.a.a.a.a.a.a.a.a.a.a.a.a.a.a.a.a.a.a.a.a.a.a.a.a.a.a.a.a.a.a.a.a.a.a.a.a.a.a.a.a.a.a.a.a.a.P R R / / ]  .#.#.#.#.#.-.5.4.1.4.6.6.4.t.6.4.t.t.-.t.4.-.-.-.-.-.-.4.t.t.6.t.6.t.t.t.t.s.t.t.s.t.t.;.t.s.t.t.t.t.t.y.t.y.t.t.e.t.t.t.t.y.t.t.y.t.e.t.t.t.t.f.f.y.t.f.f.s.t.t.t.t.y.y.y.y.y.s.f.f.s.d.y.y.y.y.s.y.t.t.t.6.t.t.t.t.t.t.t.t.t.t.6.t.d.d.y.d.g.g.g.v.g.v.m.v.m.A.A.K.E.E.W.E.K.K.E.E.!.E.E.E.!.!.!.!.^.{.}.{.{.}.}.{.{.{.{.^.^.!.!.E.K.E.K.G.G.K.Y.Y.J.E.E.J.J.E.E.!.J.J.E.E.W.E.J.J.E.E.K.G.G.A.D.A.k.j.m.m.m.m.A.A.m.D.D.m.m.k.m.m.k.j.g.g.g.d.d.g.g.y.d.y.t.t.y.t.t.5.4.6.*.1./ W ] [ #.#.#.#.....#...}  ...[ W R J a.a.a.a.a.a.a.a.a.a.a.a.a.a.a.a.a.a.a.a.a.a.a.a.a.a.a.a.a.a.a.a.a.a.a.a.a.a.a.a.a.a.a.a.a.a.a.a.a.a.a.a.a.a.a.a.a.a.a.a.a.a.a.a.a.a.a.a.a.a.a.a.a.a.a.a.a.a.a.a.a.a.a.a.a.a.a.a.a.a.a.a.a.a.a.a.a.a.a.a.a.a.a.a.a.a.a.a.a.a.a.a.a.a.a.a.a.a.a.a.a.a.a.a.a.a.a.a.a.a.a.a.a.a.a.a.a.a.a.a.a.a.a.a.a.a.a.a.a.a.a.a.a.a.a.a.a.a.a.a.a.a.a.a.a.a.a.a.a.a.a.a.a.a.a.a.a.a.a.a.a.a.a.a.a.a.a.a.a.a.a.a.a.a.a.a.a.a.a.a.a.a.a.a.a.a.a.a.a.a.a.a.a.a.a.a.a.a.a.a.a.a.a.a.a.a.a.a.a.",
"a.a.a.a.a.a.a.a.a.a.a.a.a.a.a.a.a.a.a.a.a.a.a.a.a.a.a.a.a.a.a.a.a.a.a.a.a.a.a.a.a.a.a.a.a.a.a.a.a.a.a.a.a.a.a.a.a.a.a.a.a.a.a.a.a.a.a.a.a.a.a.a.a.a.a.a.a.a.a.a.a.a.a.a.a.a.a.a.a.a.a.a.a.a.a.a.a.a.a.a.a.a.a.a.a.a.a.a.a.a.a.a.a.P R W / _ ]  ...#.#.#.#.-.-.5.1.6.-.t.t.t.6.4.t.t.-.6.6.-.-.t.6.4.-.1.6.4.6.6.-.t.t.-.t.d.t.t.t.t.t.e.t.t.t.t.t.e.t.s.t.y.t.t.6.e.t.t.t.t.t.t.t.t.t.t.y.f.y.t.f.f.f.f.f.f.y.t.t.y.y.y.y.y.y.s.f.f.y.y.y.y.f.y.y.y.t.t.6.6.6.6.t.t.6.t.t.t.t.t.t.d.d.g.d.g.g.g.g.v.g.g.v.m.A.G.G.A.K.J.E.E.K.J.E.W.E.E.E.[.E.E.E.[.{.{.^.{.^.^.{.{.{.{.!.!.!.!.E.E.G.Y.K.G.E.Y.E.W.J.J.J.J.G.G.J.E.G.J.E.E.E.J.E.J.Y.E.Y.K.E.G.G.G.A.A.G.D.A.m.m.m.m.m.m.m.m.m.m.j.j.g.g.d.d.g.g.g.g.d.d.y.t.y.t.t.t.5.5.6.1.*.*./ / } ..#.<.............[ ] ] / T S a.a.a.a.a.a.a.a.a.a.a.a.a.a.a.a.a.a.a.a.a.a.a.a.a.a.a.a.a.a.a.a.a.a.a.a.a.a.a.a.a.a.a.a.a.a.a.a.a.a.a.a.a.a.a.a.a.a.a.a.a.a.a.a.a.a.a.a.a.a.a.a.a.a.a.a.a.a.a.a.a.a.a.a.a.a.a.a.a.a.a.a.a.a.a.a.a.a.a.a.a.a.a.a.a.a.a.a.a.a.a.a.a.a.a.a.a.a.a.a.a.a.a.a.a.a.a.a.a.a.a.a.a.a.a.a.a.a.a.a.a.a.a.a.a.a.a.a.a.a.a.a.a.a.a.a.a.a.a.a.a.a.a.a.a.a.a.a.a.a.a.a.a.a.a.a.a.a.a.a.a.a.a.a.a.a.a.a.a.a.a.a.a.a.a.a.a.a.a.a.a.a.a.a.a.a.a.a.a.a.a.a.a.a.a.a.a.a.a.a.a.a.a.a.a.a.a.a.a.",
"a.a.a.a.a.a.a.a.a.a.a.a.a.a.a.a.a.a.a.a.a.a.a.a.a.a.a.a.a.a.a.a.a.a.a.a.a.a.a.a.a.a.a.a.a.a.a.a.a.a.a.a.a.a.a.a.a.a.a.a.a.a.a.a.a.a.a.a.a.a.a.a.a.a.a.a.a.a.a.a.a.a.a.a.a.a.a.a.a.a.a.a.a.a.a.a.a.a.a.a.a.a.a.a.a.a.a.a.a.a.a.a.a.U R W / _ }  . .@.@.#.#.-.1.5.1.6.-.-.4.6.6.4.6.t.-.-.6.4.-.4.6.4.1.4.t.4.-.t.6.6.t.-.t.s.t.6.t.t.t.e.t.t.t.s.f.t.t.t.t.t.t.t.t.t.t.t.t.t.t.t.t.t.t.t.y.f.f.f.f.f.f.f.s.s.y.t.t.t.y.y.y.s.s.s.f.d.y.y.t.t.t.t.t.t.6.6.4.6.6.t.t.t.t.t.t.t.t.t.y.y.g.y.d.d.d.g.g.g.g.m.A.G.G.G.G.G.A.G.G.J.G.J.W.W.E.E.E.!.E.!.[.{.{.{.^.}.^.{.{.{.^.!.!.E.E.E.E.E.Y.K.K.E.E.Y.E.E.G.J.J.J.J.E.J.E.E.W.W.E.E.K.Y.Y.E.Y.G.G.Y.G.G.D.k.D.G.A.A.m.m.m.m.m.k.m.m.j.m.j.j.g.g.g.g.g.d.g.g.d.d.y.y.y.y.t.y.y.t.6.1.4.-.-./ / } ..#.......|  .[ } ] ] W U a.a.a.a.a.a.a.a.a.a.a.a.a.a.a.a.a.a.a.a.a.a.a.a.a.a.a.a.a.a.a.a.a.a.a.a.a.a.a.a.a.a.a.a.a.a.a.a.a.a.a.a.a.a.a.a.a.a.a.a.a.a.a.a.a.a.a.a.a.a.a.a.a.a.a.a.a.a.a.a.a.a.a.a.a.a.a.a.a.a.a.a.a.a.a.a.a.a.a.a.a.a.a.a.a.a.a.a.a.a.a.a.a.a.a.a.a.a.a.a.a.a.a.a.a.a.a.a.a.a.a.a.a.a.a.a.a.a.a.a.a.a.a.a.a.a.a.a.a.a.a.a.a.a.a.a.a.a.a.a.a.a.a.a.a.a.a.a.a.a.a.a.a.a.a.a.a.a.a.a.a.a.a.a.a.a.a.a.a.a.a.a.a.a.a.a.a.a.a.a.a.a.a.a.a.a.a.a.a.a.a.a.a.a.a.a.a.a.a.a.a.a.a.a.a.a.a.a.a.a.",
"a.a.a.a.a.a.a.a.a.a.a.a.a.a.a.a.a.a.a.a.a.a.a.a.a.a.a.a.a.a.a.a.a.a.a.a.a.a.a.a.a.a.a.a.a.a.a.a.a.a.a.a.a.a.a.a.a.a.a.a.a.a.a.a.a.a.a.a.a.a.a.a.a.a.a.a.a.a.a.a.a.a.a.a.a.a.a.a.a.a.a.a.a.a.a.a.a.a.a.a.a.a.a.a.a.a.a.a.a.a.a.a.a.R R W / _ }  . .@.@.#.&.-.1.1.4.4.-.-.-.4.4.4.6.6.-.-.-.-.-.4.-.4.-.1.6.4.-.6.6.6.t.t.t.t.t.6.t.t.t.t.t.t.y.y.s.t.t.t.t.t.t.t.t.t.t.t.t.t.t.t.t.t.t.t.t.y.f.f.f.y.t.t.t.t.t.t.f.t.y.y.f.y.y.y.y.d.y.y.t.t.t.t.t.t.-.6.6.t.6.t.t.t.t.t.t.t.t.t.y.t.d.d.d.d.d.d.g.g.v.m.A.G.A.G.G.G.A.G.G.G.G.K.E.E.E.E.!.E.!.[.[.!.{.{.^.{.{.{.{.!.!.W.W.E.E.E.W.E.E.E.Y.Y.E.E.Y.G.E.K.G.K.J.G.G.G.Y.E.Y.Y.E.K.K.G.E.Y.K.K.E.Y.K.D.m.D.A.m.m.m.m.m.m.m.A.m.m.m.m.j.j.j.g.j.g.g.g.g.d.d.d.d.d.d.y.y.d.d.y.t.5.t.1.*.*./ ] ..@...} [ [ } ] ] ] ) W U a.a.a.a.a.a.a.a.a.a.a.a.a.a.a.a.a.a.a.a.a.a.a.a.a.a.a.a.a.a.a.a.a.a.a.a.a.a.a.a.a.a.a.a.a.a.a.a.a.a.a.a.a.a.a.a.a.a.a.a.a.a.a.a.a.a.a.a.a.a.a.a.a.a.a.a.a.a.a.a.a.a.a.a.a.a.a.a.a.a.a.a.a.a.a.a.a.a.a.a.a.a.a.a.a.a.a.a.a.a.a.a.a.a.a.a.a.a.a.a.a.a.a.a.a.a.a.a.a.a.a.a.a.a.a.a.a.a.a.a.a.a.a.a.a.a.a.a.a.a.a.a.a.a.a.a.a.a.a.a.a.a.a.a.a.a.a.a.a.a.a.a.a.a.a.a.a.a.a.a.a.a.a.a.a.a.a.a.a.a.a.a.a.a.a.a.a.a.a.a.a.a.a.a.a.a.a.a.a.a.a.a.a.a.a.a.a.a.a.a.a.a.a.a.a.a.a.a.a.a.",
"a.a.a.a.a.a.a.a.a.a.a.a.a.a.a.a.a.a.a.a.a.a.a.a.a.a.a.a.a.a.a.a.a.a.a.a.a.a.a.a.a.a.a.a.a.a.a.a.a.a.a.a.a.a.a.a.a.a.a.a.a.a.a.a.a.a.a.a.a.a.a.a.a.a.a.a.a.a.a.a.a.a.a.a.a.a.a.a.a.a.a.a.a.a.a.a.a.a.a.a.a.a.a.a.a.a.a.a.a.a.a.a.a.R R R / _ }  ...@.#.#.*.-.4.-.4.6.6.6.4.-.4.-.-.-.-.-.4.-.-.6.-.4.1.4.4.4.-.-.6.6.t.t.t.t.t.t.6.t.t.t.y.s.s.t.s.s.t.e.t.t.s.y.e.t.t.t.t.t.e.t.y.y.t.t.t.t.s.s.s.t.t.t.t.t.t.y.t.y.y.y.y.t.y.y.t.y.t.t.t.t.t.t.t.t.-.-.4.6.6.6.6.6.t.t.t.6.t.y.t.t.y.y.d.g.d.d.g.g.v.m.m.A.m.G.G.A.A.G.G.J.E.J.J.E.E.E.E.E.E.!.^.E.!.{.!.!.!.^.!.E.E.E.E.E.E.E.E.Y.K.G.K.E.E.Y.G.G.E.G.G.G.E.J.G.G.G.E.W.E.E.E.Y.E.Y.E.E.K.Y.D.D.A.D.G.A.m.m.m.m.m.m.A.D.A.m.k.m.j.m.g.g.g.g.g.g.d.d.d.d.d.d.d.d.d.d.d.d.t.t.t.6.1.1.@._ _ ....[ [ [ } ] ] ] W R J a.a.a.a.a.a.a.a.a.a.a.a.a.a.a.a.a.a.a.a.a.a.a.a.a.a.a.a.a.a.a.a.a.a.a.a.a.a.a.a.a.a.a.a.a.a.a.a.a.a.a.a.a.a.a.a.a.a.a.a.a.a.a.a.a.a.a.a.a.a.a.a.a.a.a.a.a.a.a.a.a.a.a.a.a.a.a.a.a.a.a.a.a.a.a.a.a.a.a.a.a.a.a.a.a.a.a.a.a.a.a.a.a.a.a.a.a.a.a.a.a.a.a.a.a.a.a.a.a.a.a.a.a.a.a.a.a.a.a.a.a.a.a.a.a.a.a.a.a.a.a.a.a.a.a.a.a.a.a.a.a.a.a.a.a.a.a.a.a.a.a.a.a.a.a.a.a.a.a.a.a.a.a.a.a.a.a.a.a.a.a.a.a.a.a.a.a.a.a.a.a.a.a.a.a.a.a.a.a.a.a.a.a.a.a.a.a.a.a.a.a.a.a.a.a.a.a.a.a.a.",
"a.a.a.a.a.a.a.a.a.a.a.a.a.a.a.a.a.a.a.a.a.a.a.a.a.a.a.a.a.a.a.a.a.a.a.a.a.a.a.a.a.a.a.a.a.a.a.a.a.a.a.a.a.a.a.a.a.a.a.a.a.a.a.a.a.a.a.a.a.a.a.a.a.a.a.a.a.a.a.a.a.a.a.a.a.a.a.a.a.a.a.a.a.a.a.a.a.a.a.a.a.a.a.a.a.a.a.a.a.a.a.a.a.U W W / _ }  .@.#.#.#.*.-.-.#.4.4.1.4.4.4.4.4.1.-.-.1.4.-.*.4.-.-.-.1.-.4.4.4.-.4.-.t.6.6.t.t.6.t.6.t.t.t.t.t.t.t.t.t.t.t.t.t.t.t.t.y.t.t.e.t.y.y.t.t.t.t.t.t.t.t.y.t.y.y.t.t.y.t.t.y.y.t.y.t.t.t.t.t.t.t.t.4.t.;.-.4.6.6.6.6.6.t.6.6.6.6.t.t.t.t.y.y.y.d.d.g.g.v.m.m.m.A.A.G.A.A.A.A.J.E.E.J.W.E.E.W.E.E.E.!.!.^.!.^.!.!.W.E.E.Y.E.Y.W.E.Y.J.Y.K.G.G.G.K.G.G.G.K.G.A.G.J.E.K.E.K.Y.E.W.Y.E.E.Y.G.E.Y.D.K.Y.G.D.Y.G.G.A.m.m.k.m.m.A.m.A.m.m.m.j.m.g.g.d.d.g.g.g.g.d.d.d.d.d.d.d.y.s.y.y.t.t.t.6.4.1.*.*._ / [ ..] ] } ] ] ] W R P a.a.a.a.a.a.a.a.a.a.a.a.a.a.a.a.a.a.a.a.a.a.a.a.a.a.a.a.a.a.a.a.a.a.a.a.a.a.a.a.a.a.a.a.a.a.a.a.a.a.a.a.a.a.a.a.a.a.a.a.a.a.a.a.a.a.a.a.a.a.a.a.a.a.a.a.a.a.a.a.a.a.a.a.a.a.a.a.a.a.a.a.a.a.a.a.a.a.a.a.a.a.a.a.a.a.a.a.a.a.a.a.a.a.a.a.a.a.a.a.a.a.a.a.a.a.a.a.a.a.a.a.a.a.a.a.a.a.a.a.a.a.a.a.a.a.a.a.a.a.a.a.a.a.a.a.a.a.a.a.a.a.a.a.a.a.a.a.a.a.a.a.a.a.a.a.a.a.a.a.a.a.a.a.a.a.a.a.a.a.a.a.a.a.a.a.a.a.a.a.a.a.a.a.a.a.a.a.a.a.a.a.a.a.a.a.a.a.a.a.a.a.a.a.a.a.a.a.a.a.",
"a.a.a.a.a.a.a.a.a.a.a.a.a.a.a.a.a.a.a.a.a.a.a.a.a.a.a.a.a.a.a.a.a.a.a.a.a.a.a.a.a.a.a.a.a.a.a.a.a.a.a.a.a.a.a.a.a.a.a.a.a.a.a.a.a.a.a.a.a.a.a.a.a.a.a.a.a.a.a.a.a.a.a.a.a.a.a.a.a.a.a.a.a.a.a.a.a.a.a.a.a.a.a.a.a.a.a.a.a.a.a.a.a.R R W / ] }  .@.#.#.*.*.-.-.-.1.5.6.4.4.4.-.4.4.-.*.*.1.-.#.4.-.-.-.1.-.1.4.-.-.-.*.-.-.6.t.t.t.t.t.t.y.y.t.s.t.t.t.t.t.y.t.t.t.t.y.y.t.e.e.y.y.t.t.t.t.t.t.t.t.t.y.y.y.s.s.y.t.t.y.y.y.y.t.t.t.t.t.e.t.t.-.-.;.-.-.4.6.4.4.6.6.6.6.6.6.4.t.t.t.t.y.y.t.y.d.g.g.v.v.m.A.A.A.G.m.A.A.K.E.K.K.E.Y.W.!.!.!.!.!.!.!.!.^.!.E.E.Y.G.K.Y.Y.E.Y.Y.E.J.J.G.K.K.G.Y.G.K.K.K.G.A.K.E.K.E.E.!.E.K.E.G.E.E.!.E.G.K.K.G.D.D.D.D.D.G.A.m.j.m.A.m.m.A.m.m.m.m.g.g.g.g.g.d.g.g.g.g.d.d.d.d.d.d.d.d.y.y.y.y.t.t.6.4.6.6.-.*.] _ ] [ [ ] ] ) ) W R U a.a.a.a.a.a.a.a.a.a.a.a.a.a.a.a.a.a.a.a.a.a.a.a.a.a.a.a.a.a.a.a.a.a.a.a.a.a.a.a.a.a.a.a.a.a.a.a.a.a.a.a.a.a.a.a.a.a.a.a.a.a.a.a.a.a.a.a.a.a.a.a.a.a.a.a.a.a.a.a.a.a.a.a.a.a.a.a.a.a.a.a.a.a.a.a.a.a.a.a.a.a.a.a.a.a.a.a.a.a.a.a.a.a.a.a.a.a.a.a.a.a.a.a.a.a.a.a.a.a.a.a.a.a.a.a.a.a.a.a.a.a.a.a.a.a.a.a.a.a.a.a.a.a.a.a.a.a.a.a.a.a.a.a.a.a.a.a.a.a.a.a.a.a.a.a.a.a.a.a.a.a.a.a.a.a.a.a.a.a.a.a.a.a.a.a.a.a.a.a.a.a.a.a.a.a.a.a.a.a.a.a.a.a.a.a.a.a.a.a.a.a.a.a.a.a.a.a.a.a.",
"a.a.a.a.a.a.a.a.a.a.a.a.a.a.a.a.a.a.a.a.a.a.a.a.a.a.a.a.a.a.a.a.a.a.a.a.a.a.a.a.a.a.a.a.a.a.a.a.a.a.a.a.a.a.a.a.a.a.a.a.a.a.a.a.a.a.a.a.a.a.a.a.a.a.a.a.a.a.a.a.a.a.a.a.a.a.a.a.a.a.a.a.a.a.a.a.a.a.a.a.a.a.a.a.a.a.a.a.a.a.a.a.P U W W / ] }  . .#.#.*.*.-.4.4.4.4.5.1.1.4.-.4.4.-.#.#.*.-.-.-.#.4.4.4.1.4.-.-.t.t.-.-.-.6.6.t.t.6.t.t.y.t.t.t.y.t.t.t.t.d.t.t.e.t.t.t.t.t.t.t.t.t.t.t.e.t.t.t.t.t.s.s.y.y.y.t.t.t.t.y.t.t.t.t.t.t.t.t.t.t.4.-.-.*.-.4.-.-.-.4.4.6.6.6.6.6.t.t.t.y.y.y.y.y.d.g.v.v.m.A.A.A.A.A.m.A.A.K.K.K.K.E.E.W.^.!.!.!.!.!.!.W.E.!.E.E.K.G.K.G.K.Y.E.E.E.G.G.K.J.K.G.G.G.G.K.G.G.G.G.E.K.Y.E.Y.E.E.E.J.J.E.E.E.G.G.G.G.A.A.m.A.D.A.A.m.m.m.A.D.D.G.D.G.A.m.m.j.j.g.g.g.g.g.g.j.g.g.g.d.d.d.d.y.y.y.y.y.t.t.t.t.t.5.1.-.#.R  .] ] ] ] ] ) R U F a.a.a.a.a.a.a.a.a.a.a.a.a.a.a.a.a.a.a.a.a.a.a.a.a.a.a.a.a.a.a.a.a.a.a.a.a.a.a.a.a.a.a.a.a.a.a.a.a.a.a.a.a.a.a.a.a.a.a.a.a.a.a.a.a.a.a.a.a.a.a.a.a.a.a.a.a.a.a.a.a.a.a.a.a.a.a.a.a.a.a.a.a.a.a.a.a.a.a.a.a.a.a.a.a.a.a.a.a.a.a.a.a.a.a.a.a.a.a.a.a.a.a.a.a.a.a.a.a.a.a.a.a.a.a.a.a.a.a.a.a.a.a.a.a.a.a.a.a.a.a.a.a.a.a.a.a.a.a.a.a.a.a.a.a.a.a.a.a.a.a.a.a.a.a.a.a.a.a.a.a.a.a.a.a.a.a.a.a.a.a.a.a.a.a.a.a.a.a.a.a.a.a.a.a.a.a.a.a.a.a.a.a.a.a.a.a.a.a.a.a.a.a.a.a.a.a.a.a.a.",
"a.a.a.a.a.a.a.a.a.a.a.a.a.a.a.a.a.a.a.a.a.a.a.a.a.a.a.a.a.a.a.a.a.a.a.a.a.a.a.a.a.a.a.a.a.a.a.a.a.a.a.a.a.a.a.a.a.a.a.a.a.a.a.a.a.a.a.a.a.a.a.a.a.a.a.a.a.a.a.a.a.a.a.a.a.a.a.a.a.a.a.a.a.a.a.a.a.a.a.a.a.a.a.a.a.a.a.a.a.a.a.a.J R W W / ] }  . .#.#.#.*.-.4.4.-.-.6.1.1.-.-.4.1.1.-.1.*.-.#.#.#.-.4.-.6.5.-.-.;.t.6.t.4.6.t.t.6.;.t.t.t.t.t.t.t.t.t.e.t.t.s.t.e.d.t.t.t.t.t.t.t.t.t.t.e.t.t.t.t.y.d.s.t.t.t.t.y.y.t.t.t.t.t.t.t.6.t.t.6.r.-.-.-.-.-.-.-.-.-.-.4.6.-.-.-.t.t.t.t.y.t.y.d.d.g.g.v.v.A.m.m.A.A.m.A.A.K.K.Y.K.E.W.W.W.!.!.!.!.!.!.W.E.E.W.E.E.E.E.E.G.E.E.Y.E.E.G.A.G.G.G.G.Y.K.Y.E.Y.K.Y.K.Y.E.G.E.E.G.G.K.E.W.Y.Y.K.G.G.G.K.G.D.D.D.G.D.A.A.D.A.A.G.D.A.m.m.m.j.g.j.k.j.g.g.g.g.g.g.g.g.g.g.d.d.d.y.y.y.y.y.d.y.t.t.y.6.6.-.*. .E ] ] ] W W W T J a.a.a.a.a.a.a.a.a.a.a.a.a.a.a.a.a.a.a.a.a.a.a.a.a.a.a.a.a.a.a.a.a.a.a.a.a.a.a.a.a.a.a.a.a.a.a.a.a.a.a.a.a.a.a.a.a.a.a.a.a.a.a.a.a.a.a.a.a.a.a.a.a.a.a.a.a.a.a.a.a.a.a.a.a.a.a.a.a.a.a.a.a.a.a.a.a.a.a.a.a.a.a.a.a.a.a.a.a.a.a.a.a.a.a.a.a.a.a.a.a.a.a.a.a.a.a.a.a.a.a.a.a.a.a.a.a.a.a.a.a.a.a.a.a.a.a.a.a.a.a.a.a.a.a.a.a.a.a.a.a.a.a.a.a.a.a.a.a.a.a.a.a.a.a.a.a.a.a.a.a.a.a.a.a.a.a.a.a.a.a.a.a.a.a.a.a.a.a.a.a.a.a.a.a.a.a.a.a.a.a.a.a.a.a.a.a.a.a.a.a.a.a.a.a.a.a.a.a.a.a.",
"a.a.a.a.a.a.a.a.a.a.a.a.a.a.a.a.a.a.a.a.a.a.a.a.a.a.a.a.a.a.a.a.a.a.a.a.a.a.a.a.a.a.a.a.a.a.a.a.a.a.a.a.a.a.a.a.a.a.a.a.a.a.a.a.a.a.a.a.a.a.a.a.a.a.a.a.a.a.a.a.a.a.a.a.a.a.a.a.a.a.a.a.a.a.a.a.a.a.a.a.a.a.a.a.a.a.a.a.a.a.a.a.P R W W / ]  . .#.#.#.#.#.-.-.-.-.-.-.5.6.-.4.-.-.1.-.-.*.-.-.-.#.-.-.-.1.6.-.-.-.-.6.t.t.t.t.t.t.6.t.t.t.t.t.t.t.t.t.t.e.e.y.t.t.s.y.t.t.t.t.t.t.t.e.t.e.t.y.y.t.t.s.s.t.t.t.y.t.t.t.t.t.t.t.t.t.t.6.4.4.4.-.-.*.-.-.-.-.4.4.-.4.4.6.-.4.t.6.t.t.t.t.y.d.g.g.g.v.v.m.A.A.m.A.m.G.G.G.K.K.K.Y.K.K.E.!.!.!.!.!.E.E.E.E.Y.E.E.E.Y.E.G.G.G.K.Y.Y.Y.G.G.Y.Y.K.E.E.E.E.E.G.G.G.Y.E.W.E.K.E.G.K.E.E.G.Y.E.G.G.K.G.G.G.G.G.D.G.G.G.D.A.A.G.G.D.A.m.m.j.j.k.k.j.g.g.g.g.g.g.g.g.d.g.g.d.d.y.y.y.d.d.d.y.y.t.t.t.t.1.-.#. .E / / W W W T U a.a.a.a.a.a.a.a.a.a.a.a.a.a.a.a.a.a.a.a.a.a.a.a.a.a.a.a.a.a.a.a.a.a.a.a.a.a.a.a.a.a.a.a.a.a.a.a.a.a.a.a.a.a.a.a.a.a.a.a.a.a.a.a.a.a.a.a.a.a.a.a.a.a.a.a.a.a.a.a.a.a.a.a.a.a.a.a.a.a.a.a.a.a.a.a.a.a.a.a.a.a.a.a.a.a.a.a.a.a.a.a.a.a.a.a.a.a.a.a.a.a.a.a.a.a.a.a.a.a.a.a.a.a.a.a.a.a.a.a.a.a.a.a.a.a.a.a.a.a.a.a.a.a.a.a.a.a.a.a.a.a.a.a.a.a.a.a.a.a.a.a.a.a.a.a.a.a.a.a.a.a.a.a.a.a.a.a.a.a.a.a.a.a.a.a.a.a.a.a.a.a.a.a.a.a.a.a.a.a.a.a.a.a.a.a.a.a.a.a.a.a.a.a.a.a.a.a.a.a.a.",
"a.a.a.a.a.a.a.a.a.a.a.a.a.a.a.a.a.a.a.a.a.a.a.a.a.a.a.a.a.a.a.a.a.a.a.a.a.a.a.a.a.a.a.a.a.a.a.a.a.a.a.a.a.a.a.a.a.a.a.a.a.a.a.a.a.a.a.a.a.a.a.a.a.a.a.a.a.a.a.a.a.a.a.a.a.a.a.a.a.a.a.a.a.a.a.a.a.a.a.a.a.a.a.a.a.a.a.a.a.a.a.a.U R R W / ] } @.@.#.#.#.-.-.1.-.-.4.1.4.4.-.4.1.#.-.#.-.*.-.#.-.#.#.-.-.1.4.-.-.-.-.4.6.6.4.6.;.t.t.6.t.t.t.t.t.t.6.t.t.e.t.d.t.y.t.t.t.t.t.t.s.t.e.t.t.t.t.t.t.t.t.y.t.y.t.y.y.t.t.t.t.t.6.6.t.t.t.6.4.;.-.-.-.-.-.-.4.-.6.-.-.-.-.4.4.t.t.6.t.t.t.y.y.g.g.g.v.g.v.m.A.A.A.m.m.G.G.G.K.K.K.E.K.E.E.!.E.W.W.W.Y.Y.E.E.Y.E.E.G.K.K.K.G.K.G.G.G.G.A.A.Y.G.K.Y.K.K.K.E.E.G.K.W.W.E.E.K.E.E.E.E.E.G.E.E.G.K.K.G.K.G.G.D.A.G.G.G.G.m.A.G.D.D.G.D.A.m.m.m.m.k.g.g.g.g.g.g.d.d.y.d.d.d.d.d.y.y.d.d.d.d.y.y.y.y.t.6.1.-.&. .R / W W R T J a.a.a.a.a.a.a.a.a.a.a.a.a.a.a.a.a.a.a.a.a.a.a.a.a.a.a.a.a.a.a.a.a.a.a.a.a.a.a.a.a.a.a.a.a.a.a.a.a.a.a.a.a.a.a.a.a.a.a.a.a.a.a.a.a.a.a.a.a.a.a.a.a.a.a.a.a.a.a.a.a.a.a.a.a.a.a.a.a.a.a.a.a.a.a.a.a.a.a.a.a.a.a.a.a.a.a.a.a.a.a.a.a.a.a.a.a.a.a.a.a.a.a.a.a.a.a.a.a.a.a.a.a.a.a.a.a.a.a.a.a.a.a.a.a.a.a.a.a.a.a.a.a.a.a.a.a.a.a.a.a.a.a.a.a.a.a.a.a.a.a.a.a.a.a.a.a.a.a.a.a.a.a.a.a.a.a.a.a.a.a.a.a.a.a.a.a.a.a.a.a.a.a.a.a.a.a.a.a.a.a.a.a.a.a.a.a.a.a.a.a.a.a.a.a.a.a.a.a.a.a.",
"a.a.a.a.a.a.a.a.a.a.a.a.a.a.a.a.a.a.a.a.a.a.a.a.a.a.a.a.a.a.a.a.a.a.a.a.a.a.a.a.a.a.a.a.a.a.a.a.a.a.a.a.a.a.a.a.a.a.a.a.a.a.a.a.a.a.a.a.a.a.a.a.a.a.a.a.a.a.a.a.a.a.a.a.a.a.a.a.a.a.a.a.a.a.a.a.a.a.a.a.a.a.a.a.a.a.a.a.a.a.a.a.U U R W / ]  .@.@.#.#.#.-.-.4.1.-.6.-.-.1.-.4.4.#.#.#.#.-.-.@.#.#.#.1.-.-.4.-.4.-.6.4.-.-.6.t.6.6.6.6.t.t.t.6.6.t.6.t.t.e.t.t.t.t.y.t.t.t.t.s.t.t.t.t.e.t.t.t.t.t.t.y.t.s.y.y.y.t.t.t.6.6.4.t.t.t.6.4.4.-.-.-.*.*.-.*.-.-.;.-.-.-.-.4.4.6.t.t.t.t.y.y.y.g.g.v.g.g.v.v.A.A.m.A.A.A.G.D.K.K.K.E.E.K.K.E.E.E.E.!.E.W.E.K.E.E.K.G.K.G.G.G.G.m.m.G.G.D.G.K.G.G.Y.Y.K.G.G.Y.D.K.E.W.J.K.E.Y.E.E.E.E.E.Y.K.G.G.K.Y.E.K.K.G.A.A.G.G.G.A.A.D.G.G.G.G.G.D.m.j.k.k.k.k.j.g.g.d.d.d.d.y.y.y.d.y.y.y.y.d.g.d.d.d.d.y.y.t.t.-.*.-. .R / W T T J a.a.a.a.a.a.a.a.a.a.a.a.a.a.a.a.a.a.a.a.a.a.a.a.a.a.a.a.a.a.a.a.a.a.a.a.a.a.a.a.a.a.a.a.a.a.a.a.a.a.a.a.a.a.a.a.a.a.a.a.a.a.a.a.a.a.a.a.a.a.a.a.a.a.a.a.a.a.a.a.a.a.a.a.a.a.a.a.a.a.a.a.a.a.a.a.a.a.a.a.a.a.a.a.a.a.a.a.a.a.a.a.a.a.a.a.a.a.a.a.a.a.a.a.a.a.a.a.a.a.a.a.a.a.a.a.a.a.a.a.a.a.a.a.a.a.a.a.a.a.a.a.a.a.a.a.a.a.a.a.a.a.a.a.a.a.a.a.a.a.a.a.a.a.a.a.a.a.a.a.a.a.a.a.a.a.a.a.a.a.a.a.a.a.a.a.a.a.a.a.a.a.a.a.a.a.a.a.a.a.a.a.a.a.a.a.a.a.a.a.a.a.a.a.a.a.a.a.a.a.a.",
"a.a.a.a.a.a.a.a.a.a.a.a.a.a.a.a.a.a.a.a.a.a.a.a.a.a.a.a.a.a.a.a.a.a.a.a.a.a.a.a.a.a.a.a.a.a.a.a.a.a.a.a.a.a.a.a.a.a.a.a.a.a.a.a.a.a.a.a.a.a.a.a.a.a.a.a.a.a.a.a.a.a.a.a.a.a.a.a.a.a.a.a.a.a.a.a.a.a.a.a.a.a.a.a.a.a.a.a.a.a.a.a.U U R W / }  .@.@.#.#.&.*.-.1.1.#.-.-.*.4.4.4.4.-.#.-.@.#.-.#.#.#.#.*.-.1.4.-.4.-.-.t.6.4.4.6.t.6.t.t.t.t.t.t.t.t.t.t.t.t.e.t.e.t.t.t.t.e.t.s.s.s.t.t.t.t.t.t.t.t.t.y.t.s.y.y.y.t.t.t.6.6.4.t.6.6.4.6.4.-.*.*.*.-.-.&.-.-.-.-.-.4.-.6.-.4.t.t.t.t.y.d.d.d.d.g.g.g.v.m.v.m.A.m.m.G.G.G.K.K.K.K.G.K.A.E.E.E.E.E.E.E.K.G.G.Y.G.K.G.G.K.K.K.K.D.m.G.D.G.G.G.G.E.G.G.G.Y.Y.G.E.E.E.J.A.G.E.E.E.E.E.E.G.K.Y.G.G.G.Y.Y.Y.K.G.G.G.K.G.A.A.A.G.G.D.A.A.m.m.m.m.m.m.m.k.g.g.g.g.g.g.d.d.y.d.y.y.y.y.y.d.d.d.d.d.y.t.t.t.6.-.-.#...T W R U D a.a.a.a.a.a.a.a.a.a.a.a.a.a.a.a.a.a.a.a.a.a.a.a.a.a.a.a.a.a.a.a.a.a.a.a.a.a.a.a.a.a.a.a.a.a.a.a.a.a.a.a.a.a.a.a.a.a.a.a.a.a.a.a.a.a.a.a.a.a.a.a.a.a.a.a.a.a.a.a.a.a.a.a.a.a.a.a.a.a.a.a.a.a.a.a.a.a.a.a.a.a.a.a.a.a.a.a.a.a.a.a.a.a.a.a.a.a.a.a.a.a.a.a.a.a.a.a.a.a.a.a.a.a.a.a.a.a.a.a.a.a.a.a.a.a.a.a.a.a.a.a.a.a.a.a.a.a.a.a.a.a.a.a.a.a.a.a.a.a.a.a.a.a.a.a.a.a.a.a.a.a.a.a.a.a.a.a.a.a.a.a.a.a.a.a.a.a.a.a.a.a.a.a.a.a.a.a.a.a.a.a.a.a.a.a.a.a.a.a.a.a.a.a.a.a.a.a.a.a.a.",
"a.a.a.a.a.a.a.a.a.a.a.a.a.a.a.a.a.a.a.a.a.a.a.a.a.a.a.a.a.a.a.a.a.a.a.a.a.a.a.a.a.a.a.a.a.a.a.a.a.a.a.a.a.a.a.a.a.a.a.a.a.a.a.a.a.a.a.a.a.a.a.a.a.a.a.a.a.a.a.a.a.a.a.a.a.a.a.a.a.a.a.a.a.a.a.a.a.a.a.a.a.a.a.a.a.a.a.a.a.a.a.a.U U T / ) ]  .@.@.#.#.&.#.-.-.1.-.-.-.-.1.1.#.1.*.#.-.@.#.#.#.#.@.#.*.*.1.4.-.-.-.-.6.6.-.4.6.6.;.-.;.t.t.6.t.6.6.t.t.t.e.t.t.t.t.t.t.t.t.t.t.t.y.y.y.t.t.y.t.t.s.y.s.y.t.t.y.t.t.t.6.6.6.6.6.6.6.4.-.6.-.-.#.*.-.1.1.-.-.1.-.-.-.-.-.4.6.4.t.t.y.d.d.d.g.g.g.v.j.v.j.g.g.m.m.m.K.K.K.K.K.K.J.W.G.G.E.Y.E.E.G.G.K.G.G.m.G.K.G.K.K.G.G.E.K.m.G.D.G.G.G.D.G.Y.Y.G.K.Y.E.E.E.E.E.E.K.E.E.E.K.E.Y.E.Y.E.E.Y.G.Y.E.E.E.Y.G.K.K.Y.K.A.A.D.m.D.G.A.D.D.A.A.m.m.m.m.m.k.g.g.g.g.g.d.d.d.d.d.y.y.d.d.d.y.y.d.d.d.y.y.t.t.6.-.&.*._ G R U V a.a.a.a.a.a.a.a.a.a.a.a.a.a.a.a.a.a.a.a.a.a.a.a.a.a.a.a.a.a.a.a.a.a.a.a.a.a.a.a.a.a.a.a.a.a.a.a.a.a.a.a.a.a.a.a.a.a.a.a.a.a.a.a.a.a.a.a.a.a.a.a.a.a.a.a.a.a.a.a.a.a.a.a.a.a.a.a.a.a.a.a.a.a.a.a.a.a.a.a.a.a.a.a.a.a.a.a.a.a.a.a.a.a.a.a.a.a.a.a.a.a.a.a.a.a.a.a.a.a.a.a.a.a.a.a.a.a.a.a.a.a.a.a.a.a.a.a.a.a.a.a.a.a.a.a.a.a.a.a.a.a.a.a.a.a.a.a.a.a.a.a.a.a.a.a.a.a.a.a.a.a.a.a.a.a.a.a.a.a.a.a.a.a.a.a.a.a.a.a.a.a.a.a.a.a.a.a.a.a.a.a.a.a.a.a.a.a.a.a.a.a.a.a.a.a.a.a.a.a.a.",
"a.a.a.a.a.a.a.a.a.a.a.a.a.a.a.a.a.a.a.a.a.a.a.a.a.a.a.a.a.a.a.a.a.a.a.a.a.a.a.a.a.a.a.a.a.a.a.a.a.a.a.a.a.a.a.a.a.a.a.a.a.a.a.a.a.a.a.a.a.a.a.a.a.a.a.a.a.a.a.a.a.a.a.a.a.a.a.a.a.a.a.a.a.a.a.a.a.a.a.a.a.a.a.a.a.a.a.a.a.a.a.a.U U T / _ }  . .@.#.#.&.-.-.-.-.1.-.1.1.&.1.#.1.*.#.-.#.#.#.-.#.#.-.-.-.-.-.-.6.-.-.-.4.4.6.6.4.6.6.6.6.t.4.t.-.t.t.t.t.t.t.y.s.t.t.t.t.t.t.t.t.t.s.t.t.t.t.t.t.y.t.y.y.t.t.t.t.6.6.-.4.6.6.4.4.-.4.-.-.&.&.#.#.-.-.*.-.1.-.-.-.&.&.-.-.4.4.t.t.d.d.g.g.g.g.g.v.v.j.d.g.v.m.m.A.J.G.G.G.K.J.K.J.A.K.K.G.A.m.A.K.G.G.G.m.G.K.J.A.G.G.G.G.K.G.G.G.D.G.G.G.G.Y.E.G.Y.Y.Y.E.E.E.E.E.E.W.G.G.K.Y.E.E.E.E.E.Y.E.W.E.Y.Y.G.G.G.G.K.K.G.G.G.D.G.G.D.A.A.D.m.m.A.m.m.m.k.m.m.g.g.g.g.d.g.g.d.d.y.y.d.y.y.y.y.y.y.y.t.t.t.t.4.6.-.-._ F U V a.a.a.a.a.a.a.a.a.a.a.a.a.a.a.a.a.a.a.a.a.a.a.a.a.a.a.a.a.a.a.a.a.a.a.a.a.a.a.a.a.a.a.a.a.a.a.a.a.a.a.a.a.a.a.a.a.a.a.a.a.a.a.a.a.a.a.a.a.a.a.a.a.a.a.a.a.a.a.a.a.a.a.a.a.a.a.a.a.a.a.a.a.a.a.a.a.a.a.a.a.a.a.a.a.a.a.a.a.a.a.a.a.a.a.a.a.a.a.a.a.a.a.a.a.a.a.a.a.a.a.a.a.a.a.a.a.a.a.a.a.a.a.a.a.a.a.a.a.a.a.a.a.a.a.a.a.a.a.a.a.a.a.a.a.a.a.a.a.a.a.a.a.a.a.a.a.a.a.a.a.a.a.a.a.a.a.a.a.a.a.a.a.a.a.a.a.a.a.a.a.a.a.a.a.a.a.a.a.a.a.a.a.a.a.a.a.a.a.a.a.a.a.a.a.a.a.a.a.a.a.",
"a.a.a.a.a.a.a.a.a.a.a.a.a.a.a.a.a.a.a.a.a.a.a.a.a.a.a.a.a.a.a.a.a.a.a.a.a.a.a.a.a.a.a.a.a.a.a.a.a.a.a.a.a.a.a.a.a.a.a.a.a.a.a.a.a.a.a.a.a.a.a.a.a.a.a.a.a.a.a.a.a.a.a.a.a.a.a.a.a.a.a.a.a.a.a.a.a.a.a.a.a.a.a.a.a.a.a.a.a.a.a.a.P U T / _ }  .@.@.*.%.-.-.*.#.1.1.-.-.4.-.#.#.#.*.#.#.#.#.#.-.*.#.-.-.-.4.-.-.;.-.-.-.6.4.6.4.4.6.6.6.6.6.6.6.-.y.t.t.6.t.t.t.t.t.t.t.6.6.t.y.t.t.y.t.t.y.t.y.y.y.t.t.y.y.y.t.t.5.6.4.6.6.6.4.-.-.-.-.-.#.#.#.%.*.-.*.-.-.*.-.&.&.-.-.4.6.6.t.t.y.d.d.g.g.g.g.v.g.g.g.v.m.m.A.m.G.G.A.J.K.E.K.A.G.G.A.G.G.G.K.G.G.G.A.K.K.E.G.A.G.G.G.Y.K.D.A.G.G.G.D.G.Y.G.G.E.E.K.K.K.K.G.K.Y.E.W.E.E.E.E.E.E.E.Y.E.E.E.W.E.Y.K.K.G.G.G.G.G.D.A.A.D.D.D.D.A.m.m.m.m.m.m.k.j.j.m.m.m.m.j.j.j.g.d.d.d.y.y.t.t.y.y.t.t.y.y.y.y.y.t.t.6.t.-.-._ S B a.a.a.a.a.a.a.a.a.a.a.a.a.a.a.a.a.a.a.a.a.a.a.a.a.a.a.a.a.a.a.a.a.a.a.a.a.a.a.a.a.a.a.a.a.a.a.a.a.a.a.a.a.a.a.a.a.a.a.a.a.a.a.a.a.a.a.a.a.a.a.a.a.a.a.a.a.a.a.a.a.a.a.a.a.a.a.a.a.a.a.a.a.a.a.a.a.a.a.a.a.a.a.a.a.a.a.a.a.a.a.a.a.a.a.a.a.a.a.a.a.a.a.a.a.a.a.a.a.a.a.a.a.a.a.a.a.a.a.a.a.a.a.a.a.a.a.a.a.a.a.a.a.a.a.a.a.a.a.a.a.a.a.a.a.a.a.a.a.a.a.a.a.a.a.a.a.a.a.a.a.a.a.a.a.a.a.a.a.a.a.a.a.a.a.a.a.a.a.a.a.a.a.a.a.a.a.a.a.a.a.a.a.a.a.a.a.a.a.a.a.a.a.a.a.a.a.a.a.a.a.",
"a.a.a.a.a.a.a.a.a.a.a.a.a.a.a.a.a.a.a.a.a.a.a.a.a.a.a.a.a.a.a.a.a.a.a.a.a.a.a.a.a.a.a.a.a.a.a.a.a.a.a.a.a.a.a.a.a.a.a.a.a.a.a.a.a.a.a.a.a.a.a.a.a.a.a.a.a.a.a.a.a.a.a.a.a.a.a.a.a.a.a.a.a.a.a.a.a.a.a.a.a.a.a.a.a.a.a.a.a.a.a.a.P T E / _ }  .@.#.#.#.-.-.*.#.-.1.6.-.4.-.#.#.@.*.#.#.#.#.*.-.#.#.#.*.*.-.4.-.6.-.4.6.4.-.6.4.4.6.6.6.6.6.t.6.4.6.6.t.t.t.t.t.t.t.t.t.t.t.t.t.y.s.s.t.y.y.t.y.y.t.t.y.y.t.t.t.t.6.6.6.6.6.6.6.1.-.-.-.-.#.&.#.#.*.%.-.#.&.*.-.-.-.-.4.4.6.t.t.t.y.d.d.g.g.g.g.g.g.g.m.v.m.A.A.m.A.A.A.G.G.J.J.A.G.A.A.G.G.A.G.A.G.K.G.J.K.J.G.G.K.K.G.E.Y.G.G.G.G.G.G.K.Y.G.G.Y.Y.Y.K.G.G.G.K.Y.E.Y.Y.Y.E.E.Y.Y.Y.E.E.W.E.E.Y.Y.Y.Y.K.G.G.G.G.G.A.D.D.m.m.A.A.A.A.m.k.m.A.A.D.k.j.g.g.j.j.j.g.g.d.d.d.y.y.y.y.y.t.t.y.t.y.y.y.y.y.t.t.4.4.-.*./ j a.a.a.a.a.a.a.a.a.a.a.a.a.a.a.a.a.a.a.a.a.a.a.a.a.a.a.a.a.a.a.a.a.a.a.a.a.a.a.a.a.a.a.a.a.a.a.a.a.a.a.a.a.a.a.a.a.a.a.a.a.a.a.a.a.a.a.a.a.a.a.a.a.a.a.a.a.a.a.a.a.a.a.a.a.a.a.a.a.a.a.a.a.a.a.a.a.a.a.a.a.a.a.a.a.a.a.a.a.a.a.a.a.a.a.a.a.a.a.a.a.a.a.a.a.a.a.a.a.a.a.a.a.a.a.a.a.a.a.a.a.a.a.a.a.a.a.a.a.a.a.a.a.a.a.a.a.a.a.a.a.a.a.a.a.a.a.a.a.a.a.a.a.a.a.a.a.a.a.a.a.a.a.a.a.a.a.a.a.a.a.a.a.a.a.a.a.a.a.a.a.a.a.a.a.a.a.a.a.a.a.a.a.a.a.a.a.a.a.a.a.a.a.a.a.a.a.a.a.a.a.",
"a.a.a.a.a.a.a.a.a.a.a.a.a.a.a.a.a.a.a.a.a.a.a.a.a.a.a.a.a.a.a.a.a.a.a.a.a.a.a.a.a.a.a.a.a.a.a.a.a.a.a.a.a.a.a.a.a.a.a.a.a.a.a.a.a.a.a.a.a.a.a.a.a.a.a.a.a.a.a.a.a.a.a.a.a.a.a.a.a.a.a.a.a.a.a.a.a.a.a.a.a.a.a.a.a.a.a.a.a.a.a.a.P U E W _ }  .@.#.-.#.-.-.-.-.-.-.1.-.-.1.#.#.#.#.#.#.#.#.*.-.#.#.#.#.&.-.-.&.4.-.4.-.-.4.4.6.4.4.6.t.4.6.t.t.6.-.t.t.t.t.t.t.t.t.t.t.t.t.t.y.t.y.t.t.y.y.t.t.t.y.y.y.y.t.t.t.t.5.5.6.4.4.1.1.-.-.-.*.&.#.#.#.#.*.*.*.#.&.*.&.-.-.-.4.6.6.t.t.t.y.d.d.g.d.g.g.g.g.j.v.v.v.v.G.A.A.A.A.G.G.G.J.J.A.m.A.G.G.A.m.G.J.K.J.J.G.G.G.J.J.G.Y.K.G.G.G.G.G.K.G.G.G.D.G.E.Y.A.K.K.Y.K.G.G.K.K.Y.E.E.E.E.E.Y.E.E.E.E.E.E.E.Y.K.G.G.D.A.G.G.A.A.G.D.A.G.D.D.G.A.m.m.m.m.m.k.j.j.g.j.k.j.g.d.d.d.d.y.d.d.y.t.t.y.y.y.y.y.y.y.y.t.t.t.-.-.&.1.m a.a.a.a.a.a.a.a.a.a.a.a.a.a.a.a.a.a.a.a.a.a.a.a.a.a.a.a.a.a.a.a.a.a.a.a.a.a.a.a.a.a.a.a.a.a.a.a.a.a.a.a.a.a.a.a.a.a.a.a.a.a.a.a.a.a.a.a.a.a.a.a.a.a.a.a.a.a.a.a.a.a.a.a.a.a.a.a.a.a.a.a.a.a.a.a.a.a.a.a.a.a.a.a.a.a.a.a.a.a.a.a.a.a.a.a.a.a.a.a.a.a.a.a.a.a.a.a.a.a.a.a.a.a.a.a.a.a.a.a.a.a.a.a.a.a.a.a.a.a.a.a.a.a.a.a.a.a.a.a.a.a.a.a.a.a.a.a.a.a.a.a.a.a.a.a.a.a.a.a.a.a.a.a.a.a.a.a.a.a.a.a.a.a.a.a.a.a.a.a.a.a.a.a.a.a.a.a.a.a.a.a.a.a.a.a.a.a.a.a.a.a.a.a.a.a.a.a.a.a.a.",
"a.a.a.a.a.a.a.a.a.a.a.a.a.a.a.a.a.a.a.a.a.a.a.a.a.a.a.a.a.a.a.a.a.a.a.a.a.a.a.a.a.a.a.a.a.a.a.a.a.a.a.a.a.a.a.a.a.a.a.a.a.a.a.a.a.a.a.a.a.a.a.a.a.a.a.a.a.a.a.a.a.a.a.a.a.a.a.a.a.a.a.a.a.a.a.a.a.a.a.a.a.a.a.a.a.a.a.a.a.a.a.a.F T E / _ }  .@.*.-.#.-.#.-.*.-.*.#.-.#.-.#.#.@.@.#.#.#.#.#.#.#.#.*.&.-.&.-.-.-.-.-.-.-.t.-.6.6.4.4.t.4.6.t.6.6.6.t.6.t.t.t.t.t.t.t.t.t.t.t.t.t.s.t.t.y.t.y.t.t.y.t.t.t.t.t.t.t.4.4.6.6.6.4.-.-.*.-.*.&.#.#.#.#.*.#.*.#.*.*.&.-.-.-.4.6.t.t.t.t.y.y.g.g.d.g.d.g.g.v.g.m.v.m.A.A.G.G.A.G.J.G.J.G.m.m.G.A.A.A.G.K.K.G.G.J.E.G.G.G.J.G.K.G.D.A.K.E.E.E.K.G.G.Y.E.K.D.m.G.G.G.G.K.G.K.E.!.!.E.K.E.E.Y.Y.Y.E.E.E.E.Y.K.G.G.G.D.D.G.D.m.A.D.D.D.D.D.D.A.A.D.A.m.m.k.m.m.j.g.m.m.j.j.g.d.d.d.d.d.d.y.y.y.y.y.y.y.t.y.y.y.t.t.t.r.w.-.#.#.a.a.a.a.a.a.a.a.a.a.a.a.a.a.a.a.a.a.a.a.a.a.a.a.a.a.a.a.a.a.a.a.a.a.a.a.a.a.a.a.a.a.a.a.a.a.a.a.a.a.a.a.a.a.a.a.a.a.a.a.a.a.a.a.a.a.a.a.a.a.a.a.a.a.a.a.a.a.a.a.a.a.a.a.a.a.a.a.a.a.a.a.a.a.a.a.a.a.a.a.a.a.a.a.a.a.a.a.a.a.a.a.a.a.a.a.a.a.a.a.a.a.a.a.a.a.a.a.a.a.a.a.a.a.a.a.a.a.a.a.a.a.a.a.a.a.a.a.a.a.a.a.a.a.a.a.a.a.a.a.a.a.a.a.a.a.a.a.a.a.a.a.a.a.a.a.a.a.a.a.a.a.a.a.a.a.a.a.a.a.a.a.a.a.a.a.a.a.a.a.a.a.a.a.a.a.a.a.a.a.a.a.a.a.a.a.a.a.a.a.a.a.a.a.a.a.a.a.a.a.a.",
"a.a.a.a.a.a.a.a.a.a.a.a.a.a.a.a.a.a.a.a.a.a.a.a.a.a.a.a.a.a.a.a.a.a.a.a.a.a.a.a.a.a.a.a.a.a.a.a.a.a.a.a.a.a.a.a.a.a.a.a.a.a.a.a.a.a.a.a.a.a.a.a.a.a.a.a.a.a.a.a.a.a.a.a.a.a.a.a.a.a.a.a.a.a.a.a.a.a.a.a.a.a.a.a.a.a.a.a.a.a.a.a.F T E / _ }  .#.1.1.#.#.#.#.-.-.-.-.-.#.-.#.@.#.@.#.#.#.#.@.#.#.#.*.&.-.-.-.-.-.6.-.-.4.6.-.4.6.-.-.6.6.6.6.4.6.6.t.t.t.t.t.t.t.6.6.t.t.t.t.y.t.y.t.t.y.t.y.t.t.t.y.t.y.t.t.t.5.4.4.4.4.1.-.*.*.*.*.&.#.#.#.#.#.#.#.#.#.*.&.-.-.&.-.6.6.t.t.t.t.y.d.g.g.d.d.d.g.v.g.g.m.m.m.j.m.A.K.A.G.J.G.G.m.m.m.G.A.G.J.J.J.K.G.J.E.E.J.G.G.G.K.G.G.G.G.G.K.Y.Y.K.G.D.G.G.G.G.G.D.G.K.Y.K.G.Y.E.E.E.Y.K.E.E.Y.E.Y.K.E.K.K.G.G.G.G.G.D.D.G.m.A.D.A.A.A.m.A.A.m.m.A.m.k.m.m.m.m.m.j.m.j.g.g.g.g.g.d.d.d.d.d.y.y.y.y.y.y.t.y.y.t.t.t.t.4.r.-.4.*.#.a.a.a.a.a.a.a.a.a.a.a.a.a.a.a.a.a.a.a.a.a.a.a.a.a.a.a.a.a.a.a.a.a.a.a.a.a.a.a.a.a.a.a.a.a.a.a.a.a.a.a.a.a.a.a.a.a.a.a.a.a.a.a.a.a.a.a.a.a.a.a.a.a.a.a.a.a.a.a.a.a.a.a.a.a.a.a.a.a.a.a.a.a.a.a.a.a.a.a.a.a.a.a.a.a.a.a.a.a.a.a.a.a.a.a.a.a.a.a.a.a.a.a.a.a.a.a.a.a.a.a.a.a.a.a.a.a.a.a.a.a.a.a.a.a.a.a.a.a.a.a.a.a.a.a.a.a.a.a.a.a.a.a.a.a.a.a.a.a.a.a.a.a.a.a.a.a.a.a.a.a.a.a.a.a.a.a.a.a.a.a.a.a.a.a.a.a.a.a.a.a.a.a.a.a.a.a.a.a.a.a.a.a.a.a.a.a.a.a.a.a.a.a.a.a.a.a.a.a.a.",
"a.a.a.a.a.a.a.a.a.a.a.a.a.a.a.a.a.a.a.a.a.a.a.a.a.a.a.a.a.a.a.a.a.a.a.a.a.a.a.a.a.a.a.a.a.a.a.a.a.a.a.a.a.a.a.a.a.a.a.a.a.a.a.a.a.a.a.a.a.a.a.a.a.a.a.a.a.a.a.a.a.a.a.a.a.a.a.a.a.a.a.a.a.a.a.a.a.a.a.a.a.a.a.a.a.a.a.a.a.a.a.D F T W / _ } }  .#.-.-.#.*.#.-.-.-.#.*.#.#.#.@.#.@.#.@.@.#.#.#.#.#.*.&.*.*.-.-.-.6.-.6.4.4.-.-.-.6.4.6.4.6.6.6.6.6.t.t.t.t.t.6.6.6.t.6.6.t.t.s.y.y.t.t.y.t.t.t.t.t.t.t.t.t.t.t.6.4.1.1.-.*.#.#.#.#.#.#.#.#.#.#.@.@.@.#.#.&.*.-.&.&.-.4.6.t.t.t.y.y.g.g.d.g.d.g.g.g.g.g.m.m.m.m.A.m.A.A.A.A.G.G.A.G.G.J.G.G.G.E.J.J.K.E.J.G.G.K.G.A.A.G.K.K.K.G.E.E.E.G.G.E.G.A.G.K.G.G.G.G.K.G.G.Y.Y.K.E.G.E.E.Y.E.E.W.Y.E.E.K.K.K.G.G.G.G.K.G.G.G.G.G.D.A.m.m.m.m.m.m.k.m.m.m.m.j.j.m.m.j.j.m.j.g.g.g.d.y.d.d.y.y.y.y.y.y.t.t.t.t.t.t.t.6.5.4.5.-.*...a.a.a.a.a.a.a.a.a.a.a.a.a.a.a.a.a.a.a.a.a.a.a.a.a.a.a.a.a.a.a.a.a.a.a.a.a.a.a.a.a.a.a.a.a.a.a.a.a.a.a.a.a.a.a.a.a.a.a.a.a.a.a.a.a.a.a.a.a.a.a.a.a.a.a.a.a.a.a.a.a.a.a.a.a.a.a.a.a.a.a.a.a.a.a.a.a.a.a.a.a.a.a.a.a.a.a.a.a.a.a.a.a.a.a.a.a.a.a.a.a.a.a.a.a.a.a.a.a.a.a.a.a.a.a.a.a.a.a.a.a.a.a.a.a.a.a.a.a.a.a.a.a.a.a.a.a.a.a.a.a.a.a.a.a.a.a.a.a.a.a.a.a.a.a.a.a.a.a.a.a.a.a.a.a.a.a.a.a.a.a.a.a.a.a.a.a.a.a.a.a.a.a.a.a.a.a.a.a.a.a.a.a.a.a.a.a.a.a.a.a.a.a.a.a.a.a.a.a.",
"a.a.a.a.a.a.a.a.a.a.a.a.a.a.a.a.a.a.a.a.a.a.a.a.a.a.a.a.a.a.a.a.a.a.a.a.a.a.a.a.a.a.a.a.a.a.a.a.a.a.a.a.a.a.a.a.a.a.a.a.a.a.a.a.a.a.a.a.a.a.a.a.a.a.a.a.a.a.a.a.a.a.a.a.a.a.a.a.a.a.a.a.a.a.a.a.a.a.a.a.a.a.a.a.a.a.a.a.a.a.a.S F U E / ] } @.@.-.#.1.#.1.#.*.-.-.#.-.#.#.#.@.#.@.#.@.@.#.#.#.#.@.*.&.*.*.-.4.-.-.-.6.4.4.4.-.-.4.4.6.4.6.6.4.6.6.t.6.6.t.6.6.6.t.6.t.t.t.t.t.t.t.t.t.t.t.t.t.t.t.t.t.y.t.t.t.4.4.1.-.-.*.*.#.#.#.#.#.#.#.#.#.#.@.#.@.#.#.*.&.-.-.-.4.6.6.t.t.t.d.d.d.d.g.g.g.g.g.j.k.m.m.m.m.G.m.A.m.m.m.m.A.A.J.J.K.K.G.G.J.J.K.G.G.G.K.E.Y.G.D.D.G.G.Y.G.G.G.G.G.G.G.G.G.D.D.K.Y.G.G.G.G.D.G.K.K.E.E.K.K.G.G.J.E.E.E.E.!.Y.G.K.Y.Y.G.D.G.G.G.G.D.G.G.G.A.m.m.m.A.A.A.m.k.k.k.m.k.m.m.g.j.k.j.g.g.g.d.d.d.d.y.y.y.y.y.y.t.t.t.y.t.t.t.6.5.6.6.;.-.1.Q a.a.a.a.a.a.a.a.a.a.a.a.a.a.a.a.a.a.a.a.a.a.a.a.a.a.a.a.a.a.a.a.a.a.a.a.a.a.a.a.a.a.a.a.a.a.a.a.a.a.a.a.a.a.a.a.a.a.a.a.a.a.a.a.a.a.a.a.a.a.a.a.a.a.a.a.a.a.a.a.a.a.a.a.a.a.a.a.a.a.a.a.a.a.a.a.a.a.a.a.a.a.a.a.a.a.a.a.a.a.a.a.a.a.a.a.a.a.a.a.a.a.a.a.a.a.a.a.a.a.a.a.a.a.a.a.a.a.a.a.a.a.a.a.a.a.a.a.a.a.a.a.a.a.a.a.a.a.a.a.a.a.a.a.a.a.a.a.a.a.a.a.a.a.a.a.a.a.a.a.a.a.a.a.a.a.a.a.a.a.a.a.a.a.a.a.a.a.a.a.a.a.a.a.a.a.a.a.a.a.a.a.a.a.a.a.a.a.a.a.a.a.a.a.a.a.a.a.",
"a.a.a.a.a.a.a.a.a.a.a.a.a.a.a.a.a.a.a.a.a.a.a.a.a.a.a.a.a.a.a.a.a.a.a.a.a.a.a.a.a.a.a.a.a.a.a.a.a.a.a.a.a.a.a.a.a.a.a.a.a.a.a.a.a.a.a.a.a.a.a.a.a.a.a.a.a.a.a.a.a.a.a.a.a.a.a.a.a.a.a.a.a.a.a.a.a.a.a.a.a.a.a.a.a.a.a.a.a.a.a.D P U R / / } @.@.*.*.1.*.-.*.*.*.-.#.#.#.#.#.#.@.#.#.@.@.#.@.#.#.@.#.&.*.-.-.-.-.-.-.4.6.-.4.4.-.-.4.6.6.4.-.-.4.-.;.;.t.t.;.;.t.t.t.t.t.t.t.t.t.t.t.t.y.t.t.t.t.t.t.y.5.t.t.t.t.4.4.-.-.*.#.#.#.#.@.@.@.#.@.@.@.#.#.#.#.*.&.&.-.-.-.4.t.6.t.y.t.y.d.g.d.g.g.g.g.g.k.j.m.m.m.A.D.A.D.m.V.G.A.A.A.G.J.J.J.K.G.G.G.G.G.Y.K.K.G.G.G.G.E.J.G.K.A.m.A.G.A.G.K.K.D.A.D.G.K.A.G.A.G.A.K.G.K.G.m.G.J.K.G.J.K.G.K.G.G.Y.G.D.G.K.G.A.A.G.G.G.G.D.A.G.m.k.m.m.A.A.A.m.m.m.m.m.m.m.m.m.j.j.j.j.g.g.g.d.y.d.y.y.y.y.y.t.t.t.t.t.t.t.t.t.t.t.t.6.1.-.-.W a.a.a.a.a.a.a.a.a.a.a.a.a.a.a.a.a.a.a.a.a.a.a.a.a.a.a.a.a.a.a.a.a.a.a.a.a.a.a.a.a.a.a.a.a.a.a.a.a.a.a.a.a.a.a.a.a.a.a.a.a.a.a.a.a.a.a.a.a.a.a.a.a.a.a.a.a.a.a.a.a.a.a.a.a.a.a.a.a.a.a.a.a.a.a.a.a.a.a.a.a.a.a.a.a.a.a.a.a.a.a.a.a.a.a.a.a.a.a.a.a.a.a.a.a.a.a.a.a.a.a.a.a.a.a.a.a.a.a.a.a.a.a.a.a.a.a.a.a.a.a.a.a.a.a.a.a.a.a.a.a.a.a.a.a.a.a.a.a.a.a.a.a.a.a.a.a.a.a.a.a.a.a.a.a.a.a.a.a.a.a.a.a.a.a.a.a.a.a.a.a.a.a.a.a.a.a.a.a.a.a.a.a.a.a.a.a.a.a.a.a.a.a.a.a.a.a.",
"a.a.a.a.a.a.a.a.a.a.a.a.a.a.a.a.a.a.a.a.a.a.a.a.a.a.a.a.a.a.a.a.a.a.a.a.a.a.a.a.a.a.a.a.a.a.a.a.a.a.a.a.a.a.a.a.a.a.a.a.a.a.a.a.a.a.a.a.a.a.a.a.a.a.a.a.a.a.a.a.a.a.a.a.a.a.a.a.a.a.a.a.a.a.a.a.a.a.a.a.a.a.a.a.a.a.a.a.a.a.a.D P U E / _  . .@.#.*.1.*.*.*.*.*.-.-.#.#.#.#.#.@.@.#.#.@.#.@.#.#.#.#.&.&.-.-.-.-.-.-.6.4.-.4.6.6.4.4.6.4.4.-.-.4.4.;.;.6.;.-.;.t.t.t.t.t.t.t.t.t.t.t.t.t.t.t.t.t.t.t.t.t.t.t.t.4.4.1.-.#.#.#.@.@.@.@.@.@.@. . .@.#.#.#.#.&.&.#.-.-.-.6.t.t.t.y.t.y.d.d.d.g.g.g.g.g.k.m.A.m.m.G.m.m.K.A.V.G.A.G.A.G.E.J.J.G.A.G.G.K.G.G.G.K.K.G.G.Y.Y.J.J.E.G.A.A.G.G.G.K.K.G.G.D.A.A.m.A.A.G.J.J.G.G.G.G.K.E.J.J.K.K.J.E.G.G.G.G.D.G.D.G.K.G.G.G.D.A.A.m.G.A.m.m.A.D.A.D.A.m.m.m.m.m.m.m.m.m.m.m.k.j.g.g.d.d.d.d.d.d.d.y.y.t.t.t.t.t.t.t.t.t.t.t.t.6.4.1.#.Y a.a.a.a.a.a.a.a.a.a.a.a.a.a.a.a.a.a.a.a.a.a.a.a.a.a.a.a.a.a.a.a.a.a.a.a.a.a.a.a.a.a.a.a.a.a.a.a.a.a.a.a.a.a.a.a.a.a.a.a.a.a.a.a.a.a.a.a.a.a.a.a.a.a.a.a.a.a.a.a.a.a.a.a.a.a.a.a.a.a.a.a.a.a.a.a.a.a.a.a.a.a.a.a.a.a.a.a.a.a.a.a.a.a.a.a.a.a.a.a.a.a.a.a.a.a.a.a.a.a.a.a.a.a.a.a.a.a.a.a.a.a.a.a.a.a.a.a.a.a.a.a.a.a.a.a.a.a.a.a.a.a.a.a.a.a.a.a.a.a.a.a.a.a.a.a.a.a.a.a.a.a.a.a.a.a.a.a.a.a.a.a.a.a.a.a.a.a.a.a.a.a.a.a.a.a.a.a.a.a.a.a.a.a.a.a.a.a.a.a.a.a.a.a.a.a.",
"a.a.a.a.a.a.a.a.a.a.a.a.a.a.a.a.a.a.a.a.a.a.a.a.a.a.a.a.a.a.a.a.a.a.a.a.a.a.a.a.a.a.a.a.a.a.a.a.a.a.a.a.a.a.a.a.a.a.a.a.a.a.a.a.a.a.a.a.a.a.a.a.a.a.a.a.a.a.a.a.a.a.a.a.a.a.a.a.a.a.a.a.a.a.a.a.a.a.a.a.a.a.a.a.a.a.a.a.a.a.a.S P U T W ]  . .@.#.-.-.-.*.*.*.*.*.#.#.@.@.@.#.@.@.@.#.@.@.#.#.#.#.#.#.&.*.*.-.-.-.4.4.-.-.4.6.4.-.4.-.4.4.4.-.-.1.-.-.e.t.t.;.t.t.t.6.6.t.t.t.6.6.t.t.t.t.t.t.t.t.t.t.t.t.5.5.6.4.1.*.#.@.@.@.@.@.@. . .@.@. .@.#.@.@.@.#.&.#.&.-.-.4.t.t.t.t.d.d.y.g.d.g.g.g.g.g.m.A.m.m.A.m.m.m.G.G.Z.A.k.A.A.E.E.G.A.G.A.K.G.K.G.K.K.G.G.G.K.Y.G.K.J.J.G.A.G.G.G.G.D.D.D.G.G.D.A.A.A.m.A.m.m.A.A.G.J.K.K.G.G.A.G.Y.G.A.G.K.G.G.G.A.G.G.D.D.G.G.D.D.m.A.A.m.m.m.A.m.D.D.m.m.m.m.m.k.m.m.m.m.m.m.m.k.g.d.g.d.g.d.d.d.y.y.y.y.t.t.t.t.y.y.t.t.t.t.t.4.4.1...m a.a.a.a.a.a.a.a.a.a.a.a.a.a.a.a.a.a.a.a.a.a.a.a.a.a.a.a.a.a.a.a.a.a.a.a.a.a.a.a.a.a.a.a.a.a.a.a.a.a.a.a.a.a.a.a.a.a.a.a.a.a.a.a.a.a.a.a.a.a.a.a.a.a.a.a.a.a.a.a.a.a.a.a.a.a.a.a.a.a.a.a.a.a.a.a.a.a.a.a.a.a.a.a.a.a.a.a.a.a.a.a.a.a.a.a.a.a.a.a.a.a.a.a.a.a.a.a.a.a.a.a.a.a.a.a.a.a.a.a.a.a.a.a.a.a.a.a.a.a.a.a.a.a.a.a.a.a.a.a.a.a.a.a.a.a.a.a.a.a.a.a.a.a.a.a.a.a.a.a.a.a.a.a.a.a.a.a.a.a.a.a.a.a.a.a.a.a.a.a.a.a.a.a.a.a.a.a.a.a.a.a.a.a.a.a.a.a.a.a.a.a.a.a.a.",
"a.a.a.a.a.a.a.a.a.a.a.a.a.a.a.a.a.a.a.a.a.a.a.a.a.a.a.a.a.a.a.a.a.a.a.a.a.a.a.a.a.a.a.a.a.a.a.a.a.a.a.a.a.a.a.a.a.a.a.a.a.a.a.a.a.a.a.a.a.a.a.a.a.a.a.a.a.a.a.a.a.a.a.a.a.a.a.a.a.a.a.a.a.a.a.a.a.a.a.a.a.a.a.a.a.a.a.a.a.a.a.S P U R / / }  .#.@.-.*.-.*.*.*.*.*.*.#.#.@.@.@.@.@.@.#.@.@.#.#.*.#.#.#.*.*.*.-.-.-.4.-.-.-.-.4.4.-.-.-.4.-.4.-.-.-.-.-.-.t.t.t.t.;.t.6.6.t.t.t.t.t.t.t.6.6.t.t.t.t.t.t.t.5.5.4.4.1.1.*.#.#.@.@. .@.@.}  .@. . . .@.#.@.@.#.&.#.#.-.-.6.t.t.y.t.t.y.y.d.d.d.d.g.g.j.m.k.j.k.A.m.A.A.D.k.k.m.A.A.G.E.E.G.m.m.K.K.K.G.G.G.G.G.G.E.K.K.K.G.G.G.A.A.G.G.A.G.G.G.D.G.A.m.D.G.A.m.A.A.A.G.G.J.J.G.G.G.G.A.G.K.K.Y.G.A.D.A.A.A.G.G.G.G.G.G.G.D.m.m.j.k.m.k.m.m.m.m.j.k.m.m.m.k.k.m.m.m.m.m.k.j.g.d.g.g.d.d.d.y.d.d.y.t.t.t.t.y.y.y.t.t.t.t.t.t.-.4.1.#.a.a.a.a.a.a.a.a.a.a.a.a.a.a.a.a.a.a.a.a.a.a.a.a.a.a.a.a.a.a.a.a.a.a.a.a.a.a.a.a.a.a.a.a.a.a.a.a.a.a.a.a.a.a.a.a.a.a.a.a.a.a.a.a.a.a.a.a.a.a.a.a.a.a.a.a.a.a.a.a.a.a.a.a.a.a.a.a.a.a.a.a.a.a.a.a.a.a.a.a.a.a.a.a.a.a.a.a.a.a.a.a.a.a.a.a.a.a.a.a.a.a.a.a.a.a.a.a.a.a.a.a.a.a.a.a.a.a.a.a.a.a.a.a.a.a.a.a.a.a.a.a.a.a.a.a.a.a.a.a.a.a.a.a.a.a.a.a.a.a.a.a.a.a.a.a.a.a.a.a.a.a.a.a.a.a.a.a.a.a.a.a.a.a.a.a.a.a.a.a.a.a.a.a.a.a.a.a.a.a.a.a.a.a.a.a.a.a.a.a.a.a.a.a.a.",
"a.a.a.a.a.a.a.a.a.a.a.a.a.a.a.a.a.a.a.a.a.a.a.a.a.a.a.a.a.a.a.a.a.a.a.a.a.a.a.a.a.a.a.a.a.a.a.a.a.a.a.a.a.a.a.a.a.a.a.a.a.a.a.a.a.a.a.a.a.a.a.a.a.a.a.a.a.a.a.a.a.a.a.a.a.a.a.a.a.a.a.a.a.a.a.a.a.a.a.a.a.a.a.a.a.a.a.a.a.a.a.S P U R / ] }  .&.#.*.*.*.&.*.*.*.*.-.#.@.@. .@.@.@.@.#.@.@.#.#.#.#.#.#.&.*.*.-.*.-.4.4.-.-.-.-.-.4.-.-.-.-.-.-.-.-.-.-.-.;.-.e.t.t.t.t.t.t.t.t.t.t.t.t.t.5.6.5.6.6.6.t.5.6.4.4.-.-.-.*.#.@. . . . . .} }  . . . .@.@.@.@.&.#.&.*.-.-.t.t.t.t.t.t.y.t.d.d.d.d.j.g.m.G.m.v.k.m.m.m.A.A.j.j.m.k.A.G.G.G.G.G.D.G.G.K.K.G.G.G.Y.Y.E.K.K.G.A.G.G.A.G.G.G.m.G.K.G.G.D.m.G.E.K.A.G.G.G.A.G.m.G.A.G.G.G.G.A.A.G.K.Y.G.D.G.G.G.G.G.D.D.G.A.A.A.D.A.j.g.g.j.g.j.m.m.j.m.j.g.k.m.k.m.m.m.m.m.k.g.g.g.g.g.g.g.d.d.y.d.d.d.y.d.t.t.t.t.t.t.t.t.t.t.t.-.6.-.*.) a.a.a.a.a.a.a.a.a.a.a.a.a.a.a.a.a.a.a.a.a.a.a.a.a.a.a.a.a.a.a.a.a.a.a.a.a.a.a.a.a.a.a.a.a.a.a.a.a.a.a.a.a.a.a.a.a.a.a.a.a.a.a.a.a.a.a.a.a.a.a.a.a.a.a.a.a.a.a.a.a.a.a.a.a.a.a.a.a.a.a.a.a.a.a.a.a.a.a.a.a.a.a.a.a.a.a.a.a.a.a.a.a.a.a.a.a.a.a.a.a.a.a.a.a.a.a.a.a.a.a.a.a.a.a.a.a.a.a.a.a.a.a.a.a.a.a.a.a.a.a.a.a.a.a.a.a.a.a.a.a.a.a.a.a.a.a.a.a.a.a.a.a.a.a.a.a.a.a.a.a.a.a.a.a.a.a.a.a.a.a.a.a.a.a.a.a.a.a.a.a.a.a.a.a.a.a.a.a.a.a.a.a.a.a.a.a.a.a.a.a.a.a.a.",
"a.a.a.a.a.a.a.a.a.a.a.a.a.a.a.a.a.a.a.a.a.a.a.a.a.a.a.a.a.a.a.a.a.a.a.a.a.a.a.a.a.a.a.a.a.a.a.a.a.a.a.a.a.a.a.a.a.a.a.a.a.a.a.a.a.a.a.a.a.a.a.a.a.a.a.a.a.a.a.a.a.a.a.a.a.a.a.a.a.a.a.a.a.a.a.a.a.a.a.a.a.a.a.a.a.a.a.a.a.a.a.S P U R W ] ]  .&.#.*.*.*.&.*.*.*.*.#.@.@.@.@.@.@.@.@.@.@.@.#.#.#.@.#.&.#.*.-.-.-.-.-.-.-.-.-.4.-.-.-.-.-.-.-.-.-.-.-.-.e.;.-.t.t.-.-.6.6.t.t.t.6.6.6.6.5.t.5.5.5.6.5.6.5.6.6.4.-.-.-.*.#.@. . . .@. .} }  . .@. .@.@.@.@.#.#.&.*.-.-.t.t.t.t.t.t.y.t.d.d.d.d.g.g.v.m.m.j.m.m.m.D.A.D.m.k.m.j.G.A.G.G.G.G.G.G.G.G.E.K.G.E.E.Y.Y.K.G.D.G.G.A.m.A.A.A.G.K.G.G.G.K.G.Y.E.G.A.K.K.A.G.G.m.G.G.G.G.G.G.G.m.G.D.G.D.G.G.G.G.D.D.m.A.G.D.D.A.A.m.m.k.k.k.j.g.k.m.k.m.k.j.k.m.k.k.m.m.j.j.k.k.g.g.g.v.g.g.d.d.d.d.y.y.y.d.y.6.t.t.t.t.y.t.t.t.6.-.-.-.-.-.R a.a.a.a.a.a.a.a.a.a.a.a.a.a.a.a.a.a.a.a.a.a.a.a.a.a.a.a.a.a.a.a.a.a.a.a.a.a.a.a.a.a.a.a.a.a.a.a.a.a.a.a.a.a.a.a.a.a.a.a.a.a.a.a.a.a.a.a.a.a.a.a.a.a.a.a.a.a.a.a.a.a.a.a.a.a.a.a.a.a.a.a.a.a.a.a.a.a.a.a.a.a.a.a.a.a.a.a.a.a.a.a.a.a.a.a.a.a.a.a.a.a.a.a.a.a.a.a.a.a.a.a.a.a.a.a.a.a.a.a.a.a.a.a.a.a.a.a.a.a.a.a.a.a.a.a.a.a.a.a.a.a.a.a.a.a.a.a.a.a.a.a.a.a.a.a.a.a.a.a.a.a.a.a.a.a.a.a.a.a.a.a.a.a.a.a.a.a.a.a.a.a.a.a.a.a.a.a.a.a.a.a.a.a.a.a.a.a.a.a.a.a.a.",
"a.a.a.a.a.a.a.a.a.a.a.a.a.a.a.a.a.a.a.a.a.a.a.a.a.a.a.a.a.a.a.a.a.a.a.a.a.a.a.a.a.a.a.a.a.a.a.a.a.a.a.a.a.a.a.a.a.a.a.a.a.a.a.a.a.a.a.a.a.a.a.a.a.a.a.a.a.a.a.a.a.a.a.a.a.a.a.a.a.a.a.a.a.a.a.a.a.a.a.a.a.a.a.a.a.a.a.a.a.a.a.S P U R / ] }  .#.#.*.*.*.&.-.*.*.*.#.@.@.@.@.@.@.@.@.@.#.#.@.#.#.@.#.&.#.-.-.-.-.-.-.-.-.-.-.-.-.-.-.-.-.-.-.-.-.-.-.t.t.e.-.-.t.t.t.6.6.t.t.t.t.t.t.5.t.t.5.t.5.4.6.t.5.t.6.1.1.-.*.#.@. .}  . . . .] ] }  . . .@.#.@.@.#.&.&.*.-.-.6.t.t.t.t.t.y.t.d.d.d.d.d.g.g.g.k.j.j.m.k.m.m.m.m.j.m.j.A.v.A.A.G.D.D.G.G.G.Y.G.G.G.G.G.m.D.G.Y.G.A.A.G.A.A.A.A.G.G.G.Y.K.G.E.E.A.A.G.G.m.A.J.J.K.G.A.m.A.A.A.m.G.G.G.A.D.D.D.A.m.G.G.A.m.A.D.D.D.m.m.k.k.k.k.k.j.m.m.m.j.g.j.k.m.m.g.m.j.j.m.m.g.g.g.g.g.g.d.d.d.y.y.y.y.y.y.t.t.t.t.t.t.t.t.6.6.-.-.-.-.-.1.Y a.a.a.a.a.a.a.a.a.a.a.a.a.a.a.a.a.a.a.a.a.a.a.a.a.a.a.a.a.a.a.a.a.a.a.a.a.a.a.a.a.a.a.a.a.a.a.a.a.a.a.a.a.a.a.a.a.a.a.a.a.a.a.a.a.a.a.a.a.a.a.a.a.a.a.a.a.a.a.a.a.a.a.a.a.a.a.a.a.a.a.a.a.a.a.a.a.a.a.a.a.a.a.a.a.a.a.a.a.a.a.a.a.a.a.a.a.a.a.a.a.a.a.a.a.a.a.a.a.a.a.a.a.a.a.a.a.a.a.a.a.a.a.a.a.a.a.a.a.a.a.a.a.a.a.a.a.a.a.a.a.a.a.a.a.a.a.a.a.a.a.a.a.a.a.a.a.a.a.a.a.a.a.a.a.a.a.a.a.a.a.a.a.a.a.a.a.a.a.a.a.a.a.a.a.a.a.a.a.a.a.a.a.a.a.a.a.a.a.a.a.a.",
"a.a.a.a.a.a.a.a.a.a.a.a.a.a.a.a.a.a.a.a.a.a.a.a.a.a.a.a.a.a.a.a.a.a.a.a.a.a.a.a.a.a.a.a.a.a.a.a.a.a.a.a.a.a.a.a.a.a.a.a.a.a.a.a.a.a.a.a.a.a.a.a.a.a.a.a.a.a.a.a.a.a.a.a.a.a.a.a.a.a.a.a.a.a.a.a.a.a.a.a.a.a.a.a.a.a.a.a.a.a.a.S P T R / ]  . .@.#.*.#.#.#.#.#.#.*.#.#.@.@.@.@.@.@.@.@.#.#.@.#.@.@.#.#.&.&.-.-.-.-.-.*.*.-.-.-.-.-.-.-.-.*.-.*.-.-.-.-.-.-.4.-.-.t.4.4.6.t.t.t.6.6.4.t.t.t.5.6.4.5.t.6.1.6.4.1.1.1.#.@. . .}  . .}  .] } }  .} } @.#.@. .#.#.#.*.-.-.6.6.t.t.t.t.t.t.d.d.s.d.g.g.k.k.g.g.j.k.m.m.m.m.m.m.m.k.D.v.G.G.G.D.D.D.D.Y.G.G.K.G.G.G.G.G.m.G.G.D.m.G.G.D.A.m.G.G.G.G.E.Y.E.K.A.A.A.A.m.A.A.G.K.K.G.J.K.G.m.A.G.G.G.A.A.A.A.m.A.D.D.D.D.A.A.A.m.j.m.m.k.m.m.m.k.j.m.m.g.g.g.k.g.j.g.j.g.g.j.g.g.g.g.g.g.g.g.d.d.d.d.d.d.d.y.t.t.t.t.t.6.t.6.6.1.4.-.-.;.-.1.#.a.a.a.a.a.a.a.a.a.a.a.a.a.a.a.a.a.a.a.a.a.a.a.a.a.a.a.a.a.a.a.a.a.a.a.a.a.a.a.a.a.a.a.a.a.a.a.a.a.a.a.a.a.a.a.a.a.a.a.a.a.a.a.a.a.a.a.a.a.a.a.a.a.a.a.a.a.a.a.a.a.a.a.a.a.a.a.a.a.a.a.a.a.a.a.a.a.a.a.a.a.a.a.a.a.a.a.a.a.a.a.a.a.a.a.a.a.a.a.a.a.a.a.a.a.a.a.a.a.a.a.a.a.a.a.a.a.a.a.a.a.a.a.a.a.a.a.a.a.a.a.a.a.a.a.a.a.a.a.a.a.a.a.a.a.a.a.a.a.a.a.a.a.a.a.a.a.a.a.a.a.a.a.a.a.a.a.a.a.a.a.a.a.a.a.a.a.a.a.a.a.a.a.a.a.a.a.a.a.a.a.a.a.a.a.a.a.a.a.a.a.a.",
"a.a.a.a.a.a.a.a.a.a.a.a.a.a.a.a.a.a.a.a.a.a.a.a.a.a.a.a.a.a.a.a.a.a.a.a.a.a.a.a.a.a.a.a.a.a.a.a.a.a.a.a.a.a.a.a.a.a.a.a.a.a.a.a.a.a.a.a.a.a.a.a.a.a.a.a.a.a.a.a.a.a.a.a.a.a.a.a.a.a.a.a.a.a.a.a.a.a.a.a.a.a.a.a.a.a.a.a.a.a.a.S F T E / ] }  .@.@.#.#.#.#.#.#.#.#.@.#.#.@.@.@.@.@.@. .#.@.#.@.@.@.#.&.&.&.-.*.-.-.-.-.-.-.-.-.*.-.-.-.-.-.*.*.-.-.-.4.-.-.4.4.4.6.6.6.6.t.6.6.6.6.4.t.t.4.6.-.-.4.4.4.4.1.1.1.1.#.#.@. .} } }  . .} ] ]  .} } }  .@.+.@.@.#.&.*.-.4.4.6.t.t.t.t.t.t.s.d.d.d.g.g.j.j.g.j.v.v.v.v.v.j.m.m.A.A.D.D.D.G.G.D.A.A.D.G.A.G.G.G.G.G.G.G.G.K.K.K.G.G.E.G.D.K.K.G.D.A.K.E.E.K.G.G.G.G.G.G.K.E.K.K.G.G.G.G.A.G.G.K.A.m.A.m.A.D.m.D.G.G.A.A.A.D.D.m.m.m.k.m.m.j.g.g.g.j.g.m.m.j.j.j.g.g.g.g.g.j.g.g.g.v.g.g.g.d.d.d.y.y.y.y.y.t.t.t.t.t.t.t.t.t.6.6.6.6.-.-.-.*...a.a.a.a.a.a.a.a.a.a.a.a.a.a.a.a.a.a.a.a.a.a.a.a.a.a.a.a.a.a.a.a.a.a.a.a.a.a.a.a.a.a.a.a.a.a.a.a.a.a.a.a.a.a.a.a.a.a.a.a.a.a.a.a.a.a.a.a.a.a.a.a.a.a.a.a.a.a.a.a.a.a.a.a.a.a.a.a.a.a.a.a.a.a.a.a.a.a.a.a.a.a.a.a.a.a.a.a.a.a.a.a.a.a.a.a.a.a.a.a.a.a.a.a.a.a.a.a.a.a.a.a.a.a.a.a.a.a.a.a.a.a.a.a.a.a.a.a.a.a.a.a.a.a.a.a.a.a.a.a.a.a.a.a.a.a.a.a.a.a.a.a.a.a.a.a.a.a.a.a.a.a.a.a.a.a.a.a.a.a.a.a.a.a.a.a.a.a.a.a.a.a.a.a.a.a.a.a.a.a.a.a.a.a.a.a.a.a.a.a.a.",
"a.a.a.a.a.a.a.a.a.a.a.a.a.a.a.a.a.a.a.a.a.a.a.a.a.a.a.a.a.a.a.a.a.a.a.a.a.a.a.a.a.a.a.a.a.a.a.a.a.a.a.a.a.a.a.a.a.a.a.a.a.a.a.a.a.a.a.a.a.a.a.a.a.a.a.a.a.a.a.a.a.a.a.a.a.a.a.a.a.a.a.a.a.a.a.a.a.a.a.a.a.a.a.a.a.a.a.a.a.a.a.S T T E / / }  .@.@.#.#.#.#.#.#.#.#.@.#.#.@.@.@.@.@.@.@.@.#.@.@.@.@.#.&.#.&.*.*.-.*.-.-.*.-.-.-.-.-.-.-.-.&.&.*.-.*.&.4.4.4.4.4.6.4.6.t.6.6.6.4.4.6.4.4.4.4.4.4.4.4.4.4.4.-.1.1.1.#.#.@. .} } } } } } ] } } } } }  . .+.+.@.#.&.&.-.-.4.6.t.t.t.t.t.t.d.d.d.g.g.g.j.g.g.g.g.v.v.v.v.v.A.m.m.m.A.m.m.A.D.A.A.A.D.G.G.G.G.G.G.G.G.K.K.G.Y.K.E.E.G.Y.Y.G.Y.D.A.K.E.G.A.K.J.K.G.G.J.J.J.G.D.G.Y.G.G.G.G.G.G.G.D.D.G.m.D.A.m.A.A.A.D.G.G.G.G.A.m.j.m.A.m.j.g.g.g.j.g.j.j.j.j.j.g.g.g.g.g.g.g.g.d.g.g.g.g.d.d.g.y.t.y.y.y.y.d.y.t.t.t.t.t.t.t.6.4.6.6.4.-.-.*...a.a.a.a.a.a.a.a.a.a.a.a.a.a.a.a.a.a.a.a.a.a.a.a.a.a.a.a.a.a.a.a.a.a.a.a.a.a.a.a.a.a.a.a.a.a.a.a.a.a.a.a.a.a.a.a.a.a.a.a.a.a.a.a.a.a.a.a.a.a.a.a.a.a.a.a.a.a.a.a.a.a.a.a.a.a.a.a.a.a.a.a.a.a.a.a.a.a.a.a.a.a.a.a.a.a.a.a.a.a.a.a.a.a.a.a.a.a.a.a.a.a.a.a.a.a.a.a.a.a.a.a.a.a.a.a.a.a.a.a.a.a.a.a.a.a.a.a.a.a.a.a.a.a.a.a.a.a.a.a.a.a.a.a.a.a.a.a.a.a.a.a.a.a.a.a.a.a.a.a.a.a.a.a.a.a.a.a.a.a.a.a.a.a.a.a.a.a.a.a.a.a.a.a.a.a.a.a.a.a.a.a.a.a.a.a.a.a.a.a.",
"a.a.a.a.a.a.a.a.a.a.a.a.a.a.a.a.a.a.a.a.a.a.a.a.a.a.a.a.a.a.a.a.a.a.a.a.a.a.a.a.a.a.a.a.a.a.a.a.a.a.a.a.a.a.a.a.a.a.a.a.a.a.a.a.a.a.a.a.a.a.a.a.a.a.a.a.a.a.a.a.a.a.a.a.a.a.a.a.a.a.a.a.a.a.a.a.a.a.a.a.a.a.a.a.a.a.a.a.a.a.a.D U R ^ / _ }  .@. .@.#.#.#.#.#.#.#.@.@.@.@.@.@.@.@.@.@.@.#.@.@.@.@.@.#.#.&.&.&.&.&.*.*.-.*.-.-.-.-.-.-.-.&.&.&.*.*.*.-.-.-.-.-.6.6.6.t.6.4.4.-.4.4.4.4.4.4.4.4.1.4.4.4.4.-.-.1.*.#.#... .} } } } } } ] ] } } } }  . .+.+.#.#.&.*.-.-.4.6.t.t.t.y.t.t.d.d.d.g.g.g.g.g.d.g.v.m.j.j.j.j.m.m.m.m.m.m.g.j.m.A.A.A.K.G.K.D.D.G.G.G.A.G.G.K.K.K.G.G.E.W.E.G.G.Y.Y.Y.Y.D.G.Y.E.E.K.K.J.G.G.m.G.E.E.G.G.G.G.G.D.G.D.G.G.G.D.K.E.K.A.G.D.D.A.D.G.A.D.D.D.m.m.m.g.g.g.g.g.g.g.g.g.j.g.g.j.g.g.g.g.g.g.g.d.g.g.d.d.d.d.y.d.y.y.y.d.y.y.t.t.t.t.y.t.t.6.6.6.4.-.-.-.-.W a.a.a.a.a.a.a.a.a.a.a.a.a.a.a.a.a.a.a.a.a.a.a.a.a.a.a.a.a.a.a.a.a.a.a.a.a.a.a.a.a.a.a.a.a.a.a.a.a.a.a.a.a.a.a.a.a.a.a.a.a.a.a.a.a.a.a.a.a.a.a.a.a.a.a.a.a.a.a.a.a.a.a.a.a.a.a.a.a.a.a.a.a.a.a.a.a.a.a.a.a.a.a.a.a.a.a.a.a.a.a.a.a.a.a.a.a.a.a.a.a.a.a.a.a.a.a.a.a.a.a.a.a.a.a.a.a.a.a.a.a.a.a.a.a.a.a.a.a.a.a.a.a.a.a.a.a.a.a.a.a.a.a.a.a.a.a.a.a.a.a.a.a.a.a.a.a.a.a.a.a.a.a.a.a.a.a.a.a.a.a.a.a.a.a.a.a.a.a.a.a.a.a.a.a.a.a.a.a.a.a.a.a.a.a.a.a.a.a.",
"a.a.a.a.a.a.a.a.a.a.a.a.a.a.a.a.a.a.a.a.a.a.a.a.a.a.a.a.a.a.a.a.a.a.a.a.a.a.a.a.a.a.a.a.a.a.a.a.a.a.a.a.a.a.a.a.a.a.a.a.a.a.a.a.a.a.a.a.a.a.a.a.a.a.a.a.a.a.a.a.a.a.a.a.a.a.a.a.a.a.a.a.a.a.a.a.a.a.a.a.a.a.a.a.a.a.a.a.a.a.a.J F R E / _ }  .@.@.@.#.#.#.#.#.#.#.@.@.@.@.@.@.@.@.@.#.@.#.@.@.@.@.@.@.#.&.&.&.&.&.&.*.&.*.-.-.-.-.-.-.-.*.&.&.&.*.*.-.-.-.4.-.6.6.4.6.t.6.-.-.4.-.-.4.4.t.1.4.4.4.4.4.-.-.-.*.*.@.@...} } } } } } } ] ] } } ] }  . .+.+.@.#.&.*.-.4.4.4.t.t.t.t.t.t.d.d.d.d.g.d.g.j.g.g.v.v.v.v.j.g.k.m.m.m.m.m.k.D.m.m.A.A.D.G.Y.G.A.D.G.D.K.K.G.G.K.G.G.K.Y.E.E.K.G.G.G.Y.K.G.K.Y.E.K.G.G.G.A.A.m.m.G.E.Y.K.G.G.G.G.Y.G.G.K.G.A.G.G.D.D.G.K.G.G.A.D.A.D.G.D.m.m.m.k.j.k.m.g.g.g.g.j.g.j.g.g.g.g.d.d.g.g.g.y.g.g.d.d.d.d.d.d.d.y.y.y.d.y.y.y.t.y.y.t.t.t.6.4.6.6.-.-.*.1.Y a.a.a.a.a.a.a.a.a.a.a.a.a.a.a.a.a.a.a.a.a.a.a.a.a.a.a.a.a.a.a.a.a.a.a.a.a.a.a.a.a.a.a.a.a.a.a.a.a.a.a.a.a.a.a.a.a.a.a.a.a.a.a.a.a.a.a.a.a.a.a.a.a.a.a.a.a.a.a.a.a.a.a.a.a.a.a.a.a.a.a.a.a.a.a.a.a.a.a.a.a.a.a.a.a.a.a.a.a.a.a.a.a.a.a.a.a.a.a.a.a.a.a.a.a.a.a.a.a.a.a.a.a.a.a.a.a.a.a.a.a.a.a.a.a.a.a.a.a.a.a.a.a.a.a.a.a.a.a.a.a.a.a.a.a.a.a.a.a.a.a.a.a.a.a.a.a.a.a.a.a.a.a.a.a.a.a.a.a.a.a.a.a.a.a.a.a.a.a.a.a.a.a.a.a.a.a.a.a.a.a.a.a.a.a.a.a.a.",
"a.a.a.a.a.a.a.a.a.a.a.a.a.a.a.a.a.a.a.a.a.a.a.a.a.a.a.a.a.a.a.a.a.a.a.a.a.a.a.a.a.a.a.a.a.a.a.a.a.a.a.a.a.a.a.a.a.a.a.a.a.a.a.a.a.a.a.a.a.a.a.a.a.a.a.a.a.a.a.a.a.a.a.a.a.a.a.a.a.a.a.a.a.a.a.a.a.a.a.a.a.a.a.a.a.a.a.a.a.a.a.S U T E _ ` }  .#.#.#.#.#.#.#.#.#.#.@.@.@.@.@.@.@.@. .@.@.@.@.@.@.@.#.@.#.#.&.&.&.&.&.&.&.&.*.&.-.-.-.-.-.&.&.&.#.*.-.-.-.-.-.-.4.4.-.6.6.4.4.-.-.-.4.4.4.4.4.4.6.4.1.1.1.-.-.#.#.@.@. .} } } } } ] ] ] ] } } ` }  . . .@.@.@.#.*.-.-.4.4.t.6.t.t.t.y.d.s.d.d.g.g.g.g.g.g.g.g.v.m.g.g.m.m.d.g.m.m.m.k.j.A.m.G.G.Y.K.G.D.A.D.G.K.K.G.E.E.K.Y.K.Y.E.W.E.Y.Y.G.K.K.G.G.K.G.G.G.J.J.A.K.G.G.G.K.G.E.G.K.Y.G.G.A.A.G.m.m.G.G.G.G.G.K.G.A.A.m.m.m.A.D.m.j.k.k.k.k.m.j.g.g.g.g.g.g.g.g.g.g.j.g.g.v.g.g.g.g.d.g.g.d.g.y.t.t.y.y.y.t.t.y.d.y.y.t.t.t.t.6.6.-.-.-.-.-.1.a.a.a.a.a.a.a.a.a.a.a.a.a.a.a.a.a.a.a.a.a.a.a.a.a.a.a.a.a.a.a.a.a.a.a.a.a.a.a.a.a.a.a.a.a.a.a.a.a.a.a.a.a.a.a.a.a.a.a.a.a.a.a.a.a.a.a.a.a.a.a.a.a.a.a.a.a.a.a.a.a.a.a.a.a.a.a.a.a.a.a.a.a.a.a.a.a.a.a.a.a.a.a.a.a.a.a.a.a.a.a.a.a.a.a.a.a.a.a.a.a.a.a.a.a.a.a.a.a.a.a.a.a.a.a.a.a.a.a.a.a.a.a.a.a.a.a.a.a.a.a.a.a.a.a.a.a.a.a.a.a.a.a.a.a.a.a.a.a.a.a.a.a.a.a.a.a.a.a.a.a.a.a.a.a.a.a.a.a.a.a.a.a.a.a.a.a.a.a.a.a.a.a.a.a.a.a.a.a.a.a.a.a.a.a.a.a.a.",
"a.a.a.a.a.a.a.a.a.a.a.a.a.a.a.a.a.a.a.a.a.a.a.a.a.a.a.a.a.a.a.a.a.a.a.a.a.a.a.a.a.a.a.a.a.a.a.a.a.a.a.a.a.a.a.a.a.a.a.a.a.a.a.a.a.a.a.a.a.a.a.a.a.a.a.a.a.a.a.a.a.a.a.a.a.a.a.a.a.a.a.a.a.a.a.a.a.a.a.a.a.a.a.a.a.a.a.a.a.a.a.J U T W / ] ]  .#.#.#.#.#.#.#.@.@.#.#.@.@.@.@.@. .@.@.@.@.@.@.@.@.#.#.@.#.@.#.#.&.&.&.#.&.*.*.-.-.&.&.-.-.#.#.&.&.*.-.-.-.-.-.-.-.-.-.-.-.-.-.4.4.6.6.1.4.4.4.-.-.-.-.1.1.-.*.#.#.@.@. .} _ ] ] ] ] ] ] ] } ] ` }  . . .@.@.@.#.*.-.-.4.4.t.6.6.6.t.t.t.s.d.g.d.d.d.g.g.g.g.g.v.v.y.g.g.g.d.g.j.j.j.j.m.D.A.D.D.G.D.m.k.m.G.G.K.G.E.E.G.G.K.K.G.Y.E.E.E.G.G.Y.Y.G.G.G.G.G.G.G.G.A.G.G.E.Y.G.K.K.G.K.K.G.m.G.G.G.G.G.G.G.G.G.G.G.m.m.m.m.m.A.A.m.m.m.j.g.k.k.j.m.m.j.g.j.k.j.m.g.g.g.g.g.g.g.g.d.g.g.g.g.d.y.d.d.y.y.y.y.y.t.t.y.y.y.t.t.t.t.t.t.t.6.6.6.=.-.#...a.a.a.a.a.a.a.a.a.a.a.a.a.a.a.a.a.a.a.a.a.a.a.a.a.a.a.a.a.a.a.a.a.a.a.a.a.a.a.a.a.a.a.a.a.a.a.a.a.a.a.a.a.a.a.a.a.a.a.a.a.a.a.a.a.a.a.a.a.a.a.a.a.a.a.a.a.a.a.a.a.a.a.a.a.a.a.a.a.a.a.a.a.a.a.a.a.a.a.a.a.a.a.a.a.a.a.a.a.a.a.a.a.a.a.a.a.a.a.a.a.a.a.a.a.a.a.a.a.a.a.a.a.a.a.a.a.a.a.a.a.a.a.a.a.a.a.a.a.a.a.a.a.a.a.a.a.a.a.a.a.a.a.a.a.a.a.a.a.a.a.a.a.a.a.a.a.a.a.a.a.a.a.a.a.a.a.a.a.a.a.a.a.a.a.a.a.a.a.a.a.a.a.a.a.a.a.a.a.a.a.a.a.a.a.a.a.",
"a.a.a.a.a.a.a.a.a.a.a.a.a.a.a.a.a.a.a.a.a.a.a.a.a.a.a.a.a.a.a.a.a.a.a.a.a.a.a.a.a.a.a.a.a.a.a.a.a.a.a.a.a.a.a.a.a.a.a.a.a.a.a.a.a.a.a.a.a.a.a.a.a.a.a.a.a.a.a.a.a.a.a.a.a.a.a.a.a.a.a.a.a.a.a.a.a.a.a.a.a.a.a.a.a.a.a.a.a.a.a.J U R / / _ ] ]  .#.#.#.#.#.#.#.@.#.#.@.@.@.@.@.} @.@.@.@.@.@.@.@.@.#.#.&.&.&.#.#.&.#.#.&.-.-.&.&.&.&.-.-.&.&.&.&.#.&.*.*.-.-.-.-.-.-.-.-.-.6.6.4.4.4.4.4.-.4.4.1.1.4.4.1.-.-.#.#...@.} } _ _ _ ] ] ] ` _ ] ` ` }  . . .@.@.@.#.-.-.-.4.-.6.6.6.t.t.y.y.d.g.g.g.s.d.g.g.g.g.g.g.d.y.d.d.d.d.g.g.g.g.j.j.G.D.D.G.D.A.D.A.D.Y.Y.G.G.Y.G.G.G.E.Y.G.K.Y.Y.Y.G.K.K.E.Y.K.K.G.A.m.m.G.G.G.G.Y.Y.G.G.K.D.G.K.G.G.K.K.G.K.G.A.G.G.A.A.G.G.D.G.G.G.A.m.A.A.D.A.m.m.m.m.A.m.m.j.j.j.g.g.g.d.g.g.g.g.g.g.d.d.g.d.g.d.y.d.d.y.d.y.d.y.y.y.y.t.t.t.t.t.t.t.t.6.4.6.6.4.*.-.#./ a.a.a.a.a.a.a.a.a.a.a.a.a.a.a.a.a.a.a.a.a.a.a.a.a.a.a.a.a.a.a.a.a.a.a.a.a.a.a.a.a.a.a.a.a.a.a.a.a.a.a.a.a.a.a.a.a.a.a.a.a.a.a.a.a.a.a.a.a.a.a.a.a.a.a.a.a.a.a.a.a.a.a.a.a.a.a.a.a.a.a.a.a.a.a.a.a.a.a.a.a.a.a.a.a.a.a.a.a.a.a.a.a.a.a.a.a.a.a.a.a.a.a.a.a.a.a.a.a.a.a.a.a.a.a.a.a.a.a.a.a.a.a.a.a.a.a.a.a.a.a.a.a.a.a.a.a.a.a.a.a.a.a.a.a.a.a.a.a.a.a.a.a.a.a.a.a.a.a.a.a.a.a.a.a.a.a.a.a.a.a.a.a.a.a.a.a.a.a.a.a.a.a.a.a.a.a.a.a.a.a.a.a.a.a.a.",
"a.a.a.a.a.a.a.a.a.a.a.a.a.a.a.a.a.a.a.a.a.a.a.a.a.a.a.a.a.a.a.a.a.a.a.a.a.a.a.a.a.a.a.a.a.a.a.a.a.a.a.a.a.a.a.a.a.a.a.a.a.a.a.a.a.a.a.a.a.a.a.a.a.a.a.a.a.a.a.a.a.a.a.a.a.a.a.a.a.a.a.a.a.a.a.a.a.a.a.a.a.a.a.a.a.a.a.a.a.a.a.S R R W / / }  .@.#.#.#.#.#.#.#.#.#.@.@.@. .} @.} @.@.@.#.@.@.@.@.@.@.@.#.#.#.&.#.#.@.#.&.&.&.&.#.&.&.&.&.&.#.#.&.&.*.*.*.-.-.-.-.-.-.4.-.4.6.-.-.-.4.4.4.-.1.1.-.-.1.1.-.*.-.#.#... .} ] _ _ _ _ ] ] ] _ ` ` ` }  . . .@.@.@.#.*.-.-.-.4.6.6.t.t.t.y.d.g.d.d.g.d.d.j.g.g.g.g.d.y.g.g.g.d.g.j.g.g.g.g.m.G.A.m.m.j.m.A.m.G.G.G.D.K.G.G.D.G.Y.G.G.G.G.G.Y.G.G.K.E.K.G.G.A.m.A.A.G.G.G.G.G.G.G.G.G.G.G.G.A.G.G.G.D.K.K.Y.Y.G.A.G.G.A.D.G.G.D.A.G.D.A.D.D.D.A.A.A.D.A.m.m.m.m.m.k.g.g.j.k.g.g.g.g.g.g.g.g.g.g.g.d.d.d.d.g.d.d.y.y.y.t.t.t.t.t.t.t.t.t.t.t.5.1.;.*.-.*.R a.a.a.a.a.a.a.a.a.a.a.a.a.a.a.a.a.a.a.a.a.a.a.a.a.a.a.a.a.a.a.a.a.a.a.a.a.a.a.a.a.a.a.a.a.a.a.a.a.a.a.a.a.a.a.a.a.a.a.a.a.a.a.a.a.a.a.a.a.a.a.a.a.a.a.a.a.a.a.a.a.a.a.a.a.a.a.a.a.a.a.a.a.a.a.a.a.a.a.a.a.a.a.a.a.a.a.a.a.a.a.a.a.a.a.a.a.a.a.a.a.a.a.a.a.a.a.a.a.a.a.a.a.a.a.a.a.a.a.a.a.a.a.a.a.a.a.a.a.a.a.a.a.a.a.a.a.a.a.a.a.a.a.a.a.a.a.a.a.a.a.a.a.a.a.a.a.a.a.a.a.a.a.a.a.a.a.a.a.a.a.a.a.a.a.a.a.a.a.a.a.a.a.a.a.a.a.a.a.a.a.a.a.a.a.",
"a.a.a.a.a.a.a.a.a.a.a.a.a.a.a.a.a.a.a.a.a.a.a.a.a.a.a.a.a.a.a.a.a.a.a.a.a.a.a.a.a.a.a.a.a.a.a.a.a.a.a.a.a.a.a.a.a.a.a.a.a.a.a.a.a.a.a.a.a.a.a.a.a.a.a.a.a.a.a.a.a.a.a.a.a.a.a.a.a.a.a.a.a.a.a.a.a.a.a.a.a.a.a.a.a.a.a.a.a.a.a.J R T W _ _ ]  .@.@.#.@.@.#.#.#.#.#.#.@.@.@.@. . .@.@.#.@.#.@.@.@.@.@.#.&.#.#.&.#.&.@.#.#.&.&.&.#.&.&.&.&.#.&.#.&.&.&.#.#.*.#.#.*.#.-.-.6.6.6.4.4.4.4.4.4.1.1.1.1.1.1.-.*.*.*.#.#.@. .] ] ] _ _ _ _ ] _ _ ` ] ] ] }  .@.@.@.&.&.-.-.-.-.6.4.6.t.t.t.t.y.d.d.d.y.d.g.g.d.d.d.j.g.g.g.g.g.g.g.g.d.g.g.k.v.A.m.v.j.v.m.m.m.G.G.m.G.K.K.G.G.K.Y.K.G.G.G.G.G.Y.E.Y.E.K.E.Y.K.G.G.A.G.G.A.A.A.G.G.G.A.G.G.K.G.G.G.G.G.G.G.K.Y.D.G.G.G.A.D.D.A.A.A.m.D.D.D.A.m.A.A.G.G.A.D.A.V.V.j.k.g.m.m.k.j.j.g.m.v.v.j.g.g.g.g.g.d.d.d.d.d.y.y.d.y.d.y.t.t.t.t.t.t.6.t.6.6.-.;.-.*.-.#.a.a.a.a.a.a.a.a.a.a.a.a.a.a.a.a.a.a.a.a.a.a.a.a.a.a.a.a.a.a.a.a.a.a.a.a.a.a.a.a.a.a.a.a.a.a.a.a.a.a.a.a.a.a.a.a.a.a.a.a.a.a.a.a.a.a.a.a.a.a.a.a.a.a.a.a.a.a.a.a.a.a.a.a.a.a.a.a.a.a.a.a.a.a.a.a.a.a.a.a.a.a.a.a.a.a.a.a.a.a.a.a.a.a.a.a.a.a.a.a.a.a.a.a.a.a.a.a.a.a.a.a.a.a.a.a.a.a.a.a.a.a.a.a.a.a.a.a.a.a.a.a.a.a.a.a.a.a.a.a.a.a.a.a.a.a.a.a.a.a.a.a.a.a.a.a.a.a.a.a.a.a.a.a.a.a.a.a.a.a.a.a.a.a.a.a.a.a.a.a.a.a.a.a.a.a.a.a.a.a.a.a.a.a.a.",
"a.a.a.a.a.a.a.a.a.a.a.a.a.a.a.a.a.a.a.a.a.a.a.a.a.a.a.a.a.a.a.a.a.a.a.a.a.a.a.a.a.a.a.a.a.a.a.a.a.a.a.a.a.a.a.a.a.a.a.a.a.a.a.a.a.a.a.a.a.a.a.a.a.a.a.a.a.a.a.a.a.a.a.a.a.a.a.a.a.a.a.a.a.a.a.a.a.a.a.a.a.a.a.a.a.a.a.a.a.a.a.P T T W _ _ }  . .@.#.#.@.#.#.#.#.#.#.@.@.@.@. . .@.#.@.+.#.@.@.@.@.#.#.#.#.#.&.&.#.#.#.#.#.@.&.&.&.#.&.&.#.&.&.#.#.#.@.@.%.#.#.*.#.&.-.-.4.1.4.1.-.4.4.4.-.1.-.-.-.-.*.*.*.#.@.#...} ] ] / _ / _ / _ _ _ _ _ ` ] } @.@.@.@.&.&.-.-.-.-.-.-.6.t.t.t.t.s.d.y.y.d.d.g.g.d.d.d.g.g.j.d.d.g.g.j.g.g.g.g.m.j.A.v.g.j.j.v.m.m.G.G.D.G.G.D.m.G.Y.E.K.G.G.G.D.G.E.Y.G.E.E.E.E.K.G.G.A.G.A.A.m.K.G.G.K.A.G.E.J.J.G.G.G.G.K.K.K.G.K.Y.G.D.D.G.G.A.D.K.D.A.H.H.H.D.A.D.A.D.D.A.m.V.V.m.m.m.V.m.k.g.g.g.g.j.v.j.g.g.g.g.g.d.d.g.g.d.y.d.d.d.d.y.t.y.t.t.6.6.6.t.t.t.4.t.-.-.-.1...a.a.a.a.a.a.a.a.a.a.a.a.a.a.a.a.a.a.a.a.a.a.a.a.a.a.a.a.a.a.a.a.a.a.a.a.a.a.a.a.a.a.a.a.a.a.a.a.a.a.a.a.a.a.a.a.a.a.a.a.a.a.a.a.a.a.a.a.a.a.a.a.a.a.a.a.a.a.a.a.a.a.a.a.a.a.a.a.a.a.a.a.a.a.a.a.a.a.a.a.a.a.a.a.a.a.a.a.a.a.a.a.a.a.a.a.a.a.a.a.a.a.a.a.a.a.a.a.a.a.a.a.a.a.a.a.a.a.a.a.a.a.a.a.a.a.a.a.a.a.a.a.a.a.a.a.a.a.a.a.a.a.a.a.a.a.a.a.a.a.a.a.a.a.a.a.a.a.a.a.a.a.a.a.a.a.a.a.a.a.a.a.a.a.a.a.a.a.a.a.a.a.a.a.a.a.a.a.a.a.a.a.a.a.",
"a.a.a.a.a.a.a.a.a.a.a.a.a.a.a.a.a.a.a.a.a.a.a.a.a.a.a.a.a.a.a.a.a.a.a.a.a.a.a.a.a.a.a.a.a.a.a.a.a.a.a.a.a.a.a.a.a.a.a.a.a.a.a.a.a.a.a.a.a.a.a.a.a.a.a.a.a.a.a.a.a.a.a.a.a.a.a.a.a.a.a.a.a.a.a.a.a.a.a.a.a.a.a.a.a.a.a.a.a.a.a.P E R / / / }  .@.@.#.#.@.@.#.#.#.@.@.@.@.@.@.@.@.@.#.#.@.@.@.@.@.@.@.@.@.#.#.#.#.#.#.@.#.#.#.#.#.&.&.#.&.&.&.&.#.#.#.@.@.&.&.&.&.&.*.-.1.6.1.4.1.1.1.1.1.-.-.-.-.*.-.&.*.#.#.@.#. .} ] _ / / / / _ _ / _ _ _ ] ` }  .@.@.@.&.&.-.-.-.-.-.-.4.t.y.y.y.y.d.d.d.d.d.d.d.d.d.y.g.d.g.d.g.j.g.j.g.g.g.g.g.g.g.g.g.j.g.v.A.G.A.A.A.G.D.A.D.K.Y.E.Y.G.G.G.G.E.E.E.E.E.E.Y.G.A.K.K.G.J.A.G.A.J.J.K.J.G.J.E.J.J.J.G.G.A.G.J.K.G.G.G.G.G.G.G.K.H.H.Y.H.H.D.H.H.A.V.k.k.V.V.V.j.V.V.k.k.V.m.j.V.j.g.g.g.g.g.g.g.g.d.g.d.d.d.d.d.d.d.d.y.d.d.d.y.y.d.y.t.t.t.t.t.t.5.6.t.e.*.-.-.#.a.a.a.a.a.a.a.a.a.a.a.a.a.a.a.a.a.a.a.a.a.a.a.a.a.a.a.a.a.a.a.a.a.a.a.a.a.a.a.a.a.a.a.a.a.a.a.a.a.a.a.a.a.a.a.a.a.a.a.a.a.a.a.a.a.a.a.a.a.a.a.a.a.a.a.a.a.a.a.a.a.a.a.a.a.a.a.a.a.a.a.a.a.a.a.a.a.a.a.a.a.a.a.a.a.a.a.a.a.a.a.a.a.a.a.a.a.a.a.a.a.a.a.a.a.a.a.a.a.a.a.a.a.a.a.a.a.a.a.a.a.a.a.a.a.a.a.a.a.a.a.a.a.a.a.a.a.a.a.a.a.a.a.a.a.a.a.a.a.a.a.a.a.a.a.a.a.a.a.a.a.a.a.a.a.a.a.a.a.a.a.a.a.a.a.a.a.a.a.a.a.a.a.a.a.a.a.a.a.a.a.a.a.",
"a.a.a.a.a.a.a.a.a.a.a.a.a.a.a.a.a.a.a.a.a.a.a.a.a.a.a.a.a.a.a.a.a.a.a.a.a.a.a.a.a.a.a.a.a.a.a.a.a.a.a.a.a.a.a.a.a.a.a.a.a.a.a.a.a.a.a.a.a.a.a.a.a.a.a.a.a.a.a.a.a.a.a.a.a.a.a.a.a.a.a.a.a.a.a.a.a.a.a.a.a.a.a.a.a.a.a.a.a.a.a.U R R / / / }  .@.@.#.#.@.@.#.#.#.@.@.@.@.@.@.@.@.@.#.&.@.@.@.@.@.@.#.#.#.#.#.&.#.#.@.@.#.#.&.*.@.#.#.&.&.&.&.&.&.&.@.@.#.&.#.&.&.#.*.-.-.-.-.1.1.1.1.1.1.-.-.-.-.*.*.*.*.#.#.#.#. .} _ _ / / / / / / / _ _ ] } ] }  . .@.@.&.&.-.-.-.-.4.-.-.6.t.y.y.t.y.y.d.d.y.d.y.d.d.y.g.g.g.g.g.d.d.g.g.d.d.g.j.g.g.d.m.j.j.v.A.A.m.m.m.D.D.D.G.G.Y.E.G.D.G.G.G.G.G.E.!.!.E.Y.G.G.Y.E.E.J.A.G.A.K.J.E.E.J.K.G.A.G.G.G.K.J.E.J.G.G.K.G.G.K.G.K.K.K.K.G.H.D.D.D.A.A.D.A.D.m.m.A.D.A.k.k.g.j.g.d.k.V.j.k.k.g.k.d.g.g.g.g.d.d.d.d.d.d.d.y.t.y.d.y.y.y.d.y.y.t.t.6.6.6.5.t.t.t.t.6.4.1.Q a.a.a.a.a.a.a.a.a.a.a.a.a.a.a.a.a.a.a.a.a.a.a.a.a.a.a.a.a.a.a.a.a.a.a.a.a.a.a.a.a.a.a.a.a.a.a.a.a.a.a.a.a.a.a.a.a.a.a.a.a.a.a.a.a.a.a.a.a.a.a.a.a.a.a.a.a.a.a.a.a.a.a.a.a.a.a.a.a.a.a.a.a.a.a.a.a.a.a.a.a.a.a.a.a.a.a.a.a.a.a.a.a.a.a.a.a.a.a.a.a.a.a.a.a.a.a.a.a.a.a.a.a.a.a.a.a.a.a.a.a.a.a.a.a.a.a.a.a.a.a.a.a.a.a.a.a.a.a.a.a.a.a.a.a.a.a.a.a.a.a.a.a.a.a.a.a.a.a.a.a.a.a.a.a.a.a.a.a.a.a.a.a.a.a.a.a.a.a.a.a.a.a.a.a.a.a.a.a.a.a.a.",
"a.a.a.a.a.a.a.a.a.a.a.a.a.a.a.a.a.a.a.a.a.a.a.a.a.a.a.a.a.a.a.a.a.a.a.a.a.a.a.a.a.a.a.a.a.a.a.a.a.a.a.a.a.a.a.a.a.a.a.a.a.a.a.a.a.a.a.a.a.a.a.a.a.a.a.a.a.a.a.a.a.a.a.a.a.a.a.a.a.a.a.a.a.a.a.a.a.a.a.a.a.a.a.a.a.a.a.a.a.a.a.P R E / _ _ }  . .@.@.#.#.@.#.#.#.#.@.@.@. .@.@.@.@.#.#.@.@.@.@.@.@.#.#.#.#.#.&.#.#.#.@.@.#.#.&.#.#.&.&.&.&.&.&.&.&.@.@.@.#.#.&.&.#.&.-.-.-.-.1.1.1.-.1.1.-.-.-.-.*.#.*.*.#.#.#.#. .} ] / / / / / / / / / _ _ _ ] ] }  .@.@.#.#.*.-.1.-.-.-.4.4.t.t.t.d.d.d.y.d.d.y.y.d.y.y.g.j.g.d.g.d.d.d.g.g.g.g.g.v.g.g.m.j.m.m.m.m.G.m.k.m.m.m.A.G.G.K.D.K.K.E.E.E.E.E.W.E.K.K.Y.K.E.E.G.G.Y.E.J.J.J.J.E.K.E.K.G.J.J.E.J.G.G.A.G.G.K.D.G.G.Y.Y.K.H.G.G.G.D.D.H.V.A.A.A.m.k.k.k.m.m.m.V.k.k.k.k.k.d.k.d.d.k.k.d.k.j.d.d.d.k.d.d.d.g.d.y.y.y.y.y.y.d.y.t.t.t.t.t.6.t.t.t.t.t.t.t.;.4.*.R a.a.a.a.a.a.a.a.a.a.a.a.a.a.a.a.a.a.a.a.a.a.a.a.a.a.a.a.a.a.a.a.a.a.a.a.a.a.a.a.a.a.a.a.a.a.a.a.a.a.a.a.a.a.a.a.a.a.a.a.a.a.a.a.a.a.a.a.a.a.a.a.a.a.a.a.a.a.a.a.a.a.a.a.a.a.a.a.a.a.a.a.a.a.a.a.a.a.a.a.a.a.a.a.a.a.a.a.a.a.a.a.a.a.a.a.a.a.a.a.a.a.a.a.a.a.a.a.a.a.a.a.a.a.a.a.a.a.a.a.a.a.a.a.a.a.a.a.a.a.a.a.a.a.a.a.a.a.a.a.a.a.a.a.a.a.a.a.a.a.a.a.a.a.a.a.a.a.a.a.a.a.a.a.a.a.a.a.a.a.a.a.a.a.a.a.a.a.a.a.a.a.a.a.a.a.a.a.a.a.a.",
"a.a.a.a.a.a.a.a.a.a.a.a.a.a.a.a.a.a.a.a.a.a.a.a.a.a.a.a.a.a.a.a.a.a.a.a.a.a.a.a.a.a.a.a.a.a.a.a.a.a.a.a.a.a.a.a.a.a.a.a.a.a.a.a.a.a.a.a.a.a.a.a.a.a.a.a.a.a.a.a.a.a.a.a.a.a.a.a.a.a.a.a.a.a.a.a.a.a.a.a.a.a.a.a.a.a.a.a.a.a.a.I R E / _ / } }  .@.@.@.#.#.#.@.#.#.#.@.@. . .@.@.@.#.@.@.@.@.@.@.@.#.#.@.@.#.#.#.#.#.@.#.#.@.#.&.#.#.&.&.&.&.&.&.@.@.@.@.#.#.#.&.&.&.-.-.-.-.-.-.-.-.-.-.-.-.*.*.&.#.#.#.#.#.@... .} ] / / / / / / / / / / _ ` } }  . .@.@.#.@.&.*.-.-.-.-.-.6.t.t.t.d.y.y.t.d.y.y.y.y.d.d.g.g.d.d.d.d.s.g.g.g.j.j.g.g.g.v.g.v.m.m.m.A.A.m.A.m.m.A.D.G.m.A.K.K.Y.Y.E.J.G.G.J.G.G.K.G.G.K.G.G.G.G.K.G.J.J.G.G.K.J.K.G.G.G.J.J.J.K.K.K.G.K.K.D.K.G.K.K.H.A.D.D.G.H.D.H.H.A.V.V.A.A.D.V.V.k.k.k.k.k.k.B.k.k.k.k.k.k.k.k.k.j.j.j.d.u.d.d.j.g.d.d.d.d.d.d.d.t.t.t.t.d.t.4.4.t.4.4.t.t.t.;.-.#.1.a.a.a.a.a.a.a.a.a.a.a.a.a.a.a.a.a.a.a.a.a.a.a.a.a.a.a.a.a.a.a.a.a.a.a.a.a.a.a.a.a.a.a.a.a.a.a.a.a.a.a.a.a.a.a.a.a.a.a.a.a.a.a.a.a.a.a.a.a.a.a.a.a.a.a.a.a.a.a.a.a.a.a.a.a.a.a.a.a.a.a.a.a.a.a.a.a.a.a.a.a.a.a.a.a.a.a.a.a.a.a.a.a.a.a.a.a.a.a.a.a.a.a.a.a.a.a.a.a.a.a.a.a.a.a.a.a.a.a.a.a.a.a.a.a.a.a.a.a.a.a.a.a.a.a.a.a.a.a.a.a.a.a.a.a.a.a.a.a.a.a.a.a.a.a.a.a.a.a.a.a.a.a.a.a.a.a.a.a.a.a.a.a.a.a.a.a.a.a.a.a.a.a.a.a.a.a.a.a.a.a.",
"a.a.a.a.a.a.a.a.a.a.a.a.a.a.a.a.a.a.a.a.a.a.a.a.a.a.a.a.a.a.a.a.a.a.a.a.a.a.a.a.a.a.a.a.a.a.a.a.a.a.a.a.a.a.a.a.a.a.a.a.a.a.a.a.a.a.a.a.a.a.a.a.a.a.a.a.a.a.a.a.a.a.a.a.a.a.a.a.a.a.a.a.a.a.a.a.a.a.a.a.a.a.a.a.a.a.a.a.a.a.a.U R E / / / } }  . .@.@.#.#.#.@.#.#.#.@.@.}  .@.@.@.#.#.@.+.#.#.#.@.#.&.#.#.@.&.#.@.@.#.#.#.@.#.#.@.#.&.&.&.&.&.&.@.@.@.@.&.@.&.&.&.*.&.-.*.-.-.-.*.*.*.*.*.*.*.*.*.#.#.#.#.#.@...} ] _ / / / / / / / / / / / ` } }  . . .} @.@.#.-.#.*.*.-.-.t.t.t.t.y.t.t.y.y.t.t.t.y.d.d.d.d.d.d.d.d.d.g.g.j.g.g.g.d.g.v.v.m.m.A.A.D.A.D.D.D.A.m.m.G.D.G.E.G.K.K.E.E.J.G.G.K.G.G.A.G.K.G.G.G.G.J.G.E.J.G.K.E.G.K.K.G.A.A.G.G.J.J.J.G.D.K.K.K.K.K.K.G.D.H.G.G.H.D.H.H.Z.V.V.V.V.k.k.V.j.k.j.k.k.j.k.k.k.k.k.g.k.k.k.k.j.j.d.d.d.d.d.j.g.g.d.d.d.d.d.d.y.y.t.t.y.t.t.t.4.r.4.4.4.4.-.-.-.1.<.a.a.a.a.a.a.a.a.a.a.a.a.a.a.a.a.a.a.a.a.a.a.a.a.a.a.a.a.a.a.a.a.a.a.a.a.a.a.a.a.a.a.a.a.a.a.a.a.a.a.a.a.a.a.a.a.a.a.a.a.a.a.a.a.a.a.a.a.a.a.a.a.a.a.a.a.a.a.a.a.a.a.a.a.a.a.a.a.a.a.a.a.a.a.a.a.a.a.a.a.a.a.a.a.a.a.a.a.a.a.a.a.a.a.a.a.a.a.a.a.a.a.a.a.a.a.a.a.a.a.a.a.a.a.a.a.a.a.a.a.a.a.a.a.a.a.a.a.a.a.a.a.a.a.a.a.a.a.a.a.a.a.a.a.a.a.a.a.a.a.a.a.a.a.a.a.a.a.a.a.a.a.a.a.a.a.a.a.a.a.a.a.a.a.a.a.a.a.a.a.a.a.a.a.a.a.a.a.a.a.",
"a.a.a.a.a.a.a.a.a.a.a.a.a.a.a.a.a.a.a.a.a.a.a.a.a.a.a.a.a.a.a.a.a.a.a.a.a.a.a.a.a.a.a.a.a.a.a.a.a.a.a.a.a.a.a.a.a.a.a.a.a.a.a.a.a.a.a.a.a.a.a.a.a.a.a.a.a.a.a.a.a.a.a.a.a.a.a.a.a.a.a.a.a.a.a.a.a.a.a.a.a.a.a.a.a.a.a.a.a.a.a.U R E / / / ] }  . .@.@.#.#.#.#.#.@.#.@.@. . .@.@.@.#.#.#.@.#.#.#.@.#.#.#.@.@.#.@.@.#.#.@.#.#.@.@.@.@.#.*.#.#.&.#.@.@.@.@.@.@.@.&.&.*.&.-.*.-.-.-.*.*.*.*.*.#.*.#.#.#.#.#.@.@.@...} _ _ / / / / / / / / / / _ / ] _  .}  . . .@.#.#.#.&.*.-.-.6.6.t.t.t.t.t.t.t.t.t.t.s.y.t.s.s.d.d.d.t.d.d.g.g.d.d.g.d.g.g.m.m.m.A.m.k.j.D.m.D.A.m.m.G.Y.Y.E.K.Y.K.E.E.E.E.K.A.A.A.G.K.E.K.G.G.G.J.G.E.J.G.G.E.G.G.K.G.G.G.G.A.G.E.E.G.G.Y.K.K.G.G.K.H.G.K.K.G.G.K.H.H.H.D.V.V.V.k.V.A.m.V.V.j.B.j.k.j.k.k.k.g.k.k.j.j.j.g.d.d.y.d.d.g.g.g.d.d.d.d.d.d.y.y.y.y.t.t.t.t.t.4.4.4.r.6.r.6.4.4.1.*.a.a.a.a.a.a.a.a.a.a.a.a.a.a.a.a.a.a.a.a.a.a.a.a.a.a.a.a.a.a.a.a.a.a.a.a.a.a.a.a.a.a.a.a.a.a.a.a.a.a.a.a.a.a.a.a.a.a.a.a.a.a.a.a.a.a.a.a.a.a.a.a.a.a.a.a.a.a.a.a.a.a.a.a.a.a.a.a.a.a.a.a.a.a.a.a.a.a.a.a.a.a.a.a.a.a.a.a.a.a.a.a.a.a.a.a.a.a.a.a.a.a.a.a.a.a.a.a.a.a.a.a.a.a.a.a.a.a.a.a.a.a.a.a.a.a.a.a.a.a.a.a.a.a.a.a.a.a.a.a.a.a.a.a.a.a.a.a.a.a.a.a.a.a.a.a.a.a.a.a.a.a.a.a.a.a.a.a.a.a.a.a.a.a.a.a.a.a.a.a.a.a.a.a.a.a.a.a.a.",
"a.a.a.a.a.a.a.a.a.a.a.a.a.a.a.a.a.a.a.a.a.a.a.a.a.a.a.a.a.a.a.a.a.a.a.a.a.a.a.a.a.a.a.a.a.a.a.a.a.a.a.a.a.a.a.a.a.a.a.a.a.a.a.a.a.a.a.a.a.a.a.a.a.a.a.a.a.a.a.a.a.a.a.a.a.a.a.a.a.a.a.a.a.a.a.a.a.a.a.a.a.a.a.a.a.a.a.a.a.a.a.R R E / _ _ } }  . . . .#.#.#.&.#.&.#.@.@.@.#.#.#.#.#.&.#.#.@.@.#.#.#.#.#.@.@.#.@.@.@.@.@.@.@.@.@.@.@.#.#.@.@.@.@.@.@.@.@.@.&.&.&.&.&.&.*.&.#.#.#.*.*.*.*.#.#.#.#.#.#.@.#.#.@... .} ] / W E W W / / / / / / / / ` } } }  . .@.#.&.#.#.&.&.-.-.4.6.t.t.t.y.t.y.t.t.t.y.d.t.y.s.y.y.y.y.y.t.y.d.d.d.d.d.g.g.v.v.v.v.v.j.m.A.G.G.G.G.A.m.K.K.Y.K.Y.Y.Y.E.E.G.G.G.A.G.G.G.G.K.A.G.G.G.E.W.K.E.E.K.E.E.Y.K.W.E.E.E.G.E.E.Y.Y.E.E.Y.K.H.H.D.D.D.H.H.D.Z.A.V.A.A.A.V.V.V.j.k.k.k.k.V.k.V.V.k.j.j.k.g.k.g.g.V.j.k.d.k.k.k.g.k.g.g.j.d.d.d.d.d.d.t.y.t.t.t.y.t.t.t.t.6.t.t.t.6.t.6.6.-.1...a.a.a.a.a.a.a.a.a.a.a.a.a.a.a.a.a.a.a.a.a.a.a.a.a.a.a.a.a.a.a.a.a.a.a.a.a.a.a.a.a.a.a.a.a.a.a.a.a.a.a.a.a.a.a.a.a.a.a.a.a.a.a.a.a.a.a.a.a.a.a.a.a.a.a.a.a.a.a.a.a.a.a.a.a.a.a.a.a.a.a.a.a.a.a.a.a.a.a.a.a.a.a.a.a.a.a.a.a.a.a.a.a.a.a.a.a.a.a.a.a.a.a.a.a.a.a.a.a.a.a.a.a.a.a.a.a.a.a.a.a.a.a.a.a.a.a.a.a.a.a.a.a.a.a.a.a.a.a.a.a.a.a.a.a.a.a.a.a.a.a.a.a.a.a.a.a.a.a.a.a.a.a.a.a.a.a.a.a.a.a.a.a.a.a.a.a.a.a.a.a.a.a.a.a.a.a.a.",
"a.a.a.a.a.a.a.a.a.a.a.a.a.a.a.a.a.a.a.a.a.a.a.a.a.a.a.a.a.a.a.a.a.a.a.a.a.a.a.a.a.a.a.a.a.a.a.a.a.a.a.a.a.a.a.a.a.a.a.a.a.a.a.a.a.a.a.a.a.a.a.a.a.a.a.a.a.a.a.a.a.a.a.a.a.a.a.a.a.a.a.a.a.a.a.a.a.a.a.a.a.a.a.a.a.a.a.a.a.a.a.U W R / _ / }  . . . . .#.#.#.*.*.*.#.@. .@.#.#.#.#.&.#.#.#.#.@.#.#.&.&.#.#.@.#.@.@.@.@.@.@.@.@.@.@.@.#.@.}  .@.@.@. .@.@.@.&.&.&.&.&.#.*.#.#.#.#.*.#.*.*.#.#.#.@.#. ...#... . .} ] ] / W E W W / / W W W / / _ _ ] } }  . .@.#.&.#.#.&.*.-.-.6.t.t.t.t.t.t.t.t.y.t.t.s.t.s.y.y.y.t.y.t.t.y.d.y.d.g.d.g.g.g.v.v.v.v.j.j.m.A.A.D.D.D.m.G.E.K.E.Y.G.K.Y.G.G.G.J.K.K.J.G.K.K.A.G.G.G.J.E.Y.K.K.Y.E.E.K.Y.W.E.E.K.E.Y.K.K.E.E.G.K.K.H.D.K.H.H.H.H.H.A.D.V.A.A.D.A.V.V.k.k.V.k.k.k.k.k.B.k.k.k.k.k.k.h.k.k.k.d.f.d.d.d.g.s.g.g.d.d.g.g.g.g.d.y.y.t.t.t.t.t.t.t.t.t.t.t.t.t.t.t.t.t.4.1.a.a.a.a.a.a.a.a.a.a.a.a.a.a.a.a.a.a.a.a.a.a.a.a.a.a.a.a.a.a.a.a.a.a.a.a.a.a.a.a.a.a.a.a.a.a.a.a.a.a.a.a.a.a.a.a.a.a.a.a.a.a.a.a.a.a.a.a.a.a.a.a.a.a.a.a.a.a.a.a.a.a.a.a.a.a.a.a.a.a.a.a.a.a.a.a.a.a.a.a.a.a.a.a.a.a.a.a.a.a.a.a.a.a.a.a.a.a.a.a.a.a.a.a.a.a.a.a.a.a.a.a.a.a.a.a.a.a.a.a.a.a.a.a.a.a.a.a.a.a.a.a.a.a.a.a.a.a.a.a.a.a.a.a.a.a.a.a.a.a.a.a.a.a.a.a.a.a.a.a.a.a.a.a.a.a.a.a.a.a.a.a.a.a.a.a.a.a.a.a.a.a.a.a.a.a.a.a.",
"a.a.a.a.a.a.a.a.a.a.a.a.a.a.a.a.a.a.a.a.a.a.a.a.a.a.a.a.a.a.a.a.a.a.a.a.a.a.a.a.a.a.a.a.a.a.a.a.a.a.a.a.a.a.a.a.a.a.a.a.a.a.a.a.a.a.a.a.a.a.a.a.a.a.a.a.a.a.a.a.a.a.a.a.a.a.a.a.a.a.a.a.a.a.a.a.a.a.a.a.a.a.a.a.a.a.a.a.a.a.a.U W W / _ _ } }  . .@.@.@.#.#.*.*.#.@.@.@.#.#.*.*.*.*.#.@.#.#.#.#.#.#.#.#.#.@.#.@.@. .@.@.@.@.@. .@.@.@.@.} } @.@.}  .@. .@.@.@.&.&.#.#.&.#.#.#.#.#.#.#.#.@.#.@.#.#. . . . .} } ] _ _ / W E E E W / / E W / / / / } } }  . .@.#.&.#.&.&.-.-.-.6.6.6.6.t.t.t.t.t.y.t.t.t.t.s.t.t.y.y.s.t.t.y.y.t.y.d.g.g.g.g.v.g.v.m.m.m.A.A.m.m.A.m.m.A.G.G.K.K.G.G.K.A.A.A.G.J.G.E.G.K.A.A.J.G.J.J.K.E.E.Y.G.Y.K.G.Y.E.E.E.E.E.E.K.G.Y.E.E.E.K.H.H.K.D.D.D.D.H.A.K.D.G.H.D.V.V.j.V.A.V.V.V.k.k.V.V.k.k.k.k.f.f.f.h.f.f.d.f.f.f.d.k.g.d.d.d.d.d.g.g.g.d.y.y.y.y.t.t.t.t.t.t.5.t.t.t.t.t.t.t.t.t.4.1.a.a.a.a.a.a.a.a.a.a.a.a.a.a.a.a.a.a.a.a.a.a.a.a.a.a.a.a.a.a.a.a.a.a.a.a.a.a.a.a.a.a.a.a.a.a.a.a.a.a.a.a.a.a.a.a.a.a.a.a.a.a.a.a.a.a.a.a.a.a.a.a.a.a.a.a.a.a.a.a.a.a.a.a.a.a.a.a.a.a.a.a.a.a.a.a.a.a.a.a.a.a.a.a.a.a.a.a.a.a.a.a.a.a.a.a.a.a.a.a.a.a.a.a.a.a.a.a.a.a.a.a.a.a.a.a.a.a.a.a.a.a.a.a.a.a.a.a.a.a.a.a.a.a.a.a.a.a.a.a.a.a.a.a.a.a.a.a.a.a.a.a.a.a.a.a.a.a.a.a.a.a.a.a.a.a.a.a.a.a.a.a.a.a.a.a.a.a.a.a.a.a.a.a.a.a.a.",
"a.a.a.a.a.a.a.a.a.a.a.a.a.a.a.a.a.a.a.a.a.a.a.a.a.a.a.a.a.a.a.a.a.a.a.a.a.a.a.a.a.a.a.a.a.a.a.a.a.a.a.a.a.a.a.a.a.a.a.a.a.a.a.a.a.a.a.a.a.a.a.a.a.a.a.a.a.a.a.a.a.a.a.a.a.a.a.a.a.a.a.a.a.a.a.a.a.a.a.a.a.a.a.a.a.a.a.a.a.a.a.U / / / / / ] } } } }  .@.#.#.*.*.#.@.@. . .#.*.#.#.*.#.@.#.#.#.#.#.#.#.#.@.@.@.@.@. .@.@.@. . .@.@.@. . .} } } } } } @.@.@.#.@.&.&.#.#.#.#.#.#.#.#.@.@.@. . . .@.@. . . . .} } ] _ _ / E E E E E / W W W W / / _ ] ` }  . .@.#.&.#.#.&.-.-.-.6.-.4.6.t.t.t.t.t.t.6.t.t.t.s.t.t.y.d.d.t.y.y.y.t.y.y.g.g.g.g.g.g.g.v.g.m.m.A.A.G.A.D.G.D.m.D.A.G.K.K.E.K.G.A.J.J.G.J.K.G.K.G.G.G.E.G.A.G.K.K.G.G.E.E.E.E.E.E.W.W.E.Y.E.E.E.Y.K.D.H.K.D.A.H.D.D.A.V.H.D.H.H.D.H.H.m.V.D.V.V.V.k.k.k.V.k.k.f.f.t.t.s.s.s.f.f.f.d.k.j.j.k.f.d.j.g.d.g.d.d.d.y.y.y.t.t.t.t.t.6.t.t.t.t.t.t.t.6.6.t.t.-.4.1.a.a.a.a.a.a.a.a.a.a.a.a.a.a.a.a.a.a.a.a.a.a.a.a.a.a.a.a.a.a.a.a.a.a.a.a.a.a.a.a.a.a.a.a.a.a.a.a.a.a.a.a.a.a.a.a.a.a.a.a.a.a.a.a.a.a.a.a.a.a.a.a.a.a.a.a.a.a.a.a.a.a.a.a.a.a.a.a.a.a.a.a.a.a.a.a.a.a.a.a.a.a.a.a.a.a.a.a.a.a.a.a.a.a.a.a.a.a.a.a.a.a.a.a.a.a.a.a.a.a.a.a.a.a.a.a.a.a.a.a.a.a.a.a.a.a.a.a.a.a.a.a.a.a.a.a.a.a.a.a.a.a.a.a.a.a.a.a.a.a.a.a.a.a.a.a.a.a.a.a.a.a.a.a.a.a.a.a.a.a.a.a.a.a.a.a.a.a.a.a.a.a.a.a.a.a.",
"a.a.a.a.a.a.a.a.a.a.a.a.a.a.a.a.a.a.a.a.a.a.a.a.a.a.a.a.a.a.a.a.a.a.a.a.a.a.a.a.a.a.a.a.a.a.a.a.a.a.a.a.a.a.a.a.a.a.a.a.a.a.a.a.a.a.a.a.a.a.a.a.a.a.a.a.a.a.a.a.a.a.a.a.a.a.a.a.a.a.a.a.a.a.a.a.a.a.a.a.a.a.a.a.a.a.a.a.a.a.a.T W / / _ / ]  .]  .}  . .@.#.#.&.#.@.@. .#.#.#.&.#.#.#.#.#.#.&.&.#.&.#.#.@.@.@.@.@.@.@.} }  .}  .@.@.} } } } } } } } @. .@.@.@.#.#.#.@.#.#.#.#.@.@.@. . . .}  . . . .} } } } } } _ / / E R E E E W W W W / / / / ` }  . . .@.#.#.#.#.&.-.-.-.6.6.4.6.t.t.t.t.t.t.t.t.t.t.t.t.s.s.d.d.t.t.y.d.y.d.y.d.g.g.d.g.v.v.v.v.D.G.m.m.A.m.G.G.A.A.G.G.G.E.E.K.J.J.G.G.E.J.G.G.J.J.J.G.G.K.A.m.G.E.G.G.Y.E.E.Y.Y.E.E.E.W.E.K.E.E.K.K.Y.K.H.H.A.A.H.K.A.A.H.H.D.A.H.H.A.m.m.A.A.V.k.k.k.k.k.k.V.k.h.t.e.=.;.t.f.f.f.f.d.d.k.k.k.k.d.d.d.g.g.d.g.d.y.d.d.y.y.d.y.t.t.t.t.t.t.t.6.6.t.t.t.t.t.t.6.#.a.a.a.a.a.a.a.a.a.a.a.a.a.a.a.a.a.a.a.a.a.a.a.a.a.a.a.a.a.a.a.a.a.a.a.a.a.a.a.a.a.a.a.a.a.a.a.a.a.a.a.a.a.a.a.a.a.a.a.a.a.a.a.a.a.a.a.a.a.a.a.a.a.a.a.a.a.a.a.a.a.a.a.a.a.a.a.a.a.a.a.a.a.a.a.a.a.a.a.a.a.a.a.a.a.a.a.a.a.a.a.a.a.a.a.a.a.a.a.a.a.a.a.a.a.a.a.a.a.a.a.a.a.a.a.a.a.a.a.a.a.a.a.a.a.a.a.a.a.a.a.a.a.a.a.a.a.a.a.a.a.a.a.a.a.a.a.a.a.a.a.a.a.a.a.a.a.a.a.a.a.a.a.a.a.a.a.a.a.a.a.a.a.a.a.a.a.a.a.a.a.a.a.a.a.",
"a.a.a.a.a.a.a.a.a.a.a.a.a.a.a.a.a.a.a.a.a.a.a.a.a.a.a.a.a.a.a.a.a.a.a.a.a.a.a.a.a.a.a.a.a.a.a.a.a.a.a.a.a.a.a.a.a.a.a.a.a.a.a.a.a.a.a.a.a.a.a.a.a.a.a.a.a.a.a.a.a.a.a.a.a.a.a.a.a.a.a.a.a.a.a.a.a.a.a.a.a.a.a.a.a.a.a.a.a.a.S T W / / _ ] ] } } }  .}  .@.#.#.&.#.@. .@.#.#.&.&.&.&.#.#.#.#.&.#.#.&.&.#.#.@.@.@.@. .@. . . . . .@.@.} } } } } } } }  .@.@.@. .@.@.@.@.@.@.@.@. . . . .}  .} } } } } } } } } ] _ _ / W R T E R E E W W W / / / / _ } }  . .@.#.#.#.#.&.-.-.-.-.-.4.6.t.6.t.t.t.t.t.6.t.y.y.y.y.y.y.s.t.t.y.y.d.d.y.y.g.g.g.g.v.v.g.j.A.m.m.D.G.D.G.G.m.m.G.A.G.J.J.G.K.G.A.A.G.W.E.G.G.E.J.G.K.A.A.A.A.G.G.G.K.E.E.Y.E.E.E.E.E.Y.Y.E.E.E.Y.Y.D.H.H.D.D.H.H.A.V.H.H.H.H.K.G.G.D.m.m.A.V.V.Z.V.k.k.V.k.k.k.k.k.k.k.k.k.k.d.d.d.k.k.k.k.g.d.d.d.g.g.g.g.g.y.d.y.y.y.d.d.y.t.t.t.t.t.t.6.6.t.6.t.t.t.t.t.4...a.a.a.a.a.a.a.a.a.a.a.a.a.a.a.a.a.a.a.a.a.a.a.a.a.a.a.a.a.a.a.a.a.a.a.a.a.a.a.a.a.a.a.a.a.a.a.a.a.a.a.a.a.a.a.a.a.a.a.a.a.a.a.a.a.a.a.a.a.a.a.a.a.a.a.a.a.a.a.a.a.a.a.a.a.a.a.a.a.a.a.a.a.a.a.a.a.a.a.a.a.a.a.a.a.a.a.a.a.a.a.a.a.a.a.a.a.a.a.a.a.a.a.a.a.a.a.a.a.a.a.a.a.a.a.a.a.a.a.a.a.a.a.a.a.a.a.a.a.a.a.a.a.a.a.a.a.a.a.a.a.a.a.a.a.a.a.a.a.a.a.a.a.a.a.a.a.a.a.a.a.a.a.a.a.a.a.a.a.a.a.a.a.a.a.a.a.a.a.a.a.a.a.a.",
"a.a.a.a.a.a.a.a.a.a.a.a.a.a.a.a.a.a.a.a.a.a.a.a.a.a.a.a.a.a.a.a.a.a.a.a.a.a.a.a.a.a.a.a.a.a.a.a.a.a.a.a.a.a.a.a.a.a.a.a.a.a.a.a.a.a.a.a.a.a.a.a.a.a.a.a.a.a.a.a.a.a.a.a.a.a.a.a.a.a.a.a.a.a.a.a.a.a.a.a.a.a.a.a.a.a.a.a.a.a.F T W / / _ ] ` ` } `  . . .@.#.#.&.#.@. .@.#.#.&.*.&.*.#.#.#.#.#.#.#.&.*.&.&.#.@.@.@.} @.@. . . . .+.} } } } } } } } } } }  . .} }  . . . . . . .} } } } } } } } } } ] } } ] ] _ _ / / E R R R R E E W E E W / / / _ ] } }  .} @.@.@.#.&.-.-.-.-.-.4.4.6.6.t.t.t.6.6.6.t.t.t.t.t.t.t.y.t.t.y.d.d.d.d.y.y.d.g.g.v.g.g.g.m.k.m.D.G.D.A.G.A.m.A.m.A.J.A.A.J.G.A.G.G.G.G.m.A.A.A.A.v.G.J.G.G.G.Y.E.Y.K.Y.E.E.E.E.W.Y.K.Y.Y.E.K.K.K.A.D.D.V.Z.D.H.H.H.D.D.H.G.G.G.K.K.D.A.D.D.V.V.V.k.k.k.k.k.k.k.V.V.k.V.j.k.k.k.k.k.j.k.k.g.f.f.f.f.d.d.d.d.y.d.d.y.y.y.d.d.y.t.t.t.t.t.t.t.6.t.t.t.t.y.t.5.1.a.a.a.a.a.a.a.a.a.a.a.a.a.a.a.a.a.a.a.a.a.a.a.a.a.a.a.a.a.a.a.a.a.a.a.a.a.a.a.a.a.a.a.a.a.a.a.a.a.a.a.a.a.a.a.a.a.a.a.a.a.a.a.a.a.a.a.a.a.a.a.a.a.a.a.a.a.a.a.a.a.a.a.a.a.a.a.a.a.a.a.a.a.a.a.a.a.a.a.a.a.a.a.a.a.a.a.a.a.a.a.a.a.a.a.a.a.a.a.a.a.a.a.a.a.a.a.a.a.a.a.a.a.a.a.a.a.a.a.a.a.a.a.a.a.a.a.a.a.a.a.a.a.a.a.a.a.a.a.a.a.a.a.a.a.a.a.a.a.a.a.a.a.a.a.a.a.a.a.a.a.a.a.a.a.a.a.a.a.a.a.a.a.a.a.a.a.a.a.a.a.a.a.a.",
"a.a.a.a.a.a.a.a.a.a.a.a.a.a.a.a.a.a.a.a.a.a.a.a.a.a.a.a.a.a.a.a.a.a.a.a.a.a.a.a.a.a.a.a.a.a.a.a.a.a.a.a.a.a.a.a.a.a.a.a.a.a.a.a.a.a.a.a.a.a.a.a.a.a.a.a.a.a.a.a.a.a.a.a.a.a.a.a.a.a.a.a.a.a.a.a.a.a.a.a.a.a.a.a.a.a.a.a.a.a.F T W W / / / _ _ } ]  . . .@.#.#.#.#. .} #.#.#.&.*.*.*.&.&.&.#.#.#.#.#.#.#.#.#.@.@.@.@.@.@. .} @. .} }  .} } } } } } } } }  . .} } }  . . . .} } } } } ] ] ] ` ` _ _ ] ] ] ] _ _ / / W R R R T R R E E W E ^ / / / / ] ] }  .} @.@.@.#.&.-.-.-.*.-.4.-.6.6.6.t.6.6.6.6.6.t.t.t.t.t.t.t.t.t.y.y.d.d.d.y.d.g.g.g.v.g.g.g.j.k.k.m.D.D.A.G.G.A.A.A.G.E.G.G.G.G.m.G.G.A.A.G.G.m.G.G.A.J.Y.G.K.G.Y.G.G.K.E.E.E.E.E.W.K.K.Y.Y.K.G.K.K.K.K.H.D.D.D.H.A.A.H.H.D.H.D.D.G.K.D.m.m.H.Z.V.V.V.V.V.k.k.m.V.k.V.m.m.k.k.k.j.k.k.k.j.g.g.d.d.f.d.d.d.d.d.d.d.d.d.d.y.y.y.y.t.t.t.t.t.t.6.6.6.5.5.5.t.t.6.-.1.a.a.a.a.a.a.a.a.a.a.a.a.a.a.a.a.a.a.a.a.a.a.a.a.a.a.a.a.a.a.a.a.a.a.a.a.a.a.a.a.a.a.a.a.a.a.a.a.a.a.a.a.a.a.a.a.a.a.a.a.a.a.a.a.a.a.a.a.a.a.a.a.a.a.a.a.a.a.a.a.a.a.a.a.a.a.a.a.a.a.a.a.a.a.a.a.a.a.a.a.a.a.a.a.a.a.a.a.a.a.a.a.a.a.a.a.a.a.a.a.a.a.a.a.a.a.a.a.a.a.a.a.a.a.a.a.a.a.a.a.a.a.a.a.a.a.a.a.a.a.a.a.a.a.a.a.a.a.a.a.a.a.a.a.a.a.a.a.a.a.a.a.a.a.a.a.a.a.a.a.a.a.a.a.a.a.a.a.a.a.a.a.a.a.a.a.a.a.a.a.a.a.a.",
"a.a.a.a.a.a.a.a.a.a.a.a.a.a.a.a.a.a.a.a.a.a.a.a.a.a.a.a.a.a.a.a.a.a.a.a.a.a.a.a.a.a.a.a.a.a.a.a.a.a.a.a.a.a.a.a.a.a.a.a.a.a.a.a.a.a.a.a.a.a.a.a.a.a.a.a.a.a.a.a.a.a.a.a.a.a.a.a.a.a.a.a.a.a.a.a.a.a.a.a.a.a.a.a.a.a.a.a.a.a.U E W W / / / / ] } } } } }  .@.#.#.#.@. . .#.#.*.*.*.*.&.&.-.#.&.#.#.#.#.#.#.#.@.@. . .@. .} } } } }  . . . . .} } } } } } } } } } } }  .} } } } } ] _ ] ] ] _ _ _ _ _ ] ] _ _ / / / E W R R R R W W W W E W / / / ` ] / }  . .@. .@.#.*.-.1.-.-.-.-.-.-.-.4.6.-.-.6.6.6.6.6.t.t.t.6.t.t.t.t.y.d.d.d.d.g.g.g.g.g.g.g.v.j.g.v.v.m.m.v.m.m.m.A.J.J.G.m.G.G.A.m.A.A.G.A.G.Y.G.G.K.K.K.K.K.G.G.G.K.Y.G.G.G.Y.K.G.E.E.G.G.G.G.K.G.G.E.Y.D.K.D.H.H.A.D.H.H.D.H.H.H.H.G.D.m.k.A.V.V.V.k.k.k.k.j.k.k.k.k.V.V.k.k.k.k.j.j.g.d.k.j.j.j.j.g.d.d.g.d.d.g.d.d.d.d.d.s.t.t.t.t.t.t.t.6.6.6.t.t.t.t.t.t.6.-.#.a.a.a.a.a.a.a.a.a.a.a.a.a.a.a.a.a.a.a.a.a.a.a.a.a.a.a.a.a.a.a.a.a.a.a.a.a.a.a.a.a.a.a.a.a.a.a.a.a.a.a.a.a.a.a.a.a.a.a.a.a.a.a.a.a.a.a.a.a.a.a.a.a.a.a.a.a.a.a.a.a.a.a.a.a.a.a.a.a.a.a.a.a.a.a.a.a.a.a.a.a.a.a.a.a.a.a.a.a.a.a.a.a.a.a.a.a.a.a.a.a.a.a.a.a.a.a.a.a.a.a.a.a.a.a.a.a.a.a.a.a.a.a.a.a.a.a.a.a.a.a.a.a.a.a.a.a.a.a.a.a.a.a.a.a.a.a.a.a.a.a.a.a.a.a.a.a.a.a.a.a.a.a.a.a.a.a.a.a.a.a.a.a.a.a.a.a.a.a.a.a.a.",
"a.a.a.a.a.a.a.a.a.a.a.a.a.a.a.a.a.a.a.a.a.a.a.a.a.a.a.a.a.a.a.a.a.a.a.a.a.a.a.a.a.a.a.a.a.a.a.a.a.a.a.a.a.a.a.a.a.a.a.a.a.a.a.a.a.a.a.a.a.a.a.a.a.a.a.a.a.a.a.a.a.a.a.a.a.a.a.a.a.a.a.a.a.a.a.a.a.a.a.a.a.a.a.a.a.a.a.a.a.a.U R W / / / ] / ]  .} ] } ]  .@.@.@.#.@. . .#.#.*.*.*.&.&.#.&.@.&.#.#.&.&.#.@.@.@.@. . .} @.@.@.} }  . . . .}  .} } } } ` ` ` ` ] } } } } ] ` ] ] ` _ _ _ _ _ / / _ _ / _ _ _ / / / / E R R T R R R W W E E E W / / _ ] / ] }  . .} @.#.*.-.-.-.-.-.-.-.-.-.-.6.-.6.-.4.6.6.6.6.6.6.6.t.t.t.y.y.y.d.d.d.d.g.g.d.g.g.g.v.g.j.g.g.v.m.m.m.m.G.A.G.G.A.A.A.m.A.G.G.G.G.A.G.G.G.Y.K.Y.Y.Y.E.G.D.A.G.G.G.G.K.G.G.G.K.E.G.G.K.E.E.Y.G.E.Y.K.K.K.H.H.A.D.H.H.H.H.H.H.H.H.A.m.A.D.V.k.k.k.k.k.k.V.A.V.V.V.V.V.V.k.k.j.k.j.k.k.k.j.j.k.j.g.d.d.d.d.s.d.d.d.d.d.d.s.t.t.t.t.t.t.t.6.6.6.6.6.6.6.t.6.t.4.1.<.a.a.a.a.a.a.a.a.a.a.a.a.a.a.a.a.a.a.a.a.a.a.a.a.a.a.a.a.a.a.a.a.a.a.a.a.a.a.a.a.a.a.a.a.a.a.a.a.a.a.a.a.a.a.a.a.a.a.a.a.a.a.a.a.a.a.a.a.a.a.a.a.a.a.a.a.a.a.a.a.a.a.a.a.a.a.a.a.a.a.a.a.a.a.a.a.a.a.a.a.a.a.a.a.a.a.a.a.a.a.a.a.a.a.a.a.a.a.a.a.a.a.a.a.a.a.a.a.a.a.a.a.a.a.a.a.a.a.a.a.a.a.a.a.a.a.a.a.a.a.a.a.a.a.a.a.a.a.a.a.a.a.a.a.a.a.a.a.a.a.a.a.a.a.a.a.a.a.a.a.a.a.a.a.a.a.a.a.a.a.a.a.a.a.a.a.a.a.a.a.a.",
"a.a.a.a.a.a.a.a.a.a.a.a.a.a.a.a.a.a.a.a.a.a.a.a.a.a.a.a.a.a.a.a.a.a.a.a.a.a.a.a.a.a.a.a.a.a.a.a.a.a.a.a.a.a.a.a.a.a.a.a.a.a.a.a.a.a.a.a.a.a.a.a.a.a.a.a.a.a.a.a.a.a.a.a.a.a.a.a.a.a.a.a.a.a.a.a.a.a.a.a.a.a.a.a.a.a.a.a.a.p.T E / / / / ` / / } } ] } } @.@.@.@.#.@. . .#.#.&.*.&.&.#.#.&.@.&.#.@.&.&.#.#.#.#.@. . .}  .}  . .} }  . .} } } ] ] ] ] ] ` ` ] _ _ _ ] _ ] / / / / / / / / / / / / / / / / / / W W E T T T T T T R R E E E E W / / _ ` ] ] } }  .}  .#.&.-.-.-.-.-.-.-.-.-.4.-.-.-.6.-.t.6.6.6.4.4.4.t.t.t.y.y.t.y.y.d.d.g.d.d.d.g.g.v.g.g.g.v.v.m.m.m.A.A.v.A.A.m.A.A.A.G.G.G.G.A.G.G.G.Y.E.E.Y.E.Y.Y.K.G.D.G.G.K.Y.E.G.G.K.Y.E.K.K.E.E.E.E.G.G.G.K.G.K.A.V.V.V.V.A.D.H.H.H.H.H.D.A.D.D.V.k.k.k.k.k.k.V.A.A.V.A.A.A.V.k.j.j.k.k.k.k.j.j.j.j.g.k.d.g.d.s.s.y.d.d.d.s.d.d.t.y.t.t.t.t.t.t.6.4.6.6.6.6.t.t.6.4.t.4...a.a.a.a.a.a.a.a.a.a.a.a.a.a.a.a.a.a.a.a.a.a.a.a.a.a.a.a.a.a.a.a.a.a.a.a.a.a.a.a.a.a.a.a.a.a.a.a.a.a.a.a.a.a.a.a.a.a.a.a.a.a.a.a.a.a.a.a.a.a.a.a.a.a.a.a.a.a.a.a.a.a.a.a.a.a.a.a.a.a.a.a.a.a.a.a.a.a.a.a.a.a.a.a.a.a.a.a.a.a.a.a.a.a.a.a.a.a.a.a.a.a.a.a.a.a.a.a.a.a.a.a.a.a.a.a.a.a.a.a.a.a.a.a.a.a.a.a.a.a.a.a.a.a.a.a.a.a.a.a.a.a.a.a.a.a.a.a.a.a.a.a.a.a.a.a.a.a.a.a.a.a.a.a.a.a.a.a.a.a.a.a.a.a.a.a.a.a.a.a.",
"a.a.a.a.a.a.a.a.a.a.a.a.a.a.a.a.a.a.a.a.a.a.a.a.a.a.a.a.a.a.a.a.a.a.a.a.a.a.a.a.a.a.a.a.a.a.a.a.a.a.a.a.a.a.a.a.a.a.a.a.a.a.a.a.a.a.a.a.a.a.a.a.a.a.a.a.a.a.a.a.a.a.a.a.a.a.a.a.a.a.a.a.a.a.a.a.a.a.a.a.a.a.a.a.a.a.a.a.a.a.T W / / / / / / ] } } ] } } @.@. .@.@.@. . .#.#.#.&.-.&.&.#.&.@.#.#.#.#.&.&.#.#.@.@. . . . .}  . .} }  . .} ] ] _ _ _ ` ` _ _ _ _ / / / _ _ / / / / / W W W W E W W W / / / W E E E R U U U U T T R R W R R E E / / / ` _ ] } }  .}  .#.#.#.-.-.&.&.&.-.-.4.4.-.-.-.-.6.t.6.6.6.4.4.4.t.t.t.t.t.t.t.y.d.d.d.d.d.d.g.g.g.g.g.m.A.v.m.m.m.G.G.G.A.m.A.A.A.G.G.G.G.A.A.G.G.K.K.E.Y.G.Y.E.K.K.K.G.G.G.G.K.G.K.G.G.G.Y.K.G.E.E.E.K.G.G.G.G.G.H.D.A.V.V.V.V.A.D.H.H.H.H.H.D.A.D.V.V.V.V.k.k.k.V.V.V.k.V.V.A.j.k.k.j.k.k.k.k.k.k.g.g.g.g.g.g.g.f.d.f.d.d.d.d.s.d.y.y.y.t.t.t.t.t.t.6.6.6.6.6.t.6.-.t.t.t.4.a.a.a.a.a.a.a.a.a.a.a.a.a.a.a.a.a.a.a.a.a.a.a.a.a.a.a.a.a.a.a.a.a.a.a.a.a.a.a.a.a.a.a.a.a.a.a.a.a.a.a.a.a.a.a.a.a.a.a.a.a.a.a.a.a.a.a.a.a.a.a.a.a.a.a.a.a.a.a.a.a.a.a.a.a.a.a.a.a.a.a.a.a.a.a.a.a.a.a.a.a.a.a.a.a.a.a.a.a.a.a.a.a.a.a.a.a.a.a.a.a.a.a.a.a.a.a.a.a.a.a.a.a.a.a.a.a.a.a.a.a.a.a.a.a.a.a.a.a.a.a.a.a.a.a.a.a.a.a.a.a.a.a.a.a.a.a.a.a.a.a.a.a.a.a.a.a.a.a.a.a.a.a.a.a.a.a.a.a.a.a.a.a.a.a.a.a.a.a.a.",
"a.a.a.a.a.a.a.a.a.a.a.a.a.a.a.a.a.a.a.a.a.a.a.a.a.a.a.a.a.a.a.a.a.a.a.a.a.a.a.a.a.a.a.a.a.a.a.a.a.a.a.a.a.a.a.a.a.a.a.a.a.a.a.a.a.a.a.a.a.a.a.a.a.a.a.a.a.a.a.a.a.a.a.a.a.a.a.a.a.a.a.a.a.a.a.a.a.a.a.a.a.a.a.a.a.a.a.a.a.a.R / / / / / _ ] ] } } } ` }  . . . .@.@. .@.#.#.*.&.-.#.#.#.#.@.#.#.#.#.#.#.&.#.#.@.@.@.}  .@.@.@.} }  .] ] _ _ / / / / / / / / / / / / / / / / / W E E E E E E E W E E W W W R E R U U U U U U T T R R R R R E / / / _ _ ] } } } } @.#.#.#.&.*.*.*.&.*.-.-.-.-.-.4.6.6.6.6.6.6.6.6.6.6.t.t.t.t.6.t.d.y.y.y.g.y.d.g.v.g.v.v.m.v.m.A.m.v.m.m.A.A.A.A.A.G.G.A.A.A.G.G.A.A.E.Y.K.E.K.K.Y.Y.G.G.G.G.A.D.G.G.Y.K.G.E.Y.Y.Y.Y.Y.E.K.G.K.G.G.G.A.A.V.A.D.H.A.V.A.A.D.H.H.D.D.A.V.V.k.V.V.V.V.k.V.V.V.k.k.k.j.j.j.k.j.k.k.k.k.k.k.g.g.j.g.g.g.g.d.d.d.f.f.d.d.y.s.t.y.y.y.t.t.6.t.t.t.6.6.6.6.t.6.4.;.e.t.6.1.a.a.a.a.a.a.a.a.a.a.a.a.a.a.a.a.a.a.a.a.a.a.a.a.a.a.a.a.a.a.a.a.a.a.a.a.a.a.a.a.a.a.a.a.a.a.a.a.a.a.a.a.a.a.a.a.a.a.a.a.a.a.a.a.a.a.a.a.a.a.a.a.a.a.a.a.a.a.a.a.a.a.a.a.a.a.a.a.a.a.a.a.a.a.a.a.a.a.a.a.a.a.a.a.a.a.a.a.a.a.a.a.a.a.a.a.a.a.a.a.a.a.a.a.a.a.a.a.a.a.a.a.a.a.a.a.a.a.a.a.a.a.a.a.a.a.a.a.a.a.a.a.a.a.a.a.a.a.a.a.a.a.a.a.a.a.a.a.a.a.a.a.a.a.a.a.a.a.a.a.a.a.a.a.a.a.a.a.a.a.a.a.a.a.a.a.a.a.a.",
"a.a.a.a.a.a.a.a.a.a.a.a.a.a.a.a.a.a.a.a.a.a.a.a.a.a.a.a.a.a.a.a.a.a.a.a.a.a.a.a.a.a.a.a.a.a.a.a.a.a.a.a.a.a.a.a.a.a.a.a.a.a.a.a.a.a.a.a.a.a.a.a.a.a.a.a.a.a.a.a.a.a.a.a.a.a.a.a.a.a.a.a.a.a.a.a.a.a.a.a.a.a.a.a.a.a.a.a.a.J E / / / / ] ] ] ] } } ] ` }  . . .}  .@. . .#.#.-.&.*.#.#.&.#.#.#.#.#.&.&.#.#.#.#.@.@.@. . .@.} } } } } ] ] _ / / / / / / / / / / / / / / / W W W E R T R T T R R R T R R R R R T U P P U U U U U U T R T T T E / ^ / _ / ] } } } } @.#.#.#.#.*.&.&.&.-.-.-.-.-.-.4.4.-.4.4.4.4.-.4.4.4.t.t.t.t.6.t.y.t.d.y.d.g.d.g.v.g.g.v.m.v.m.A.m.m.v.v.A.m.G.G.G.G.A.A.A.m.A.G.A.A.G.G.K.E.K.G.K.G.A.G.G.G.D.D.G.D.K.K.G.K.D.G.G.G.G.E.K.G.G.G.D.D.A.V.A.A.A.D.D.A.A.D.A.m.m.m.A.A.V.V.k.V.V.V.k.k.V.V.j.V.V.k.V.j.j.j.j.j.V.k.k.k.k.j.j.g.g.g.g.g.f.s.s.s.f.s.s.s.y.y.t.t.y.y.t.t.6.6.t.6.6.6.4.6.6.-.-.e.-.6.-.*.a.a.a.a.a.a.a.a.a.a.a.a.a.a.a.a.a.a.a.a.a.a.a.a.a.a.a.a.a.a.a.a.a.a.a.a.a.a.a.a.a.a.a.a.a.a.a.a.a.a.a.a.a.a.a.a.a.a.a.a.a.a.a.a.a.a.a.a.a.a.a.a.a.a.a.a.a.a.a.a.a.a.a.a.a.a.a.a.a.a.a.a.a.a.a.a.a.a.a.a.a.a.a.a.a.a.a.a.a.a.a.a.a.a.a.a.a.a.a.a.a.a.a.a.a.a.a.a.a.a.a.a.a.a.a.a.a.a.a.a.a.a.a.a.a.a.a.a.a.a.a.a.a.a.a.a.a.a.a.a.a.a.a.a.a.a.a.a.a.a.a.a.a.a.a.a.a.a.a.a.a.a.a.a.a.a.a.a.a.a.a.a.a.a.a.a.a.a.",
"a.a.a.a.a.a.a.a.a.a.a.a.a.a.a.a.a.a.a.a.a.a.a.a.a.a.a.a.a.a.a.a.a.a.a.a.a.a.a.a.a.a.a.a.a.a.a.a.a.a.a.a.a.a.a.a.a.a.a.a.a.a.a.a.a.a.a.a.a.a.a.a.a.a.a.a.a.a.a.a.a.a.a.a.a.a.a.a.a.a.a.a.a.a.a.a.a.a.a.a.a.a.a.a.a.a.a.a.a.S E / / / / ] ] ] ] } } ] } }  .}  . .@.@. . .#.#.*.&.*.&.&.#.#.&.#.#.&.&.&.#.&.#.#.@.@.@.@. .} } } } } } ] ] / / / / / / / W / E E E T E E E E E E R R T U U U U U U U T U U U U U P F F U U P U U U U U U T T E E E / _ / ] } } } } @.#.#.#.#.#.*.&.&.&.-.-.-.-.-.-.-.-.-.-.-.-.6.6.6.6.t.t.t.t.t.t.y.y.d.y.g.g.g.g.g.g.g.g.v.v.v.m.m.v.m.v.m.A.G.G.A.A.m.m.m.A.A.G.G.G.K.K.K.K.D.G.E.G.G.G.K.K.G.K.G.G.G.G.K.G.G.G.K.K.G.G.G.G.G.K.G.G.A.k.A.A.A.A.V.A.V.A.m.m.m.m.A.D.V.V.V.V.k.k.k.k.k.j.k.k.V.V.j.k.k.k.k.k.k.k.k.k.j.j.k.g.g.g.g.g.d.f.y.y.s.s.y.s.s.y.y.y.t.t.t.t.t.t.6.6.6.4.4.6.6.6.-.-.-.-.-.-.1.a.a.a.a.a.a.a.a.a.a.a.a.a.a.a.a.a.a.a.a.a.a.a.a.a.a.a.a.a.a.a.a.a.a.a.a.a.a.a.a.a.a.a.a.a.a.a.a.a.a.a.a.a.a.a.a.a.a.a.a.a.a.a.a.a.a.a.a.a.a.a.a.a.a.a.a.a.a.a.a.a.a.a.a.a.a.a.a.a.a.a.a.a.a.a.a.a.a.a.a.a.a.a.a.a.a.a.a.a.a.a.a.a.a.a.a.a.a.a.a.a.a.a.a.a.a.a.a.a.a.a.a.a.a.a.a.a.a.a.a.a.a.a.a.a.a.a.a.a.a.a.a.a.a.a.a.a.a.a.a.a.a.a.a.a.a.a.a.a.a.a.a.a.a.a.a.a.a.a.a.a.a.a.a.a.a.a.a.a.a.a.a.a.a.a.a.a.",
"a.a.a.a.a.a.a.a.a.a.a.a.a.a.a.a.a.a.a.a.a.a.a.a.a.a.a.a.a.a.a.a.a.a.a.a.a.a.a.a.a.a.a.a.a.a.a.a.a.a.a.a.a.a.a.a.a.a.a.a.a.a.a.a.a.a.a.a.a.a.a.a.a.a.a.a.a.a.a.a.a.a.a.a.a.a.a.a.a.a.a.a.a.a.a.a.a.a.a.a.a.a.a.a.a.a.a.a.a.P / / / / / / ] } } } } } } }  . . . .@.@. .@.#.#.*.&.-.*.&.#.#.&.#.#.&.#.#.&.&.@.#.@.@.@.@. .} } } } } } ] / / / / / W E R E E R R T R R R T T T T T U G U U U P P U U U P U U U F F F F P F F F U U G U G G U R R T / _ / _ } } } }  .@.@.@.#.#.&.&.#.&.-.-.-.4.-.-.-.-.-.-.-.-.6.6.6.4.t.t.6.6.t.t.t.d.y.y.g.g.v.g.g.g.g.g.g.v.m.m.k.v.g.v.m.m.A.A.A.m.m.A.A.G.D.G.G.G.G.G.G.G.D.A.D.D.G.G.D.G.G.Y.G.G.G.G.G.G.G.G.G.G.G.G.G.G.K.K.K.G.D.V.V.V.D.A.V.A.D.V.V.A.V.V.A.V.k.V.V.V.k.k.k.V.V.k.V.V.V.V.V.k.k.j.k.k.k.k.k.k.k.k.j.g.g.g.g.g.f.f.s.s.f.f.y.y.d.d.y.y.y.t.t.t.t.t.t.t.6.4.-.4.6.6.4.-.-.*.-.4.*.a.a.a.a.a.a.a.a.a.a.a.a.a.a.a.a.a.a.a.a.a.a.a.a.a.a.a.a.a.a.a.a.a.a.a.a.a.a.a.a.a.a.a.a.a.a.a.a.a.a.a.a.a.a.a.a.a.a.a.a.a.a.a.a.a.a.a.a.a.a.a.a.a.a.a.a.a.a.a.a.a.a.a.a.a.a.a.a.a.a.a.a.a.a.a.a.a.a.a.a.a.a.a.a.a.a.a.a.a.a.a.a.a.a.a.a.a.a.a.a.a.a.a.a.a.a.a.a.a.a.a.a.a.a.a.a.a.a.a.a.a.a.a.a.a.a.a.a.a.a.a.a.a.a.a.a.a.a.a.a.a.a.a.a.a.a.a.a.a.a.a.a.a.a.a.a.a.a.a.a.a.a.a.a.a.a.a.a.a.a.a.a.a.a.a.a.a.",
"a.a.a.a.a.a.a.a.a.a.a.a.a.a.a.a.a.a.a.a.a.a.a.a.a.a.a.a.a.a.a.a.a.a.a.a.a.a.a.a.a.a.a.a.a.a.a.a.a.a.a.a.a.a.a.a.a.a.a.a.a.a.a.a.a.a.a.a.a.a.a.a.a.a.a.a.a.a.a.a.a.a.a.a.a.a.a.a.a.a.a.a.a.a.a.a.a.a.a.a.a.a.a.a.a.a.a.a.a.U W / ) ) / ] ] }  .}  .} }  . . . . . . . .@.@.#.#.#.#.#.#.#.#.#.&.&.#.#.&.#.#.#.@.@.@.@.#.@.@. . .} } } ] _ / / / / W E E R R R U U U U U G F G G F F F F F S F S S F F F F F F F F F F F F F F F P U U G G U T T / / / / ] } ] } }  .@.@.+.@.#.#.&.&.-.*.-.-.-.*.-.-.-.-.*.4.4.6.6.6.6.t.6.4.4.t.t.t.y.y.t.y.d.d.d.d.g.g.j.m.m.m.k.m.m.g.g.v.m.A.A.m.m.D.G.G.D.G.G.K.G.G.G.D.G.G.A.m.D.K.D.D.G.G.G.G.G.Y.G.G.K.G.G.G.G.G.G.G.G.G.G.G.G.V.k.A.A.V.D.A.V.V.k.k.k.V.V.k.V.V.V.k.k.k.k.k.V.V.k.k.V.k.k.k.k.j.k.k.k.k.k.j.k.g.k.k.k.k.f.g.d.s.d.f.f.f.s.f.f.s.d.d.d.d.s.t.t.t.t.t.6.t.6.6.4.4.4.t.6.4.4.6.-.-.-.a.a.a.a.a.a.a.a.a.a.a.a.a.a.a.a.a.a.a.a.a.a.a.a.a.a.a.a.a.a.a.a.a.a.a.a.a.a.a.a.a.a.a.a.a.a.a.a.a.a.a.a.a.a.a.a.a.a.a.a.a.a.a.a.a.a.a.a.a.a.a.a.a.a.a.a.a.a.a.a.a.a.a.a.a.a.a.a.a.a.a.a.a.a.a.a.a.a.a.a.a.a.a.a.a.a.a.a.a.a.a.a.a.a.a.a.a.a.a.a.a.a.a.a.a.a.a.a.a.a.a.a.a.a.a.a.a.a.a.a.a.a.a.a.a.a.a.a.a.a.a.a.a.a.a.a.a.a.a.a.a.a.a.a.a.a.a.a.a.a.a.a.a.a.a.a.a.a.a.a.a.a.a.a.a.a.a.a.a.a.a.a.a.a.a.a.",
"a.a.a.a.a.a.a.a.a.a.a.a.a.a.a.a.a.a.a.a.a.a.a.a.a.a.a.a.a.a.a.a.a.a.a.a.a.a.a.a.a.a.a.a.a.a.a.a.a.a.a.a.a.a.a.a.a.a.a.a.a.a.a.a.a.a.a.a.a.a.a.a.a.a.a.a.a.a.a.a.a.a.a.a.a.a.a.a.a.a.a.a.a.a.a.a.a.a.a.a.a.a.a.a.a.a.a.a.a.U W / ) ] ] ] ] }  .} } } ] }  . . . . . .@.#.#.@.#.#.#.#.&.&.&.&.#.#.#.&.&.&.&.&.#.#.@.@.@.@.@.} } } ] _ ] / / / W W E E R U U U U G U U F F F F F F F F S Z C C C Z Z S S S S S F F F F F S S S S F U U U G G T T E / / / _ } ] } }  .@.@.@.@.@.@.#.&.&.-.-.-.*.&.&.&.*.-.-.4.6.4.4.6.t.t.4.4.6.t.t.y.y.t.t.d.g.d.g.g.g.g.j.m.m.j.k.k.j.g.v.m.A.m.A.m.G.G.G.A.m.D.G.G.G.E.G.G.G.G.G.D.D.D.A.D.K.G.G.D.G.Y.G.G.G.A.A.G.K.G.G.D.D.G.G.G.G.A.k.k.V.A.D.V.k.V.V.V.A.V.V.A.V.V.k.k.k.k.k.k.k.V.V.k.V.k.k.k.k.k.k.k.k.k.k.j.k.k.k.k.k.k.f.g.g.f.d.g.f.s.y.y.y.s.d.d.s.s.s.y.t.t.t.t.6.6.t.t.6.6.4.6.6.6.6.6.-.-.-.1.a.a.a.a.a.a.a.a.a.a.a.a.a.a.a.a.a.a.a.a.a.a.a.a.a.a.a.a.a.a.a.a.a.a.a.a.a.a.a.a.a.a.a.a.a.a.a.a.a.a.a.a.a.a.a.a.a.a.a.a.a.a.a.a.a.a.a.a.a.a.a.a.a.a.a.a.a.a.a.a.a.a.a.a.a.a.a.a.a.a.a.a.a.a.a.a.a.a.a.a.a.a.a.a.a.a.a.a.a.a.a.a.a.a.a.a.a.a.a.a.a.a.a.a.a.a.a.a.a.a.a.a.a.a.a.a.a.a.a.a.a.a.a.a.a.a.a.a.a.a.a.a.a.a.a.a.a.a.a.a.a.a.a.a.a.a.a.a.a.a.a.a.a.a.a.a.a.a.a.a.a.a.a.a.a.a.a.a.a.a.a.a.a.a.a.",
"a.a.a.a.a.a.a.a.a.a.a.a.a.a.a.a.a.a.a.a.a.a.a.a.a.a.a.a.a.a.a.a.a.a.a.a.a.a.a.a.a.a.a.a.a.a.a.a.a.a.a.a.a.a.a.a.a.a.a.a.a.a.a.a.a.a.a.a.a.a.a.a.a.a.a.a.a.a.a.a.a.a.a.a.a.a.a.a.a.a.a.a.a.a.a.a.a.a.a.a.a.a.a.a.a.a.a.a.a.R W / ) _ ] ] ] } }  .} } } }  .}  . . . . .@.@.@.#.#.#.#.&.&.&.&.#.#.&.&.&.&.&.#.#.#.@.@.@.@. .} } } ] _ ` / / / W E R R R U U U U G G G F F S S S S S S C C C C C C C C Z S S S F F F F F S S S S F F F U P U T T T E / / _ ] _ }  . . .@.@.@.@.#.&.&.&.-.*.*.&.&.#.&.-.-.4.-.6.4.4.6.6.6.6.6.6.t.y.t.y.t.y.y.d.d.d.d.g.j.k.k.k.k.m.m.j.j.v.m.m.m.m.A.A.A.G.A.A.D.D.D.G.G.G.G.G.G.D.D.m.A.A.G.K.Y.G.K.G.G.G.G.G.G.D.D.D.D.D.A.D.G.D.A.A.A.V.V.A.A.V.V.V.m.V.A.V.V.V.V.k.Z.k.k.k.A.k.V.V.V.k.k.k.k.k.k.k.V.j.k.j.k.k.k.k.d.d.d.d.g.f.k.k.g.g.g.d.f.f.y.y.f.s.y.y.y.y.y.y.t.t.t.t.t.6.6.6.6.-.4.4.4.4.r.-.-.-.1.1.a.a.a.a.a.a.a.a.a.a.a.a.a.a.a.a.a.a.a.a.a.a.a.a.a.a.a.a.a.a.a.a.a.a.a.a.a.a.a.a.a.a.a.a.a.a.a.a.a.a.a.a.a.a.a.a.a.a.a.a.a.a.a.a.a.a.a.a.a.a.a.a.a.a.a.a.a.a.a.a.a.a.a.a.a.a.a.a.a.a.a.a.a.a.a.a.a.a.a.a.a.a.a.a.a.a.a.a.a.a.a.a.a.a.a.a.a.a.a.a.a.a.a.a.a.a.a.a.a.a.a.a.a.a.a.a.a.a.a.a.a.a.a.a.a.a.a.a.a.a.a.a.a.a.a.a.a.a.a.a.a.a.a.a.a.a.a.a.a.a.a.a.a.a.a.a.a.a.a.a.a.a.a.a.a.a.a.a.a.a.a.a.a.a.",
"a.a.a.a.a.a.a.a.a.a.a.a.a.a.a.a.a.a.a.a.a.a.a.a.a.a.a.a.a.a.a.a.a.a.a.a.a.a.a.a.a.a.a.a.a.a.a.a.a.a.a.a.a.a.a.a.a.a.a.a.a.a.a.a.a.a.a.a.a.a.a.a.a.a.a.a.a.a.a.a.a.a.a.a.a.a.a.a.a.a.a.a.a.a.a.a.a.a.a.a.a.a.a.a.a.a.a.a.V R / / _ ] ] } ]  .} @.}  .} } } } }  . .@.@.@.@.#.#.#.#.#.#.#.#.&.-.-.&.#.&.*.&.@.#.&.#.@.@.@. . .} } _ / _ / / / E R T T U U U U F F S S S S Z C C C C C B B B B B B B B C C S S S F S S S S S S S S F F U U G T R E / / / _ ] / }  . . . . .+.@.#.#.#.#.*.*.&.#.#.&.&.-.-.4.-.-.-.4.-.4.6.6.t.6.t.t.t.t.t.y.t.y.d.y.d.g.g.j.k.m.m.m.m.A.m.m.m.m.m.A.m.A.A.A.A.A.G.A.D.D.D.D.G.G.A.D.G.D.D.A.G.K.G.A.A.K.G.G.D.A.G.K.G.G.D.A.A.A.G.G.G.A.A.k.V.V.A.k.V.V.m.A.A.V.j.j.j.j.V.k.k.V.Z.V.Z.V.A.k.k.k.V.k.k.k.V.j.j.k.k.k.k.k.d.k.k.g.d.f.k.k.k.k.d.d.d.f.d.y.t.y.y.t.t.t.y.y.t.t.t.t.6.6.6.6.6.-.-.4.4.4.4.-.-.#.-.-.4.a.a.a.a.a.a.a.a.a.a.a.a.a.a.a.a.a.a.a.a.a.a.a.a.a.a.a.a.a.a.a.a.a.a.a.a.a.a.a.a.a.a.a.a.a.a.a.a.a.a.a.a.a.a.a.a.a.a.a.a.a.a.a.a.a.a.a.a.a.a.a.a.a.a.a.a.a.a.a.a.a.a.a.a.a.a.a.a.a.a.a.a.a.a.a.a.a.a.a.a.a.a.a.a.a.a.a.a.a.a.a.a.a.a.a.a.a.a.a.a.a.a.a.a.a.a.a.a.a.a.a.a.a.a.a.a.a.a.a.a.a.a.a.a.a.a.a.a.a.a.a.a.a.a.a.a.a.a.a.a.a.a.a.a.a.a.a.a.a.a.a.a.a.a.a.a.a.a.a.a.a.a.a.a.a.a.a.a.a.a.a.a.a.",
"a.a.a.a.a.a.a.a.a.a.a.a.a.a.a.a.a.a.a.a.a.a.a.a.a.a.a.a.a.a.a.a.a.a.a.a.a.a.a.a.a.a.a.a.a.a.a.a.a.a.a.a.a.a.a.a.a.a.a.a.a.a.a.a.a.a.a.a.a.a.a.a.a.a.a.a.a.a.a.a.a.a.a.a.a.a.a.a.a.a.a.a.a.a.a.a.a.a.a.a.a.a.a.a.a.a.a.a.V R / / ] ] ]  .} }  . . .} } } } }  . . .@.@.@.@.@.#.#.#.#.&.&.&.&.&.&.&.&.&.&.&.#.@.#.#.@.@.@.} } } ] / _ / / / E R R R R U P U F S S S S Z Z C C C B B m m n n n l l n n B B B Z S S S S S S S S S S S S F U U T R / / / W / _ ] } }  . .+.+.+.@.#.#.#.&.-.&.&.&.&.*.-.-.-.-.4.6.-.-.-.4.6.6.6.t.t.t.t.t.t.y.d.d.d.d.d.g.j.g.g.g.v.m.k.m.m.m.m.v.v.A.m.v.m.m.m.D.G.G.D.m.A.D.Y.K.D.G.G.D.m.A.D.A.G.G.D.G.G.G.G.Y.Y.K.G.K.G.m.G.A.A.G.G.A.A.V.V.V.V.k.j.V.A.H.A.V.V.k.k.k.k.k.V.V.Z.V.V.Z.V.k.V.V.V.k.k.k.j.k.k.d.f.k.k.d.d.k.k.g.f.k.d.d.j.k.d.f.d.f.s.s.f.s.s.y.t.t.t.y.t.t.t.t.t.6.6.6.4.-.4.-.-.-.-.-.-.-.-.-.6.a.a.a.a.a.a.a.a.a.a.a.a.a.a.a.a.a.a.a.a.a.a.a.a.a.a.a.a.a.a.a.a.a.a.a.a.a.a.a.a.a.a.a.a.a.a.a.a.a.a.a.a.a.a.a.a.a.a.a.a.a.a.a.a.a.a.a.a.a.a.a.a.a.a.a.a.a.a.a.a.a.a.a.a.a.a.a.a.a.a.a.a.a.a.a.a.a.a.a.a.a.a.a.a.a.a.a.a.a.a.a.a.a.a.a.a.a.a.a.a.a.a.a.a.a.a.a.a.a.a.a.a.a.a.a.a.a.a.a.a.a.a.a.a.a.a.a.a.a.a.a.a.a.a.a.a.a.a.a.a.a.a.a.a.a.a.a.a.a.a.a.a.a.a.a.a.a.a.a.a.a.a.a.a.a.a.a.a.a.a.a.a.a.",
"a.a.a.a.a.a.a.a.a.a.a.a.a.a.a.a.a.a.a.a.a.a.a.a.a.a.a.a.a.a.a.a.a.a.a.a.a.a.a.a.a.a.a.a.a.a.a.a.a.a.a.a.a.a.a.a.a.a.a.a.a.a.a.a.a.a.a.a.a.a.a.a.a.a.a.a.a.a.a.a.a.a.a.a.a.a.a.a.a.a.a.a.a.a.a.a.a.a.a.a.a.a.a.a.a.a.a.a.Z / / / ]  .} ] ] }  . . . .} } } }  . . .@.@.@.#.#.#.@.#.#.#.&.&.*.&.&.-.&.&.&.&.#.#.#.@.@.@.@.} } ] _ / _ / / ^ T R R T G P F F F S S S Z C C B B B m n l l l l l d k l l l m B C Z S S Z S S S Z S S S S F G U U E W / / / / _ ] } }  . .} +. .@.@.#.#.&.&.&.#.&.&.&.-.-.-.-.-.-.4.-.-.-.6.-.6.t.t.t.t.t.t.y.y.y.d.d.d.d.g.g.g.v.m.j.j.j.m.m.m.v.v.m.m.m.m.G.G.G.G.A.A.D.G.E.G.G.K.A.m.m.m.D.G.G.G.G.G.A.G.G.G.D.Y.K.G.G.G.G.G.G.D.D.A.A.A.V.V.V.k.k.V.A.V.A.V.V.V.k.j.j.V.Z.A.k.k.k.k.k.k.k.k.k.k.k.k.k.k.g.d.g.d.k.d.f.d.d.g.g.g.g.d.f.k.k.d.f.f.f.s.s.y.f.d.y.t.t.t.t.t.t.t.t.t.t.t.6.4.-.-.-.-.-.-.-.*.-.-.-.-.*.a.a.a.a.a.a.a.a.a.a.a.a.a.a.a.a.a.a.a.a.a.a.a.a.a.a.a.a.a.a.a.a.a.a.a.a.a.a.a.a.a.a.a.a.a.a.a.a.a.a.a.a.a.a.a.a.a.a.a.a.a.a.a.a.a.a.a.a.a.a.a.a.a.a.a.a.a.a.a.a.a.a.a.a.a.a.a.a.a.a.a.a.a.a.a.a.a.a.a.a.a.a.a.a.a.a.a.a.a.a.a.a.a.a.a.a.a.a.a.a.a.a.a.a.a.a.a.a.a.a.a.a.a.a.a.a.a.a.a.a.a.a.a.a.a.a.a.a.a.a.a.a.a.a.a.a.a.a.a.a.a.a.a.a.a.a.a.a.a.a.a.a.a.a.a.a.a.a.a.a.a.a.a.a.a.a.a.a.a.a.a.a.",
"a.a.a.a.a.a.a.a.a.a.a.a.a.a.a.a.a.a.a.a.a.a.a.a.a.a.a.a.a.a.a.a.a.a.a.a.a.a.a.a.a.a.a.a.a.a.a.a.a.a.a.a.a.a.a.a.a.a.a.a.a.a.a.a.a.a.a.a.a.a.a.a.a.a.a.a.a.a.a.a.a.a.a.a.a.a.a.a.a.a.a.a.a.a.a.a.a.a.a.a.a.a.a.a.a.a.a.a.P / / _ `  . .] ] }  . . .} } } } }  . . .@.@.@.#.#.#.#.#.*.&.&.-.-.#.&.-.&.&.&.&.&.#.@.@.@. . .} } ] _ / / / E T T R R U G F F S S S Z C C C C B B B n n l d d d d s s d d d j x B Z Z Z Z C Z Z Z S S S S F P U U R W / / / _ _ ] } } }  .}  .+.@.@.#.@.&.*.&.#.#.&.&.*.-.-.*.-.-.4.-.-.-.6.4.6.t.6.t.t.t.d.y.y.y.y.d.d.d.g.g.g.k.j.g.k.m.v.j.g.v.m.m.m.m.D.D.D.G.A.A.A.m.G.E.G.D.G.m.m.D.m.A.G.G.G.A.A.K.G.G.D.D.K.D.G.G.G.G.G.G.A.G.D.D.D.m.V.A.V.V.A.V.m.V.k.V.A.V.k.j.V.V.A.k.V.V.k.V.V.k.k.k.k.k.k.k.k.k.k.k.d.k.k.f.f.f.f.f.k.d.d.d.f.k.d.f.f.f.s.s.f.d.d.s.t.t.t.t.t.t.t.t.t.t.t.6.6.4.-.-.-.-.-.-.1.1.-.*.*.#.#.a.a.a.a.a.a.a.a.a.a.a.a.a.a.a.a.a.a.a.a.a.a.a.a.a.a.a.a.a.a.a.a.a.a.a.a.a.a.a.a.a.a.a.a.a.a.a.a.a.a.a.a.a.a.a.a.a.a.a.a.a.a.a.a.a.a.a.a.a.a.a.a.a.a.a.a.a.a.a.a.a.a.a.a.a.a.a.a.a.a.a.a.a.a.a.a.a.a.a.a.a.a.a.a.a.a.a.a.a.a.a.a.a.a.a.a.a.a.a.a.a.a.a.a.a.a.a.a.a.a.a.a.a.a.a.a.a.a.a.a.a.a.a.a.a.a.a.a.a.a.a.a.a.a.a.a.a.a.a.a.a.a.a.a.a.a.a.a.a.a.a.a.a.a.a.a.a.a.a.a.a.a.a.a.a.a.a.a.a.a.a.",
"a.a.a.a.a.a.a.a.a.a.a.a.a.a.a.a.a.a.a.a.a.a.a.a.a.a.a.a.a.a.a.a.a.a.a.a.a.a.a.a.a.a.a.a.a.a.a.a.a.a.a.a.a.a.a.a.a.a.a.a.a.a.a.a.a.a.a.a.a.a.a.a.a.a.a.a.a.a.a.a.a.a.a.a.a.a.a.a.a.a.a.a.a.a.a.a.a.a.a.a.a.a.a.a.a.a.a.a.U / _ ] ] }  . .}  . . .} } }  . .}  . . .@.@.@.#.#.#.#.#.*.-.&.&.-.&.&.-.&.&.*.#.#.#.@.@.@.#.@.} } ` _ / / / E E T T U U G F S S S Z C C C B B m n l l l l d d d s s s s s d d d n B B B C C B C C Z S S Z F U G U U W / / / _ _ ] ] ` }  .}  .} @.@.#.#.#.&.&.#.&.-.&.*.-.-.*.*.*.4.-.4.4.t.6.6.t.6.6.t.t.y.y.y.t.y.d.d.y.g.g.d.j.m.m.j.v.j.j.g.v.m.m.m.j.m.m.m.G.A.A.A.G.D.K.D.A.G.G.D.G.D.G.G.G.G.G.G.D.K.D.A.D.D.G.G.G.D.m.D.D.A.D.D.D.A.A.V.V.A.V.V.A.m.V.V.A.A.V.k.j.k.V.Z.Z.V.V.k.V.k.V.V.V.V.V.k.j.V.j.j.k.k.k.k.k.k.k.d.k.j.d.f.d.f.f.d.f.f.f.s.s.d.d.d.d.y.y.t.t.t.t.t.t.t.t.t.t.t.6.4.-.-.-.-.-.-.1.-.*.*.$.#.@.a.a.a.a.a.a.a.a.a.a.a.a.a.a.a.a.a.a.a.a.a.a.a.a.a.a.a.a.a.a.a.a.a.a.a.a.a.a.a.a.a.a.a.a.a.a.a.a.a.a.a.a.a.a.a.a.a.a.a.a.a.a.a.a.a.a.a.a.a.a.a.a.a.a.a.a.a.a.a.a.a.a.a.a.a.a.a.a.a.a.a.a.a.a.a.a.a.a.a.a.a.a.a.a.a.a.a.a.a.a.a.a.a.a.a.a.a.a.a.a.a.a.a.a.a.a.a.a.a.a.a.a.a.a.a.a.a.a.a.a.a.a.a.a.a.a.a.a.a.a.a.a.a.a.a.a.a.a.a.a.a.a.a.a.a.a.a.a.a.a.a.a.a.a.a.a.a.a.a.a.a.a.a.a.a.a.a.a.a.a.",
"a.a.a.a.a.a.a.a.a.a.a.a.a.a.a.a.a.a.a.a.a.a.a.a.a.a.a.a.a.a.a.a.a.a.a.a.a.a.a.a.a.a.a.a.a.a.a.a.a.a.a.a.a.a.a.a.a.a.a.a.a.a.a.a.a.a.a.a.a.a.a.a.a.a.a.a.a.a.a.a.a.a.a.a.a.a.a.a.a.a.a.a.a.a.a.a.a.a.a.a.a.a.a.a.a.a.a.a.R / ] } ]  . . . . . . .} } }  . .}  . . . .@.@.#.#.#.#.#.#.-.-.&.&.&.&.-.&.*.#.#.#.#.@.@. .@.@. .} ] / / / / W E T T U G F G G S S S C C B B m l l l k d d h s s s p p p p s s h k m B C C B B B C Z Z Z S S S P U R W / W / _ ] ] } }  . . . . .@.#.@.@.@.&.#.@.-.-.-.-.-.*.-.*.-.-.-.4.-.4.4.t.t.6.4.t.t.y.y.y.t.d.y.t.t.g.g.g.g.g.g.g.g.j.g.v.m.m.A.v.j.m.m.D.G.K.G.G.G.D.Y.A.G.K.G.G.G.D.D.G.K.G.G.G.D.G.A.m.D.m.A.D.A.m.A.V.V.k.V.V.V.V.V.A.V.k.V.V.A.V.m.G.G.A.V.k.k.k.A.D.Z.D.j.k.V.v.k.j.j.k.V.V.j.V.V.V.k.k.k.k.k.k.k.k.k.k.k.f.g.k.f.f.s.s.f.s.s.f.d.d.d.s.y.y.s.y.t.t.t.t.t.t.6.t.t.t.t.6.6.-.-.-.-.-.-.-.&.*.&.#.a.a.a.a.a.a.a.a.a.a.a.a.a.a.a.a.a.a.a.a.a.a.a.a.a.a.a.a.a.a.a.a.a.a.a.a.a.a.a.a.a.a.a.a.a.a.a.a.a.a.a.a.a.a.a.a.a.a.a.a.a.a.a.a.a.a.a.a.a.a.a.a.a.a.a.a.a.a.a.a.a.a.a.a.a.a.a.a.a.a.a.a.a.a.a.a.a.a.a.a.a.a.a.a.a.a.a.a.a.a.a.a.a.a.a.a.a.a.a.a.a.a.a.a.a.a.a.a.a.a.a.a.a.a.a.a.a.a.a.a.a.a.a.a.a.a.a.a.a.a.a.a.a.a.a.a.a.a.a.a.a.a.a.a.a.a.a.a.a.a.a.a.a.a.a.a.a.a.a.a.a.a.a.a.a.a.a.a.a.",
"a.a.a.a.a.a.a.a.a.a.a.a.a.a.a.a.a.a.a.a.a.a.a.a.a.a.a.a.a.a.a.a.a.a.a.a.a.a.a.a.a.a.a.a.a.a.a.a.a.a.a.a.a.a.a.a.a.a.a.a.a.a.a.a.a.a.a.a.a.a.a.a.a.a.a.a.a.a.a.a.a.a.a.a.a.a.a.a.a.a.a.a.a.a.a.a.a.a.a.a.a.a.a.a.a.a.a.B W / ] } } } @.@. . . . .} } } }  . . . . . .@.@.#.#.#.#.#.#.&.&.-.-.&.&.&.&.#.#.#.#.#.@.+.@.@. .} ] _ / / / / W E R T T G F G S S S Z C C B m m l l k d d d h h s s p p t t t p s d n B B C B B B B C Z Z S Z S F U R W W W / _ ] ] } }  . . . .} @.@.@.@.@.#.#.#.#.*.*.&.-.&.&.*.-.-.-.-.4.4.4.6.6.6.4.t.t.t.y.y.y.d.d.y.d.d.d.g.g.g.g.g.j.j.j.v.v.v.m.j.v.m.A.A.D.G.G.D.m.A.A.k.G.D.m.D.G.m.m.D.K.D.m.D.G.G.G.A.m.m.m.m.m.j.j.V.V.V.A.V.V.V.V.V.V.k.A.A.V.V.m.D.m.A.A.m.A.V.D.m.V.A.k.k.V.V.V.V.A.V.V.j.k.k.V.V.k.k.k.k.k.k.V.k.k.k.k.h.k.g.f.f.f.f.f.f.f.f.d.d.f.f.f.s.s.y.t.t.t.t.t.6.6.6.6.6.4.4.-.-.-.4.-.-.-.-.*.&.#.@.a.a.a.a.a.a.a.a.a.a.a.a.a.a.a.a.a.a.a.a.a.a.a.a.a.a.a.a.a.a.a.a.a.a.a.a.a.a.a.a.a.a.a.a.a.a.a.a.a.a.a.a.a.a.a.a.a.a.a.a.a.a.a.a.a.a.a.a.a.a.a.a.a.a.a.a.a.a.a.a.a.a.a.a.a.a.a.a.a.a.a.a.a.a.a.a.a.a.a.a.a.a.a.a.a.a.a.a.a.a.a.a.a.a.a.a.a.a.a.a.a.a.a.a.a.a.a.a.a.a.a.a.a.a.a.a.a.a.a.a.a.a.a.a.a.a.a.a.a.a.a.a.a.a.a.a.a.a.a.a.a.a.a.a.a.a.a.a.a.a.a.a.a.a.a.a.a.a.a.a.a.a.a.a.a.a.a.a.a.",
"a.a.a.a.a.a.a.a.a.a.a.a.a.a.a.a.a.a.a.a.a.a.a.a.a.a.a.a.a.a.a.a.a.a.a.a.a.a.a.a.a.a.a.a.a.a.a.a.a.a.a.a.a.a.a.a.a.a.a.a.a.a.a.a.a.a.a.a.a.a.a.a.a.a.a.a.a.a.a.a.a.a.a.a.a.a.a.a.a.a.a.a.a.a.a.a.a.a.a.a.a.a.a.a.a.a.a.S W / ] }  .}  .@. . . . . . .}  . . . . . . .@.@.#.#.#.#.#.#.*.*.*.*.*.*.&.#.#.@.@.@.@.@.+. . . .} ` / / / / / W E T U G G F F F S S Z C C B B m l l l k d d h h s p p t t 9 9 t p h l m B B B m m B B Z Z Z Z S F U R W W / / / ] _ ] }  . . . . . . .} @.@.#.#.#.#.*.*.-.*.&.-.&.1.-.-.-.6.4.4.4.6.4.6.6.t.t.t.y.d.d.y.y.d.d.d.g.g.g.g.g.g.g.g.g.g.v.v.g.v.m.m.A.A.m.D.G.G.Y.G.D.A.D.G.G.G.G.A.A.m.m.j.A.D.A.G.D.A.D.A.m.m.m.V.V.V.V.V.V.A.V.A.V.V.V.k.V.V.A.V.m.A.m.m.V.V.k.m.A.m.A.m.k.m.H.V.V.V.V.k.k.V.V.V.V.k.k.k.k.k.k.k.k.k.k.k.k.k.k.d.f.f.d.d.f.f.f.f.f.s.y.s.y.y.y.y.t.t.t.t.6.6.-.6.6.4.4.4.-.-.-.-.-.-.*.&.&.&.#. .a.a.a.a.a.a.a.a.a.a.a.a.a.a.a.a.a.a.a.a.a.a.a.a.a.a.a.a.a.a.a.a.a.a.a.a.a.a.a.a.a.a.a.a.a.a.a.a.a.a.a.a.a.a.a.a.a.a.a.a.a.a.a.a.a.a.a.a.a.a.a.a.a.a.a.a.a.a.a.a.a.a.a.a.a.a.a.a.a.a.a.a.a.a.a.a.a.a.a.a.a.a.a.a.a.a.a.a.a.a.a.a.a.a.a.a.a.a.a.a.a.a.a.a.a.a.a.a.a.a.a.a.a.a.a.a.a.a.a.a.a.a.a.a.a.a.a.a.a.a.a.a.a.a.a.a.a.a.a.a.a.a.a.a.a.a.a.a.a.a.a.a.a.a.a.a.a.a.a.a.a.a.a.a.a.a.a.a.",
"a.a.a.a.a.a.a.a.a.a.a.a.a.a.a.a.a.a.a.a.a.a.a.a.a.a.a.a.a.a.a.a.a.a.a.a.a.a.a.a.a.a.a.a.a.a.a.a.a.a.a.a.a.a.a.a.a.a.a.a.a.a.a.a.a.a.a.a.a.a.a.a.a.a.a.a.a.a.a.a.a.a.a.a.a.a.a.a.a.a.a.a.a.a.a.a.a.a.a.a.a.a.a.a.a.a.a.J / ] } }  . .@.#.@. . . . . . . . .}  . .@.@.@.@.#.#.#.#.#.#.*.*.*.*.*.*.#.#.@.@.@.@.@.@.+. . .} } _ / / / / W W E T T G G G G F F S S C C C B m l l l l k d h s s p p t 9 9 9 9 p s j n B B B m m m B C S Z Z S F U R R W W / / _ _ ] }  . .}  . .@. . .@. . .#.#.#.#.-.*.*.*.-.-.-.-.-.-.6.-.-.-.4.4.6.6.t.t.y.y.y.y.y.y.g.d.g.g.g.g.g.g.g.g.g.v.v.v.g.g.m.m.m.m.A.m.m.D.G.E.m.m.D.G.K.D.G.G.D.m.m.D.m.G.G.A.G.A.A.A.m.m.D.A.V.V.V.j.V.A.D.A.A.k.k.k.V.k.V.V.V.k.V.m.m.m.V.m.A.m.m.V.D.m.A.V.V.V.V.V.j.j.k.k.V.k.k.k.k.k.g.h.h.h.k.k.k.k.k.k.k.d.f.f.f.f.s.f.s.f.s.y.t.y.t.y.s.s.y.t.t.t.t.6.6.6.4.4.4.-.-.-.-.-.-.-.-.-.&.&.#. .a.a.a.a.a.a.a.a.a.a.a.a.a.a.a.a.a.a.a.a.a.a.a.a.a.a.a.a.a.a.a.a.a.a.a.a.a.a.a.a.a.a.a.a.a.a.a.a.a.a.a.a.a.a.a.a.a.a.a.a.a.a.a.a.a.a.a.a.a.a.a.a.a.a.a.a.a.a.a.a.a.a.a.a.a.a.a.a.a.a.a.a.a.a.a.a.a.a.a.a.a.a.a.a.a.a.a.a.a.a.a.a.a.a.a.a.a.a.a.a.a.a.a.a.a.a.a.a.a.a.a.a.a.a.a.a.a.a.a.a.a.a.a.a.a.a.a.a.a.a.a.a.a.a.a.a.a.a.a.a.a.a.a.a.a.a.a.a.a.a.a.a.a.a.a.a.a.a.a.a.a.a.a.a.a.a.a.",
"a.a.a.a.a.a.a.a.a.a.a.a.a.a.a.a.a.a.a.a.a.a.a.a.a.a.a.a.a.a.a.a.a.a.a.a.a.a.a.a.a.a.a.a.a.a.a.a.a.a.a.a.a.a.a.a.a.a.a.a.a.a.a.a.a.a.a.a.a.a.a.a.a.a.a.a.a.a.a.a.a.a.a.a.a.a.a.a.a.a.a.a.a.a.a.a.a.a.a.a.a.a.a.a.a.a.a.U / }  . . . .@.#. .@. . . . . .@. . . . .@.@.@.@.#.#.#.#.#.*.#.*.*.#.*.*.#.#.@.@.@.@.@.} }  . .} } _ / / / W / W E R T U G G G G G S S Z C C B B n l l l l d h s s s s t 9 9 9 9 9 t d m B B B m m n B C Z Z Z S S U R W W W / / _ _ } }  . . . . .@. .@.@. . . .@.#.#.#.#.#.&.*.-.*.-.*.-.4.-.-.4.-.4.t.t.t.t.y.y.y.y.y.g.d.g.g.d.g.g.g.g.g.d.g.g.j.m.v.A.m.k.m.m.A.m.m.A.A.D.A.m.D.G.G.D.G.m.m.m.m.G.D.K.D.D.m.m.D.m.m.m.A.A.A.k.k.V.A.A.D.V.j.k.k.k.V.j.k.j.V.m.A.A.V.m.D.m.m.m.V.m.H.k.A.j.V.V.V.k.V.k.j.k.k.k.k.k.k.k.k.k.k.k.k.k.k.k.k.k.g.k.k.g.f.y.y.f.f.f.s.s.y.s.y.y.s.s.y.y.y.t.t.t.6.6.6.4.-.-.-.-.-.-.*.*.*.-.*.*.#.@.#.a.a.a.a.a.a.a.a.a.a.a.a.a.a.a.a.a.a.a.a.a.a.a.a.a.a.a.a.a.a.a.a.a.a.a.a.a.a.a.a.a.a.a.a.a.a.a.a.a.a.a.a.a.a.a.a.a.a.a.a.a.a.a.a.a.a.a.a.a.a.a.a.a.a.a.a.a.a.a.a.a.a.a.a.a.a.a.a.a.a.a.a.a.a.a.a.a.a.a.a.a.a.a.a.a.a.a.a.a.a.a.a.a.a.a.a.a.a.a.a.a.a.a.a.a.a.a.a.a.a.a.a.a.a.a.a.a.a.a.a.a.a.a.a.a.a.a.a.a.a.a.a.a.a.a.a.a.a.a.a.a.a.a.a.a.a.a.a.a.a.a.a.a.a.a.a.a.a.a.a.a.a.a.a.a.a.",
"a.a.a.a.a.a.a.a.a.a.a.a.a.a.a.a.a.a.a.a.a.a.a.a.a.a.a.a.a.a.a.a.a.a.a.a.a.a.a.a.a.a.a.a.a.a.a.a.a.a.a.a.a.a.a.a.a.a.a.a.a.a.a.a.a.a.a.a.a.a.a.a.a.a.a.a.a.a.a.a.a.a.a.a.a.a.a.a.a.a.a.a.a.a.a.a.a.a.a.a.a.a.a.a.a.a.a.W _  . . . .@.@.#.@.@. . . . . . . . . . .@.@.@.@.#.#.#.#.#.#.&.*.*.&.*.*.#.@.@.@.@.@.@.} } } } } ` _ / / / W / E E R T T U U U U U F S Z C C Z B m n l l l d h s s s p p t 9 9 8 9 t s m m m m m m l n B C Z Z Z F P U W W W / / _ _ } } }  . . . .@.@.@.@.@. . .@.#.#.#.#.#.&.*.-.*.-.-.-.-.-.-.4.-.6.t.t.t.t.t.y.y.y.y.d.d.d.g.g.g.g.j.v.g.g.j.j.j.v.v.m.v.m.m.m.j.g.k.m.m.D.A.D.G.G.G.G.G.k.m.m.m.G.G.G.D.m.m.A.D.m.A.A.m.j.k.j.V.V.V.V.V.V.A.k.k.V.V.k.V.m.D.H.A.m.V.V.A.A.D.V.D.A.m.V.A.k.V.V.V.V.V.V.k.V.V.k.k.k.k.k.k.k.k.k.k.k.k.k.k.k.d.k.k.k.f.f.s.f.f.f.f.s.y.f.s.s.s.s.y.y.y.y.t.t.6.6.6.6.4.-.-.4.-.-.-.-.-.&.&.-.*.@.@. .a.a.a.a.a.a.a.a.a.a.a.a.a.a.a.a.a.a.a.a.a.a.a.a.a.a.a.a.a.a.a.a.a.a.a.a.a.a.a.a.a.a.a.a.a.a.a.a.a.a.a.a.a.a.a.a.a.a.a.a.a.a.a.a.a.a.a.a.a.a.a.a.a.a.a.a.a.a.a.a.a.a.a.a.a.a.a.a.a.a.a.a.a.a.a.a.a.a.a.a.a.a.a.a.a.a.a.a.a.a.a.a.a.a.a.a.a.a.a.a.a.a.a.a.a.a.a.a.a.a.a.a.a.a.a.a.a.a.a.a.a.a.a.a.a.a.a.a.a.a.a.a.a.a.a.a.a.a.a.a.a.a.a.a.a.a.a.a.a.a.a.a.a.a.a.a.a.a.a.a.a.a.a.a.a.",
"a.a.a.a.a.a.a.a.a.a.a.a.a.a.a.a.a.a.a.a.a.a.a.a.a.a.a.a.a.a.a.a.a.a.a.a.a.a.a.a.a.a.a.a.a.a.a.a.a.a.a.a.a.a.a.a.a.a.a.a.a.a.a.a.a.a.a.a.a.a.a.a.a.a.a.a.a.a.a.a.a.a.a.a.a.a.a.a.a.a.a.a.a.a.a.a.a.a.a.a.a.a.a.a.a.a.a.W }  . .#.#.#.#.#.#.@. . . . . . .@.@.@.@.@.@.@.@.@.#.@.#.#.#.&.&.&.&.#.&.&.#.@.@.@.@.} } ` ` ] ` _ / / / / / / W W E E R R U U U U P F S Z Z Z Z B B n n l l d h s s p p t 9 8 8 9 9 s l n m m m n l l B C C V Z F P U R W W / / _ _ ] } } }  . . .@.@. . . . . .@.#.#.#.#.#.&.*.-.*.*.*.-.-.1.1.4.4.6.t.t.t.t.t.y.y.t.d.y.y.d.g.g.d.g.g.g.g.g.v.j.g.j.v.m.v.m.m.j.g.g.j.m.m.A.A.G.G.D.D.D.m.m.A.m.A.G.G.m.m.A.G.G.G.G.D.D.A.m.k.k.j.j.V.V.V.V.A.V.k.V.V.V.j.m.A.A.k.k.V.V.m.H.A.m.k.V.k.A.A.V.V.j.V.V.V.V.j.j.k.k.k.k.k.k.k.k.k.V.k.h.k.k.k.k.f.d.d.f.f.d.d.f.f.f.f.s.s.s.s.s.s.s.y.t.t.t.t.t.t.t.6.6.6.4.-.-.-.-.-.-.-.*.&.-.-.&.&.#.a.a.a.a.a.a.a.a.a.a.a.a.a.a.a.a.a.a.a.a.a.a.a.a.a.a.a.a.a.a.a.a.a.a.a.a.a.a.a.a.a.a.a.a.a.a.a.a.a.a.a.a.a.a.a.a.a.a.a.a.a.a.a.a.a.a.a.a.a.a.a.a.a.a.a.a.a.a.a.a.a.a.a.a.a.a.a.a.a.a.a.a.a.a.a.a.a.a.a.a.a.a.a.a.a.a.a.a.a.a.a.a.a.a.a.a.a.a.a.a.a.a.a.a.a.a.a.a.a.a.a.a.a.a.a.a.a.a.a.a.a.a.a.a.a.a.a.a.a.a.a.a.a.a.a.a.a.a.a.a.a.a.a.a.a.a.a.a.a.a.a.a.a.a.a.a.a.a.a.a.a.a.a.a.a.",
"a.a.a.a.a.a.a.a.a.a.a.a.a.a.a.a.a.a.a.a.a.a.a.a.a.a.a.a.a.a.a.a.a.a.a.a.a.a.a.a.a.a.a.a.a.a.a.a.a.a.a.a.a.a.a.a.a.a.a.a.a.a.a.a.a.a.a.a.a.a.a.a.a.a.a.a.a.a.a.a.a.a.a.a.a.a.a.a.a.a.a.a.a.a.a.a.a.a.a.a.a.a.a.a.a.a.c ) }  . .#.*.#.#.#.#.#. . . . . .@.@.@.#.@.@.@.@.@.@.@.@.#.#.#.#.-.#.#.#.#.#.@.@.@.@.} } } } ` } ] _ _ / / / / / W W E E E T T R U U U U F F S S Z C B m m l l d h s s s p t t 9 8 8 9 p l m m m m n l l n B C Z C S P U R W W / / _ _ } ] } }  . . .@.@.@. . .@.@.@.#.#.#.#.#.&.&.&.*.&.#.-.1.4.1.-.6.t.t.t.6.t.t.y.t.t.d.y.y.d.g.d.d.d.d.g.g.g.g.g.g.g.v.m.k.m.k.j.g.g.g.v.m.m.A.D.D.m.A.G.G.G.A.k.D.G.G.j.A.A.A.D.A.G.D.A.A.m.j.k.V.j.j.k.V.A.k.V.V.V.V.V.V.A.A.m.V.k.k.V.m.m.k.k.V.m.m.K.A.V.V.k.V.V.k.k.k.h.k.k.k.k.k.k.k.k.k.k.k.k.k.k.k.j.d.d.f.f.d.g.d.f.f.s.s.f.f.f.f.s.y.s.y.t.t.t.t.t.t.t.t.6.6.t.4.-.-.-.-.-.-.-.*.&.*.&.&.@.@.a.a.a.a.a.a.a.a.a.a.a.a.a.a.a.a.a.a.a.a.a.a.a.a.a.a.a.a.a.a.a.a.a.a.a.a.a.a.a.a.a.a.a.a.a.a.a.a.a.a.a.a.a.a.a.a.a.a.a.a.a.a.a.a.a.a.a.a.a.a.a.a.a.a.a.a.a.a.a.a.a.a.a.a.a.a.a.a.a.a.a.a.a.a.a.a.a.a.a.a.a.a.a.a.a.a.a.a.a.a.a.a.a.a.a.a.a.a.a.a.a.a.a.a.a.a.a.a.a.a.a.a.a.a.a.a.a.a.a.a.a.a.a.a.a.a.a.a.a.a.a.a.a.a.a.a.a.a.a.a.a.a.a.a.a.a.a.a.a.a.a.a.a.a.a.a.a.a.a.a.a.a.a.a.",
"a.a.a.a.a.a.a.a.a.a.a.a.a.a.a.a.a.a.a.a.a.a.a.a.a.a.a.a.a.a.a.a.a.a.a.a.a.a.a.a.a.a.a.a.a.a.a.a.a.a.a.a.a.a.a.a.a.a.a.a.a.a.a.a.a.a.a.a.a.a.a.a.a.a.a.a.a.a.a.a.a.a.a.a.a.a.a.a.a.a.a.a.a.a.a.a.a.a.a.a.a.a.a.a.a.a.Y ]  .@.#.#.*.*.#.#.#.#.#.@.@.@.@.#.#.@.@.@.@.@.@.@.@.@.@.@.#.#.#.#.#.#.#.#.#.@.@.@. .} } } } ] ] ] _ _ _ _ / / / W W E R R R R E R U U U G F F S S S C B B n l k d h s s p p t 9 8 8 8 t k n m n n l l k l m B Z Z S F U R R R W / / ] ] ] } } }  .}  .@. . .@.@.@.@.@.#.#.#.#.#.#.#.*.@.#.#.1.4.4.-.4.4.-.4.-.t.t.t.t.d.d.y.d.d.d.d.d.d.d.g.d.g.g.k.j.j.m.k.j.m.v.v.j.g.g.m.v.j.A.A.A.G.D.G.D.A.A.m.G.G.D.A.A.m.D.m.A.G.D.D.D.A.m.j.j.j.m.m.D.A.m.A.m.k.m.m.m.V.k.k.j.k.k.m.V.V.j.j.k.k.V.A.V.V.k.V.k.k.k.k.k.g.g.j.k.d.k.k.k.k.d.f.k.d.f.d.k.k.f.f.f.g.k.k.h.k.f.f.f.f.s.t.s.s.s.s.f.s.t.t.t.t.t.t.t.t.e.;.;.;.-.-.-.-.-.-.-.-.&.&.#.#.#...a.a.a.a.a.a.a.a.a.a.a.a.a.a.a.a.a.a.a.a.a.a.a.a.a.a.a.a.a.a.a.a.a.a.a.a.a.a.a.a.a.a.a.a.a.a.a.a.a.a.a.a.a.a.a.a.a.a.a.a.a.a.a.a.a.a.a.a.a.a.a.a.a.a.a.a.a.a.a.a.a.a.a.a.a.a.a.a.a.a.a.a.a.a.a.a.a.a.a.a.a.a.a.a.a.a.a.a.a.a.a.a.a.a.a.a.a.a.a.a.a.a.a.a.a.a.a.a.a.a.a.a.a.a.a.a.a.a.a.a.a.a.a.a.a.a.a.a.a.a.a.a.a.a.a.a.a.a.a.a.a.a.a.a.a.a.a.a.a.a.a.a.a.a.a.a.a.a.a.a.a.a.a.",
"a.a.a.a.a.a.a.a.a.a.a.a.a.a.a.a.a.a.a.a.a.a.a.a.a.a.a.a.a.a.a.a.a.a.a.a.a.a.a.a.a.a.a.a.a.a.a.a.a.a.a.a.a.a.a.a.a.a.a.a.a.a.a.a.a.a.a.a.a.a.a.a.a.a.a.a.a.a.a.a.a.a.a.a.a.a.a.a.a.a.a.a.a.a.a.a.a.a.a.a.a.a.a.a.a.a.J [  .@.&.*.*.*.*.*.&.#.#.#.@.@.#.#.#.@.@.@.@.@.@.@.@.@.@.@.#.#.#.-.#.#.@.@.@.@.@. .} } } } } ` ] } _ _ _ _ / / / / / / W W E E W W W E R U U G F S S S C C m n l d d s s s p t t 9 8 8 9 d l m n l l l l l n m Z C S S P U U R W / / ] ] ] ] }  . .}  . .}  .@.}  .@.@.#.#.#.-.@.#.#.#.#.#.1.4.4.1.-.4.-.t.-.t.t.t.y.y.y.y.y.y.y.d.d.y.y.d.d.y.g.g.g.k.m.m.k.m.m.g.v.v.v.m.m.j.g.m.m.m.m.m.D.k.m.A.m.m.m.D.D.m.A.D.m.A.m.m.m.D.A.A.m.m.m.A.A.k.k.m.m.m.k.m.m.m.A.m.V.j.j.k.k.V.C.k.g.k.k.k.j.k.V.V.k.k.k.k.g.k.k.k.k.k.k.j.j.k.d.f.f.k.k.k.k.k.k.k.g.f.f.f.h.h.h.f.u.f.f.f.s.s.s.f.y.y.t.t.t.t.y.t.t.t.t.e.t.t.;.-.-.-.4.-.-.-.-.&.*.&.#.#. ...a.a.a.a.a.a.a.a.a.a.a.a.a.a.a.a.a.a.a.a.a.a.a.a.a.a.a.a.a.a.a.a.a.a.a.a.a.a.a.a.a.a.a.a.a.a.a.a.a.a.a.a.a.a.a.a.a.a.a.a.a.a.a.a.a.a.a.a.a.a.a.a.a.a.a.a.a.a.a.a.a.a.a.a.a.a.a.a.a.a.a.a.a.a.a.a.a.a.a.a.a.a.a.a.a.a.a.a.a.a.a.a.a.a.a.a.a.a.a.a.a.a.a.a.a.a.a.a.a.a.a.a.a.a.a.a.a.a.a.a.a.a.a.a.a.a.a.a.a.a.a.a.a.a.a.a.a.a.a.a.a.a.a.a.a.a.a.a.a.a.a.a.a.a.a.a.a.a.a.a.a.a.",
"a.a.a.a.a.a.a.a.a.a.a.a.a.a.a.a.a.a.a.a.a.a.a.a.a.a.a.a.a.a.a.a.a.a.a.a.a.a.a.a.a.a.a.a.a.a.a.a.a.a.a.a.a.a.a.a.a.a.a.a.a.a.a.a.a.a.a.a.a.a.a.a.a.a.a.a.a.a.a.a.a.a.a.a.a.a.a.a.a.a.a.a.a.a.a.a.a.a.a.a.a.a.a.a.a.a.R } } #.*.*.-.-.*.*.&.#.#.@.#.#.@.@.#.#.@.@.@.@.@.@.@.@.@.@.#.#.#.#.#.#.@.@.@.@. .} } } } } ] ` ` ` ` _ _ _ _ _ _ / _ / / / / W W W W E W R T U U F S S S Z B B n n l d d s s p t 9 8 9 8 s l l l l l k d k l n B C Z S F U U R W / / _ _ _ ] } } } }  .} }  .@. . .} @.#.#.#.#.@.@.#.@.#.-.1.1.4.1.-.-.-.6.-.t.t.t.y.y.y.d.d.y.y.d.y.t.y.d.d.g.g.g.g.m.k.k.g.m.v.g.v.v.j.j.v.g.g.m.m.m.D.A.D.A.j.m.m.G.D.m.m.A.A.D.m.A.m.m.m.A.G.A.A.A.m.m.k.m.m.A.G.A.m.m.m.k.j.k.m.A.V.v.k.k.k.g.k.V.j.j.k.j.V.k.k.k.g.k.g.k.k.k.k.k.j.j.j.j.d.d.k.d.d.k.d.f.d.f.f.f.h.f.h.h.k.f.t.y.f.f.f.s.s.f.f.y.t.t.t.t.t.t.t.t.t.t.t.t.6.6.-.-.-.-.-.-.-.*.*.=.=.@.#...} a.a.a.a.a.a.a.a.a.a.a.a.a.a.a.a.a.a.a.a.a.a.a.a.a.a.a.a.a.a.a.a.a.a.a.a.a.a.a.a.a.a.a.a.a.a.a.a.a.a.a.a.a.a.a.a.a.a.a.a.a.a.a.a.a.a.a.a.a.a.a.a.a.a.a.a.a.a.a.a.a.a.a.a.a.a.a.a.a.a.a.a.a.a.a.a.a.a.a.a.a.a.a.a.a.a.a.a.a.a.a.a.a.a.a.a.a.a.a.a.a.a.a.a.a.a.a.a.a.a.a.a.a.a.a.a.a.a.a.a.a.a.a.a.a.a.a.a.a.a.a.a.a.a.a.a.a.a.a.a.a.a.a.a.a.a.a.a.a.a.a.a.a.a.a.a.a.a.a.a.a.",
"a.a.a.a.a.a.a.a.a.a.a.a.a.a.a.a.a.a.a.a.a.a.a.a.a.a.a.a.a.a.a.a.a.a.a.a.a.a.a.a.a.a.a.a.a.a.a.a.a.a.a.a.a.a.a.a.a.a.a.a.a.a.a.a.a.a.a.a.a.a.a.a.a.a.a.a.a.a.a.a.a.a.a.a.a.a.a.a.a.a.a.a.a.a.a.a.a.a.a.a.a.a.a.a.a.x / ] #.&.*.*.-.-.-.*.&.&.#.#.#.#.#. .@.#.@.@.@.@.@.@.@.@.@.@.#.#.#.#.#.#.#.@.@.@.} ` } } } } ] _ _ ` ` ` ` _ _ _ _ _ _ _ _ / / / _ / / / W E R T U P G P F S S C m n l l d s s s p t 9 8 8 t l l l l k d h d l m m C Z S S U U R W W / _ _ _ ] } } } }  .} }  .@. . .@.@.@.@.@.#.#.@.@.@.#.-.-.-.1.1.-.-.-.-.4.-.6.6.t.t.t.y.y.t.t.d.d.d.y.d.t.d.g.g.m.j.d.k.g.v.g.d.v.v.v.v.m.v.m.D.A.m.D.A.D.A.A.D.m.G.m.A.m.m.m.D.m.D.D.A.m.A.A.m.m.m.k.m.m.j.m.m.m.m.m.m.m.j.V.k.A.A.j.j.A.V.k.k.A.A.j.j.k.d.k.h.k.k.h.h.h.k.g.k.k.k.k.k.g.k.d.d.j.k.d.k.f.f.d.h.h.f.f.f.f.s.f.f.y.t.t.t.f.f.s.s.f.f.y.t.t.t.t.t.t.t.t.t.t.t.t.6.4.-.-.-.-.-.-.-.-.-.-.-.@.#.@.) a.a.a.a.a.a.a.a.a.a.a.a.a.a.a.a.a.a.a.a.a.a.a.a.a.a.a.a.a.a.a.a.a.a.a.a.a.a.a.a.a.a.a.a.a.a.a.a.a.a.a.a.a.a.a.a.a.a.a.a.a.a.a.a.a.a.a.a.a.a.a.a.a.a.a.a.a.a.a.a.a.a.a.a.a.a.a.a.a.a.a.a.a.a.a.a.a.a.a.a.a.a.a.a.a.a.a.a.a.a.a.a.a.a.a.a.a.a.a.a.a.a.a.a.a.a.a.a.a.a.a.a.a.a.a.a.a.a.a.a.a.a.a.a.a.a.a.a.a.a.a.a.a.a.a.a.a.a.a.a.a.a.a.a.a.a.a.a.a.a.a.a.a.a.a.a.a.a.a.a.",
"a.a.a.a.a.a.a.a.a.a.a.a.a.a.a.a.a.a.a.a.a.a.a.a.a.a.a.a.a.a.a.a.a.a.a.a.a.a.a.a.a.a.a.a.a.a.a.a.a.a.a.a.a.a.a.a.a.a.a.a.a.a.a.a.a.a.a.a.a.a.a.a.a.a.a.a.a.a.a.a.a.a.a.a.a.a.a.a.a.a.a.a.a.a.a.a.a.a.a.a.a.a.a.a.a.c ] }  .*.1.*.-.1.-.-.*.*.*.#.#.#.#.#.@.@.@.@.#.@.@.@.@.@.@.@.#.#.#.@.#.#.#.@.@.} } } } } } } } ] ` _ _ ` ] ] ] _ ] ] ] } } ] _ _ _ / / / / / W W W T U P P P S S C B n l k h s s s p 8 8 8 t h l l l l d h h l x m B C Z S U U R W ) / / _ _ _ ] } } } } } } }  .}  . . .@.@.@.@.@.#.@.#.#.#.#.#.-.1.-.-.-.4.-.4.4.t.6.t.t.y.t.t.t.d.y.d.d.d.d.d.d.d.g.g.g.j.g.g.g.g.g.g.m.j.g.v.m.m.A.A.k.m.m.A.k.k.A.m.m.m.A.m.m.j.m.D.A.m.m.A.A.D.A.k.j.m.k.A.m.k.m.m.m.A.A.m.B.k.k.j.j.V.V.m.k.k.k.j.k.B.j.j.B.B.k.g.k.g.f.k.k.k.k.d.f.d.j.j.V.V.d.j.d.d.d.f.k.h.s.f.f.f.f.f.f.f.s.t.y.t.s.f.f.f.f.f.f.s.t.t.t.t.t.t.y.t.t.t.t.t.t.4.4.-.-.-.-.-.-.-.*.*.=.&.#. .a.a.a.a.a.a.a.a.a.a.a.a.a.a.a.a.a.a.a.a.a.a.a.a.a.a.a.a.a.a.a.a.a.a.a.a.a.a.a.a.a.a.a.a.a.a.a.a.a.a.a.a.a.a.a.a.a.a.a.a.a.a.a.a.a.a.a.a.a.a.a.a.a.a.a.a.a.a.a.a.a.a.a.a.a.a.a.a.a.a.a.a.a.a.a.a.a.a.a.a.a.a.a.a.a.a.a.a.a.a.a.a.a.a.a.a.a.a.a.a.a.a.a.a.a.a.a.a.a.a.a.a.a.a.a.a.a.a.a.a.a.a.a.a.a.a.a.a.a.a.a.a.a.a.a.a.a.a.a.a.a.a.a.a.a.a.a.a.a.a.a.a.a.a.a.a.a.a.a.a.",
"a.a.a.a.a.a.a.a.a.a.a.a.a.a.a.a.a.a.a.a.a.a.a.a.a.a.a.a.a.a.a.a.a.a.a.a.a.a.a.a.a.a.a.a.a.a.a.a.a.a.a.a.a.a.a.a.a.a.a.a.a.a.a.a.a.a.a.a.a.a.a.a.a.a.a.a.a.a.a.a.a.a.a.a.a.a.a.a.a.a.a.a.a.a.a.a.a.a.a.a.a.a.a.a.a.U ]  .#.*.*.-.1.1.-.-.*.*.*.#.#.#.#. . .@.@.@.@.@.@.@.@.@.@.@.#.#.#.#.@.@.@.@. .} } } } } } } } } } } } } } } } ] } } } } } } } } _ _ _ _ / / W W W E U U U G F S Z C B n l k h h s p 9 7 8 9 s l l l d h s h k l m B C C S U U U W W / _ _ _ _ ] } } } ] } ] }  .}  . . .@.@.@.@.@.#.@.#.#.#.#.#.-.1.-.-.-.-.-.t.6.t.6.t.t.t.t.t.y.t.d.d.y.y.t.y.d.d.g.d.g.g.g.g.g.g.v.g.v.m.m.v.k.D.m.m.A.G.m.j.k.A.A.m.k.k.m.m.m.k.m.A.D.m.m.A.A.m.j.j.j.g.g.k.g.g.k.D.G.m.m.m.j.k.B.j.V.V.k.j.k.k.k.d.f.k.j.j.k.B.B.B.B.k.f.f.k.h.f.d.d.k.V.V.j.k.d.k.k.k.g.f.f.h.k.f.s.f.f.f.f.h.f.s.f.f.d.g.f.y.y.y.y.t.u.t.t.t.y.y.y.t.t.t.t.t.6.6.6.-.-.-.-.*.-.*.-.=.=.#.#.} @.a.a.a.a.a.a.a.a.a.a.a.a.a.a.a.a.a.a.a.a.a.a.a.a.a.a.a.a.a.a.a.a.a.a.a.a.a.a.a.a.a.a.a.a.a.a.a.a.a.a.a.a.a.a.a.a.a.a.a.a.a.a.a.a.a.a.a.a.a.a.a.a.a.a.a.a.a.a.a.a.a.a.a.a.a.a.a.a.a.a.a.a.a.a.a.a.a.a.a.a.a.a.a.a.a.a.a.a.a.a.a.a.a.a.a.a.a.a.a.a.a.a.a.a.a.a.a.a.a.a.a.a.a.a.a.a.a.a.a.a.a.a.a.a.a.a.a.a.a.a.a.a.a.a.a.a.a.a.a.a.a.a.a.a.a.a.a.a.a.a.a.a.a.a.a.a.a.a.a.",
"a.a.a.a.a.a.a.a.a.a.a.a.a.a.a.a.a.a.a.a.a.a.a.a.a.a.a.a.a.a.a.a.a.a.a.a.a.a.a.a.a.a.a.a.a.a.a.a.a.a.a.a.a.a.a.a.a.a.a.a.a.a.a.a.a.a.a.a.a.a.a.a.a.a.a.a.a.a.a.a.a.a.a.a.a.a.a.a.a.a.a.a.a.a.a.a.a.a.a.a.a.a.a.a.a.T [  .#.*.*.1.1.4.-.-.*.*.*.&.#.#.#. . .@.@. . .@.@.@.#.@.#.#.@.@.#.@.@.@.@.@. .} } } } } } } } } ] } } } } }  .} }  . . . . . .} } ] _ _ _ _ / / / W E R U U G F S A B B l l d h s p p 8 7 8 p h k k d h s s d l x B C Z S U U U R W / _ _ _ _ ] } } } ] } } }  .} }  . .@.@.@.@.@.@.@.#.@.#.#.#.-.1.-.-.4.-.-.-.4.t.t.t.t.t.t.t.d.t.d.y.y.y.t.y.d.g.g.g.d.g.g.g.g.g.v.v.v.m.m.v.j.m.m.m.m.k.k.g.j.m.m.m.m.m.m.A.m.G.G.m.G.A.A.m.m.j.j.k.k.j.A.m.m.k.j.m.m.m.j.v.V.j.j.j.V.V.j.j.k.k.V.k.f.j.d.V.k.B.k.k.k.g.g.g.k.f.f.f.d.k.j.j.k.d.k.d.k.g.g.d.d.h.h.h.h.f.f.f.f.f.f.s.f.f.f.f.s.y.y.y.t.t.t.s.t.y.y.y.y.y.y.t.t.t.4.6.6.6.4.-.-.-.*.*.*.&.*.&.&.#.@.@.a.a.a.a.a.a.a.a.a.a.a.a.a.a.a.a.a.a.a.a.a.a.a.a.a.a.a.a.a.a.a.a.a.a.a.a.a.a.a.a.a.a.a.a.a.a.a.a.a.a.a.a.a.a.a.a.a.a.a.a.a.a.a.a.a.a.a.a.a.a.a.a.a.a.a.a.a.a.a.a.a.a.a.a.a.a.a.a.a.a.a.a.a.a.a.a.a.a.a.a.a.a.a.a.a.a.a.a.a.a.a.a.a.a.a.a.a.a.a.a.a.a.a.a.a.a.a.a.a.a.a.a.a.a.a.a.a.a.a.a.a.a.a.a.a.a.a.a.a.a.a.a.a.a.a.a.a.a.a.a.a.a.a.a.a.a.a.a.a.a.a.a.a.a.a.a.a.a.",
"a.a.a.a.a.a.a.a.a.a.a.a.a.a.a.a.a.a.a.a.a.a.a.a.a.a.a.a.a.a.a.a.a.a.a.a.a.a.a.a.a.a.a.a.a.a.a.a.a.a.a.a.a.a.a.a.a.a.a.a.a.a.a.a.a.a.a.a.a.a.a.a.a.a.a.a.a.a.a.a.a.a.a.a.a.a.a.a.a.a.a.a.a.a.a.a.a.a.a.a.a.a.a.a.a.W  .#.#.1.1.1.1.1.4.1.1.-.*.&.&.#.#.#.#.#.@. .@.@.@.@.#.#.#.#.@.@.@.@.@.@.@.} } } } } } } } } }  . . .} } }  .} } }  . . . . . . . .} } } ] _ _ _ _ / W W R U U G S S C B c l d h s s t t 8 8 t s d d d h s s h k x n B D S F P U R W / _ _ _ _ ] ] } } ] } ] } }  . .}  .@.@.@.@.@.@.@.@.@.#.#.#.-.4.-.-.-.-.-.-.t.y.t.t.6.t.t.t.y.y.y.y.y.d.y.y.y.d.d.g.d.g.g.j.d.g.g.v.v.g.g.g.m.g.m.m.m.D.m.j.j.m.A.m.m.j.g.m.m.m.g.j.m.m.A.g.g.g.j.k.m.D.D.j.k.k.m.m.m.k.j.g.k.g.j.V.k.j.k.k.g.k.k.k.f.j.d.V.k.k.d.f.f.f.f.f.d.k.k.k.j.j.d.d.j.d.k.f.k.k.k.f.g.h.h.h.k.k.h.f.f.f.f.f.f.f.f.f.s.s.f.s.t.t.s.s.y.y.t.s.t.t.t.t.6.t.t.6.6.6.6.4.-.*.*.*.&.*.&.#.*.&.&.@.@.a.a.a.a.a.a.a.a.a.a.a.a.a.a.a.a.a.a.a.a.a.a.a.a.a.a.a.a.a.a.a.a.a.a.a.a.a.a.a.a.a.a.a.a.a.a.a.a.a.a.a.a.a.a.a.a.a.a.a.a.a.a.a.a.a.a.a.a.a.a.a.a.a.a.a.a.a.a.a.a.a.a.a.a.a.a.a.a.a.a.a.a.a.a.a.a.a.a.a.a.a.a.a.a.a.a.a.a.a.a.a.a.a.a.a.a.a.a.a.a.a.a.a.a.a.a.a.a.a.a.a.a.a.a.a.a.a.a.a.a.a.a.a.a.a.a.a.a.a.a.a.a.a.a.a.a.a.a.a.a.a.a.a.a.a.a.a.a.a.a.a.a.a.a.a.a.a.",
"a.a.a.a.a.a.a.a.a.a.a.a.a.a.a.a.a.a.a.a.a.a.a.a.a.a.a.a.a.a.a.a.a.a.a.a.a.a.a.a.a.a.a.a.a.a.a.a.a.a.a.a.a.a.a.a.a.a.a.a.a.a.a.a.a.a.a.a.a.a.a.a.a.a.a.a.a.a.a.a.a.a.a.a.a.a.a.a.a.a.a.a.a.a.a.a.a.a.a.a.a.a.a.a.S / } #.-.*.1.1.6.5.5.4.4.1.-.*.*.#.#.#.#.@.@.#.@.@.#.#.#.@.@.#.@.@.#.#.#.@. . . . . . . . .}  . . .}  . . . . . . . .@. . . . .@.@. . . . .} } } _ _ _ / / E U U U F S S C m n l k h s t 9 8 6 t s h l l h s s h k l m B Z S F P U R W / / _ _ _ _ } _ _ _ _ ] } }  . . . . . .@. .@.@.@.@.#.#.#.#.-.-.4.-.-.-.-.4.t.t.t.t.t.t.t.t.t.t.y.y.y.y.t.t.y.y.y.y.y.d.g.g.g.g.g.v.g.g.g.j.v.g.m.m.m.v.g.g.v.v.v.m.m.j.m.m.j.g.g.m.m.g.g.A.m.m.k.k.g.j.g.j.m.m.m.k.j.j.m.V.m.m.j.j.j.k.d.d.j.k.V.V.k.k.j.k.j.d.j.f.g.d.k.k.k.f.k.g.B.k.f.g.f.f.k.k.k.k.f.f.f.y.y.y.y.f.f.f.f.f.f.f.s.s.t.t.y.f.f.f.f.t.y.t.t.t.t.t.t.t.t.t.t.t.t.t.6.6.6.;.;.-.-.-.-.-.&.-.&.&.&.@.@.} a.a.a.a.a.a.a.a.a.a.a.a.a.a.a.a.a.a.a.a.a.a.a.a.a.a.a.a.a.a.a.a.a.a.a.a.a.a.a.a.a.a.a.a.a.a.a.a.a.a.a.a.a.a.a.a.a.a.a.a.a.a.a.a.a.a.a.a.a.a.a.a.a.a.a.a.a.a.a.a.a.a.a.a.a.a.a.a.a.a.a.a.a.a.a.a.a.a.a.a.a.a.a.a.a.a.a.a.a.a.a.a.a.a.a.a.a.a.a.a.a.a.a.a.a.a.a.a.a.a.a.a.a.a.a.a.a.a.a.a.a.a.a.a.a.a.a.a.a.a.a.a.a.a.a.a.a.a.a.a.a.a.a.a.a.a.a.a.a.a.a.a.a.a.a.a.",
"a.a.a.a.a.a.a.a.a.a.a.a.a.a.a.a.a.a.a.a.a.a.a.a.a.a.a.a.a.a.a.a.a.a.a.a.a.a.a.a.a.a.a.a.a.a.a.a.a.a.a.a.a.a.a.a.a.a.a.a.a.a.a.a.a.a.a.a.a.a.a.a.a.a.a.a.a.a.a.a.a.a.a.a.a.a.a.a.a.a.a.a.a.a.a.a.a.a.a.a.a.a.a.a.I ] @.#.-.1.5.1.5.5.4.1.1.1.-.*.*.&.#.#.#.@.#.@.@.@.@.@.@.@.@.#.@.@.#.@.@. .} } }  . . . . . . . . . . . . . . . . . .@.@.@.@.@.@.@.@. . . .} } } } _ ] _ / _ E R U U F Z C B n l k h s t 9 6 6 8 p h l h h s s s d l x B Z S F P U R W / / / _ _ / _ _ _ _ _ ] } } }  . . . . . . . .@.@.@.@.#.#.-.-.-.-.-.*.-.-.4.6.6.t.t.t.t.t.t.t.t.t.y.y.t.t.t.d.d.y.y.y.y.d.d.d.g.g.d.g.g.d.g.j.g.g.v.v.g.g.g.g.v.v.m.m.m.m.j.v.j.g.m.m.g.k.m.m.v.j.m.j.d.g.j.g.k.m.A.m.m.m.A.k.g.k.g.d.f.d.d.d.d.k.k.k.k.j.j.j.d.d.d.k.k.k.k.k.f.B.B.B.B.k.g.g.f.k.k.k.f.g.g.f.f.f.f.f.f.t.s.s.s.s.f.f.s.s.y.y.s.f.f.s.y.y.t.t.t.t.y.t.y.t.t.t.t.t.y.t.t.t.t.t.-.-.-.-.-.&.-.*.&.*.#.#.} [ a.a.a.a.a.a.a.a.a.a.a.a.a.a.a.a.a.a.a.a.a.a.a.a.a.a.a.a.a.a.a.a.a.a.a.a.a.a.a.a.a.a.a.a.a.a.a.a.a.a.a.a.a.a.a.a.a.a.a.a.a.a.a.a.a.a.a.a.a.a.a.a.a.a.a.a.a.a.a.a.a.a.a.a.a.a.a.a.a.a.a.a.a.a.a.a.a.a.a.a.a.a.a.a.a.a.a.a.a.a.a.a.a.a.a.a.a.a.a.a.a.a.a.a.a.a.a.a.a.a.a.a.a.a.a.a.a.a.a.a.a.a.a.a.a.a.a.a.a.a.a.a.a.a.a.a.a.a.a.a.a.a.a.a.a.a.a.a.a.a.a.a.a.a.a.",
"a.a.a.a.a.a.a.a.a.a.a.a.a.a.a.a.a.a.a.a.a.a.a.a.a.a.a.a.a.a.a.a.a.a.a.a.a.a.a.a.a.a.a.a.a.a.a.a.a.a.a.a.a.a.a.a.a.a.a.a.a.a.a.a.a.a.a.a.a.a.a.a.a.a.a.a.a.a.a.a.a.a.a.a.a.a.a.a.a.a.a.a.a.a.a.a.a.a.a.a.a.a.a.a.Y } #.*.-.1.4.6.t.t.6.4.1.4.1.-.*.-.#.#.#.#.#.#.#.#.#.#.#.@.@.#.@.@.@.@. . . . . . .@.@.@. . . . . . . .@.@.@.@.@.@. .#.#.@.@.#.@.@.@.@.@. . . . .} ] ] ] _ _ E E U U G S Z B m n d s s 9 9 8 8 8 t s s s s p p s d k l B C S S F U R R W / / / _ / / _ _ _ _ _ } } }  . . . . . . .}  .@.@.@.#.#.-.#.1.6.-.-.-.-.-.6.6.6.t.t.t.t.t.t.t.t.t.t.t.t.t.d.y.t.y.y.d.d.d.d.g.g.d.g.g.g.g.g.j.m.v.v.v.j.j.g.g.v.m.m.m.v.g.k.k.j.m.m.m.j.k.m.m.m.A.A.g.g.g.j.k.A.A.A.m.m.m.j.j.j.k.k.k.j.d.d.k.k.k.k.k.k.k.k.j.d.k.k.d.k.k.k.k.g.g.g.j.k.f.k.k.k.k.g.f.k.g.f.d.f.f.s.f.s.f.f.f.s.f.f.f.f.y.t.f.t.y.y.y.t.t.t.s.y.t.t.t.t.y.s.t.t.6.6.t.6.6.;.-.-.-.-.-.*.-.*.&.*.&.#.#. .] c a.a.a.a.a.a.a.a.a.a.a.a.a.a.a.a.a.a.a.a.a.a.a.a.a.a.a.a.a.a.a.a.a.a.a.a.a.a.a.a.a.a.a.a.a.a.a.a.a.a.a.a.a.a.a.a.a.a.a.a.a.a.a.a.a.a.a.a.a.a.a.a.a.a.a.a.a.a.a.a.a.a.a.a.a.a.a.a.a.a.a.a.a.a.a.a.a.a.a.a.a.a.a.a.a.a.a.a.a.a.a.a.a.a.a.a.a.a.a.a.a.a.a.a.a.a.a.a.a.a.a.a.a.a.a.a.a.a.a.a.a.a.a.a.a.a.a.a.a.a.a.a.a.a.a.a.a.a.a.a.a.a.a.a.a.a.a.a.a.a.a.a.a.",
"a.a.a.a.a.a.a.a.a.a.a.a.a.a.a.a.a.a.a.a.a.a.a.a.a.a.a.a.a.a.a.a.a.a.a.a.a.a.a.a.a.a.a.a.a.a.a.a.a.a.a.a.a.a.a.a.a.a.a.a.a.a.a.a.a.a.a.a.a.a.a.a.a.a.a.a.a.a.a.a.a.a.a.a.a.a.a.a.a.a.a.a.a.a.a.a.a.a.a.a.a.a.a.a.]  .#.*.1.4.6.4.4.5.5.5.6.4.-.-.-.-.*.#.#.#.#.#.#.@. . . . .@.#.@.@.@. . .} } } }  .@.@.@.@. .@.@.@.@.@.@. .@.@. .#.#.#.#.#.#.#.#.#.@.@.@.#. . . . .} } } ] / E E T U U F Z C B l k s p 9 8 7 6 3 8 s s s s s t s s h l B C S S F U T R W / / / _ / / / _ _ _ _ ] } }  . .} }  . . .}  .@.@.#.@.#.-.-.#.-.-.*.-.-.-.6.4.6.6.t.6.t.t.t.t.t.t.t.t.t.t.y.t.t.y.y.d.d.d.d.d.g.d.g.j.g.g.v.g.g.v.g.g.g.g.j.g.v.v.v.m.g.j.k.j.m.m.A.k.m.k.j.j.m.m.j.k.k.m.D.A.A.m.m.k.k.k.m.m.j.k.k.j.j.d.k.k.j.k.d.d.k.d.d.k.d.j.k.k.B.V.k.B.f.k.g.B.B.g.B.B.k.g.f.f.k.f.f.f.f.f.s.f.f.s.f.f.f.s.s.f.d.f.t.f.s.s.y.t.s.t.s.s.y.y.y.t.t.t.t.y.t.t.t.t.6.6.6.-.-.-.-.-.*.-.&.&.&.*.#.#.+.@.} c p.a.a.a.a.a.a.a.a.a.a.a.a.a.a.a.a.a.a.a.a.a.a.a.a.a.a.a.a.a.a.a.a.a.a.a.a.a.a.a.a.a.a.a.a.a.a.a.a.a.a.a.a.a.a.a.a.a.a.a.a.a.a.a.a.a.a.a.a.a.a.a.a.a.a.a.a.a.a.a.a.a.a.a.a.a.a.a.a.a.a.a.a.a.a.a.a.a.a.a.a.a.a.a.a.a.a.a.a.a.a.a.a.a.a.a.a.a.a.a.a.a.a.a.a.a.a.a.a.a.a.a.a.a.a.a.a.a.a.a.a.a.a.a.a.a.a.a.a.a.a.a.a.a.a.a.a.a.a.a.a.a.a.a.a.a.a.a.a.a.a.a.",
"a.a.a.a.a.a.a.a.a.a.a.a.a.a.a.a.a.a.a.a.a.a.a.a.a.a.a.a.a.a.a.a.a.a.a.a.a.a.a.a.a.a.a.a.a.a.a.a.a.a.a.a.a.a.a.a.a.a.a.a.a.a.a.a.a.a.a.a.a.a.a.a.a.a.a.a.a.a.a.a.a.a.a.a.a.a.a.a.a.a.a.a.a.a.a.a.a.a.a.a.a.a.a.a.} #.*.1.1.4.6.6.6.6.5.5.4.4.4.-.-.-.&.#.#.#.@.#.#.@.#.@.@.@. . . . . . . . .} }  . .@.@.@.@. . . . .@.@.@. .#.#.#.#.#.#.#.#.#.#.#.#.#.@.@... ...#. .} } } } ] / W E T U P S C B l k s p t 9 6 6 < 6 p p p p t t t t h d n B C S F P R W W / / _ _ / / / _ _ _ _ } } } } }  .} }  . . . .@.#.@.#.#.#.-.-.-.&.#.&.*.*.-.6.t.t.6.6.6.6.t.t.t.5.t.t.t.y.t.t.y.t.t.d.d.y.d.d.d.d.g.g.g.g.v.g.g.g.g.g.g.g.g.j.v.g.v.v.m.v.k.g.m.g.m.k.g.j.m.m.D.m.k.k.m.A.A.m.k.m.A.j.j.m.j.k.j.f.k.d.g.k.k.d.V.y.k.k.d.k.j.g.d.j.k.k.V.k.k.f.g.k.k.k.B.k.f.f.f.f.f.g.k.f.g.g.f.d.d.f.d.d.f.f.f.f.s.f.f.f.t.f.f.f.f.t.y.s.y.s.t.y.s.t.t.t.t.t.e.e.e.e.;.;.6.-.-.-.*.-.-.*.&.&.*.#.#.#.#.#.@.[ x a.a.a.a.a.a.a.a.a.a.a.a.a.a.a.a.a.a.a.a.a.a.a.a.a.a.a.a.a.a.a.a.a.a.a.a.a.a.a.a.a.a.a.a.a.a.a.a.a.a.a.a.a.a.a.a.a.a.a.a.a.a.a.a.a.a.a.a.a.a.a.a.a.a.a.a.a.a.a.a.a.a.a.a.a.a.a.a.a.a.a.a.a.a.a.a.a.a.a.a.a.a.a.a.a.a.a.a.a.a.a.a.a.a.a.a.a.a.a.a.a.a.a.a.a.a.a.a.a.a.a.a.a.a.a.a.a.a.a.a.a.a.a.a.a.a.a.a.a.a.a.a.a.a.a.a.a.a.a.a.a.a.a.a.a.a.a.a.a.a.a.",
"a.a.a.a.a.a.a.a.a.a.a.a.a.a.a.a.a.a.a.a.a.a.a.a.a.a.a.a.a.a.a.a.a.a.a.a.a.a.a.a.a.a.a.a.a.a.a.a.a.a.a.a.a.a.a.a.a.a.a.a.a.a.a.a.a.a.a.a.a.a.a.a.a.a.a.a.a.a.a.a.a.a.a.a.a.a.a.a.a.a.a.a.a.a.a.a.a.a.a.a.a.a.a.] } *.*.1.;.4.4.6.t.t.5.5.6.4.4.-.-.-.*.&.*.#.#.#.#.#.#.@.@. . . . .} } } } } } }  . .@.@.@.#.@.#.#.#.#.#.#.#.#.#.#.#.#.#.#.#.#.#.#.#.#.#.#.#....... . . .} } ] _ W W R U U S V B n d s p 9 9 8 6 < 5 t p p p p t t p h d l B C S F P T R E / W / _ _ / / _ _ / _ ] ] } } } } } }  . . . . .@.@.#.#.*.-.-.-.-.&.*.*.*.-.4.t.6.4.4.4.-.6.6.t.t.6.t.t.t.t.6.t.y.y.d.y.d.d.d.d.d.g.d.g.g.v.g.g.g.v.g.g.v.j.j.j.g.v.v.m.v.j.g.j.j.m.j.g.k.k.m.m.j.m.m.m.G.A.j.g.j.A.m.m.m.m.m.d.k.k.g.k.j.k.f.d.f.k.k.k.k.j.d.d.k.k.k.j.k.k.f.f.f.g.k.g.k.B.g.g.k.g.g.k.f.f.f.k.f.f.d.d.f.s.f.d.f.t.y.y.t.t.t.y.s.f.s.s.y.y.s.y.s.f.s.t.y.s.t.t.t.e.e.e.e.6.4.-.-.*.*.-.*.-.#.&.*.%.#.&.&.+.#.U s a.a.a.a.a.a.a.a.a.a.a.a.a.a.a.a.a.a.a.a.a.a.a.a.a.a.a.a.a.a.a.a.a.a.a.a.a.a.a.a.a.a.a.a.a.a.a.a.a.a.a.a.a.a.a.a.a.a.a.a.a.a.a.a.a.a.a.a.a.a.a.a.a.a.a.a.a.a.a.a.a.a.a.a.a.a.a.a.a.a.a.a.a.a.a.a.a.a.a.a.a.a.a.a.a.a.a.a.a.a.a.a.a.a.a.a.a.a.a.a.a.a.a.a.a.a.a.a.a.a.a.a.a.a.a.a.a.a.a.a.a.a.a.a.a.a.a.a.a.a.a.a.a.a.a.a.a.a.a.a.a.a.a.a.a.a.a.a.a.a.",
"a.a.a.a.a.a.a.a.a.a.a.a.a.a.a.a.a.a.a.a.a.a.a.a.a.a.a.a.a.a.a.a.a.a.a.a.a.a.a.a.a.a.a.a.a.a.a.a.a.a.a.a.a.a.a.a.a.a.a.a.a.a.a.a.a.a.a.a.a.a.a.a.a.a.a.a.a.a.a.a.a.a.a.a.a.a.a.a.a.a.a.a.a.a.a.a.a.a.a.a.a.a.a.] &.&.*.6.4.4.6.t.t.t.t.5.6.6.4.1.1.-.*.&.&.#.#.#.@.@.@.@. . . . .} } } } } } } }  . .@.@.@.#.#.#.#.#.#.#.#.*.#.#.#.#.#.#.#.*.#.#.#.#.#.#.#...#..... . . .} } ] ] _ W W T U F Z B n k s t 9 8 6 6 , , 8 9 t t t 9 9 p s s l n B Z F F U R E / W / / / / / / / / _ ] } } } } } } } }  .} }  .@.@.@.#.#.-.-.-.&.@.&.*.*.-.4.4.4.4.4.4.-.t.t.t.6.6.t.y.t.t.t.t.y.d.y.y.d.d.d.d.y.d.d.g.g.g.g.g.g.g.g.g.g.g.g.g.g.g.g.v.g.d.g.D.m.k.g.j.m.m.m.D.A.m.j.j.m.m.j.j.m.k.m.m.k.m.k.d.d.g.g.d.j.k.f.f.k.k.k.j.k.f.f.f.f.k.k.V.k.g.f.g.k.k.g.k.k.k.k.B.B.k.k.k.g.f.d.d.f.f.d.g.f.f.f.f.f.f.f.f.f.f.y.y.s.f.f.s.y.f.f.f.f.f.t.s.y.y.t.t.t.e.e.e.;.;.6.6.-.-.-.*.*.*.#.&.&.&.&.&.#.&.+.#.T s a.a.a.a.a.a.a.a.a.a.a.a.a.a.a.a.a.a.a.a.a.a.a.a.a.a.a.a.a.a.a.a.a.a.a.a.a.a.a.a.a.a.a.a.a.a.a.a.a.a.a.a.a.a.a.a.a.a.a.a.a.a.a.a.a.a.a.a.a.a.a.a.a.a.a.a.a.a.a.a.a.a.a.a.a.a.a.a.a.a.a.a.a.a.a.a.a.a.a.a.a.a.a.a.a.a.a.a.a.a.a.a.a.a.a.a.a.a.a.a.a.a.a.a.a.a.a.a.a.a.a.a.a.a.a.a.a.a.a.a.a.a.a.a.a.a.a.a.a.a.a.a.a.a.a.a.a.a.a.a.a.a.a.a.a.a.a.a.a.",
"a.a.a.a.a.a.a.a.a.a.a.a.a.a.a.a.a.a.a.a.a.a.a.a.a.a.a.a.a.a.a.a.a.a.a.a.a.a.a.a.a.a.a.a.a.a.a.a.a.a.a.a.a.a.a.a.a.a.a.a.a.a.a.a.a.a.a.a.a.a.a.a.a.a.a.a.a.a.a.a.a.a.a.a.a.a.a.a.a.a.a.a.a.a.a.a.a.a.a.a.a.a.a...&.-.-.6.6.4.6.t.t.t.5.5.6.6.4.1.1.-.*.-.*.#.#.#.@.@.@.@. . .} } } ` } } } } } }  . .@.@.@.#.#.#.#.#.#.#.#.*.#.#.#.#.*.#.#.#.#.#.#.#.*.#.#.#.....#... . . .} ] ] ] _ W R T F S C c k s t 9 8 6 5 , , 8 9 t t t 9 9 t p h k n B Z F F U T R W / / / / / / / / / _ _ ] } } } }  .}  . .} } }  .@.@.#.#.-.-.*.@.' #.*.#.-.-.-.-.6.6.6.6.4.t.t.t.t.t.t.t.t.t.t.y.t.y.y.y.t.d.d.d.d.d.g.g.d.g.g.g.g.g.g.g.g.g.g.v.v.v.v.v.k.g.k.g.g.g.v.m.m.g.m.k.g.g.g.k.k.g.m.m.g.k.j.g.g.j.g.j.k.g.d.j.k.V.k.k.k.k.d.f.f.j.k.k.k.k.k.k.k.k.g.k.f.f.k.k.g.g.B.B.g.k.g.g.d.d.f.f.f.d.g.f.k.f.y.f.f.s.f.f.t.f.f.f.f.f.s.y.f.s.s.t.t.t.d.t.t.t.t.t.e.-.-.-.-.4.6.6.4.-.&.&.*.#.%.%.&.*.&.&.&.@.#...T a.a.a.a.a.a.a.a.a.a.a.a.a.a.a.a.a.a.a.a.a.a.a.a.a.a.a.a.a.a.a.a.a.a.a.a.a.a.a.a.a.a.a.a.a.a.a.a.a.a.a.a.a.a.a.a.a.a.a.a.a.a.a.a.a.a.a.a.a.a.a.a.a.a.a.a.a.a.a.a.a.a.a.a.a.a.a.a.a.a.a.a.a.a.a.a.a.a.a.a.a.a.a.a.a.a.a.a.a.a.a.a.a.a.a.a.a.a.a.a.a.a.a.a.a.a.a.a.a.a.a.a.a.a.a.a.a.a.a.a.a.a.a.a.a.a.a.a.a.a.a.a.a.a.a.a.a.a.a.a.a.a.a.a.a.a.a.a.a.",
"a.a.a.a.a.a.a.a.a.a.a.a.a.a.a.a.a.a.a.a.a.a.a.a.a.a.a.a.a.a.a.a.a.a.a.a.a.a.a.a.a.a.a.a.a.a.a.a.a.a.a.a.a.a.a.a.a.a.a.a.a.a.a.a.a.a.a.a.a.a.a.a.a.a.a.a.a.a.a.a.a.a.a.a.a.a.a.a.a.a.a.a.a.a.a.a.a.a.a.a.a.a...*.-.1.-.4.6.t.t.t.t.t.t.6.6.4.-.-.-.-.-.*.#.#.#.@.@.#.#.#.@. . .} } } } }  . . .@. .@. .@.#.#.#.#.#.#.#.#.#.#.#.#.#.#.#.#.#.#.#.#.#.#.*.*.*.*.#.#.#.#..... . . .] ] ] W R U F Z B n d s p 9 6 4 3 , ; 3 8 r 9 t 9 9 9 t p s d m Z S F U R R W W W W W / / / W / _ _ ] _ ` } ] } ] ] } } }  .@.@.#.*.#.#.-.=.@.O.&.-.-.-.-.-.-.4.-.4.t.t.4.6.4.t.t.t.t.t.t.y.s.t.s.d.d.y.s.s.d.d.g.g.g.d.d.d.d.g.g.v.g.g.g.v.g.g.g.v.v.g.g.g.g.v.g.g.g.j.j.m.k.g.g.g.j.j.g.k.g.f.k.k.g.g.d.k.k.d.k.k.k.j.k.j.k.k.k.d.d.d.d.d.f.d.k.j.j.j.k.k.f.h.f.k.k.k.k.k.k.k.k.k.k.B.j.d.k.f.f.d.d.k.h.f.f.g.f.h.f.f.f.d.d.f.f.f.f.f.f.y.f.y.t.t.t.t.y.t.t.t.t.e.e.e.;.;.;.-.-.-.-.-.*.*.*.*.*.*.*.*.#.#.#. .R a.a.a.a.a.a.a.a.a.a.a.a.a.a.a.a.a.a.a.a.a.a.a.a.a.a.a.a.a.a.a.a.a.a.a.a.a.a.a.a.a.a.a.a.a.a.a.a.a.a.a.a.a.a.a.a.a.a.a.a.a.a.a.a.a.a.a.a.a.a.a.a.a.a.a.a.a.a.a.a.a.a.a.a.a.a.a.a.a.a.a.a.a.a.a.a.a.a.a.a.a.a.a.a.a.a.a.a.a.a.a.a.a.a.a.a.a.a.a.a.a.a.a.a.a.a.a.a.a.a.a.a.a.a.a.a.a.a.a.a.a.a.a.a.a.a.a.a.a.a.a.a.a.a.a.a.a.a.a.a.a.a.a.a.a.a.a.a.",
"a.a.a.a.a.a.a.a.a.a.a.a.a.a.a.a.a.a.a.a.a.a.a.a.a.a.a.a.a.a.a.a.a.a.a.a.a.a.a.a.a.a.a.a.a.a.a.a.a.a.a.a.a.a.a.a.a.a.a.a.a.a.a.a.a.a.a.a.a.a.a.a.a.a.a.a.a.a.a.a.a.a.a.a.a.a.a.a.a.a.a.a.a.a.a.a.a.a.a.a.a. .*.-.-.-.-.6.t.t.t.t.t.t.t.6.6.6.4.-.-.-.-.#.#.#.#.@. .@.#.@. .}  . . .} } }  . . .@. .@. .@.#.#.#.#.#.#.#.#.*.#.#.#.#.#.#.#.#.#.#.#.#.#.*.&.*.*.*...#.#....... . .] ] ] W R U F S B n k h t 8 8 4 3 < , , 8 9 9 9 9 9 9 9 t s d m C A F U R R W W W W W W / / / / / _ ] _ ` } ] } ] ] } } } } @.#.#.*.#.#.&.&.` ` -.-.&.-.-.-.-.-.6.6.4.-.-.4.4.t.t.t.t.t.t.t.y.y.d.d.d.y.t.y.d.g.g.g.g.d.d.d.g.g.g.g.v.g.v.v.g.g.g.g.v.j.j.v.g.v.g.g.m.j.g.g.g.g.k.k.k.d.d.k.d.f.k.g.d.g.d.k.g.g.k.k.k.k.d.d.s.d.k.d.d.d.k.k.k.k.k.j.j.k.k.k.k.k.k.k.k.k.k.k.V.k.k.k.k.B.k.k.k.k.k.g.j.g.f.f.g.f.f.h.h.f.y.s.y.y.y.s.f.f.f.f.s.y.y.y.t.t.e.t.t.t.t.t.e.e.t.6.6.;.;.;.-.-.*.*.*.*.=.*.*.=.*.$.#.#. .W a.a.a.a.a.a.a.a.a.a.a.a.a.a.a.a.a.a.a.a.a.a.a.a.a.a.a.a.a.a.a.a.a.a.a.a.a.a.a.a.a.a.a.a.a.a.a.a.a.a.a.a.a.a.a.a.a.a.a.a.a.a.a.a.a.a.a.a.a.a.a.a.a.a.a.a.a.a.a.a.a.a.a.a.a.a.a.a.a.a.a.a.a.a.a.a.a.a.a.a.a.a.a.a.a.a.a.a.a.a.a.a.a.a.a.a.a.a.a.a.a.a.a.a.a.a.a.a.a.a.a.a.a.a.a.a.a.a.a.a.a.a.a.a.a.a.a.a.a.a.a.a.a.a.a.a.a.a.a.a.a.a.a.a.a.a.a.",
"a.a.a.a.a.a.a.a.a.a.a.a.a.a.a.a.a.a.a.a.a.a.a.a.a.a.a.a.a.a.a.a.a.a.a.a.a.a.a.a.a.a.a.a.a.a.a.a.a.a.a.a.a.a.a.a.a.a.a.a.a.a.a.a.a.a.a.a.a.a.a.a.a.a.a.a.a.a.a.a.a.a.a.a.a.a.a.a.a.a.a.a.a.a.a.a.a.a.a.a.) *.-.-.-.4.6.t.t.t.t.t.t.t.t.6.6.6.4.-.-.-.-.-.*.#.#.@. . . .@. .} }  . .}  .}  . . . . ... .@.#.#.#.#.#.*.*.#.*.*.#.#.#.#.#.#.*.#.#.#.#.#.*.*.*.*.*.#.#.#.#.#..... .] ] ] W R T P S B m l h t 9 6 4 4 < , ; 5 8 8 9 9 9 8 9 t p h l B Z S P U R W W W W W / / / / / / _ _ _ _ } ] } ` ` } } }  .@.#.#.#.#.@.#.@.` ` -.&.*.-.-.-.-.-.6.6.-.-.-.-.4.6.t.t.t.t.t.t.t.t.s.s.s.t.t.t.d.g.d.d.g.g.d.d.j.g.g.v.g.g.g.g.g.v.g.g.g.g.v.j.j.g.g.v.v.g.j.g.g.v.g.d.j.j.d.k.k.g.g.f.f.k.k.j.k.k.k.k.d.k.k.g.d.d.k.k.k.k.k.k.k.k.k.d.k.k.k.k.h.f.k.k.k.k.k.g.k.g.k.k.h.h.k.k.k.g.k.g.k.d.d.f.f.h.h.f.g.d.f.d.f.f.f.s.s.f.f.f.s.f.d.f.t.y.t.t.t.t.t.t.e.e.t.6.;.;.;.-.-.*.-.*.*.=.=.=.=.*.&.*.*.#.@...W a.a.a.a.a.a.a.a.a.a.a.a.a.a.a.a.a.a.a.a.a.a.a.a.a.a.a.a.a.a.a.a.a.a.a.a.a.a.a.a.a.a.a.a.a.a.a.a.a.a.a.a.a.a.a.a.a.a.a.a.a.a.a.a.a.a.a.a.a.a.a.a.a.a.a.a.a.a.a.a.a.a.a.a.a.a.a.a.a.a.a.a.a.a.a.a.a.a.a.a.a.a.a.a.a.a.a.a.a.a.a.a.a.a.a.a.a.a.a.a.a.a.a.a.a.a.a.a.a.a.a.a.a.a.a.a.a.a.a.a.a.a.a.a.a.a.a.a.a.a.a.a.a.a.a.a.a.a.a.a.a.a.a.a.a.a.",
"a.a.a.a.a.a.a.a.a.a.a.a.a.a.a.a.a.a.a.a.a.a.a.a.a.a.a.a.a.a.a.a.a.a.a.a.a.a.a.a.a.a.a.a.a.a.a.a.a.a.a.a.a.a.a.a.a.a.a.a.a.a.a.a.a.a.a.a.a.a.a.a.a.a.a.a.a.a.a.a.a.a.a.a.a.a.a.a.a.a.a.a.a.a.a.a.a.a.a.[ ..&.-.t.t.6.6.t.t.t.t.y.y.t.t.4.6.6.6.-.-.-.-.-.*.#.#.@.@. .@.@. . .} }  . .} }  . . .@. .@. .@.#.#.#.#.*.*.#.#.*.*.*.#.#.#.#.#.#.#.*.#.#.#.*.*.*.*.*.*.#.#.#....... .] ] ] W R T P S C m l h t 9 6 4 3 < , - , 8 8 9 9 8 8 8 t p s k B C S U U R W W W W W / W / / / / _ / _ _ ] ] ] ` ` } } @.@.@.@.@.@.#.@.#.@.` @.-.-.-.-.-.-.-.-.4.4.-.-.6.-.4.t.t.t.4.t.t.t.t.6.6.t.t.t.t.s.s.s.d.g.g.g.d.d.d.g.j.g.g.g.g.g.g.g.g.v.g.g.g.g.v.g.v.j.m.g.m.m.v.m.m.m.j.d.d.k.d.f.k.d.f.d.k.k.k.d.d.d.f.f.f.k.k.d.k.k.f.f.k.k.k.k.k.k.d.h.f.s.h.k.k.k.k.h.h.h.g.k.k.h.h.k.k.k.k.k.k.d.f.k.f.h.k.k.f.s.f.h.d.d.f.f.f.y.f.f.s.y.f.f.s.y.t.t.f.t.u.t.t.t.t.t.t.t.t.t.;.;.-.*.*.-.-.*.=.*.=.=.&.*.=.&.#.#. .S a.a.a.a.a.a.a.a.a.a.a.a.a.a.a.a.a.a.a.a.a.a.a.a.a.a.a.a.a.a.a.a.a.a.a.a.a.a.a.a.a.a.a.a.a.a.a.a.a.a.a.a.a.a.a.a.a.a.a.a.a.a.a.a.a.a.a.a.a.a.a.a.a.a.a.a.a.a.a.a.a.a.a.a.a.a.a.a.a.a.a.a.a.a.a.a.a.a.a.a.a.a.a.a.a.a.a.a.a.a.a.a.a.a.a.a.a.a.a.a.a.a.a.a.a.a.a.a.a.a.a.a.a.a.a.a.a.a.a.a.a.a.a.a.a.a.a.a.a.a.a.a.a.a.a.a.a.a.a.a.a.a.a.a.a.",
"a.a.a.a.a.a.a.a.a.a.a.a.a.a.a.a.a.a.a.a.a.a.a.a.a.a.a.a.a.a.a.a.a.a.a.a.a.a.a.a.a.a.a.a.a.a.a.a.a.a.a.a.a.a.a.a.a.a.a.a.a.a.a.a.a.a.a.a.a.a.a.a.a.a.a.a.a.a.a.a.a.a.a.a.a.a.a.a.a.a.a.a.a.a.a.a.a.a.|  .-.-.-.t.t.t.t.t.t.t.t.t.t.t.t.t.t.6.6.6.4.-.-.#.*.#.#.#.#.@.@. . . .}  .} } }  . . . .@.@.@.@.#.#.#.#.#.*.*.*.#.*.*.*.#.#.#.#.#.#.#.*.#.#.#.*.*.*.*.*.*.#.#.#... ... .] ] _ / R R F S C m l h t 8 5 3 < , , * - 5 6 8 8 8 8 8 t t s l B C S P U R R W W W W W W / W / / / / _ _ ] / ] ` ` } } @.@.@.#.#.#.#.@.#.@.+.-.*.&.&.&.&.-.-.-.-.-.6.6.4.-.t.t.t.t.6.6.6.t.t.t.t.s.d.t.t.t.d.d.d.g.g.d.y.d.d.g.g.g.g.g.g.g.g.g.g.g.g.g.v.j.g.g.j.j.j.g.k.m.j.g.j.j.g.g.j.j.d.d.g.d.k.k.k.k.k.j.k.d.f.f.k.k.k.k.f.d.d.k.k.k.k.k.k.f.f.k.k.f.k.k.k.k.k.k.g.k.k.k.k.k.k.k.g.k.k.k.k.k.k.B.g.h.g.f.f.f.f.h.d.d.f.f.f.s.s.f.f.f.f.s.y.f.s.t.t.t.t.t.t.t.t.t.6.t.t.t.t.-.-.-.*.*.*.*.*.*.=.=.&.#.#.&.#.#.@.} B a.a.a.a.a.a.a.a.a.a.a.a.a.a.a.a.a.a.a.a.a.a.a.a.a.a.a.a.a.a.a.a.a.a.a.a.a.a.a.a.a.a.a.a.a.a.a.a.a.a.a.a.a.a.a.a.a.a.a.a.a.a.a.a.a.a.a.a.a.a.a.a.a.a.a.a.a.a.a.a.a.a.a.a.a.a.a.a.a.a.a.a.a.a.a.a.a.a.a.a.a.a.a.a.a.a.a.a.a.a.a.a.a.a.a.a.a.a.a.a.a.a.a.a.a.a.a.a.a.a.a.a.a.a.a.a.a.a.a.a.a.a.a.a.a.a.a.a.a.a.a.a.a.a.a.a.a.a.a.a.a.a.a.a.",
"a.a.a.a.a.a.a.a.a.a.a.a.a.a.a.a.a.a.a.a.a.a.a.a.a.a.a.a.a.a.a.a.a.a.a.a.a.a.a.a.a.a.a.a.a.a.a.a.a.a.a.a.a.a.a.a.a.a.a.a.a.a.a.a.a.a.a.a.a.a.a.a.a.a.a.a.a.a.a.a.a.a.a.a.a.a.a.a.a.a.a.a.a.a.a.a.a.....1.6.4.6.t.s.t.6.t.t.t.t.t.t.t.t.t.t.6.t.6.6.4.-.-.-.#.#.#.@. .@. . .}  . . . . . . . . . .@.@.@.@.#.#.#.#.#.*.*.#.*.&.*.#.#.#.#.#.#.#.*.#.#.#.*.*.*.*.*.*.#.#......... .[ ] _ ) W R P S B m l h t 8 5 , , , , * & , 6 6 8 8 8 7 8 9 s d n B Z F U T R W W W W W W W W / / / / / _ _ / ] / _ ] } } @.@.@.@.@.@.@.#.#.#.&.&.&.&.&.&.-.-.-.-.-.6.4.-.-.6.t.t.t.4.t.t.6.t.t.d.d.d.y.t.t.s.g.g.g.g.d.d.d.g.g.g.g.g.g.g.g.g.g.g.g.g.g.g.g.g.v.j.d.g.g.j.j.j.m.k.g.j.j.k.k.k.g.k.j.j.k.f.f.f.g.k.k.k.k.k.k.k.k.k.k.k.k.k.k.k.k.d.d.k.k.k.k.h.h.h.k.k.V.k.h.k.k.k.k.k.k.k.k.k.k.k.k.k.k.f.f.f.f.f.f.f.f.d.f.d.f.f.f.s.f.f.f.f.s.f.f.f.f.s.f.t.t.t.t.t.t.t.t.6.6.t.6.;.-.-.*.-.*.*.*.*.&.@.&.*.#.=.#.#.+.] m a.a.a.a.a.a.a.a.a.a.a.a.a.a.a.a.a.a.a.a.a.a.a.a.a.a.a.a.a.a.a.a.a.a.a.a.a.a.a.a.a.a.a.a.a.a.a.a.a.a.a.a.a.a.a.a.a.a.a.a.a.a.a.a.a.a.a.a.a.a.a.a.a.a.a.a.a.a.a.a.a.a.a.a.a.a.a.a.a.a.a.a.a.a.a.a.a.a.a.a.a.a.a.a.a.a.a.a.a.a.a.a.a.a.a.a.a.a.a.a.a.a.a.a.a.a.a.a.a.a.a.a.a.a.a.a.a.a.a.a.a.a.a.a.a.a.a.a.a.a.a.a.a.a.a.a.a.a.a.a.a.a.a.",
"a.a.a.a.a.a.a.a.a.a.a.a.a.a.a.a.a.a.a.a.a.a.a.a.a.a.a.a.a.a.a.a.a.a.a.a.a.a.a.a.a.a.a.a.a.a.a.a.a.a.a.a.a.a.a.a.a.a.a.a.a.a.a.a.a.a.a.a.a.a.a.a.a.a.a.a.a.a.a.a.a.a.a.a.a.a.a.a.a.a.a.a.a.a.a.S #.#.:.5.-.t.t.t.d.t.y.t.t.t.t.y.t.t.t.t.t.6.4.4.-.-.-.-.-.#.#.#.@.@.@.@. . . . . . . . . . . .@.@.@. .#.#.#.#.#.*.*.*.#.*.*.*.#.#.#.#.#.#.#.*.#.#.#.*.*.*.*.*.*.#.#......... .} ] _ ) R T P S C m l h t 8 5 , , ; , - & * 5 6 6 8 6 6 8 9 t h n B Z F U T R W W W W E E W W W / / / / / / / _ _ ` ` } }  .@.@.@.#.#. .@.+.#.&.&.&.&.&.&.-.-.-.-.-.-.-.-.4.6.t.6.t.4.t.t.6.t.y.t.t.t.t.t.s.d.d.d.g.g.y.d.d.d.g.g.g.v.g.g.g.g.g.g.g.g.g.g.g.j.v.j.g.g.g.g.g.g.g.g.d.j.j.k.k.k.j.k.d.d.d.g.f.f.d.d.k.j.k.k.k.d.k.k.k.k.k.k.k.k.k.k.k.j.V.k.k.k.k.k.k.k.k.k.k.k.k.k.k.f.k.V.k.k.k.k.k.k.k.f.f.f.f.f.f.f.g.d.g.d.g.g.f.f.f.f.y.t.t.f.f.f.s.t.t.t.t.t.t.t.t.t.t.t.t.6.t.t.;.-.-.-.*.*.*.*.*.#.=.#.=.*.#.@.@.@.} B a.a.a.a.a.a.a.a.a.a.a.a.a.a.a.a.a.a.a.a.a.a.a.a.a.a.a.a.a.a.a.a.a.a.a.a.a.a.a.a.a.a.a.a.a.a.a.a.a.a.a.a.a.a.a.a.a.a.a.a.a.a.a.a.a.a.a.a.a.a.a.a.a.a.a.a.a.a.a.a.a.a.a.a.a.a.a.a.a.a.a.a.a.a.a.a.a.a.a.a.a.a.a.a.a.a.a.a.a.a.a.a.a.a.a.a.a.a.a.a.a.a.a.a.a.a.a.a.a.a.a.a.a.a.a.a.a.a.a.a.a.a.a.a.a.a.a.a.a.a.a.a.a.a.a.a.a.a.a.a.a.a.",
"a.a.a.a.a.a.a.a.a.a.a.a.a.a.a.a.a.a.a.a.a.a.a.a.a.a.a.a.a.a.a.a.a.a.a.a.a.a.a.a.a.a.a.a.a.a.a.a.a.a.a.a.a.a.a.a.a.a.a.a.a.a.a.a.a.a.a.a.a.a.a.a.a.a.a.a.a.a.a.a.a.a.a.a.a.a.a.a.a.a.a.a.a.a.R ..#.&.4.6.t.t.t.t.d.d.t.t.t.t.y.y.t.y.t.t.t.6.6.6.4.4.-.-.-.#.#.#.@. .@.@.@.@. . . . . . . . .@.#.@.@...#.#.#.#.#.*.*.*.#.*.*.*.#.#.#.#.#.#.#.*.*.#.*.*.*.*.*.*.*.#.#.#... . . .} ] ] ) W U U S C m k h t 8 5 , - - ; * & o , 5 6 6 6 6 8 8 t s l m C F U U T W W W W E E W E W / / / / / / / / / _ ` } } @.} @.@.@.@.@.@.@.@.&.*.&.&.&.&.-.-.-.4.-.-.-.4.6.t.6.4.t.t.t.6.t.d.d.s.f.y.t.t.t.y.d.d.g.j.d.y.d.d.g.g.g.g.g.g.d.g.v.g.g.d.g.g.d.g.j.j.v.j.j.m.m.g.d.g.j.j.k.k.k.j.k.g.k.d.k.V.k.d.g.d.j.j.k.k.k.f.k.k.d.d.k.k.k.k.k.k.k.V.V.k.h.k.k.k.k.k.j.k.k.k.k.V.k.k.k.V.V.k.k.k.k.k.h.f.f.f.f.f.f.f.k.d.f.f.f.f.f.f.f.d.s.y.t.y.s.y.y.y.y.t.t.t.t.t.t.t.t.t.t.t.t.t.;.;.-.-.*.*.*.&.*.*.#.#.#.&.&.#.#.@.@.] a.a.a.a.a.a.a.a.a.a.a.a.a.a.a.a.a.a.a.a.a.a.a.a.a.a.a.a.a.a.a.a.a.a.a.a.a.a.a.a.a.a.a.a.a.a.a.a.a.a.a.a.a.a.a.a.a.a.a.a.a.a.a.a.a.a.a.a.a.a.a.a.a.a.a.a.a.a.a.a.a.a.a.a.a.a.a.a.a.a.a.a.a.a.a.a.a.a.a.a.a.a.a.a.a.a.a.a.a.a.a.a.a.a.a.a.a.a.a.a.a.a.a.a.a.a.a.a.a.a.a.a.a.a.a.a.a.a.a.a.a.a.a.a.a.a.a.a.a.a.a.a.a.a.a.a.a.a.a.a.a.a.",
"a.a.a.a.a.a.a.a.a.a.a.a.a.a.a.a.a.a.a.a.a.a.a.a.a.a.a.a.a.a.a.a.a.a.a.a.a.a.a.a.a.a.a.a.a.a.a.a.a.a.a.a.a.a.a.a.a.a.a.a.a.a.a.a.a.a.a.a.a.a.a.a.a.a.a.a.a.a.a.a.a.a.a.a.a.a.a.a.a.a.a.a.a.] 1.*.&.-.-.6.t.d.t.t.t.t.t.t.t.5.t.t.t.t.t.t.5.6.6.4.4.4.1.-.-.-.-.#.#.#. .@. . . . . . .@.@. .@.@.@.@.@.#.@.#.#.#.#.#.*.*.*.1.1.*.*.*.*.*.#.*.1.*.:.1.*.*.*.*.*.*.#.#.#.#... . . .} ] _ W W T U S Z B l h p 8 5 , , - - - - & , 5 8 6 6 6 5 9 9 s k c V S F P U R W W W R R R E W W / / / / / / / / ] ] ] }  .@.} @.@.@.@.@.@.#.#.#.#.&.-.&.#.&.&.&.-.-.-.4.t.4.4.6.t.4.t.t.t.t.t.e.t.t.t.t.t.s.d.d.s.d.s.y.d.d.g.d.g.g.g.d.d.g.g.g.d.g.v.v.j.d.d.d.d.d.d.j.g.j.j.j.j.j.g.j.j.k.j.k.j.g.m.A.j.j.m.m.A.m.k.k.k.k.k.k.k.f.k.k.j.j.k.k.V.V.k.k.k.k.k.k.j.k.k.k.V.V.k.k.k.k.V.k.k.k.k.k.k.h.g.k.k.k.k.h.k.k.k.g.f.f.f.f.f.f.f.h.f.f.f.f.f.f.f.s.s.f.s.s.s.t.t.t.t.t.e.t.e.e.-.-.-.-.*.=.=.=.*.*.*.=.$.#.#.&.#.#.&.#.} a.a.a.a.a.a.a.a.a.a.a.a.a.a.a.a.a.a.a.a.a.a.a.a.a.a.a.a.a.a.a.a.a.a.a.a.a.a.a.a.a.a.a.a.a.a.a.a.a.a.a.a.a.a.a.a.a.a.a.a.a.a.a.a.a.a.a.a.a.a.a.a.a.a.a.a.a.a.a.a.a.a.a.a.a.a.a.a.a.a.a.a.a.a.a.a.a.a.a.a.a.a.a.a.a.a.a.a.a.a.a.a.a.a.a.a.a.a.a.a.a.a.a.a.a.a.a.a.a.a.a.a.a.a.a.a.a.a.a.a.a.a.a.a.a.a.a.a.a.a.a.a.a.a.a.a.a.a.a.a.a.",
"a.a.a.a.a.a.a.a.a.a.a.a.a.a.a.a.a.a.a.a.a.a.a.a.a.a.a.a.a.a.a.a.a.a.a.a.a.a.a.a.a.a.a.a.a.a.a.a.a.a.a.a.a.a.a.a.a.a.a.a.a.a.a.a.a.a.a.a.a.a.a.a.a.a.a.a.a.a.a.a.a.a.a.a.a.a.a.a.a.a.a.a.2.1.1.-.6.t.t.t.y.y.t.y.t.t.t.t.t.t.t.t.t.t.t.t.t.t.6.4.4.4.4.1.-.-.-.*.&.#.#.@. . . . . . .@.@.#.@.@.@.@.@.@.@.#.#.#.#.#.*.*.*.*.1.*.*.*.*.*.*.*.*.*.*.1.*.*.*.&.*.*.&.#.#.#... . .} } ] _ W W T P S C B l h p 9 5 , - - * & & & & 5 6 5 6 5 6 8 9 p k c C Z S S U U R R R T T R E W E W W / / / / / / _ ] ] }  .@.@.@.@.@.@.@.@.#.#.#.&.&.&.&.&.*.&.-.-.-.-.-.4.-.4.4.4.6.6.;.t.t.t.t.t.t.t.t.s.y.s.s.s.d.u.y.d.d.d.d.g.g.y.y.y.d.g.g.g.g.g.v.j.d.d.d.d.g.k.g.g.j.d.d.d.d.g.j.j.g.g.k.m.j.j.j.j.j.m.j.g.j.g.k.d.f.d.f.g.k.k.j.V.j.j.j.j.j.V.k.k.k.k.k.j.k.k.V.V.k.k.V.V.V.V.k.k.k.k.k.k.k.k.k.k.k.h.k.k.k.k.h.f.f.h.h.f.f.f.f.s.s.f.h.h.f.s.y.y.s.y.y.s.y.t.t.t.t.t.e.e.e.e.e.-.-.-.-.=.&.=.=.*.&.$.&.&.&.&.&.#.#.@.] a.a.a.a.a.a.a.a.a.a.a.a.a.a.a.a.a.a.a.a.a.a.a.a.a.a.a.a.a.a.a.a.a.a.a.a.a.a.a.a.a.a.a.a.a.a.a.a.a.a.a.a.a.a.a.a.a.a.a.a.a.a.a.a.a.a.a.a.a.a.a.a.a.a.a.a.a.a.a.a.a.a.a.a.a.a.a.a.a.a.a.a.a.a.a.a.a.a.a.a.a.a.a.a.a.a.a.a.a.a.a.a.a.a.a.a.a.a.a.a.a.a.a.a.a.a.a.a.a.a.a.a.a.a.a.a.a.a.a.a.a.a.a.a.a.a.a.a.a.a.a.a.a.a.a.a.a.a.a.a.",
"a.a.a.a.a.a.a.a.a.a.a.a.a.a.a.a.a.a.a.a.a.a.a.a.a.a.a.a.a.a.a.a.a.a.a.a.a.a.a.a.a.a.a.a.a.a.a.a.a.a.a.a.a.a.a.a.a.a.a.a.a.a.a.a.a.a.a.a.a.a.a.a.a.a.a.a.a.a.a.a.a.a.a.a.a.a.a.a.a.a.a.<.1.1.1.6.6.t.t.t.y.y.y.t.y.t.t.t.t.t.t.t.t.t.t.t.t.t.6.6.6.6.4.1.1.-.-.*.*.*.&.#.#.#.@.@.@.@.@.@. . . . . . .#.@.#.#.#.#.*.*.*.*.*.1.*.*.*.*.*.*.*.:.*.*.1.*.*.*.*.*.*.#.#.#.@... . .] ] ] _ W W R P S C B l h p 8 5 , - * $ $ & & o , 5 5 5 5 5 6 8 t h l C Z F P U U R R R T T T E E E W W W / / / / / ` ] ] }  . .} @.@. .@.@.#.@.#.&.&.#.#.#.&.-.&.-.-.-.-.-.-.-.-.6.-.-.t.t.t.t.t.t.t.t.t.t.s.s.s.d.d.d.d.s.d.d.d.d.g.g.y.d.g.g.g.g.g.g.g.g.y.d.d.u.f.d.j.k.k.k.d.j.j.j.j.j.g.g.g.m.m.j.g.g.j.j.m.j.g.g.j.j.k.k.d.f.k.k.k.d.d.k.k.j.j.d.g.g.k.k.k.k.k.k.k.k.k.k.k.k.k.k.k.k.k.k.k.k.k.k.k.V.k.k.g.h.k.k.h.f.f.h.h.k.h.f.f.f.h.f.f.f.f.s.y.s.y.d.s.s.y.s.y.y.t.t.t.t.e.e.e.;.-.-.-.-.-.=.=.=.=.=.=.=.=.=.*.&.&.#.@.@.U a.a.a.a.a.a.a.a.a.a.a.a.a.a.a.a.a.a.a.a.a.a.a.a.a.a.a.a.a.a.a.a.a.a.a.a.a.a.a.a.a.a.a.a.a.a.a.a.a.a.a.a.a.a.a.a.a.a.a.a.a.a.a.a.a.a.a.a.a.a.a.a.a.a.a.a.a.a.a.a.a.a.a.a.a.a.a.a.a.a.a.a.a.a.a.a.a.a.a.a.a.a.a.a.a.a.a.a.a.a.a.a.a.a.a.a.a.a.a.a.a.a.a.a.a.a.a.a.a.a.a.a.a.a.a.a.a.a.a.a.a.a.a.a.a.a.a.a.a.a.a.a.a.a.a.a.a.a.a.",
"a.a.a.a.a.a.a.a.a.a.a.a.a.a.a.a.a.a.a.a.a.a.a.a.a.a.a.a.a.a.a.a.a.a.a.a.a.a.a.a.a.a.a.a.a.a.a.a.a.a.a.a.a.a.a.a.a.a.a.a.a.a.a.a.a.a.a.a.a.a.a.a.a.a.a.a.a.a.a.a.a.p.a.a.a.a.a.a.a.] 1.6.6.4.4.t.t.t.t.t.d.d.y.y.y.y.t.t.t.t.t.t.t.t.t.t.t.t.6.6.t.t.4.1.1.-.-.&.*.*.*.#.#.#.#.#.#.#.#.#. . . . .@.@.#.#.#.#.#.#.#.*.*.*.*.*.*.*.*.*.*.1.1.:.:.*.1.*.*.*.*.*.*.#.#.#.#... . .} ] _ / W W T F S Z B c h p 8 5 , - & o o o o o O < 3 3 3 5 6 8 9 s l B C S S F U R R R T T R R E E E E W / / / / / / ] } }  . .} } @.@.@.#.#.@.#.@.@.#.&.&.&.&.&.&.-.-.-.-.-.4.4.4.-.-.4.;.t.t.t.t.t.t.t.y.t.y.t.s.d.d.s.y.y.y.d.d.g.d.d.g.g.d.g.d.d.g.g.d.y.d.d.d.d.d.d.k.j.d.d.d.d.d.j.j.g.m.A.A.k.g.j.g.g.g.m.j.k.g.k.k.k.k.k.j.k.d.f.d.k.j.k.d.f.d.g.k.k.k.k.k.k.g.g.k.k.k.k.k.k.k.k.k.k.k.k.k.k.k.k.k.f.g.k.k.k.k.f.f.f.f.h.k.h.f.k.k.h.f.f.f.f.f.f.f.f.g.f.f.f.y.t.s.s.t.t.e.e.e.e.-.-.-.-.-.-.-.=.=.=.=.=.=.=.=.&.&.&.&.#. .#.U a.a.a.a.a.a.a.a.a.a.a.a.a.a.a.a.a.a.a.a.a.a.a.a.a.a.a.a.a.a.a.a.a.a.a.a.a.a.a.a.a.a.a.a.a.a.a.a.a.a.a.a.a.a.a.a.a.a.a.a.a.a.a.a.a.a.a.a.a.a.a.a.a.a.a.a.a.a.a.a.a.a.a.a.a.a.a.a.a.a.a.a.a.a.a.a.a.a.a.a.a.a.a.a.a.a.a.a.a.a.a.a.a.a.a.a.a.a.a.a.a.a.a.a.a.a.a.a.a.a.a.a.a.a.a.a.a.a.a.a.a.a.a.a.a.a.a.a.a.a.a.a.a.a.a.a.a.a.",
"a.a.a.a.a.a.a.a.a.a.a.a.a.a.a.a.a.a.a.a.a.a.a.a.a.a.a.a.a.a.a.a.a.a.a.a.a.a.a.a.a.a.a.a.a.a.a.a.a.a.a.a.a.a.a.a.a.a.a.a.a.a.a.a.a.a.a.a.a.a.a.a.a.a.a.a.a.a.a.a.a.a.a.a.a.a.a.a.2.1.4.6.6.t.t.t.t.t.t.y.d.d.d.y.d.t.t.t.t.t.t.t.t.t.t.t.t.t.t.t.t.t.5.6.4.1.1.*.*.*.&.-.&.&.&.&.#.#.#.#.#.#.#.#.@.#.#.@.#.#.#.#.#.#.*.*.*.*.*.*.1.*.*.*.*.1.*.*.1.*.*.*.*.&.&.#.#.#.#.#. . .] ] _ W W W U S S C B l h p 9 6 3 , & o X .   . o , < 3 < < 5 5 9 s d m B Z S F U R T R U T R R E E R E W / / / / / ` ] ] ]  . .@.@.@.@.@.@.#.@.@.@.@.&.#.&.&.&.&.-.-.-.-.-.*.-.-.-.4.-.4.t.t.t.;.-.t.t.t.s.s.t.t.d.d.d.y.y.y.f.d.d.d.d.d.d.d.g.y.y.g.g.g.d.y.d.g.d.d.y.d.d.d.d.d.j.j.A.j.j.m.m.k.m.k.j.g.j.m.A.m.k.m.g.k.g.j.j.j.m.k.d.k.k.k.k.k.d.k.k.k.k.k.k.k.h.g.k.k.k.k.k.V.k.k.k.k.k.k.k.k.V.k.k.k.k.k.k.k.g.k.k.k.k.k.k.k.k.f.f.g.f.g.f.f.h.g.h.f.s.d.d.f.f.s.f.f.y.t.t.t.t.t.t.e.e.;.-.-.-.-.-.-.*.*.*.=.#.=.*.&.#.#.#.@.@.}  .U a.a.a.a.a.a.a.a.a.a.a.a.a.a.a.a.a.a.a.a.a.a.a.a.a.a.a.a.a.a.a.a.a.a.a.a.a.a.a.a.a.a.a.a.a.a.a.a.a.a.a.a.a.a.a.a.a.a.a.a.a.a.a.a.a.a.a.a.a.a.a.a.a.a.a.a.a.a.a.a.a.a.a.a.a.a.a.a.a.a.a.a.a.a.a.a.a.a.a.a.a.a.a.a.a.a.a.a.a.a.a.a.a.a.a.a.a.a.a.a.a.a.a.a.a.a.a.a.a.a.a.a.a.a.a.a.a.a.a.a.a.a.a.a.a.a.a.a.a.a.a.a.a.a.a.a.a.",
"a.a.a.a.a.a.a.a.a.a.a.a.a.a.a.a.a.a.a.a.a.a.a.a.a.a.a.a.a.a.a.a.a.a.a.a.a.a.a.a.a.a.a.a.a.a.a.a.a.a.a.a.a.a.a.a.a.a.a.a.a.a.a.a.a.a.a.a.a.a.a.a.a.a.a.a.a.a.a.a.a.a.a.a.a.a.a.2.5.5.6.t.t.t.s.6.t.y.d.d.d.g.d.d.y.t.t.t.t.t.t.t.t.t.t.t.6.6.t.t.t.t.5.1.1.-.1.-.*.-.&.-.&.&.:.&.&.&.#.#.#.#.#.#. .@.#.#.#.#.#.#.#.#.*.*.*.*.*.*.1.*.*.*.*.*.*.:.*.*.*.*.#.#.&.#.#.#. . . . .] ] _ W W R U S S C B l h p 9 8 3 , - o           O , , , , < 6 8 9 s m B Z S F U R T R U U T T R T T R W W W / / / ` ] ] ]  .}  . .@.@.@.@.@.@.@.@.#.&.#.#.&.&.-.-.-.-.-.-.-.-.-.4.6.-.-.t.t.t.t.t.t.t.t.y.t.t.s.d.d.y.y.s.y.f.d.d.d.d.d.d.d.y.y.d.g.g.g.g.d.d.d.d.d.y.d.d.d.d.g.d.j.k.m.m.j.g.j.m.k.j.j.j.m.m.m.g.j.j.k.k.j.m.j.k.k.k.k.k.k.v.k.j.V.k.k.g.k.k.k.g.k.k.k.k.k.V.V.k.k.k.k.k.k.k.V.k.k.k.k.k.k.g.g.g.k.k.k.h.h.g.k.g.f.f.f.f.f.g.k.g.g.h.d.d.d.g.d.f.f.f.f.s.t.t.t.t.t.e.e.e.;.-.-.-.-.-.-.-.*.*.*.=.*.&.#.#.@.#.@.&.#. . .P a.a.a.a.a.a.a.a.a.a.a.a.a.a.a.a.a.a.a.a.a.a.a.a.a.a.a.a.a.a.a.a.a.a.a.a.a.a.a.a.a.a.a.a.a.a.a.a.a.a.a.a.a.a.a.a.a.a.a.a.a.a.a.a.a.a.a.a.a.a.a.a.a.a.a.a.a.a.a.a.a.a.a.a.a.a.a.a.a.a.a.a.a.a.a.a.a.a.a.a.a.a.a.a.a.a.a.a.a.a.a.a.a.a.a.a.a.a.a.a.a.a.a.a.a.a.a.a.a.a.a.a.a.a.a.a.a.a.a.a.a.a.a.a.a.a.a.a.a.a.a.a.a.a.a.a.",
"a.a.a.a.a.a.a.a.a.a.a.a.a.a.a.a.a.a.a.a.a.a.a.a.a.a.a.a.a.a.a.a.a.a.a.a.a.a.a.a.a.a.a.a.a.a.a.a.a.a.a.a.a.a.a.a.a.a.a.a.a.a.a.a.a.a.a.a.a.a.a.a.a.a.a.a.a.a.a.a.a.a.a.a.a.a.1.1.t.t.6.t.s.s.d.y.y.y.d.d.d.d.y.d.d.y.t.t.t.t.t.t.t.t.t.t.t.t.t.t.t.6.6.6.4.1.1.-.-.-.-.-.:.:.&.&.&.&.#.#.#.#.#.#. .@.#.#.#.#.#.#.#.#.*.*.*.*.*.*.1.*.*.*.*.*.1.*.*.*.*.*.*.&.#.#.#.#. . . .} ] _ / W W R U S Z C c l h p 9 6 5 < , & o X         , , - , < 3 6 9 s m B C S F P U U R U G U U T T R E W W / W / / ` ] ] ]  . .}  .@.@.@.@.@.@.@.@.#.#.&.#.#.&.-.*.&.&.*.-.-.*.*.-.4.-.-.-.t.t.e.t.t.t.t.t.t.y.d.s.y.t.y.t.y.y.d.d.d.d.d.d.d.y.t.y.d.d.d.g.g.d.d.d.d.d.d.j.d.j.k.d.j.m.g.j.g.k.m.m.j.g.j.j.j.m.g.d.d.k.g.g.g.j.j.g.g.j.k.k.k.j.k.V.k.k.k.k.k.k.k.k.k.k.k.k.k.k.k.V.k.k.k.k.k.k.k.k.k.k.k.k.g.g.h.h.k.k.h.h.k.f.f.k.k.g.k.k.g.f.h.k.k.g.f.f.f.f.f.t.y.y.y.s.t.t.t.t.t.e.e.e.e.;.-.-.-.-.-.-.*.*.*.*.*.&.#.#.#.@.#.#.&.&.@.@.a.a.a.a.a.a.a.a.a.a.a.a.a.a.a.a.a.a.a.a.a.a.a.a.a.a.a.a.a.a.a.a.a.a.a.a.a.a.a.a.a.a.a.a.a.a.a.a.a.a.a.a.a.a.a.a.a.a.a.a.a.a.a.a.a.a.a.a.a.a.a.a.a.a.a.a.a.a.a.a.a.a.a.a.a.a.a.a.a.a.a.a.a.a.a.a.a.a.a.a.a.a.a.a.a.a.a.a.a.a.a.a.a.a.a.a.a.a.a.a.a.a.a.a.a.a.a.a.a.a.a.a.a.a.a.a.a.a.a.a.a.a.a.a.a.a.a.a.a.a.a.a.a.a.a.a.",
"a.a.a.a.a.a.a.a.a.a.a.a.a.a.a.a.a.a.a.a.a.a.a.a.a.a.a.a.a.a.a.a.a.a.a.a.a.a.a.a.a.a.a.a.a.a.a.a.a.a.a.a.a.a.a.a.a.a.a.a.a.a.a.a.a.a.a.a.a.a.a.a.a.a.a.a.a.a.a.a.a.a.a.a.a.1.5.t.t.t.t.d.d.d.d.y.y.d.g.d.g.g.d.d.y.y.t.t.t.t.t.t.t.t.t.t.t.t.t.t.t.t.5.5.5.4.-.1.1.1.-.-.-.-.-.&.&.&.#.#.#.#.#.#. .@.@.#.#.#.#.#.#.#.*.*.*.*.*.*.1.*.1.*.*.*.1.*.*.1.*.*.&.#.#. .#... . . .} ] _ / W R R U S Z C m l h p 9 6 5 , , * & o         O , > - < 5 3 8 p l B C Z F F U U U U G F U U T T E E W W W / / ` ] ] ]  . .} } +.@.@.@.@.+.+.@.#.#.&.#.#.&.&.&.&.*.&.&.&.*.-.-.-.-.4.-.-.;.t.e.t.y.t.t.t.t.y.t.t.t.y.t.y.d.d.d.d.d.d.d.d.d.y.d.d.y.d.d.d.d.d.d.j.j.j.j.j.j.j.j.v.j.j.j.k.k.g.m.m.g.j.g.j.j.g.v.g.k.g.j.k.g.m.j.j.j.k.k.k.j.j.j.k.k.k.k.k.k.k.V.k.k.k.k.k.k.V.k.k.k.k.k.k.k.k.k.k.k.h.h.f.f.f.f.k.k.g.h.f.f.h.k.k.h.d.g.k.k.k.k.k.g.g.k.k.g.f.f.f.f.f.y.t.y.f.f.t.t.e.e.e.e.;.-.;.-.-.-.*.*.*.*.*.*.*.#.#.#.#.=.&.&.@.}  .a.a.a.a.a.a.a.a.a.a.a.a.a.a.a.a.a.a.a.a.a.a.a.a.a.a.a.a.a.a.a.a.a.a.a.a.a.a.a.a.a.a.a.a.a.a.a.a.a.a.a.a.a.a.a.a.a.a.a.a.a.a.a.a.a.a.a.a.a.a.a.a.a.a.a.a.a.a.a.a.a.a.a.a.a.a.a.a.a.a.a.a.a.a.a.a.a.a.a.a.a.a.a.a.a.a.a.a.a.a.a.a.a.a.a.a.a.a.a.a.a.a.a.a.a.a.a.a.a.a.a.a.a.a.a.a.a.a.a.a.a.a.a.a.a.a.a.a.a.a.a.a.a.a.a.",
"a.a.a.a.a.a.a.a.a.a.a.a.a.a.a.a.a.a.a.a.a.a.a.a.a.a.a.a.a.a.a.a.a.a.a.a.a.a.a.a.a.a.a.a.a.a.a.a.a.a.a.a.a.a.a.a.a.a.a.a.a.a.a.a.a.a.a.a.a.a.a.a.a.a.a.a.a.a.a.a.a.a.a.W 1.4.6.t.t.t.d.d.d.d.d.g.d.d.d.d.g.g.d.y.y.t.t.t.t.t.t.y.t.t.t.t.y.t.y.t.t.t.t.t.5.5.4.6.6.1.-.-.-.-.-.-.*.*.#.#.#.&.#.#.#.#.#.#.#.#.#.#.*.*.*.*.*.*.*.*.1.*.*.*.*.*.1.1.*.*.#.#.#.#.#.#... .} } } _ ] / W W T T P S Z B l l h s 9 8 5 , - & & O X         : > , , 3 5 8 t l m Z Z S S P F U U U U U U T R R W W E / / _ ] } ] ] ] ]  . .} }  . .@.@.@.@.#.#.&.#.&.&.&.*.*.*.*.*.*.*.-.6.-.4.4.-.4.6.4.t.t.t.t.t.t.t.t.t.y.y.y.t.y.t.d.d.y.y.y.y.y.g.d.d.y.y.d.g.g.d.d.d.g.j.d.g.j.j.j.v.v.g.g.m.g.g.g.g.d.d.g.j.g.g.j.g.m.k.k.k.d.d.k.k.j.k.k.k.k.k.j.j.k.k.j.j.d.k.k.k.k.k.k.k.k.k.V.k.V.V.k.k.j.j.k.j.V.k.d.k.k.k.f.f.g.g.g.h.f.f.k.k.k.h.f.f.f.h.f.f.f.f.k.f.h.h.h.f.f.s.f.s.y.s.s.t.t.t.t.t.t.e.e.e.e.-.-.-.-.-.-.=.=.=.&.&.#.#.&.#.#.#.@.@. .] a.a.a.a.a.a.a.a.a.a.a.a.a.a.a.a.a.a.a.a.a.a.a.a.a.a.a.a.a.a.a.a.a.a.a.a.a.a.a.a.a.a.a.a.a.a.a.a.a.a.a.a.a.a.a.a.a.a.a.a.a.a.a.a.a.a.a.a.a.a.a.a.a.a.a.a.a.a.a.a.a.a.a.a.a.a.a.a.a.a.a.a.a.a.a.a.a.a.a.a.a.a.a.a.a.a.a.a.a.a.a.a.a.a.a.a.a.a.a.a.a.a.a.a.a.a.a.a.a.a.a.a.a.a.a.a.a.a.a.a.a.a.a.a.a.a.a.a.a.a.a.a.a.a.",
"a.a.a.a.a.a.a.a.a.a.a.a.a.a.a.a.a.a.a.a.a.a.a.a.a.a.a.a.a.a.a.a.a.a.a.a.a.a.a.a.a.a.a.a.a.a.a.a.a.a.a.a.a.a.a.a.a.a.a.a.a.a.a.a.a.a.a.a.a.a.a.a.a.a.a.a.a.a.a.a.a.a.Q 4.4.t.t.t.d.d.d.d.d.d.d.f.g.g.d.g.g.d.d.d.y.y.t.t.t.t.t.t.t.y.y.y.y.t.y.t.t.t.t.t.t.6.6.6.6.6.-.-.-.-.-.-.-.*.&.&.#.&.*.#.#.#.#.#.#...&.#.*.*.*.#.*.*.*.*.*.*.1.1.1.1.1.1.*.*.#.#.#.#..... . .} } } _ _ W W W R U P S Z B l l d s 9 8 3 , , * O o .         . > ; , 3 3 8 t d l B Z Z S F F F G U U U U U T R W W W / / _ _ ] ] ] ] ]  . .}  .@.@.@.@.@.@.@.#.-.#.#.&.#.&.&.-.&.&.*.-.-.6.-.-.4.-.4.6.6.6.6.-.t.t.t.t.t.t.t.s.d.y.d.d.t.y.t.y.d.y.y.y.y.d.y.y.y.d.g.g.g.d.g.g.j.j.j.j.g.j.m.g.g.j.g.g.m.g.g.j.j.g.g.g.g.g.j.j.d.d.k.k.k.d.d.k.k.k.k.j.j.j.k.k.k.k.k.k.V.k.k.j.d.k.k.k.V.k.j.j.k.k.k.k.k.k.k.k.k.g.k.k.k.k.k.k.j.k.k.k.k.h.h.h.k.h.f.f.s.f.f.f.d.f.h.k.k.h.f.s.f.s.s.y.s.y.y.y.t.t.t.e.e.e.t.e.e.-.-.=.-.=.=.=.&.&.&.&.&.#.#.@.#.#.#.@.] a.a.a.a.a.a.a.a.a.a.a.a.a.a.a.a.a.a.a.a.a.a.a.a.a.a.a.a.a.a.a.a.a.a.a.a.a.a.a.a.a.a.a.a.a.a.a.a.a.a.a.a.a.a.a.a.a.a.a.a.a.a.a.a.a.a.a.a.a.a.a.a.a.a.a.a.a.a.a.a.a.a.a.a.a.a.a.a.a.a.a.a.a.a.a.a.a.a.a.a.a.a.a.a.a.a.a.a.a.a.a.a.a.a.a.a.a.a.a.a.a.a.a.a.a.a.a.a.a.a.a.a.a.a.a.a.a.a.a.a.a.a.a.a.a.a.a.a.a.a.a.a.a.",
"a.a.a.a.a.a.a.a.a.a.a.a.a.a.a.a.a.a.a.a.a.a.a.a.a.a.a.a.a.a.a.a.a.a.a.a.a.a.a.a.a.a.a.a.a.a.a.a.a.a.a.a.a.a.a.a.a.a.a.a.a.a.a.a.a.a.a.a.a.a.a.a.a.a.a.a.a.a.a.a.a.Q 1.-.6.6.t.d.d.d.d.d.d.g.g.g.g.g.d.g.g.d.d.d.d.y.y.y.t.t.t.t.t.t.t.t.t.t.t.t.t.t.t.t.t.6.6.6.6.6.-.-.-.;.-.-.-.:.*.&.&.#.#.#.#.#.#.#.#.#.#.#.&.&.#.#.&.*.*.*.:.*.1.1.1.1.1.1.*.#.#.#....... . .} } } ] ] _ / W W R G S S Z B n j h s 9 5 3 , , * O o X           % = - < 3 6 9 s m C S S S F F F P F P U U U U R W W W / / _ _ ] ] ] ] ]  . .} @.@.@.}  .@.@.@.#.&.#.&.&.#.&.&.&.&.&.-.-.-.-.-.-.-.-.4.6.4.-.-.4.t.t.t.t.t.t.t.s.y.t.y.y.y.d.t.y.y.y.d.d.d.d.y.y.y.d.g.g.g.d.d.g.g.g.g.g.g.g.v.g.g.g.g.g.g.g.g.j.m.g.g.g.g.g.k.j.g.j.k.k.B.k.k.k.k.k.k.k.k.k.j.j.j.V.j.k.k.k.k.V.j.j.j.j.k.k.j.j.k.k.k.k.k.k.k.k.k.k.k.k.k.k.k.j.V.k.k.k.k.k.k.k.k.k.f.h.f.f.f.f.f.h.g.g.g.f.g.f.f.s.s.s.s.s.y.t.t.t.t.e.e.t.e.e.e.-.-.-.-.-.-.*.*.&.&.&.&.#.#.#.#.#.@.@.@.] a.a.a.a.a.a.a.a.a.a.a.a.a.a.a.a.a.a.a.a.a.a.a.a.a.a.a.a.a.a.a.a.a.a.a.a.a.a.a.a.a.a.a.a.a.a.a.a.a.a.a.a.a.a.a.a.a.a.a.a.a.a.a.a.a.a.a.a.a.a.a.a.a.a.a.a.a.a.a.a.a.a.a.a.a.a.a.a.a.a.a.a.a.a.a.a.a.a.a.a.a.a.a.a.a.a.a.a.a.a.a.a.a.a.a.a.a.a.a.a.a.a.a.a.a.a.a.a.a.a.a.a.a.a.a.a.a.a.a.a.a.a.a.a.a.a.a.a.a.a.a.a.",
"a.a.a.a.a.a.a.a.a.a.a.a.a.a.a.a.a.a.a.a.a.a.a.a.a.a.a.a.a.a.a.a.a.a.a.a.a.a.a.a.a.a.a.a.a.a.a.a.a.a.a.a.a.a.a.a.a.a.a.a.a.a.a.a.a.a.a.a.a.a.a.a.a.a.a.a.a.a.a.a.] 1.-.6.t.t.t.d.d.d.d.g.d.g.g.g.g.g.g.d.d.y.y.d.d.y.y.y.y.t.t.t.t.y.y.y.y.y.t.t.t.t.t.t.t.t.t.t.6.6.6.6.-.;.-.6.-.:.*.*.*.*.*.*.#.#.#.#.#.#.#.#.#.&.#...#.*.*.*.*.*.*.*.*.1.1.*.*.#.#.#..... . .} } } } _ ] _ / W E T U F Z V B l h s p 9 8 5 < - & & o o   X       o * - , 5 5 8 p l B C Z Z F F F F F F P U U U U R W E W / _ _ _ ] ] ] ]  . .} @.} } @.@.@.@.@.#.&.#.&.&.&.&.&.#.&.*.*.-.*.-.-.4.-.-.4.6.6.4.-.4.6.t.t.t.t.t.t.t.y.t.t.t.y.y.t.t.y.d.d.t.d.d.y.d.g.g.g.d.g.y.d.g.g.v.v.g.g.v.g.g.d.d.g.g.g.g.j.j.j.g.d.d.g.m.k.j.k.m.d.k.k.d.j.k.j.j.k.k.k.k.k.j.j.j.k.j.j.V.k.d.j.j.k.k.j.V.V.V.j.V.j.k.d.j.V.j.k.k.k.k.j.k.k.j.V.k.f.k.k.k.k.k.k.k.k.k.h.f.f.f.k.k.k.g.f.f.g.g.d.y.s.s.d.s.s.y.y.t.t.e.e.e.e.e.e.-.-.-.-.-.*.-.*.=.*.*.*.&.=.=.*.#.#.$.@.+.] a.a.a.a.a.a.a.a.a.a.a.a.a.a.a.a.a.a.a.a.a.a.a.a.a.a.a.a.a.a.a.a.a.a.a.a.a.a.a.a.a.a.a.a.a.a.a.a.a.a.a.a.a.a.a.a.a.a.a.a.a.a.a.a.a.a.a.a.a.a.a.a.a.a.a.a.a.a.a.a.a.a.a.a.a.a.a.a.a.a.a.a.a.a.a.a.a.a.a.a.a.a.a.a.a.a.a.a.a.a.a.a.a.a.a.a.a.a.a.a.a.a.a.a.a.a.a.a.a.a.a.a.a.a.a.a.a.a.a.a.a.a.a.a.a.a.a.a.a.a.a.",
"a.a.a.a.a.a.a.a.a.a.a.a.a.a.a.a.a.a.a.a.a.a.a.a.a.a.a.a.a.a.a.a.a.a.a.a.a.a.a.a.a.a.a.a.a.a.a.a.a.a.a.a.a.a.a.a.a.a.a.a.a.a.a.a.a.a.a.a.a.a.a.a.a.a.a.a.a.a.a.Q 1.-.-.6.t.t.s.g.g.g.d.d.d.g.g.g.g.d.g.g.d.d.d.d.d.y.y.t.t.t.t.t.t.y.y.y.y.d.t.t.y.t.t.t.t.t.t.5.6.6.6.6.6.6.6.-.-.:.:.*.*.*.*.*.&.#.#... .#.&.#.#.#.#.#.&.*.*.*.*.1.1.*.*.*.1.*.#.#.#.#....... . .} ] ] ] _ _ W W E T U S Z C B n k s t 8 8 5 , - * & o X X X         O * - 3 5 8 t d x C Z Z F F S S F F F P U U U R R E W / / / _ / ` ] ` } } } } @.@.} } }  .@.@.@.#.&.#.&.#.#.&.-.-.-.&.-.-.-.-.4.-.4.4.-.4.4.6.6.t.t.6.t.t.t.t.t.t.t.y.t.t.t.y.d.d.d.d.d.d.d.d.d.d.g.g.g.g.g.g.g.g.g.d.g.g.g.g.g.j.g.g.g.m.g.g.g.g.g.g.g.m.m.j.j.A.d.m.k.k.k.d.k.k.k.j.j.j.V.v.j.j.j.j.V.j.k.k.j.V.j.j.j.V.V.j.j.j.j.V.j.j.j.f.k.k.j.j.k.j.k.k.k.k.g.k.k.k.f.f.h.k.k.k.k.k.g.h.g.g.h.f.f.h.h.g.f.t.s.s.s.y.y.s.y.t.y.t.e.t.e.e.e.e.e.;.-.-.-.-.*.*.*.*.#.#.&.*.#.#.#.=.@.@.#.U a.a.a.a.a.a.a.a.a.a.a.a.a.a.a.a.a.a.a.a.a.a.a.a.a.a.a.a.a.a.a.a.a.a.a.a.a.a.a.a.a.a.a.a.a.a.a.a.a.a.a.a.a.a.a.a.a.a.a.a.a.a.a.a.a.a.a.a.a.a.a.a.a.a.a.a.a.a.a.a.a.a.a.a.a.a.a.a.a.a.a.a.a.a.a.a.a.a.a.a.a.a.a.a.a.a.a.a.a.a.a.a.a.a.a.a.a.a.a.a.a.a.a.a.a.a.a.a.a.a.a.a.a.a.a.a.a.a.a.a.a.a.a.a.a.a.a.a.a.a.",
"a.a.a.a.a.a.a.a.a.a.a.a.a.a.a.a.a.a.a.a.a.a.a.a.a.a.a.a.a.a.a.a.a.a.a.a.a.a.a.a.a.a.a.a.a.a.a.a.a.a.a.a.a.a.a.a.a.a.a.a.a.a.a.a.a.a.a.a.a.a.a.a.a.a.a.a.a.a.W #.1.-.;.6.t.s.d.g.g.g.g.g.g.g.g.g.g.g.g.g.d.g.g.d.y.t.y.t.t.t.t.t.t.y.y.y.y.d.y.y.y.y.d.t.t.t.t.t.6.6.6.6.6.6.6.6.-.:.:.*.*.*.*.*.&.#.#.....#.#.#.#.#.#.#.#.*.*.*.*.*.*.*.*.*.*.#.#.#.#..... . .} } } ] ] ] _ _ W W E T P F S B B n d s p 7 8 5 < , * $ o o X     X X X . & * , 3 6 t d x B Z Z S S S S S S S F P U U T R R W / / / _ / ` ] ` } } } } } } }  .}  .@.@.@.#.#.&.&.#.#.&.-.-.-.-.-.-.-.-.6.4.-.-.4.4.4.t.6.t.t.6.t.t.t.t.t.y.t.t.t.t.t.y.d.y.y.y.y.y.d.g.y.d.g.g.g.g.g.g.g.d.t.y.g.g.g.g.g.g.g.g.j.j.j.g.g.g.g.j.g.j.g.j.k.j.f.k.g.j.k.k.k.k.v.m.k.k.j.j.V.j.j.V.V.V.V.V.V.V.j.d.k.j.j.k.k.j.k.k.k.k.k.k.j.k.j.j.k.k.k.k.k.k.g.k.k.k.k.k.k.k.k.k.k.k.h.h.g.g.g.f.f.k.k.f.s.f.f.f.f.y.y.y.t.t.y.t.e.e.e.e.e.e.e.;.-.-.-.-.*.-.-.*.*.&.&.&.*.#.#.#.$.#.@.#.a.a.a.a.a.a.a.a.a.a.a.a.a.a.a.a.a.a.a.a.a.a.a.a.a.a.a.a.a.a.a.a.a.a.a.a.a.a.a.a.a.a.a.a.a.a.a.a.a.a.a.a.a.a.a.a.a.a.a.a.a.a.a.a.a.a.a.a.a.a.a.a.a.a.a.a.a.a.a.a.a.a.a.a.a.a.a.a.a.a.a.a.a.a.a.a.a.a.a.a.a.a.a.a.a.a.a.a.a.a.a.a.a.a.a.a.a.a.a.a.a.a.a.a.a.a.a.a.a.a.a.a.a.a.a.a.a.a.a.a.a.a.a.a.a.a.a.a.a.a.",
"a.a.a.a.a.a.a.a.a.a.a.a.a.a.a.a.a.a.a.a.a.a.a.a.a.a.a.a.a.a.a.a.a.a.a.a.a.a.a.a.a.a.a.a.a.a.a.a.a.a.a.a.a.a.a.a.a.a.a.a.a.a.a.a.a.a.a.a.a.a.a.a.a.a.a.a.a.P #.&.-.;.6.6.t.d.g.g.g.d.d.g.g.g.g.g.g.g.g.d.d.d.d.d.d.y.y.y.t.t.t.t.t.t.t.t.t.y.d.y.y.d.d.d.d.t.t.t.t.6.6.6.6.6.6.6.6.1.-.*.*.*.*.*.*.#.#.....#.#.#.#.#.#. .#.&.*.*.*.*.#.*.*.*.*.#.#....... .} } }  .} ] ] ] _ _ W W E U U P Z B B l h s t 8 6 3 , , * & o o o o o o o o o o & - 3 5 8 s l m Z C S S Z F S S S F F U U U U R E W / / _ / / ] ` ] } } } } } }  .@.@. . .@.@.#.&.&.#.#.&.*.*.*.*.*.-.-.-.-.-.-.-.-.-.4.t.6.t.t.t.t.t.t.t.t.y.t.t.t.y.t.y.y.y.y.t.t.d.y.d.d.y.d.g.g.d.d.g.g.g.d.d.v.g.g.g.g.g.g.j.j.g.g.g.g.g.d.g.g.g.g.g.k.d.f.k.k.k.k.k.k.k.k.k.k.k.k.j.j.j.k.V.V.j.V.V.j.j.k.k.j.k.k.k.j.j.j.k.k.f.d.k.k.k.j.j.j.k.V.j.g.k.k.k.k.k.k.h.f.f.f.k.k.k.h.h.g.g.h.f.f.h.k.k.h.f.f.f.s.y.y.y.t.t.t.t.e.e.e.e.;.;.;.-.-.-.-.-.-.-.-.-.-.&.&.&.*.#.#.#.#.#.#.#.@.a.a.a.a.a.a.a.a.a.a.a.a.a.a.a.a.a.a.a.a.a.a.a.a.a.a.a.a.a.a.a.a.a.a.a.a.a.a.a.a.a.a.a.a.a.a.a.a.a.a.a.a.a.a.a.a.a.a.a.a.a.a.a.a.a.a.a.a.a.a.a.a.a.a.a.a.a.a.a.a.a.a.a.a.a.a.a.a.a.a.a.a.a.a.a.a.a.a.a.a.a.a.a.a.a.a.a.a.a.a.a.a.a.a.a.a.a.a.a.a.a.a.a.a.a.a.a.a.a.a.a.a.a.a.a.a.a.a.a.a.a.a.a.a.a.a.a.a.a.",
"a.a.a.a.a.a.a.a.a.a.a.a.a.a.a.a.a.a.a.a.a.a.a.a.a.a.a.a.a.a.a.a.a.a.a.a.a.a.a.a.a.a.a.a.a.a.a.a.a.a.a.a.a.a.a.a.a.a.a.a.a.a.a.a.a.a.a.a.a.a.a.a.a.a.a.a.a...*.-.-.-.5.t.d.d.d.g.g.j.g.g.g.g.g.j.g.g.g.g.g.d.d.d.d.y.d.y.t.t.t.t.t.y.y.y.y.y.y.y.t.d.d.d.d.t.t.d.y.t.t.6.6.6.6.6.6.1.-.:.*.*.*.*.*.&.#.....#.#...#.#.#.#...&.*.*.*.*.*.#.#.#.#.#.#..... . .} } } } } _ _ / / _ W W E T G S Z C N l d s t 8 8 3 , , - & $ $ & @ @ o O O o o o * , 3 7 p d l C C Z Z C S S S S S F P U U T T E E / / _ / / ` ` } } } } } } } } @.@.} } @.#.&.#.#.#.#.-.&.&.*.-.*.*.-.-.-.-.-.4.-.6.t.6.t.t.t.t.t.t.t.t.t.y.t.t.t.y.y.y.d.y.d.t.t.d.d.y.y.y.d.y.g.d.g.g.g.g.d.d.g.g.g.g.g.g.g.g.g.g.g.g.g.g.g.g.g.g.j.g.d.g.g.k.k.j.k.k.j.k.d.k.k.k.j.k.j.j.j.j.V.V.V.V.A.V.k.k.j.k.j.j.V.V.j.j.j.k.k.j.j.k.j.j.k.j.k.k.k.k.k.g.k.k.k.k.k.k.h.h.k.g.h.h.g.g.h.f.k.k.f.f.g.g.g.d.f.f.s.t.t.t.t.t.e.e.e.e.e.;.-.-.-.-.-.-.-.-.-.-.*.&.*.*.&.#.#.*.*.#.#.#.@...a.a.a.a.a.a.a.a.a.a.a.a.a.a.a.a.a.a.a.a.a.a.a.a.a.a.a.a.a.a.a.a.a.a.a.a.a.a.a.a.a.a.a.a.a.a.a.a.a.a.a.a.a.a.a.a.a.a.a.a.a.a.a.a.a.a.a.a.a.a.a.a.a.a.a.a.a.a.a.a.a.a.a.a.a.a.a.a.a.a.a.a.a.a.a.a.a.a.a.a.a.a.a.a.a.a.a.a.a.a.a.a.a.a.a.a.a.a.a.a.a.a.a.a.a.a.a.a.a.a.a.a.a.a.a.a.a.a.a.a.a.a.a.a.a.a.a.a.",
"a.a.a.a.a.a.a.a.a.a.a.a.a.a.a.a.a.a.a.a.a.a.a.a.a.a.a.a.a.a.a.a.a.a.a.a.a.a.a.a.a.a.a.a.a.a.a.a.a.a.a.a.a.a.a.a.a.a.a.a.a.a.a.a.a.a.a.a.a.a.a.a.a.a.a.a.] #.-.-.6.6.6.t.d.d.g.g.g.g.g.g.g.g.g.j.m.g.g.g.d.d.d.d.d.d.y.y.y.d.y.y.y.y.y.t.y.y.y.d.y.y.y.d.d.y.d.d.t.y.d.t.t.t.t.6.6.6.6.5.1.1.1.*.*.#...#.#.#.#.#..... .......#.#.#.#.#.#.#.#.#.#... ... . . . .} ] ] ] _ _ _ / W R R T U S Z C B l h p 9 8 5 , , , - * * & & % $ $ $ $ @ & $ & - < 5 t s l B Z S S F Z S S S S S S F F U U E W W / / _ ] ] ] } } }  .} } } } @.@. .} +.&.#.#.#.#.&.-.*.&.&.-.&.-.-.-.-.6.-.-.-.-.-.4.t.t.t.6.;.6.t.t.t.t.t.t.t.t.y.y.t.t.t.y.d.t.t.y.y.y.d.g.d.d.d.g.d.g.d.d.j.g.d.g.m.m.d.d.g.m.d.d.g.g.g.g.g.g.g.g.f.d.g.d.g.j.j.j.k.k.d.f.g.j.j.j.j.j.k.j.V.k.k.k.d.j.j.k.j.k.j.A.A.V.V.j.k.k.V.V.j.V.k.k.V.V.V.k.k.h.g.k.k.k.k.k.V.k.k.k.k.k.k.k.k.k.k.k.k.h.h.f.g.f.k.d.g.f.s.y.y.t.t.t.t.t.t.t.t.t.e.e.e.;.e.-.-.-.-.=.=.=.=.=.=.*.*.&.&.*.&.#.@.@.@.a.a.a.a.a.a.a.a.a.a.a.a.a.a.a.a.a.a.a.a.a.a.a.a.a.a.a.a.a.a.a.a.a.a.a.a.a.a.a.a.a.a.a.a.a.a.a.a.a.a.a.a.a.a.a.a.a.a.a.a.a.a.a.a.a.a.a.a.a.a.a.a.a.a.a.a.a.a.a.a.a.a.a.a.a.a.a.a.a.a.a.a.a.a.a.a.a.a.a.a.a.a.a.a.a.a.a.a.a.a.a.a.a.a.a.a.a.a.a.a.a.a.a.a.a.a.a.a.a.a.a.a.a.a.a.a.a.a.a.a.a.a.a.a.a.a.a.",
"a.a.a.a.a.a.a.a.a.a.a.a.a.a.a.a.a.a.a.a.a.a.a.a.a.a.a.a.a.a.a.a.a.a.a.a.a.a.a.a.a.a.a.a.a.a.a.a.a.a.a.a.a.a.a.a.a.a.a.a.a.a.a.a.a.a.a.a.a.a.a.a.a.a.a.Q ..#.&.-.1.6.6.t.t.s.d.g.g.l.g.g.g.g.j.j.j.g.g.g.d.d.g.d.d.d.y.y.y.y.t.t.t.y.d.d.y.y.y.y.y.d.d.y.y.d.y.t.t.y.d.s.t.6.t.6.6.6.4.1.1.1.1.1.*.#.#.#.#.#.#...............#.#...#.#.#.#.#.#..... . . . . . .] ] ] ] _ _ / W W W T U U S S C B l s s 9 8 5 5 , , - - * & & & $ $ $ & & & & @ * , 5 8 s d m Z S S S Z Z S S Z S S P F U U E W E W / / _ ] ] } } } } } } } } } @.@.@.@.#.@.@.#.#.&.-.&.&.*.&.&.*.-.-.-.6.-.-.4.-.-.4.t.t.;.-.6.6.t.t.6.t.t.t.t.y.y.t.y.y.t.t.y.t.t.t.y.y.d.d.d.d.d.g.g.d.d.d.d.g.g.g.k.g.g.g.g.g.g.g.g.g.g.m.j.g.g.g.k.g.g.k.j.j.j.j.k.k.k.k.g.k.k.m.V.m.A.m.j.k.k.j.d.k.k.k.j.V.j.V.V.V.k.k.k.k.k.k.j.k.k.V.V.k.f.h.k.k.k.k.k.k.k.h.k.k.h.f.f.h.f.f.k.k.k.k.g.k.k.k.k.k.g.g.k.s.t.t.t.t.t.t.t.t.t.t.t.t.e.e.e.e.e.e.-.-.-.-.=.=.=.=.=.*.*.=.=.*.*.&.&.@.@.] a.a.a.a.a.a.a.a.a.a.a.a.a.a.a.a.a.a.a.a.a.a.a.a.a.a.a.a.a.a.a.a.a.a.a.a.a.a.a.a.a.a.a.a.a.a.a.a.a.a.a.a.a.a.a.a.a.a.a.a.a.a.a.a.a.a.a.a.a.a.a.a.a.a.a.a.a.a.a.a.a.a.a.a.a.a.a.a.a.a.a.a.a.a.a.a.a.a.a.a.a.a.a.a.a.a.a.a.a.a.a.a.a.a.a.a.a.a.a.a.a.a.a.a.a.a.a.a.a.a.a.a.a.a.a.a.a.a.a.a.a.a.a.a.a.a.",
"a.a.a.a.a.a.a.a.a.a.a.a.a.a.a.a.a.a.a.a.a.a.a.a.a.a.a.a.a.a.a.a.a.a.a.a.a.a.a.a.a.a.a.a.a.a.a.a.a.a.a.a.a.a.a.a.a.a.a.a.a.a.a.a.a.a.a.a.a.a.a.a.a.a.a.#.#.&.&.-.1.6.t.t.s.d.d.g.g.g.g.g.j.j.g.j.m.j.v.g.g.g.d.d.d.y.d.y.t.y.y.y.d.y.y.d.y.y.y.y.y.d.d.y.y.d.d.d.d.d.d.t.t.6.6.6.6.6.4.4.1.1.1.1.*.*.#.#.#.#.#.#...........#.#.....#............. . . . . .[ ] ] _ ] _ / W W W W R R U U S S C B l h s t 9 8 5 3 , , - * * * * * * * & * & * * $ - 3 8 s d m C Z Z Z Z Z S S Z S S F F U U E E E W / / _ _ _ } } } } } } } } } @.@.@.@.@.+.#.#.#.&.#.#.&.&.&.&.-.-.-.-.4.-.-.-.6.-.-.6.t.t.6.6.6.t.t.t.t.t.t.y.y.t.t.t.t.t.y.t.t.t.t.t.y.d.d.y.y.d.y.d.y.d.g.d.g.g.g.g.g.d.d.g.d.s.g.m.m.g.g.g.g.g.g.k.g.m.m.g.g.j.j.k.j.k.k.k.j.j.k.V.m.j.V.m.j.k.k.k.V.j.k.k.d.g.j.j.j.j.V.m.j.k.j.j.g.k.k.k.k.k.k.k.k.k.h.f.k.k.f.h.h.h.f.f.h.g.h.f.h.g.f.k.k.h.h.h.d.f.d.d.f.s.s.s.t.t.t.t.t.t.t.t.t.e.e.e.e.e.e.-.-.-.-.-.=.=.=.*.=.*.*.*.-.*.*.#.#.#.@.] a.a.a.a.a.a.a.a.a.a.a.a.a.a.a.a.a.a.a.a.a.a.a.a.a.a.a.a.a.a.a.a.a.a.a.a.a.a.a.a.a.a.a.a.a.a.a.a.a.a.a.a.a.a.a.a.a.a.a.a.a.a.a.a.a.a.a.a.a.a.a.a.a.a.a.a.a.a.a.a.a.a.a.a.a.a.a.a.a.a.a.a.a.a.a.a.a.a.a.a.a.a.a.a.a.a.a.a.a.a.a.a.a.a.a.a.a.a.a.a.a.a.a.a.a.a.a.a.a.a.a.a.a.a.a.a.a.a.a.a.a.a.a.a.a.",
"a.a.a.a.a.a.a.a.a.a.a.a.a.a.a.a.a.a.a.a.a.a.a.a.a.a.a.a.a.a.a.a.a.a.a.a.a.a.a.a.a.a.a.a.a.a.a.a.a.a.a.a.a.a.a.a.a.a.a.a.a.a.a.a.a.a.a.a.a.a.a.a.a.a.[ ..#.&.&.*.-.6.t.s.d.d.d.g.g.g.g.d.g.k.j.m.j.g.g.g.d.d.d.d.d.y.d.d.y.t.t.t.y.y.t.y.t.y.y.y.d.y.d.d.d.y.d.d.t.t.d.y.t.6.t.t.6.6.6.5.3.4.1.1.*.*.#.*.#.#.#.#.....#... ...#. ...#............. .}  .} [ ] ] _ _ ] _ W W W W W T R U U S S Z B l k s t 9 8 6 5 , ; ; * * * * * * * * * * * - $ * < 8 9 s l m C Z C C Z S Z S S S S F U U R E E W / W / _ _ ] _ } } } } } } } @.#.@.@.@.@.#.#.#.&.#.&.&.#.&.&.-.-.-.-.6.-.-.-.4.-.-.-.t.t.t.6.;.6.t.t.t.t.t.t.t.t.t.t.t.y.y.t.t.t.t.d.y.d.y.y.y.d.d.d.g.g.d.g.g.d.d.g.d.d.g.g.d.g.m.m.j.g.g.d.d.g.k.j.g.g.g.g.g.g.j.j.k.j.V.k.k.k.d.j.m.V.V.j.d.d.k.k.k.k.k.k.k.k.k.k.v.V.j.j.j.j.k.k.k.k.k.h.h.k.k.k.k.h.k.h.k.k.k.g.k.k.f.f.f.f.f.f.k.f.f.f.g.k.k.k.d.d.k.f.d.f.t.t.t.t.t.t.t.t.t.t.t.e.e.e.e.e.e.e.-.-.-.-.-.-.-.=.*.*.*.*.*.*.#.#.#.#.#.@.] a.a.a.a.a.a.a.a.a.a.a.a.a.a.a.a.a.a.a.a.a.a.a.a.a.a.a.a.a.a.a.a.a.a.a.a.a.a.a.a.a.a.a.a.a.a.a.a.a.a.a.a.a.a.a.a.a.a.a.a.a.a.a.a.a.a.a.a.a.a.a.a.a.a.a.a.a.a.a.a.a.a.a.a.a.a.a.a.a.a.a.a.a.a.a.a.a.a.a.a.a.a.a.a.a.a.a.a.a.a.a.a.a.a.a.a.a.a.a.a.a.a.a.a.a.a.a.a.a.a.a.a.a.a.a.a.a.a.a.a.a.a.a.a.",
"a.a.a.a.a.a.a.a.a.a.a.a.a.a.a.a.a.a.a.a.a.a.a.a.a.a.a.a.a.a.a.a.a.a.a.a.a.a.a.a.a.a.a.a.a.a.a.a.a.a.a.a.a.a.a.a.a.a.a.a.a.a.a.a.a.a.a.a.a.a.a.a.a.a...&.#.#.&.-.-.6.t.t.t.d.d.g.g.j.g.g.g.g.g.g.j.g.g.g.d.g.d.d.d.y.t.y.t.t.t.t.y.y.y.y.y.d.y.y.y.d.y.d.y.d.d.d.t.d.d.t.t.t.t.t.t.6.6.3.4.4.1.1.*.*.*.#.#.#.#...#.#... . . ..... ...#... ..... . . . .] ] ] _ _ ] _ W W W W W R T U P S J S Z C m k h s 9 8 8 8 5 , ; ; * - * - * * * * * - * * - , 5 9 s j l m C Z C C Z Z Z Z S S F P U R E E W / / / _ / ] ` } } } ` } } }  .@.@. .+.@.@.#.&.#.#.&.#.@.#.#.*.-.-.-.6.6.-.-.-.-.-.;.6.t.t.t.6.6.;.-.-.e.t.t.t.t.y.t.t.y.t.t.t.t.t.y.d.y.t.y.d.d.d.d.d.s.y.d.d.d.d.d.d.g.g.j.g.d.g.g.g.g.g.g.g.j.k.g.g.g.g.g.j.g.j.V.k.k.k.f.k.d.d.j.j.V.B.k.j.j.k.k.d.k.k.j.k.k.j.k.d.d.d.k.V.k.f.j.k.k.k.k.k.k.k.k.k.h.f.h.k.k.k.k.k.f.k.k.k.k.k.g.f.g.g.f.f.h.h.h.d.k.k.k.d.s.y.y.f.s.t.t.t.e.e.e.;.;.;.;.e.e.e.e.-.-.-.-.-.-.=.=.*.*.-.*.*.*.*.*.*.&.@.@.@.a.a.a.a.a.a.a.a.a.a.a.a.a.a.a.a.a.a.a.a.a.a.a.a.a.a.a.a.a.a.a.a.a.a.a.a.a.a.a.a.a.a.a.a.a.a.a.a.a.a.a.a.a.a.a.a.a.a.a.a.a.a.a.a.a.a.a.a.a.a.a.a.a.a.a.a.a.a.a.a.a.a.a.a.a.a.a.a.a.a.a.a.a.a.a.a.a.a.a.a.a.a.a.a.a.a.a.a.a.a.a.a.a.a.a.a.a.a.a.a.a.a.a.a.a.a.a.a.a.a.a.a.a.a.a.a.a.a.a.a.a.a.a.a.",
"a.a.a.a.a.a.a.a.a.a.a.a.a.a.a.a.a.a.a.a.a.a.a.a.a.a.a.a.a.a.a.a.a.a.a.a.a.a.a.a.a.a.a.a.a.a.a.a.a.a.a.a.a.a.a.a.a.a.a.a.a.a.a.a.a.a.a.a.a.a.a.a.a.[ ..#.#.@.&.-.-.6.t.s.d.d.d.d.l.g.g.g.g.j.g.d.d.g.g.d.d.d.d.d.d.d.y.y.y.y.t.t.y.y.d.y.y.y.y.y.y.y.y.y.d.d.d.d.d.t.d.d.t.t.6.t.t.6.6.5.5.4.1.1.*.*.1.*.*.#.#...#.#... . ....... ....... .....} } } ] / ] / / W _ W W W W W R U U U F F S Z Z C m l l s p t 9 8 5 5 5 , , ; ; ; ; ; - - - - - * $ > 3 8 t h l x m C C Z Z Z Z Z Z S F F U R R T W / W / / / ] ` ` } } } } } } } @.@.@.+.@.#.@.&.#.#.&.#.#.#.&.-.-.-.-.6.6.4.-.-.-.-.t.t.6.6.6.6.t.6.-.-.-.e.t.t.t.y.t.y.t.t.t.t.t.t.s.d.d.d.y.d.g.d.d.d.s.s.d.d.d.y.s.g.g.g.g.g.j.g.g.g.g.g.g.g.j.g.g.j.m.j.g.j.g.j.k.f.f.k.k.k.k.k.j.j.k.d.d.k.k.d.k.k.d.k.k.j.j.k.k.k.k.k.j.V.m.m.V.k.k.k.k.k.k.k.k.h.f.f.k.k.k.k.k.k.h.k.k.k.k.h.k.k.g.f.f.f.h.h.h.d.d.d.f.d.d.f.d.s.d.y.t.t.t.t.t.e.e.e.e.e.e.e.e.-.-.-.-.-.-.-.-.*.*.*.*.*.*.*.#.#.&.@.$.@. .a.a.a.a.a.a.a.a.a.a.a.a.a.a.a.a.a.a.a.a.a.a.a.a.a.a.a.a.a.a.a.a.a.a.a.a.a.a.a.a.a.a.a.a.a.a.a.a.a.a.a.a.a.a.a.a.a.a.a.a.a.a.a.a.a.a.a.a.a.a.a.a.a.a.a.a.a.a.a.a.a.a.a.a.a.a.a.a.a.a.a.a.a.a.a.a.a.a.a.a.a.a.a.a.a.a.a.a.a.a.a.a.a.a.a.a.a.a.a.a.a.a.a.a.a.a.a.a.a.a.a.a.a.a.a.a.a.a.a.a.a.a.a.",
"a.a.a.a.a.a.a.a.a.a.a.a.a.a.a.a.a.a.a.a.a.a.a.a.a.a.a.a.a.a.a.a.a.a.a.a.a.a.a.a.a.a.a.a.a.a.a.a.a.a.a.a.a.a.a.a.a.a.a.a.a.a.a.a.a.a.a.a.a.a.a.a.]  . .....#.*.:.4.t.t.s.d.d.d.d.l.g.g.d.d.g.g.d.g.g.g.d.d.d.d.d.d.d.d.d.d.y.t.t.y.y.y.y.y.y.y.y.y.y.y.y.y.y.d.d.d.d.d.t.t.t.t.t.t.t.6.5.6.4.1.1.1.*.1.#.....#...#.#... . ... . . . ..... ...} } } } ] _ _ _ _ W W W W W W R U U P P F S S Z V C B c l d p p 9 9 8 6 5 5 , , ; ; ; ; - - * - - - & * 3 6 t s d l n B B Z Z C Z Z Z S S F U T T R E W W / / / ] ` ` } ` } } } } +.@.@.@.+.+.@.@.#.#.&.&.&.#.&.#.&.#.&.-.4.4.-.-.-.-.-.;.6.;.;.;.t.6.6.-.-.-.t.t.t.t.y.t.t.t.t.t.t.t.t.d.d.d.d.d.d.d.g.g.d.d.d.s.s.s.d.g.d.d.d.g.g.m.k.g.g.g.g.g.g.k.k.j.k.m.g.g.g.g.j.k.k.k.k.j.j.j.j.j.j.j.k.j.k.k.g.k.g.f.k.j.d.k.k.k.j.k.k.j.j.g.k.V.V.V.k.g.k.k.k.k.k.k.k.k.k.k.k.k.k.k.k.h.k.k.k.B.k.h.h.h.h.k.k.k.d.d.k.k.d.g.d.y.y.y.y.y.t.e.e.t.t.t.t.e.e.e.e.e.-.=.-.-.=.=.=.*.-.*.*.-.*.=.*.=.*.&.&.=.&.#.#.a.a.a.a.a.a.a.a.a.a.a.a.a.a.a.a.a.a.a.a.a.a.a.a.a.a.a.a.a.a.a.a.a.a.a.a.a.a.a.a.a.a.a.a.a.a.a.a.a.a.a.a.a.a.a.a.a.a.a.a.a.a.a.a.a.a.a.a.a.a.a.a.a.a.a.a.a.a.a.a.a.a.a.a.a.a.a.a.a.a.a.a.a.a.a.a.a.a.a.a.a.a.a.a.a.a.a.a.a.a.a.a.a.a.a.a.a.a.a.a.a.a.a.a.a.a.a.a.a.a.a.a.a.a.a.a.a.a.a.a.a.a.",
"a.a.a.a.a.a.a.a.a.a.a.a.a.a.a.a.a.a.a.a.a.a.a.a.a.a.a.a.a.a.a.a.a.a.a.a.a.a.a.a.a.a.a.a.a.a.a.a.a.a.a.a.a.a.a.a.a.a.a.a.a.a.a.a.a.a.a.a.a.a.a.#.} #.}  . .#.*.:.6.6.t.t.t.d.d.d.d.g.d.d.d.d.d.g.v.g.d.g.d.g.d.d.d.d.y.y.y.y.t.t.y.y.y.y.y.y.y.y.y.y.t.y.y.d.d.t.d.d.d.d.t.t.y.y.t.t.t.6.6.6.1.1.1.*.*.#.*.#.#...#.#... . . . . . . ... .} } } } } } ] _ ] _ _ W W W W W R U U P P S S Z V C B B c m n l h s s t t 9 8 8 5 3 3 5 3 , ; ; , ; - - - o , 6 9 p s l l m B B B C Z C Z Z S S P T T T R E / / _ / } ` _ ` ` } ` } } } @.@.@.@.+.@.@.@.@.&.#.#.#.@.#.&.&.&.-.6.-.4.-.-.-.-.-.;.;.;.;.t.6.6.t.t.t.t.t.t.t.y.t.t.t.t.t.t.t.t.d.d.g.d.d.d.d.d.d.d.d.d.d.d.d.g.g.d.d.g.g.j.k.j.g.g.g.g.d.d.g.k.j.j.g.d.g.g.g.j.k.k.j.k.j.k.k.k.d.j.k.k.j.m.j.k.j.k.g.k.k.k.d.d.k.k.k.d.k.k.V.V.V.V.V.k.k.k.g.g.k.k.k.k.k.k.k.k.k.k.V.k.f.f.g.k.k.k.k.k.k.k.k.h.k.f.f.f.f.d.f.s.u.y.t.s.f.y.t.t.t.e.e.e.e.e.e.e.e.-.-.-.-.-.*.=.*.*.-.-.*.-.-.*.-.=.&.#.#.#.#.#.#.a.a.a.a.a.a.a.a.a.a.a.a.a.a.a.a.a.a.a.a.a.a.a.a.a.a.a.a.a.a.a.a.a.a.a.a.a.a.a.a.a.a.a.a.a.a.a.a.a.a.a.a.a.a.a.a.a.a.a.a.a.a.a.a.a.a.a.a.a.a.a.a.a.a.a.a.a.a.a.a.a.a.a.a.a.a.a.a.a.a.a.a.a.a.a.a.a.a.a.a.a.a.a.a.a.a.a.a.a.a.a.a.a.a.a.a.a.a.a.a.a.a.a.a.a.a.a.a.a.a.a.a.a.a.a.a.a.a.a.a.a.",
"a.a.a.a.a.a.a.a.a.a.a.a.a.a.a.a.a.a.a.a.a.a.a.a.a.a.a.a.a.a.a.a.a.a.a.a.a.a.a.a.a.a.a.a.a.a.a.a.a.a.a.a.a.a.a.a.a.a.a.a.a.a.a.a.a.a.a.a.7.1.} _  . . .} } @.&.*.1.6.6.t.t.t.t.y.y.t.d.s.s.d.d.g.g.d.d.d.y.y.y.y.y.y.y.y.y.y.y.y.y.d.y.y.y.t.d.d.t.d.d.d.d.d.d.d.l.l.t.y.y.7.y.y.y.s.6.6.4.1.1.1.1.1.1.1.*.o.*.*.#..... . . . . . . . . . . . . .]  .] / W / W W W W W R U U U P J S S Z B m B B B c l l x l k h s s p 9 9 9 8 8 6 5 8 5 5 5 , , ; - ; 3 9 t s d l n n m B B B Z Z Z S F F U R R R R W / / / / / ` ] ` ` } } }  . . .@.}  .@.@.@.#.#.#.#.#.@.&.&.#.&.-.-.-.-.*.-.;.-.-.-.;.-.-.-.-.t.t.t.t.t.t.t.t.6.t.t.t.t.4.6.t.t.t.y.t.y.d.d.s.d.y.s.d.d.d.d.d.d.d.g.g.g.k.g.g.g.g.g.g.g.g.m.A.j.g.g.j.j.g.j.j.g.j.k.g.k.k.f.d.k.d.g.g.g.g.g.g.j.g.f.f.f.f.k.d.k.k.k.k.k.j.j.k.j.j.j.k.j.j.d.k.k.j.V.k.k.k.k.k.k.h.k.k.g.k.k.k.k.k.k.k.h.h.h.f.k.k.f.d.f.y.y.s.d.t.t.t.t.s.y.t.t.t.t.t.t.t.e.e.;.e.;.e.-.-.-.-.-.-.=.*.*.=.=.*.*.*.-.*.=.#.&.#.#.#.@.a.a.a.a.a.a.a.a.a.a.a.a.a.a.a.a.a.a.a.a.a.a.a.a.a.a.a.a.a.a.a.a.a.a.a.a.a.a.a.a.a.a.a.a.a.a.a.a.a.a.a.a.a.a.a.a.a.a.a.a.a.a.a.a.a.a.a.a.a.a.a.a.a.a.a.a.a.a.a.a.a.a.a.a.a.a.a.a.a.a.a.a.a.a.a.a.a.a.a.a.a.a.a.a.a.a.a.a.a.a.a.a.a.a.a.a.a.a.a.a.a.a.a.a.a.a.a.a.a.a.a.a.a.a.a.a.a.a.a.a.",
"a.a.a.a.a.a.a.a.a.a.a.a.a.a.a.a.a.a.a.a.a.a.a.a.a.a.a.a.a.a.a.a.a.a.a.a.a.a.a.a.a.a.a.a.a.a.a.a.a.a.a.a.a.a.a.a.a.a.a.a.a.a.a.a.a.d.d.5.1.*./ }  .} } }  . .@.#.*.1.6.5.5.t.t.t.t.t.s.y.s.d.d.d.d.d.d.d.y.t.t.y.t.y.y.y.y.t.t.t.t.t.d.y.y.t.y.d.y.d.d.d.d.d.d.d.l.l.t.t.t.y.y.y.y.s.6.y.5.3.1.1.1.:.:.1.*.*.*.*....... . . . . . . . . . . .]  . .} ] / W / / W W E R T U U P F S S Z C B B m B c m c c l l k k l l k h h s s s s t 9 9 8 8 5 3 , , * 3 8 9 p d k l n n B B B B C C S S F G T U R R E / / / / / _ ` ] ` } }  . . . . . .@. . .@.#.#.#.&.#.#.#.#.&.&.-.*.-.-.*.-.;.;.-.-.-.-.;.;.-.-.t.t.t.6.t.t.4.t.t.t.t.t.6.t.t.t.t.t.t.s.d.d.d.d.s.s.s.s.d.d.d.g.d.g.m.g.g.g.g.g.g.j.g.g.g.g.g.g.k.g.g.j.j.g.d.g.j.f.d.k.d.s.f.d.g.j.j.j.g.g.j.j.j.d.f.f.k.k.k.k.d.k.k.k.k.k.k.j.k.j.k.k.j.k.k.k.k.j.k.V.k.k.h.k.k.k.k.k.k.k.k.k.k.k.k.k.h.f.f.f.f.f.f.y.y.f.s.f.y.t.t.t.s.s.s.y.t.t.t.t.e.e.e.;.;.;.e.-.-.-.-.-.-.*.*.*.*.=.*.=.*.*.*.*.*.=.#.#.#.@.#.a.a.a.a.a.a.a.a.a.a.a.a.a.a.a.a.a.a.a.a.a.a.a.a.a.a.a.a.a.a.a.a.a.a.a.a.a.a.a.a.a.a.a.a.a.a.a.a.a.a.a.a.a.a.a.a.a.a.a.a.a.a.a.a.a.a.a.a.a.a.a.a.a.a.a.a.a.a.a.a.a.a.a.a.a.a.a.a.a.a.a.a.a.a.a.a.a.a.a.a.a.a.a.a.a.a.a.a.a.a.a.a.a.a.a.a.a.a.a.a.a.a.a.a.a.a.a.a.a.a.a.a.a.a.a.a.a.a.a.",
"a.a.a.a.a.a.a.a.a.a.a.a.a.a.a.a.a.a.a.a.a.a.a.a.a.a.a.a.a.a.a.a.a.a.a.a.a.a.a.a.a.a.a.a.a.a.a.a.a.a.a.a.a.a.a.a.a.a.a.a.a.a.a.d.l.d.y.4.*.] _  .} } _ } } }  .#.*.1.1.6.6.6.t.y.t.t.d.s.d.d.g.g.g.d.y.y.y.y.y.y.y.y.y.y.y.y.y.y.t.y.y.y.y.y.t.y.y.d.d.d.d.d.d.d.l.d.d.6.y.y.y.7.d.d.4.7.3.5.1.1.1.1.1.1.:.*.*.*....... . . . . . . .{  . .} ] ]  .] ] / W / / W R R R U U S F S S Z Z C m m m c x c l l l l l d k k x x l j d d d s p 9 9 8 3 3 , , - 3 6 9 p d d l l l m B B B C Z Z S F G T U U R R W W / / / _ _ ] ] } }  . . . .} }  .} @.@.@.#.#.#.#.&.&.&.&.&.&.&.*.-.-.-.-.-.-.-.-.e.-.-.-.-.6.t.t.6.6.t.t.6.t.t.t.t.t.t.t.t.t.t.t.d.y.t.y.s.s.d.d.y.d.d.d.d.d.g.g.g.j.g.g.j.g.g.g.g.j.g.g.m.D.g.g.g.d.g.g.g.d.f.d.d.s.s.j.j.j.j.k.m.j.j.k.j.g.g.k.d.f.k.j.k.k.k.k.k.k.k.d.d.k.j.k.k.j.k.k.k.k.k.V.V.k.k.k.k.V.k.k.k.k.k.k.k.k.g.k.k.f.f.f.f.f.d.d.f.s.s.y.u.y.s.y.s.d.s.t.y.t.t.t.t.e.e.e.;.;.e.;.-.-.;.-.-.-.-.*.*.=.=.=.=.=.*.*.-.-.*.#.#.=.' #.[ a.a.a.a.a.a.a.a.a.a.a.a.a.a.a.a.a.a.a.a.a.a.a.a.a.a.a.a.a.a.a.a.a.a.a.a.a.a.a.a.a.a.a.a.a.a.a.a.a.a.a.a.a.a.a.a.a.a.a.a.a.a.a.a.a.a.a.a.a.a.a.a.a.a.a.a.a.a.a.a.a.a.a.a.a.a.a.a.a.a.a.a.a.a.a.a.a.a.a.a.a.a.a.a.a.a.a.a.a.a.a.a.a.a.a.a.a.a.a.a.a.a.a.a.a.a.a.a.a.a.a.a.a.a.a.a.a.a.",
"a.a.a.a.a.a.a.a.a.a.a.a.a.a.a.a.a.a.a.a.a.a.a.a.a.a.a.a.a.a.a.a.a.a.a.a.a.a.a.a.a.a.a.a.a.a.a.a.a.a.a.a.a.a.a.a.a.a.a.a.a...7.j.f.t.5.*.../ } ]  .} ] } } }  . .*.-.1.6.6.t.t.t.t.t.t.t.s.d.d.d.d.d.y.t.y.y.y.y.y.y.t.y.y.t.y.y.t.y.y.y.y.y.t.t.y.d.d.d.d.d.d.d.d.d.d.6.d.y.y.t.y.d.6.7.5.5.4.4.1.1.1.1.:.*.*.&...| .. . . . . . . . . . .] ] ] ] ] ] / W W W W R R U U U S S S Z Z Z B m b c c x x l l l l l k l k l c c x x l l h s t 9 8 5 3 < ; * - 6 9 t s s d l l m m m B B Z Z S F G G U U R T W W / / / _ _ ] ] } }  . . . . .} }  .@.@.@.@.@.#.@.#.&.&.&.-.-.&.&.-.-.*.&.@.-.-.-.-.-.-.-.;.6.t.t.t.6.6.6.6.t.6.t.t.t.6.t.y.t.t.d.y.y.y.s.d.d.d.s.y.y.d.s.d.d.g.g.g.g.g.g.g.g.g.d.d.g.g.g.k.m.g.g.j.d.g.d.d.f.g.f.y.d.k.k.j.j.j.j.j.g.g.j.g.d.g.k.k.d.k.k.j.j.k.k.k.k.k.k.k.k.j.k.k.j.k.d.k.k.k.k.k.k.k.k.k.k.k.g.g.h.h.k.h.f.h.h.f.f.f.f.f.f.s.s.y.s.s.s.t.s.f.s.t.y.y.y.t.t.t.t.t.e.e.e.e.e.;.;.-.-.;.;.;.-.*.-.*.=.=.=.#.#.=.*.*.*.*.&.$.#.+.@.@.a.a.a.a.a.a.a.a.a.a.a.a.a.a.a.a.a.a.a.a.a.a.a.a.a.a.a.a.a.a.a.a.a.a.a.a.a.a.a.a.a.a.a.a.a.a.a.a.a.a.a.a.a.a.a.a.a.a.a.a.a.a.a.a.a.a.a.a.a.a.a.a.a.a.a.a.a.a.a.a.a.a.a.a.a.a.a.a.a.a.a.a.a.a.a.a.a.a.a.a.a.a.a.a.a.a.a.a.a.a.a.a.a.a.a.a.a.a.a.a.a.a.a.a.a.a.a.a.a.a.a.a.a.a.a.a.a.a.",
"a.a.a.a.a.a.a.a.a.a.a.a.a.a.a.a.a.a.a.a.a.a.a.a.a.a.a.a.a.a.a.a.a.a.a.a.a.a.a.a.a.a.a.a.a.a.a.a.a.a.a.a.a.a.a.a.a.a.a...7.y.d.y.t.6.4.*._ / _ ] } _ _ _ _ _  . .@.&.1.1.;.5.6.t.t.t.t.y.y.y.y.d.d.d.y.t.y.y.y.y.t.t.t.t.t.y.t.t.t.y.t.y.y.y.y.t.y.d.d.d.d.d.d.d.l.d.d.d.d.d.6.y.y.6.y.7.5.5.3.4.1.1.1.1.1.*.*.*... ... .{  .}  . .{ } } } ] ] ] ] ] ] W W W W W T T U U F S S Z D B B B m B x c x l l j j j j l d j j j l l d h h s s t 9 7 5 < , = * - 5 8 t p s d l l m m m m B C C S F F G U U U T W / / / / _ ` ] } } } }  . . .} } } } } @.@.+.@.@.@.@.&.#.&.&.#.#.&.-.-.&.' @.*.-.-.-.-.-.-.-.6.t.t.t.t.6.6.t.t.6.t.t.t.6.t.y.t.t.y.y.t.t.s.d.d.d.s.s.s.y.y.d.g.g.d.g.g.g.g.g.d.d.g.g.g.d.g.k.g.d.g.d.d.g.g.g.f.f.d.f.d.g.k.k.g.j.g.j.m.j.g.g.d.d.k.d.k.k.k.k.j.V.k.k.k.k.k.j.V.j.j.V.j.k.k.k.j.k.k.k.k.k.k.k.k.h.f.f.f.h.g.f.h.g.g.g.g.g.f.f.f.f.f.f.f.y.t.y.y.f.s.f.y.s.t.t.t.t.t.t.e.e.e.e.;.;.;.;.;.;.-.-.-.-.-.*.-.-.*.=.=.=.&.&.=.=.*.&.=.+.@.#.#.a.a.a.a.a.a.a.a.a.a.a.a.a.a.a.a.a.a.a.a.a.a.a.a.a.a.a.a.a.a.a.a.a.a.a.a.a.a.a.a.a.a.a.a.a.a.a.a.a.a.a.a.a.a.a.a.a.a.a.a.a.a.a.a.a.a.a.a.a.a.a.a.a.a.a.a.a.a.a.a.a.a.a.a.a.a.a.a.a.a.a.a.a.a.a.a.a.a.a.a.a.a.a.a.a.a.a.a.a.a.a.a.a.a.a.a.a.a.a.a.a.a.a.a.a.a.a.a.a.a.a.a.a.a.a.a.a.",
"a.a.a.a.a.a.a.a.a.a.a.a.a.a.a.a.a.a.a.a.a.a.a.a.a.a.a.a.a.a.a.a.a.a.a.a.a.a.a.a.a.a.a.a.a.a.a.a.a.a.a.a.a.a.a.a.a...6.d.t.d.t.6.1.1.*.} / / _ ] ] _ _ _ _ _ }  ...#.1.:.1.6.6.t.t.t.t.t.t.t.t.d.d.y.y.t.t.y.y.t.t.y.y.t.y.y.y.y.y.y.y.t.t.t.y.y.y.y.d.d.d.y.d.d.f.d.d.6.y.y.5.t.y.7.t.6.5.5.1.1.1.1.1.1.*.*.*.*...| .. .] ] ]  . .{  .] } ] ] ] ] ] ] / W W W R U U L S S Z S S Z B B B m B x x l l l j h h h j d s s h d h h s s s t 9 7 6 5 , , > & o < 6 9 p s d l l l n m m m B C Z S F F U U U E E / / / / _ ` ] ] } } }  . . .} } } } } @. .@.@.#.#.#.&.#.&.&.&.-.*.-.*.#.+.@.-.-.-.-.-.-.-.-.6.t.t.t.6.-.6.6.6.t.t.t.t.6.t.t.t.t.t.t.t.t.s.y.y.s.y.y.d.y.y.d.g.g.d.j.j.j.g.d.d.d.d.g.g.g.d.g.g.g.g.d.d.d.d.d.k.d.f.g.d.d.k.k.g.j.g.g.g.g.j.k.g.k.k.k.k.k.k.k.k.k.d.k.k.j.j.j.j.j.V.V.k.k.k.k.k.k.k.k.k.k.k.k.k.k.f.f.h.h.k.k.h.h.h.f.f.f.f.f.f.f.y.f.d.s.y.s.s.f.f.s.s.t.t.t.y.t.y.t.t.t.t.t.t.e.e.e.;.;.-.-.-.-.-.-.*.-.*.=.#.*.&.&.=.=.*.=.&.#.#.&.#.#.a.a.a.a.a.a.a.a.a.a.a.a.a.a.a.a.a.a.a.a.a.a.a.a.a.a.a.a.a.a.a.a.a.a.a.a.a.a.a.a.a.a.a.a.a.a.a.a.a.a.a.a.a.a.a.a.a.a.a.a.a.a.a.a.a.a.a.a.a.a.a.a.a.a.a.a.a.a.a.a.a.a.a.a.a.a.a.a.a.a.a.a.a.a.a.a.a.a.a.a.a.a.a.a.a.a.a.a.a.a.a.a.a.a.a.a.a.a.a.a.a.a.a.a.a.a.a.a.a.a.a.a.a.a.a.a.",
"a.a.a.a.a.a.a.a.a.a.a.a.a.a.a.a.a.a.a.a.a.a.a.a.a.a.a.a.a.a.a.a.a.a.a.a.a.a.a.a.a.a.a.a.a.a.a.a.a.a.a.a.a.a.a.3.5.y.l.t.s.d.t.5.3.1..._ / _ _ _ _ _ _ _ _ _ _ }  .#.*.:.-.6.6.6.t.t.5.t.t.t.y.t.t.t.y.t.t.y.t.t.t.t.t.y.y.y.y.y.y.y.t.t.t.t.y.d.y.d.d.d.y.d.d.y.l.d.d.d.y.y.6.t.d.7.6.6.5.5.1.1.1.1.1.1.*.*.*.*... ... .] } ] }  .] ] ] } ] _ ] ] ] [ ] W W W W U U P S S S Z C B C B B m m x x l l d h h s s h s s s s s u s s t t 9 8 8 5 < > > & % o : 5 8 t p s l l l l n m m B C Z S F F U U U R E W / / ^ / ` ] ` ] } } }  . .} } } } } } } @.@.#.#.#.#.#.&.&.&.-.&.#.*.#.=.=.-.-.-.-.-.-.-.e.6.t.t.6.4.6.4.4.-.6.6.6.t.6.t.t.t.y.s.t.t.y.s.t.t.d.s.d.d.d.d.d.d.d.d.g.g.d.y.d.d.g.d.d.d.g.g.d.g.j.g.d.d.g.g.g.k.g.k.k.g.g.k.k.g.g.g.j.g.g.j.k.g.d.k.k.k.k.k.d.k.f.f.k.k.j.k.k.k.j.j.k.k.k.k.V.k.k.V.k.k.k.k.k.k.k.g.f.k.h.g.k.h.f.f.f.f.f.f.f.f.f.f.f.f.f.s.f.f.s.s.t.s.t.t.y.y.t.t.t.t.t.t.t.t.e.e.e.e.e.e.e.e.-.-.-.-.*.*.*.=.*.*.*.=.=.*.&.=.&.*.&.#.+.#.a.a.a.a.a.a.a.a.a.a.a.a.a.a.a.a.a.a.a.a.a.a.a.a.a.a.a.a.a.a.a.a.a.a.a.a.a.a.a.a.a.a.a.a.a.a.a.a.a.a.a.a.a.a.a.a.a.a.a.a.a.a.a.a.a.a.a.a.a.a.a.a.a.a.a.a.a.a.a.a.a.a.a.a.a.a.a.a.a.a.a.a.a.a.a.a.a.a.a.a.a.a.a.a.a.a.a.a.a.a.a.a.a.a.a.a.a.a.a.a.a.a.a.a.a.a.a.a.a.a.a.a.a.a.a.",
"a.a.a.a.a.a.a.a.a.a.a.a.a.a.a.a.a.a.a.a.a.a.a.a.a.a.a.a.a.a.a.a.a.a.a.a.a.a.a.a.a.a.a.a.a.a.a.a.a.a.a.a.a.*.y.d.s.t.t.t.s.t.t.5.1.*. ./ / / _ ] ] _ / / _ _ _ ]  ...#.*.:.:.-.6.6.6.6.t.t.t.y.t.t.t.t.t.t.t.t.t.t.t.t.t.t.t.t.t.t.t.t.t.t.t.y.t.y.d.d.d.y.y.d.y.d.d.d.d.y.7.y.t.d.4.t.t.5.5.5.4.1.1.1.*.*.*.*.*... . .} ] ] ] }  .] ] ] ] ] _ ] ] ] ] ] ) W R R U U P J S S C Z m C B m m c c l l j h h s s s s p s t t t t 9 9 8 7 8 8 5 3 , - * & o o & 5 8 9 t s d d l l l n m B C Z S F F P U U R E W / / ^ / ` ` ] } } } } }  .} } } } } } } @.@.@.@.#.#.@.&.&.-.&.&.&.&.-.=.=.-.-.-.-.*.-.-.e.6.t.t.6.6.;.4.6.6.t.6.6.t.t.t.t.t.y.s.t.t.y.y.y.s.y.s.d.d.s.d.d.d.d.g.g.d.d.d.g.d.d.d.d.g.j.g.g.m.j.d.g.d.g.d.d.k.k.f.f.k.g.f.f.g.d.g.g.g.g.g.j.d.d.d.d.g.V.k.d.k.k.d.f.k.k.j.k.k.k.d.k.k.k.k.k.k.k.k.k.k.k.k.k.k.f.f.g.k.h.g.f.f.f.h.h.f.k.g.h.h.h.f.f.f.s.t.s.s.y.s.s.s.s.s.f.f.s.t.t.t.e.t.t.t.t.t.e.e.e.e.e.e.-.-.-.-.*.*.&.*.*.*.*.*.=.*.&.&.&.&.#.+.+.+. .a.a.a.a.a.a.a.a.a.a.a.a.a.a.a.a.a.a.a.a.a.a.a.a.a.a.a.a.a.a.a.a.a.a.a.a.a.a.a.a.a.a.a.a.a.a.a.a.a.a.a.a.a.a.a.a.a.a.a.a.a.a.a.a.a.a.a.a.a.a.a.a.a.a.a.a.a.a.a.a.a.a.a.a.a.a.a.a.a.a.a.a.a.a.a.a.a.a.a.a.a.a.a.a.a.a.a.a.a.a.a.a.a.a.a.a.a.a.a.a.a.a.a.a.a.a.a.a.a.a.a.a.a.a.",
"a.a.a.a.a.a.a.a.a.a.a.a.a.a.a.a.a.a.a.a.a.a.a.a.a.a.a.a.a.a.a.a.a.a.a.a.a.a.a.a.a.a.a.a.a.a.a.a.a.a.a.*.6.s.s.s.g.d.d.d.d.y.t.5.*.#.] / _ _ ] _ _ / W / / / _ ]  . .@.#.:.*.-.-.4.6.6.t.t.y.y.y.t.t.t.t.t.t.t.t.y.t.t.t.t.t.t.t.t.t.t.t.t.t.t.t.t.d.d.d.d.y.d.y.d.d.d.y.d.y.y.d.d.7.y.6.6.6.5.6.3.1.1.*.*....... . . .] ] ] ] ] ] ] ] ] ] _ ] ] ] _ ] ] W W R R T U U P S Z C D V m B m l l x l l l h h s s p t t t r 9 9 8 8 7 7 6 4 3 , - * O o o o X o < 6 8 9 p d d k l l l l n B Z S F F U P U R E / / W / / / / _ ` / } } }  .} } } }  .@.@.@.+.@.@.#.#.#.&.#.&.&.&.-.-.-.*.-.-.;.;.-.-.-.-.6.6.-.4.6.t.6.6.6.6.4.t.t.t.t.t.t.t.t.y.t.y.t.t.s.d.s.s.s.s.s.s.d.d.g.g.s.s.g.g.d.g.g.d.d.g.g.g.j.g.g.d.d.d.d.d.d.j.f.s.g.f.f.f.y.d.d.d.f.f.f.f.k.k.d.d.g.d.k.k.k.k.k.d.d.k.k.k.j.j.j.k.k.k.k.k.k.d.d.k.k.k.k.k.V.V.k.k.k.k.g.h.h.h.f.f.g.g.g.g.f.f.k.f.s.s.s.f.f.g.f.f.f.f.f.s.y.y.y.y.t.t.t.t.t.t.t.y.t.e.t.e.-.-.;.-.-.*.*.*.=.*.-.-.*.=.=.&.&.&.&.#.#.#.@.#.@.@.a.a.a.a.a.a.a.a.a.a.a.a.a.a.a.a.a.a.a.a.a.a.a.a.a.a.a.a.a.a.a.a.a.a.a.a.a.a.a.a.a.a.a.a.a.a.a.a.a.a.a.a.a.a.a.a.a.a.a.a.a.a.a.a.a.a.a.a.a.a.a.a.a.a.a.a.a.a.a.a.a.a.a.a.a.a.a.a.a.a.a.a.a.a.a.a.a.a.a.a.a.a.a.a.a.a.a.a.a.a.a.a.a.a.a.a.a.a.a.a.a.a.a.a.a.a.a.a.a.a.a.a.a.",
"a.a.a.a.a.a.a.a.a.a.a.a.a.a.a.a.a.a.a.a.a.a.a.a.a.a.a.a.a.a.a.a.a.a.a.a.a.a.a.a.a.a.a.a.a.a.a.a.a.a.d.6.g.g.f.g.g.d.d.d.d.y.5.1.#...] / _ ] ] _ ! W W W W / _ _ } }  .#.&.&.*.-.-.6.6.6.5.t.t.t.y.t.t.t.5.t.t.t.t.t.t.t.t.t.t.t.t.t.t.s.t.t.d.d.d.d.d.d.d.d.d.t.d.d.d.d.d.d.d.d.d.y.y.6.6.5.4.4.3.1.1.*.#.....| | } } ] ] ] ] ] ] ] _ ] ] _ / _ _ _ ] W W R R R U U U J S Z B V V m m l l l j j g h s s t t 9 t 7 7 8 8 8 5 5 5 3 < , - & $ o o o o o X X * 5 8 9 t p s d j l l l n B C C S F F P U R T / W E / / / / / / / } } } } } } } } @.@.@.@.@.@.@.@.@.#.#.#.#.&.*.&.-.&.*.-.-.;.-.-.-.-.-.;.-.4.-.-.6.6.6.-.t.t.t.6.t.t.t.t.t.t.y.t.t.y.s.d.s.s.t.t.s.d.d.g.d.g.d.y.s.d.d.g.g.d.d.g.g.j.g.g.d.d.d.g.g.g.d.g.j.f.f.f.t.s.y.y.f.d.d.f.f.g.k.k.k.g.d.k.k.k.d.k.k.k.k.k.k.k.k.j.j.k.k.k.k.k.k.k.d.f.d.g.k.k.k.k.V.k.k.k.k.k.k.h.h.d.g.g.f.f.y.y.s.f.h.f.s.s.s.f.f.f.h.f.s.s.t.t.y.y.t.t.t.t.t.t.t.t.t.t.t.t.e.e.;.-.-.-.-.-.=.=.=.-.-.-.*.&.#.#.#.&.#.#.&.#.@.@.@.a.a.a.a.a.a.a.a.a.a.a.a.a.a.a.a.a.a.a.a.a.a.a.a.a.a.a.a.a.a.a.a.a.a.a.a.a.a.a.a.a.a.a.a.a.a.a.a.a.a.a.a.a.a.a.a.a.a.a.a.a.a.a.a.a.a.a.a.a.a.a.a.a.a.a.a.a.a.a.a.a.a.a.a.a.a.a.a.a.a.a.a.a.a.a.a.a.a.a.a.a.a.a.a.a.a.a.a.a.a.a.a.a.a.a.a.a.a.a.a.a.a.a.a.a.a.a.a.a.a.a.a.a.",
"a.a.a.a.a.a.a.a.a.a.a.a.a.a.a.a.a.a.a.a.a.a.a.a.a.a.a.a.a.a.a.a.a.a.a.a.a.a.a.a.a.a.a.a.a.a.a.a.2.d.t.l.g.g.f.f.l.d.d.g.d.6.5.1.#. .] _ _ _ _ _ _ W W E E / _ _ ] } }  .&.&.&.:.1.4.6.6.6.6.6.6.t.t.t.t.t.t.6.6.t.t.6.t.t.t.t.t.t.t.t.d.t.t.y.d.d.d.y.y.y.d.d.y.d.d.d.d.d.d.y.y.d.y.6.7.6.6.3.4.4.4.1.*....... . .} [ ] ] ] ] ] ] ] ] _ ] _ W / / _ _ _ W R R T U U U P S Z C V m m l k k l h h h s p t r 9 t 8 8 8 8 5 5 < , , ; - * o o o o o o o o X   o 4 6 8 p p s d j l l n n B C Z F F F F U R E W W E / / / / / / / ] } } } ] } } } @. .@.@.@.@.@.@.@.#.@.@.#.&.&.&.*.&.&.-.-.-.-.-.-.-.-.-.-.6.-.-.6.6.6.4.6.t.t.;.t.t.t.t.t.t.t.t.t.y.d.s.t.t.s.d.d.d.d.d.s.d.d.d.d.g.d.d.d.d.g.g.g.j.g.g.s.d.d.g.j.g.g.g.d.d.f.f.y.f.f.f.f.d.d.d.f.d.d.f.d.f.g.k.k.d.d.d.k.j.k.g.k.k.k.k.k.k.k.k.k.k.k.k.d.k.k.k.k.k.k.k.k.f.f.k.k.k.k.k.g.g.f.f.f.f.g.f.u.f.f.f.f.s.s.s.f.f.f.f.s.t.t.t.t.t.t.y.t.t.t.t.t.t.t.t.e.t.e.;.;.;.-.-.-.-.-.-.=.-.-.-.*.*.#.#.#.&.#.#.#.#.#.#.#. .a.a.a.a.a.a.a.a.a.a.a.a.a.a.a.a.a.a.a.a.a.a.a.a.a.a.a.a.a.a.a.a.a.a.a.a.a.a.a.a.a.a.a.a.a.a.a.a.a.a.a.a.a.a.a.a.a.a.a.a.a.a.a.a.a.a.a.a.a.a.a.a.a.a.a.a.a.a.a.a.a.a.a.a.a.a.a.a.a.a.a.a.a.a.a.a.a.a.a.a.a.a.a.a.a.a.a.a.a.a.a.a.a.a.a.a.a.a.a.a.a.a.a.a.a.a.a.a.a.a.a.a.",
"a.a.a.a.a.a.a.a.a.a.a.a.a.a.a.a.a.a.a.a.a.a.a.a.a.a.a.a.a.a.a.a.a.a.a.a.a.a.a.a.a.a.a.a.a.a.a.5.d.d.d.g.f.g.d.d.l.d.y.d.y.5.1.&. .} _ _ _ _ _ _ W E E E E W _ _ _ } }  .#.&.*.-.6.1.6.6.6.6.6.6.t.6.t.6.6.6.6.6.6.6.6.6.6.t.t.t.t.s.d.d.d.t.y.y.d.d.d.y.y.y.d.y.d.d.d.d.d.d.y.y.y.y.7.7.6.5.4.4.1.1.*.&....... . .} [ ] ] ] ] ] ] ] ] ] ] ) W W W / W W W R T U J P U J S Z C B c c k j h h s s p p r r 7 7 7 6 5 5 1 < , , - - * $ o o o o o o o X X X     > 1 8 9 t p s d d l l m B C C S F S F P R R E E R E / / / / / / ] } } } ] } } } @. . . .+.+.@.#.#.#.&.#.#.#.#.*.*.&.*.&.*.*.*.*.*.-.-.*.-.-.-.4.-.-.4.6.;.;.t.t.e.t.t.t.6.t.t.t.t.t.t.t.t.y.d.d.s.s.d.d.y.d.s.s.d.d.d.d.d.d.g.g.g.g.d.g.d.g.g.g.g.g.d.d.f.f.y.f.f.k.f.f.d.k.d.f.s.g.k.k.k.k.d.g.k.k.k.j.k.j.k.d.f.g.k.k.k.k.h.h.k.k.k.k.k.k.d.d.k.k.k.k.k.f.f.h.k.g.k.k.k.f.u.f.f.f.f.f.f.f.s.s.f.f.f.s.s.s.f.f.f.h.f.s.t.t.t.t.t.t.t.t.t.t.t.e.e.e.e.;.;.e.-.-.-.-.-.-.=.-.-.*.*.*.#.#.#.*.#.#.@.#.&.#.#.&.@.a.a.a.a.a.a.a.a.a.a.a.a.a.a.a.a.a.a.a.a.a.a.a.a.a.a.a.a.a.a.a.a.a.a.a.a.a.a.a.a.a.a.a.a.a.a.a.a.a.a.a.a.a.a.a.a.a.a.a.a.a.a.a.a.a.a.a.a.a.a.a.a.a.a.a.a.a.a.a.a.a.a.a.a.a.a.a.a.a.a.a.a.a.a.a.a.a.a.a.a.a.a.a.a.a.a.a.a.a.a.a.a.a.a.a.a.a.a.a.a.a.a.a.a.a.a.a.a.a.a.a.",
"a.a.a.a.a.a.a.a.a.a.a.a.a.a.a.a.a.a.a.a.a.a.a.a.a.a.a.a.a.a.a.a.a.a.a.a.a.a.a.a.a.a.a.a.a.*.6.s.f.s.g.g.l.g.l.d.d.d.s.d.5.4.:.@. .] ] _ _ ] _ _ _ E R R E W _ W W _ ]  .#.#.&.-.-.-.-.-.6.6.6.6.6.t.6.6.6.6.6.4.6.6.t.t.t.t.t.t.t.t.t.d.t.t.d.t.d.d.y.d.d.d.d.y.y.d.d.d.y.y.y.y.y.7.7.6.5.4.1.1.1.*.*.*....... .} [ [ ] / ] ] ] ] ] ] ] _ W W W W W W W T T U U L S S J S Z C B c x l h h s s t t 9 7 7 6 6 5 3 < , , = - * & & o o o o o o o o o .   . . a.a.5 8 9 9 p s h d l l n m B Z S S S F F R R R E E / / / / / / / ` ] } } } } } } @. . .@.@.+.@.@.@.#.#.#.#.#.#.#.&.&.*.-.&.*.-.-.-.-.-.-.4.-.4.-.-.-.-.4.6.t.t.t.t.t.e.-.6.t.t.t.t.t.t.t.y.s.s.d.d.d.d.d.d.s.y.y.s.d.d.g.d.g.j.g.d.d.s.d.g.d.g.g.d.d.d.d.s.t.s.f.g.d.f.g.k.k.d.f.d.f.g.k.k.f.f.d.k.k.k.k.k.j.g.f.s.d.k.k.k.h.k.k.h.g.k.k.k.d.f.d.k.h.k.k.f.h.g.h.h.f.g.k.k.g.f.f.f.k.k.k.k.f.f.f.s.f.f.f.f.f.f.f.f.f.f.s.s.s.t.t.t.s.s.s.t.t.t.e.e.e.e.e.e.;.;.;.-.-.-.-.-.-.-.*.*.*.&.&.&.&.&.&.#.#.#.&.#.#.#. .a.a.a.a.a.a.a.a.a.a.a.a.a.a.a.a.a.a.a.a.a.a.a.a.a.a.a.a.a.a.a.a.a.a.a.a.a.a.a.a.a.a.a.a.a.a.a.a.a.a.a.a.a.a.a.a.a.a.a.a.a.a.a.a.a.a.a.a.a.a.a.a.a.a.a.a.a.a.a.a.a.a.a.a.a.a.a.a.a.a.a.a.a.a.a.a.a.a.a.a.a.a.a.a.a.a.a.a.a.a.a.a.a.a.a.a.a.a.a.a.a.a.a.a.a.a.a.a.a.a.",
"a.a.a.a.a.a.a.a.a.a.a.a.a.a.a.a.a.a.a.a.a.a.a.a.a.a.a.a.a.a.a.a.a.a.a.p.a.a.a.a.a.a.a.a.2.6.d.f.g.s.f.g.l.z.d.d.l.t.d.t.5.1.*. . .] ] _ _ ] _ _ W E R U E E / W W _ _ }  .#.&.&.-.-.-.-.-.-.6.6.6.6.6.6.6.6.6.6.6.6.t.t.t.6.6.t.6.t.t.t.t.t.d.t.d.d.y.y.d.y.y.y.y.d.d.d.7.y.y.y.y.7.6.3.3.4.1.:.*.*.*.....| | } ] ] ] ] ) ) ) ) ] ) ) ) ) W W W W W R W Y U U U L S U S S V C B x l d s s t t r r 7 6 5 3 < , , - * * & % o o o o o o X o X X . . .   a.a.a.a.< 6 9 9 t s s h l l n n B C Z S S F F T R T R E ^ / / / / / / ` ] } ` } } } }  . . .@.+.+.@.@.@.#.#.@.#.#.#.#.#.*.-.*.&.*.-.*.-.*.*.-.-.6.-.-.4.4.4.4.;.t.t.;.;.;.-.-.6.t.t.t.t.t.t.6.t.t.y.y.d.d.d.d.d.d.d.s.d.d.d.d.g.g.g.g.g.d.d.d.g.g.g.d.d.d.d.d.d.y.f.s.d.d.f.f.f.d.f.f.f.f.f.d.d.f.f.f.k.k.k.k.k.j.k.f.f.d.k.d.k.k.k.k.h.g.h.h.k.d.f.f.k.k.g.h.f.f.g.h.g.h.h.g.k.h.f.f.h.f.f.f.f.s.f.s.s.s.f.f.f.f.f.f.f.f.f.s.s.f.f.s.t.s.s.s.t.t.t.e.e.e.e.e.e.;.;.;.e.-.-.-.-.;.-.-.-.*.&.&.#.&.&.&.&.#.#.#.#.&.#.@. .a.a.a.a.a.a.a.a.a.a.a.a.a.a.a.a.a.a.a.a.a.a.a.a.a.a.a.a.a.a.a.a.a.a.a.a.a.a.a.a.a.a.a.a.a.a.a.a.a.a.a.a.a.a.a.a.a.a.a.a.a.a.a.a.a.a.a.a.a.a.a.a.a.a.a.a.a.a.a.a.a.a.a.a.a.a.a.a.a.a.a.a.a.a.a.a.a.a.a.a.a.a.a.a.a.a.a.a.a.a.a.a.a.a.a.a.a.a.a.a.a.a.a.a.a.a.a.a.a.",
"a.a.a.a.a.a.a.a.a.a.a.a.a.a.a.a.a.a.a.a.a.a.a.a.a.a.a.a.a.a.a.a.a.a.a.a.a.a.a.a.a.a.1.1.6.t.s.g.g.f.g.l.d.d.y.l.l.t.y.t.1.-.*. . .] ] _ _ _ _ _ _ W E U U E E E W _ _ }  . .@.&.&.&.&.&.-.;.6.6.t.6.6.6.6.6.6.6.6.6.6.6.6.6.6.6.6.t.t.t.t.6.t.6.t.y.d.y.d.y.y.t.t.d.d.d.7.y.7.7.6.6.3.4.4.4.1.*.*.*.o...| |  .} ] ] ] ] ) / / ) ) W W W W W R W R R Y R T U U I J S L S S V C B c l d s t t 9 9 7 8 5 1 < , , - * & % $ o o o o X o o X X           a.a.a.a.a.a.5 8 9 8 p s h d k n n B C S S S F F T R R T T T / / / / / / ` _ ` } } ] } }  . . .@.+.+.@.@.@.@.@.@.#.@.@.&.&.&.*.#.*.&.&.*.*.-.-.*.-.4.-.-.-.-.-.-.e.e.;.;.t.e.-.-.6.t.t.t.t.t.t.t.t.s.s.d.d.d.s.d.d.d.d.s.s.d.g.g.g.d.d.g.g.d.d.d.g.g.d.d.d.d.d.d.d.s.d.f.f.f.f.f.f.f.f.f.k.f.f.k.d.d.d.d.k.k.k.k.k.k.f.f.f.d.d.f.k.k.k.k.k.g.h.f.k.j.d.d.d.h.g.k.g.g.g.h.h.h.h.f.f.f.h.g.h.h.f.g.h.s.s.t.s.s.s.s.s.h.f.f.f.f.f.s.s.f.h.f.f.s.s.f.s.t.t.t.t.t.e.e.t.e.e.e.e.;.;.;.-.-.-.-.-.-.*.&.&.&.&.&.&.&.&.#.#.@.#.#.@...a.a.a.a.a.a.a.a.a.a.a.a.a.a.a.a.a.a.a.a.a.a.a.a.a.a.a.a.a.a.a.a.a.a.a.a.a.a.a.a.a.a.a.a.a.a.a.a.a.a.a.a.a.a.a.a.a.a.a.a.a.a.a.a.a.a.a.a.a.a.a.a.a.a.a.a.a.a.a.a.a.a.a.a.a.a.a.a.a.a.a.a.a.a.a.a.a.a.a.a.a.a.a.a.a.a.a.a.a.a.a.a.a.a.a.a.a.a.a.a.a.a.a.a.a.a.a.a.",
"a.a.a.a.a.a.a.a.a.a.a.a.a.a.a.a.a.a.a.a.a.a.a.a.a.a.a.a.a.a.a.a.a.a.a.a.a.a.a.a.a.*.-.6.t.;.t.j.l.g.l.d.y.7.d.t.s.t.t.6.-.*.#. . .} ] _ _ ] _ ] _ W E U U T T E W W _ _ }  . .#.&.&.-.-.-.;.-.6.6.6.-.-.6.6.-.6.6.6.6.6.6.6.6.6.5.t.t.d.t.6.t.6.t.t.d.y.d.t.t.y.y.y.y.d.7.y.7.3.6.6.3.4.1.1.1.*.*.......|  . .} ] ] ) ] ) W W / ) W W W R Y W W Y W T T U U J U J S S S Z S B c x d s t 9 9 8 6 5 5 < , , - * & @ o o o o o o o X X X           a.a.a.a.a.a.a.a.1 6 8 8 p p s h d l n B C C Z S F F U R R T E T E / / / / / ` / _ } ] } } }  . . .@. .+.+.+.@.@.#.@.@.#.#.#.&.&.#.#.*.&.&.&.&.&.*.*.-.-.-.-.4.6.6.6.6.-.-.e.t.t.t.t.t.t.t.t.t.t.t.t.t.s.s.d.d.y.y.d.s.d.g.d.d.d.d.d.d.d.d.d.g.d.d.d.d.g.d.d.g.d.s.d.d.t.k.f.f.f.f.y.y.f.f.f.k.f.f.d.f.f.d.g.d.k.k.j.k.d.f.f.f.d.f.f.d.k.k.f.f.g.k.h.f.f.d.d.f.f.k.k.g.h.g.k.f.f.f.f.f.h.g.h.f.h.h.h.f.f.s.s.f.s.f.f.h.k.h.f.f.f.f.s.s.f.f.f.f.t.f.s.t.t.t.t.t.t.e.t.t.t.e.e.e.;.;.;.;.;.;.-.-.-.*.-.-.&.&.&.&.*.&.&.#.#.@.@.+.@.a.a.a.a.a.a.a.a.a.a.a.a.a.a.a.a.a.a.a.a.a.a.a.a.a.a.a.a.a.a.a.a.a.a.a.a.a.a.a.a.a.a.a.a.a.a.a.a.a.a.a.a.a.a.a.a.a.a.a.a.a.a.a.a.a.a.a.a.a.a.a.a.a.a.a.a.a.a.a.a.a.a.a.a.a.a.a.a.a.a.a.a.a.a.a.a.a.a.a.a.a.a.a.a.a.a.a.a.a.a.a.a.a.a.a.a.a.a.a.a.a.a.a.a.a.a.a.a.",
"a.a.a.a.a.a.a.a.a.a.a.a.a.a.a.a.a.a.a.a.a.a.a.a.a.a.a.a.a.a.a.a.a.a.a.a.a.a.a.a.:.-.6.t.-.6.d.j.v.v.d.d.d.y.y.y.6.5.6.4.*.*..... . .} ] ] ] _ ] _ W R U U U U U E W W _ _ }  .@.#.#.&.&.-.-.-.-.6.4.6.6.6.6.6.6.6.6.4.6.6.6.6.6.6.t.t.t.t.t.t.t.t.t.d.t.t.t.d.s.d.7.y.7.y.d.6.6.3.4.1.1.1.*.*.*..... ... .] [ ] ] ] ] _ / W / W W W W R R U T Y T Y Y T J J J S D Z V S V S B c l h s r 7 6 6 3 , , - * & & & $ $ o o o o o o o X .     .     a.a.a.a.a.a.a.a.a.a.6 8 8 p s s h d l l m B B C S S F G T T T E E W / / / / / _ / ` } ` ] } } } }  .@. . . .} @.#.@.@.#.@.@.#.#.&.&.&.&.&.&.*.-.-.-.*.-.-.-.-.-.-.6.6.-.-.-.;.-.t.t.t.t.t.t.t.t.t.t.t.t.t.y.y.t.t.y.d.d.g.d.s.s.d.d.s.d.d.g.d.d.d.d.d.d.d.d.d.g.g.d.d.f.y.f.f.f.f.s.y.y.y.y.d.f.d.f.s.f.j.j.k.k.k.k.k.k.f.f.f.f.s.d.g.k.k.h.h.k.g.f.h.h.d.k.k.g.h.g.g.g.f.h.f.f.f.d.f.s.f.f.f.f.f.f.f.f.f.f.f.h.h.h.f.f.f.s.s.f.h.f.s.s.s.s.f.s.s.s.s.s.t.e.e.t.t.t.e.e.e.e.e.e.e.e.;.-.-.-.-.-.*.*.*.*.*.&.*.&.#.#.#.#.#.@.@.@.@.#.a.a.a.a.a.a.a.a.a.a.a.a.a.a.a.a.a.a.a.a.a.a.a.a.a.a.a.a.a.a.a.a.a.a.a.a.a.a.a.a.a.a.a.a.a.a.a.a.a.a.a.a.a.a.a.a.a.a.a.a.a.a.a.a.a.a.a.a.a.a.a.a.a.a.a.a.a.a.a.a.a.a.a.a.a.a.a.a.a.a.a.a.a.a.a.a.a.a.a.a.a.a.a.a.a.a.a.a.a.a.a.a.a.a.a.a.a.a.a.a.a.a.a.a.a.a.a.",
"a.a.a.a.a.a.a.a.a.a.a.a.a.a.a.a.a.a.a.a.a.a.a.a.a.a.a.a.a.a.a.a.a.a.a.a.p.a.Q *.:.-.6.;.6.t.s.g.n.v.d.d.d.d.d.y.5.4.5.-.#.*.*... . . .] ] ] _ _ _ W R U U U U U R E R E / } }  .@.#.@.&.*.*.-.-.1.-.1.6.6.6.6.6.6.6.6.6.6.6.6.6.t.t.5.6.t.t.t.6.t.t.t.t.t.d.d.9.y.7.y.7.7.7.5.3.4.1.1.1.1.*.*....... . . .] [ ] ] ] ] W W W W W W W R Y T T U J U P U U S Z S S V C V V b B c l l s t 9 6 5 3 , - - & & $ $ $ $ o O o o o o X X X         a.a.a.a.a.a.a.a.a.a.a.a., 6 8 t p s s s l l m B C C A S F G U T R E E W W / / / / / / ` ] _ _ } } } }  . .}  .} } @.@.@.@.#.@.@.#.#.#.&.*.&.&.-.-.-.-.-.-.-.-.-.-.-.-.;.;.-.-.-.;.-.t.t.t.t.6.6.t.t.t.t.t.t.t.y.t.t.y.d.d.y.d.d.y.y.d.g.g.g.g.s.d.d.d.d.d.d.d.d.d.g.d.d.d.f.f.y.s.y.t.t.y.d.s.f.y.d.f.y.y.d.g.k.k.k.k.k.d.f.d.k.f.f.f.f.g.k.g.f.h.g.f.f.f.h.k.k.g.k.h.k.g.f.f.f.s.f.f.f.f.f.f.f.f.h.g.f.f.f.h.h.f.f.g.h.f.f.s.s.s.f.f.f.s.t.s.t.t.t.t.s.s.s.s.t.t.t.s.t.t.t.t.e.e.e.e.e.;.-.-.-.-.-.-.-.*.*.-.*.-.&.*.#.#.#.#.@.#.&.#.#.#.a.a.a.a.a.a.a.a.a.a.a.a.a.a.a.a.a.a.a.a.a.a.a.a.a.a.a.a.a.a.a.a.a.a.a.a.a.a.a.a.a.a.a.a.a.a.a.a.a.a.a.a.a.a.a.a.a.a.a.a.a.a.a.a.a.a.a.a.a.a.a.a.a.a.a.a.a.a.a.a.a.a.a.a.a.a.a.a.a.a.a.a.a.a.a.a.a.a.a.a.a.a.a.a.a.a.a.a.a.a.a.a.a.a.a.a.a.a.a.a.a.a.a.a.a.a.",
"a.a.a.a.a.a.a.a.a.a.a.a.a.a.a.a.a.a.a.a.a.a.a.a.a.a.a.a.a.a.a.a.a.a.a.a.a.] #.*.:.6.6.;.6.t.f.G.n.l.y.6.s.y.y.y.t.1.1.*.#.*.*... . . .} { } ] ] _ W W U G F G G U U R E W _ _ }  ...@.#.&.&.*.-.1.1.4.1.1.6.6.6.6.6.6.6.6.6.6.t.t.t.t.6.t.t.t.t.t.t.t.t.6.6.t.6.y.6.7.3.3.3.3.3.1.1.*.*.#.........|  .} [ ] ] ] ] / W W W U T T T T U U U U S S S S J S Z C V V C b m m x l h h s t 8 8 3 < , - * & $ o o o o o o o X X .             a.a.a.a.a.a.a.a.a.a.a.a.a.a.a.3 8 9 t s s s d l x B C C Z C S F G U T E E E E E / / / / / ` ` / ` } } } }  . .} } } } @.@.} #.@.@.@.&.#.#.&.*.&.&.-.-.-.-.-.-.-.-.-.-.-.;.-.-.-.-.-.-.t.e.-.t.6.t.6.t.t.t.t.t.t.y.y.t.t.y.d.y.y.s.s.s.d.d.s.d.d.d.d.d.d.s.s.d.s.s.d.d.d.t.s.d.s.y.f.f.t.f.f.f.s.d.s.y.t.t.s.d.g.g.k.k.g.g.k.k.f.d.k.d.y.f.g.d.g.k.h.h.f.f.h.f.f.g.h.h.h.h.g.h.k.g.f.f.f.f.f.f.f.s.s.f.f.f.f.g.g.g.h.h.f.f.h.f.f.f.s.s.s.s.f.s.s.t.t.t.s.s.s.s.t.t.t.t.t.s.t.t.t.t.e.e.e.e.e.e.;.;.-.-.-.-.-.-.-.-.-.-.=.*.#.#.#.@.@.#.#.&.#.@.@.a.a.a.a.a.a.a.a.a.a.a.a.a.a.a.a.a.a.a.a.a.a.a.a.a.a.a.a.a.a.a.a.a.a.a.a.a.a.a.a.a.a.a.a.a.a.a.a.a.a.a.a.a.a.a.a.a.a.a.a.a.a.a.a.a.a.a.a.a.a.a.a.a.a.a.a.a.a.a.a.a.a.a.a.a.a.a.a.a.a.a.a.a.a.a.a.a.a.a.a.a.a.a.a.a.a.a.a.a.a.a.a.a.a.a.a.a.a.a.a.a.a.a.a.a.",
"a.a.a.a.a.a.a.a.a.a.a.a.a.a.a.a.a.a.a.a.a.a.a.a.a.a.a.a.a.a.a.a.a.a.a.a. ...&.*.3.6.s.s.l.6.j.T.I.d.6.3.t.t.t.y.5.-.1.-.*.1...#... .}  . .} ] ] _ W E U G F F F U U T R W / _ } }  . . .#.*.*.1.1.*.-.1.-.6.6.6.6.6.6.6.t.6.6.t.t.t.6.6.t.t.t.t.t.t.t.6.4.5.y.5.4.5.3.3.4.1.1.1.1.*.*.#......... . .} } } ] ] ) W / W W T U U U J U U J J J J S V V V V V m c c c l l h h s t t r 7 7 5 < , - & % o o o o o o o X X .               a.a.a.a.a.a.a.a.a.a.a.a.a.a.a.a.< 6 9 9 t s s s j l B C C C C S F U U T R E E E E W / / / / ` ` _ ( ] ] ` }  . .} } } } @.@.} @.@.@.#.#.#.#.#.&.&.&.&.-.-.-.*.-.-.-.-.-.-.-.-.-.-.t.-.-.t.-.-.t.t.t.t.t.y.t.t.t.y.t.t.t.y.t.t.t.t.s.d.d.d.d.d.d.d.g.g.d.d.d.d.d.d.d.g.d.d.d.d.d.d.t.y.s.t.t.s.f.s.s.s.t.y.t.f.g.g.g.g.g.f.f.f.f.f.f.g.d.f.f.d.d.d.h.h.g.g.f.g.g.g.f.f.g.g.h.f.h.f.h.g.g.f.f.f.f.f.s.s.f.f.f.f.f.h.f.f.f.f.f.f.f.f.f.h.f.f.f.f.f.f.s.s.s.s.s.s.s.t.t.s.s.s.s.t.t.t.e.t.t.e.e.e.e.e.e.-.-.-.-.-.-.-.-.-.-.=.*.#.#.@.@.@.@.+.#.&.#.#.@.a.a.a.a.a.a.a.a.a.a.a.a.a.a.a.a.a.a.a.a.a.a.a.a.a.a.a.a.a.a.a.a.a.a.a.a.a.a.a.a.a.a.a.a.a.a.a.a.a.a.a.a.a.a.a.a.a.a.a.a.a.a.a.a.a.a.a.a.a.a.a.a.a.a.a.a.a.a.a.a.a.a.a.a.a.a.a.a.a.a.a.a.a.a.a.a.a.a.a.a.a.a.a.a.a.a.a.a.a.a.a.a.a.a.a.a.a.a.a.a.a.a.a.a.",
"a.a.a.a.a.a.a.a.a.a.a.a.a.a.a.a.a.a.a.a.a.a.a.a.a.a.a.a.a.a.a.a.a.a.J }  . .&.:.3.s.n.f.g.6.f.T.j.6.d.y.5.6.t.5.4.-.1.1.*.*.#.&... . . . .{ { _ _ W E U G F F U F U U T R W _ ] } }  . .#.*.*.*.*.*.-.1.1.6.4.6.6.6.6.6.6.6.6.t.6.6.5.5.5.5.5.5.6.6.6.6.4.y.7.5.4.5.3.1.1.1.1.1.1.*....... ..... . .] ] ] ] ] ) W W W W U J S S S J J S D V S V B c B c c l h h h h s p t r r 8 5 6 5 3 , - & % o o o o o X                   . a.a.a.a.a.a.a.a.a.a.a.a.a.a.a.a.a.a.a.3 8 9 t s s s j l l B C C S S F G U T R E E W E W / / / / _ _ / / _ ` ` } }  .} } }  .@.@. .@.@.@.#.#.#.#.&.&.&.&.&.&.-.&.*.-.-.-.-.-.*.-.;.;.-.-.-.-.e.e.6.t.6.6.t.t.t.t.6.t.t.t.t.t.6.t.t.t.t.s.g.y.t.d.d.d.d.d.d.d.d.d.d.d.g.d.g.d.d.d.d.s.y.y.t.t.t.t.t.t.f.s.f.y.s.s.s.f.d.g.d.s.t.s.y.f.d.d.f.d.d.d.f.f.f.f.h.f.f.f.f.h.f.f.f.s.g.h.f.h.f.h.h.f.f.f.f.f.f.f.s.f.f.s.f.f.f.f.g.h.s.f.f.f.f.f.f.f.h.f.f.f.f.f.f.f.s.t.t.t.t.s.s.s.t.t.t.t.t.t.t.t.e.e.e.e.e.e.-.-.-.-.-.-.*.-.-.-.=.=.&.#.#.@.@.#.&.@.#.#.#.}  .a.a.a.a.a.a.a.a.a.a.a.a.a.a.a.a.a.a.a.a.a.a.a.a.a.a.a.a.a.a.a.a.a.a.a.a.a.a.a.a.a.a.a.a.a.a.a.a.a.a.a.a.a.a.a.a.a.a.a.a.a.a.a.a.a.a.a.a.a.a.a.a.a.a.a.a.a.a.a.a.a.a.a.a.a.a.a.a.a.a.a.a.a.a.a.a.a.a.a.a.a.a.a.a.a.a.a.a.a.a.a.a.a.a.a.a.a.a.a.a.a.a.a.",
"a.a.a.a.a.a.a.a.a.a.a.a.a.a.a.a.a.a.a.a.a.a.a.a.a.a.a.a.a.a.a.a.a.J ]  . . .&.6.:.h.I.f.d.1.l.I.k.6.5.d.d.y.5.1.1.-.1.1.1.1.&.*..... . . .] { ] _ _ E U G S S S S S U U U W _ _ ]  . . .#.#.*.*.1.1.*.1.1.4.4.6.4.5.5.5.6.5.5.6.6.5.5.5.5.5.5.5.5.6.6.6.1.5.4.4.1.4.1.1.*.*.*.*.*..... . . . .} [  .[ ] ] ] W W R W W W Y J K J S S D V B B V B c l j g s p p t t r 9 8 7 7 6 3 , , , - - & $ o o o o o .                   a.a.a.a.a.a.a.a.a.a.a.a.a.a.a.a.a.a.a.a.a., 7 8 t p s s d l l B B C Z S F G G T R E R E E / W / / / _ _ / / _ ` ` ` }  .} } } @. . . .@.@.@.#.#.&.&.#.#.&.&.&.&.-.-.&.*.-.-.*.-.-.-.-.-.-.-.-.-.-.;.-.t.6.t.t.6.6.6.t.t.t.t.t.t.6.t.y.y.s.y.s.t.t.y.d.d.d.d.d.d.s.d.g.d.g.d.s.d.y.y.d.d.s.y.t.t.t.y.s.s.f.f.f.d.d.s.t.t.f.d.d.f.f.f.f.d.f.f.f.d.f.d.f.f.s.s.f.f.f.f.h.k.f.f.f.f.h.f.f.h.k.h.f.f.f.f.f.s.s.f.f.f.f.f.f.f.f.f.f.f.f.f.f.f.f.h.h.s.f.s.s.s.s.s.f.f.s.s.s.s.s.s.s.t.t.s.t.t.t.t.t.t.e.e.t.e.e.e.e.e.-.-.-.-.-.-.-.-.*.-.&.#.#.#.@.#.#.#.#.#.@.@.+...a.a.a.a.a.a.a.a.a.a.a.a.a.a.a.a.a.a.a.a.a.a.a.a.a.a.a.a.a.a.a.a.a.a.a.a.a.a.a.a.a.a.a.a.a.a.a.a.a.a.a.a.a.a.a.a.a.a.a.a.a.a.a.a.a.a.a.a.a.a.a.a.a.a.a.a.a.a.a.a.a.a.a.a.a.a.a.a.a.a.a.a.a.a.a.a.a.a.a.a.a.a.a.a.a.a.a.a.a.a.a.a.a.a.a.a.a.a.a.a.a.a.",
"a.a.a.a.a.a.a.a.a.a.a.a.a.a.a.a.a.a.a.a.a.a.a.a.a.a.a.a.a.a.a.a.S _ ] } } } :.:.-.h.D.l.d.1.v.Y.L.6.4.5.y.d.5.1.1.-.1.4.4.:.*.#.&. . ... . .{ ] _ _ W U G S S S S S S U U T W _ _ ] } } ....#.1.*.*.*.*.1.1.1.;.4.5.5.5.t.5.5.5.5.6.5.5.6.4.4.4.4.6.1.6.1.1.4.6.1.1.1.1.*.*.#......... .} } [ ] ] ] ] ] / W W R R Y T T U S S S S V V B c c l l g s s t t r 9 8 8 6 6 5 3 3 < , > - - & & @ o o o o X X                 a.a.a.a.a.a.a.a.a.a.a.a.a.a.a.a.a.a.a.a.a.a.a.> 5 8 9 p p s d l l m B C C Z F F G U T E E E E E W ^ / / _ _ / / _ ` ` ` } } } } } @. . .}  .+.@.@.#.@.#.&.&.&.&.&.&.&.&.*.-.-.&.&.*.&.*.-.-.-.-.-.-.;.-.-.-.4.t.t.6.4.t.t.t.6.6.6.6.t.t.y.y.d.y.y.t.y.y.s.d.g.d.d.d.d.g.d.d.g.d.d.d.s.d.d.d.s.t.t.s.s.s.f.f.d.d.g.j.g.g.s.s.s.d.f.d.d.f.s.s.t.s.f.f.f.f.f.f.f.f.h.f.f.h.h.h.f.f.f.f.f.s.f.g.k.g.f.f.s.s.f.f.f.h.h.f.h.h.f.f.f.g.f.f.h.f.f.f.f.g.g.s.s.f.f.f.f.h.f.f.s.s.s.s.s.s.s.t.t.t.t.t.t.t.t.t.t.e.t.t.e.e.e.e.-.-.-.-.-.-.-.-.*.*.&.&.&.&.#.&.#.&.&.#.#.@.+. .a.a.a.a.a.a.a.a.a.a.a.a.a.a.a.a.a.a.a.a.a.a.a.a.a.a.a.a.a.a.a.a.a.a.a.a.a.a.a.a.a.a.a.a.a.a.a.a.a.a.a.a.a.a.a.a.a.a.a.a.a.a.a.a.a.a.a.a.a.a.a.a.a.a.a.a.a.a.a.a.a.a.a.a.a.a.a.a.a.a.a.a.a.a.a.a.a.a.a.a.a.a.a.a.a.a.a.a.a.a.a.a.a.a.a.a.a.a.a.a.a.a.",
"a.a.a.a.a.a.a.a.a.a.a.a.a.a.a.a.a.a.a.a.a.a.a.a.a.a.a.a.a.a.a.D / / ` _  . .6.&.t.j.n.l.y.4.v.T.I.s.*.1.3.y.5.4.1.1.*.1.1.*.#.*.*... . . . .{ } _ _ W E G S Z A Z Z S P U U W / _ ] } }  ...#.#.*.*.*.-.:.-.1.6.1.5.5.5.5.6.6.5.5.6.5.5.6.4.4.4.1.1.-.4.-.1.1.1.*.1.:.*.*......... . . .} ] ] ] ] ] ~ / W W W Y T T U U J D V V V V B c l h h s s t t 9 7 8 8 6 3 < < , = - * & O O O o o o o X X X                 a.a.a.a.a.a.a.a.a.a.a.a.a.a.a.a.a.a.a.a.a.a.a.a.a.a.< 8 9 p s s s l l n B C C Z F G G U T E E R E E E / / / / / / / _ ] ` } }  .` ` } }  .} } } +.@.@.#.#.#.&.&.&.&.&.&.*.&.*.-.*.#.*.*.&.-.-.-.-.-.-.-.t.;.-.;.t.6.6.t.6.t.t.t.6.t.6.t.t.t.y.d.d.t.s.t.s.s.y.d.d.d.d.d.d.d.d.d.d.d.d.d.s.d.d.s.y.t.y.s.t.t.t.y.y.d.g.d.s.d.d.s.d.d.y.y.f.f.s.t.s.s.y.y.f.f.s.f.f.f.f.f.f.f.f.f.f.h.g.g.f.f.h.g.k.f.f.s.s.s.f.h.f.f.f.h.k.k.h.s.f.f.f.f.f.f.f.f.f.f.f.s.t.s.f.f.s.f.f.f.s.s.s.s.s.s.s.t.t.t.t.s.e.e.t.t.t.t.t.t.e.-.e.e.e.e.-.-.-.-.-.-.-.-.-.&.&.#.&.&.#.#.&.#.&.#.@.@.} a.a.a.a.a.a.a.a.a.a.a.a.a.a.a.a.a.a.a.a.a.a.a.a.a.a.a.a.a.a.a.a.a.a.a.a.a.a.a.a.a.a.a.a.a.a.a.a.a.a.a.a.a.a.a.a.a.a.a.a.a.a.a.a.a.a.a.a.a.a.a.a.a.a.a.a.a.a.a.a.a.a.a.a.a.a.a.a.a.a.a.a.a.a.a.a.a.a.a.a.a.a.a.a.a.a.a.a.a.a.a.a.a.a.a.a.a.a.a.a.a.",
"a.a.a.a.a.a.a.a.a.a.a.a.a.a.a.a.a.a.a.a.a.a.a.a.a.a.a.a.a.a.J _ _ / / _ _ o.-.;.g.j.n.v.d.3.v.E.Y.l.:.&.3.3.7.1.1.:.1.:.1.*.#.*.*... . . . . .} ] _ _ E G S Z C Z Z Z F G G U E W _ } }  . ...#.*.-.1.1.1.1.4.4.4.1.1.1.1.4.1.3.5.6.6.4.1.1.1.-.1.-.:.1.*.*.*.*.*.*.*.*.#.......| [ [ [ [ ] ] ) / W W W W E T U U J S J S V V B B c c l h s s p r 8 8 5 5 5 < , > : * & O O o o X . .                         . a.a.a.a.a.a.a.a.a.a.a.a.a.a.a.a.a.a.a.a.a.a.a.a.a.a.a.a., 6 8 9 t s s l l l B C Z S S F F G U T E R W W W / / / _ _ / _ _ ` ` } } } } } } }  . .}  .+.+.@.&.#.#.&.&.&.&.&.&.&.*.-.&.&.&.*.-.-.-.-.-.-.-.*.-.-.;.;.t.6.t.t.6.6.t.t.t.t.t.t.t.t.t.s.d.s.s.t.y.d.s.s.s.s.d.d.d.d.s.s.s.d.d.d.s.s.d.s.s.t.s.y.y.y.d.s.s.y.s.f.t.y.t.t.y.s.s.y.s.f.f.f.f.f.f.f.f.y.f.d.f.s.u.f.f.f.f.f.f.f.f.f.f.f.g.g.h.f.f.f.f.f.f.f.h.f.f.f.f.g.h.h.f.s.s.f.h.f.f.f.f.s.s.f.f.f.f.f.h.f.s.s.s.s.s.s.s.s.s.s.s.s.s.s.s.t.e.e.t.t.t.e.e.e.e.e.e.e.e.;.-.-.;.;.;.-.-.-.-.*.&.&.&.#.&.#.#.&.&.#.+.+. .a.a.a.a.a.a.a.a.a.a.a.a.a.a.a.a.a.a.a.a.a.a.a.a.a.a.a.a.a.a.a.a.a.a.a.a.a.a.a.a.a.a.a.a.a.a.a.a.a.a.a.a.a.a.a.a.a.a.a.a.a.a.a.a.a.a.a.a.a.a.a.a.a.a.a.a.a.a.a.a.a.a.a.a.a.a.a.a.a.a.a.a.a.a.a.a.a.a.a.a.a.a.a.a.a.a.a.a.a.a.a.a.a.a.a.a.a.a.a.a.",
"a.a.a.a.a.a.a.a.a.a.a.a.a.a.a.a.a.a.a.a.a.a.a.a.a.a.a.a.a.J  ._ / W / / _ :.&.6.v.f.m.v.d.7.z.E.E.f.:.:.1.3.5.1.*.&.*.*.*.....#.o..... ... . .} } _ _ E U S A C Z V C S S P U T W W ] } } }  ...*.1.:.4.1.1.:.1.4.-.1.1.1.1.1.1.6.4.4.4.1.1.1.-.1.1.1.1.1.*.*.*.*.*.*.#.#..... .| [ ] ] ) ) W W W W W T T U U J S J J D V B m c c x l h s t r 8 7 6 4 , , ; - * % o o o X     .                       . O : a.a.a.a.a.a.a.a.a.a.a.a.a.a.a.a.a.a.a.a.a.a.a.a.a.a.a.a.a.a.a.< 8 8 t s s s l l B C C C A F F G T T R E W W W / / / _ _ / _ _ ` ` ` } } } } } } } } }  . .+.@.#.#.#.&.&.&.&.&.&.&.&.*.*.&.&.&.&.-.-.*.-.-.-.-.-.-.;.e.;.6.t.t.t.6.t.6.6.t.t.t.t.t.s.s.d.s.t.t.s.t.y.y.s.d.d.d.d.d.s.s.d.d.d.s.s.s.y.y.s.d.s.t.y.d.d.d.d.y.y.t.t.y.y.y.f.f.y.y.s.f.f.f.f.t.f.t.f.f.y.y.f.s.f.u.f.f.f.f.u.u.s.s.s.f.h.h.h.f.s.f.f.f.f.f.f.f.f.f.f.f.f.f.f.s.f.f.f.f.f.f.s.s.h.k.h.h.f.s.f.s.s.s.f.f.s.s.s.s.s.t.t.t.t.s.s.s.t.t.t.e.e.t.t.e.e.e.e.e.e.e.;.;.;.;.;.-.-.-.-.-.*.&.#.#.#.@.#.#.&.#.&.O.@.} a.a.a.a.a.a.a.a.a.a.a.a.a.a.a.a.a.a.a.a.a.a.a.a.a.a.a.a.a.a.a.a.a.a.a.a.a.a.a.a.a.a.a.a.a.a.a.a.a.a.a.a.a.a.a.a.a.a.a.a.a.a.a.a.a.a.a.a.a.a.a.a.a.a.a.a.a.a.a.a.a.a.a.a.a.a.a.a.a.a.a.a.a.a.a.a.a.a.a.a.a.a.a.a.a.a.a.a.a.a.a.a.a.a.a.a.a.a.a.",
"a.a.a.a.a.a.a.a.a.a.a.a.a.a.a.a.a.a.a.a.a.a.a.a.a.a.a.a.J  .} / / W E / } 6.&.l.M.n.j.0.d.7.l.M.N.f.-.&.*.1.7.5.1................. . ...}  ...} { _ _ W U G Z C C C C Z Z F G U E W / ] ] }  ...#.*.*.1.1.*.1.1.1.1.1.1.1.1.1.1.3.1.1.1.1.1.*.*.*.*.*.*.*.*.*.#.#...#...#. .|  .} ] ] ) W W W E Y T T T U U S S Z S D V B m c l g g h s t 9 7 6 5 < , - - & $ o o X X                               : a.a.a.a.a.a.a.a.a.a.a.a.a.a.a.a.a.a.a.a.a.a.a.a.a.a.a.a.a.a.a.a.a.a.> 6 8 9 p s s j l m B C C A F F G T U T R E E W W / / / _ / ` _ ` ` ` ` } } } } } } } } } @.@.#.#.#.#.#.#.&.&.&.#.&.&.&.&.*.&.&.&.-.-.-.-.-.*.-.-.-.t.;.;.-.6.6.6.6.t.t.t.t.t.t.t.y.y.y.y.d.y.t.t.t.t.y.s.g.d.d.d.d.d.d.d.d.d.s.s.s.t.t.s.d.y.y.s.y.y.y.s.y.t.t.t.t.t.t.f.y.s.f.s.s.f.s.f.t.t.y.f.f.f.f.f.f.u.t.f.f.f.u.f.f.f.f.f.f.f.h.h.k.f.f.f.s.s.f.f.f.f.f.f.f.f.f.f.f.f.f.s.f.h.h.h.f.f.f.f.s.s.s.f.f.s.f.f.h.f.s.s.s.s.t.t.t.t.t.t.s.s.s.t.e.e.t.t.t.e.e.e.e.e.;.;.;.6.6.;.;.-.-.-.-.*.&.&.#.#.#.#.%.&.#.#.@.@.@.} a.a.a.a.a.a.a.a.a.a.a.a.a.a.a.a.a.a.a.a.a.a.a.a.a.a.a.a.a.a.a.a.a.a.a.a.a.a.a.a.a.a.a.a.a.a.a.a.a.a.a.a.a.a.a.a.a.a.a.a.a.a.a.a.a.a.a.a.a.a.a.a.a.a.a.a.a.a.a.a.a.a.a.a.a.a.a.a.a.a.a.a.a.a.a.a.a.a.a.a.a.a.a.a.a.a.a.a.a.a.a.a.a.a.a.a.a.a.",
"a.a.a.a.a.a.a.a.a.a.a.a.a.a.a.a.a.a.a.a.a.a.a.a.a.a.a.S  .} _ W E R T T } y.:.v.M.n.j.l.z.d.l.v.M.j.6. .:.1.3.3.4....... . . . . .}  ...}  ... .} _ _ / U U S B B B B C Z A S G R E W _ ] }  . .#.#.#.*.*.*.1.1.1.*.1.1.1.1.1.1.1.1.1.1.*.*.*.*.#.#.#.#.#.....#....... ...} [ } [ ] ) ) W W R R T U U U U S S D V V B m l l l s s s t 9 8 6 3 < , - * & o o X X X                               O a.a.a.a.a.a.a.a.a.a.a.a.a.a.a.a.a.a.a.a.a.a.a.a.a.a.a.a.a.a.a.a.a.a.a.a.a.3 8 9 t s s d l l B B C A S F G U T R T E W W W / ^ / _ / ` _ ` ` ` ` ` } } } } } } }  .@.@.#.#.#.#.#.#.#.#.#.#.&.&.#.&.-.&.&.-.-.-.-.-.-.-.-.-.-.;.;.-.4.4.6.6.6.t.6.6.6.6.t.t.y.y.t.s.t.t.t.t.y.y.s.d.d.s.d.d.d.d.d.d.s.d.s.s.y.t.y.s.s.t.y.s.t.t.t.y.y.t.t.t.f.t.t.f.s.s.y.s.f.t.s.f.t.t.s.t.t.t.t.y.f.t.f.f.s.f.f.f.h.f.f.f.h.h.h.h.f.f.f.f.f.s.s.f.f.f.f.f.f.s.s.f.s.t.h.h.f.h.g.h.h.f.f.f.s.s.h.h.f.s.s.s.f.f.f.s.s.s.s.s.t.s.t.t.t.t.t.e.e.e.e.e.e.t.e.e.e.e.;.;.;.6.6.;.;.;.-.-.-.-.*.&.&.#.#.#.#.#.#.#.&.@.@.@.} a.a.a.a.a.a.a.a.a.a.a.a.a.a.a.a.a.a.a.a.a.a.a.a.a.a.a.a.a.a.a.a.a.a.a.a.a.a.a.a.a.a.a.a.a.a.a.a.a.a.a.a.a.a.a.a.a.a.a.a.a.a.a.a.a.a.a.a.a.a.a.a.a.a.a.a.a.a.a.a.a.a.a.a.a.a.a.a.a.a.a.a.a.a.a.a.a.a.a.a.a.a.a.a.a.a.a.a.a.a.a.a.a.a.a.a.a.",
"a.a.a.a.a.a.a.a.a.a.a.a.a.a.a.a.a.a.a.a.a.a.a.a.a.a.S  . .` / E W U T E #.1.:.m.G.n.j.l.M.v.y.d.l.l.;.} *.*.4.3.1.*... .] ] ]  .]  .] { { {  . .] ] _ W E U S C B B B B C Z S S U T W W ] } }  .#.#.#.#.*.*.*.*.*.*.*.1.:.*.1.*.1.1.1.*.*.*.#.#.#...#.#...#.#....... . ...} [ [ ] ] Q R W R T T U U U J S S V V b m c l l h h d t r 7 7 6 5 < , - & $ o X X X X X                           . a.a.a.a.a.a.a.a.a.a.a.a.a.a.a.a.a.a.a.a.a.a.a.a.a.a.a.a.a.a.a.a.a.a.a.a.a.a.a.< 8 8 t t s d l l B B C C A F G F T T T E R E E / / / / / / _ _ ` ` ` ` ` ` ` ` } } }  .@.@.@.@.#.#.#.#.&.#.#.#.#.@.@.&.*.*.*.-.*.-.-.*.-.-.;.;.-.e.-.t.4.4.6.t.6.6.6.6.6.t.t.y.t.t.t.t.t.t.t.t.s.d.y.d.s.d.d.d.y.s.s.g.d.d.d.y.y.y.t.y.s.y.y.y.s.s.d.d.s.t.t.t.t.t.t.y.s.t.t.y.f.f.f.s.t.t.t.t.t.t.t.s.y.f.s.y.y.s.s.f.s.h.f.h.g.g.f.f.f.f.h.f.f.f.f.f.f.f.h.f.f.f.s.s.s.f.g.g.h.f.f.f.f.g.k.g.h.g.f.f.s.s.t.s.f.f.s.f.f.f.f.s.s.t.t.t.t.t.t.e.e.e.e.e.t.t.t.t.t.e.e.e.e.6.;.;.-.;.;.-.-.-.*.*.*.&.#.#.#.&.#.#.#.#.#.@. .a.a.a.a.a.a.a.a.a.a.a.a.a.a.a.a.a.a.a.a.a.a.a.a.a.a.a.a.a.a.a.a.a.a.a.a.a.a.a.a.a.a.a.a.a.a.a.a.a.a.a.a.a.a.a.a.a.a.a.a.a.a.a.a.a.a.a.a.a.a.a.a.a.a.a.a.a.a.a.a.a.a.a.a.a.a.a.a.a.a.a.a.a.a.a.a.a.a.a.a.a.a.a.a.a.a.a.a.a.a.a.a.a.a.a.a.a.",
"a.a.a.a.a.a.a.a.a.a.a.a.a.a.a.a.a.a.a.a.a.a.a.a.a.c W *. ._ T T T U U U &.#.3.v.n.n.l.f.v.v.d.3.7.g.6.} ] ..*.3.1... .} ] ] ] ] ] ] ] ] ]  . . .] _ _ W E U S V B m m B C V Z Z S U U W / ] } } ......#.#.*.*.#.*.*.*.*.*.*.*.*.1.1.1.*.#.#.....................| [  .} } } ] ] ] / Q R Y Y U U J J J S S V B c x l h s s t t t 9 7 7 5 < , = * % $ o o o o X X X X   . .               a.a.a.a.a.a.a.a.a.a.a.a.a.a.a.a.a.a.a.a.a.a.a.a.a.a.a.a.a.a.a.a.a.a.a.a.a.a.a.a.a.a.a.5 6 8 t s d j l m B C A A F F F U U T R R T W E / / _ _ / _ _ ` ` ` ` ` ` ` ` ` ` } } @.@.@.@.@.#.#.#.#.#.@.#.#.#.#.*.&.*.*.-.-.-.*.*.-.-.-.;.-.;.;.t.4.-.-.6.t.t.t.6.t.t.t.t.t.t.t.t.t.t.y.d.d.s.t.d.y.s.d.d.s.d.d.d.d.d.y.t.s.s.s.s.d.d.y.y.y.t.y.d.s.t.t.t.t.t.t.t.t.f.y.y.f.f.y.y.s.t.t.y.t.t.f.f.f.f.f.f.f.s.s.y.f.f.g.k.f.f.f.f.f.f.f.f.f.f.g.h.f.f.g.f.h.h.f.f.f.h.k.g.f.s.s.s.f.h.h.f.f.f.s.s.s.s.s.s.s.s.f.f.f.f.f.s.s.s.f.s.s.t.t.t.e.e.e.t.e.e.t.t.e.e.e.e.;.6.-.;.;.-.;.;.;.-.*.*.*.&.#.&.#.#.#.#.@.#.@.@. .} a.a.a.a.a.a.a.a.a.a.a.a.a.a.a.a.a.a.a.a.a.a.a.a.a.a.a.a.a.a.a.a.a.a.a.a.a.a.a.a.a.a.a.a.a.a.a.a.a.a.a.a.a.a.a.a.a.a.a.a.a.a.a.a.a.a.a.a.a.a.a.a.a.a.a.a.a.a.a.a.a.a.a.a.a.a.a.a.a.a.a.a.a.a.a.a.a.a.a.a.a.a.a.a.a.a.a.a.a.a.a.a.a.a.a.a.",
"a.a.a.a.a.a.a.a.a.a.a.a.a.a.a.a.a.a.a.a.a.a.a.a.a.W 1.*.} E T G T U U / *...:.l.M.v.l.s.s.v.z.1.*.d.d.*.W  ...1.1...} ] ] ] _ ] ] _ _ _ _ ]  .] _ _ _ W E U U Z B l l l c B C Z S F U R W / _ } }  . .....#.#.#.#.#.*.*.*.*.*.*.&.*.*.*.#.........| | |  . . . .} } } } ] ] ] ) W W W Y U U U S Z S S V V m x j h s s t r r 7 6 5 2 < > , : * & O o o o o o o X X   . .     .     a.a.a.a.a.a.a.a.a.a.a.a.a.a.a.a.a.a.a.a.a.a.a.a.a.a.a.a.a.a.a.a.a.a.a.a.a.a.a.a.a.a.a.a.a.a., 7 9 t p s d l n m C A A A F F U T T R R E / E / / / _ / _ _ ` ` ` ` ` ` ` ` ` } } } @.@.@.@.@.#.@.#.#.&.#.#.#.#.#.#.&.-.*.-.*.*.-.-.-.-.-.-.-.-.-.-.6.6.6.t.6.6.6.4.6.t.t.6.t.t.t.t.y.y.y.s.s.y.t.y.y.y.y.s.d.d.d.s.s.s.t.y.y.y.y.y.y.y.y.s.s.s.t.s.y.t.y.y.t.t.t.t.s.y.t.t.s.d.f.f.y.t.t.s.f.t.s.f.f.f.f.f.f.d.g.f.y.s.f.f.s.f.f.s.s.s.s.f.k.g.f.g.h.h.g.f.f.f.f.f.f.h.g.f.s.s.s.s.f.f.f.s.f.s.s.s.s.t.s.s.t.t.s.s.s.s.s.s.s.s.s.s.f.f.s.t.s.t.t.t.t.t.t.t.e.e.t.e.e.6.6.6.;.-.-.;.;.-.*.*.*.*.&.&.#.#.#.#.#.&.#.#.@.@.} a.a.a.a.a.a.a.a.a.a.a.a.a.a.a.a.a.a.a.a.a.a.a.a.a.a.a.a.a.a.a.a.a.a.a.a.a.a.a.a.a.a.a.a.a.a.a.a.a.a.a.a.a.a.a.a.a.a.a.a.a.a.a.a.a.a.a.a.a.a.a.a.a.a.a.a.a.a.a.a.a.a.a.a.a.a.a.a.a.a.a.a.a.a.a.a.a.a.a.a.a.a.a.a.a.a.a.a.a.a.a.a.a.a.a.",
"a.a.a.a.a.a.a.a.a.a.a.a.a.a.a.a.a.a.a.a.a.a.a.a.Y ..o...~ U G G T T A E *...3.6.0.l.l.d.s.l.z.7...:.d.4.W _  .#.:...] ] _ _ / _ W W _ W _ _ ] ] _ _ W W E U P S B l l l l m B C D S F T E W / ] } }  .......#.#.#.#.#.*.&.*.#.*.#.*.#.#..... . .} [  . .} } { } } [ ] ] ] ) W / W W R U U S S Z V V B c c l d s t r t 9 8 5 2 < > = - - & & o o o o X o X X X X .           a.a.a.a.a.a.a.a.a.a.a.a.a.a.a.a.a.a.a.a.a.a.a.a.a.a.a.a.a.a.a.a.a.a.a.a.a.a.a.a.a.a.a.a.a.a.a.a.a.4 6 8 9 p s d k l n B C C A F F G G T E R E W E E / / _ _ / / ` ` ` ` ` ` ` ` } } } } @.+.@.@.@.@.#.#.@.#.#.@.#.#.#.#.&.&.*.-.&.*.-.-.-.-.-.-.-.-.-.-.-.-.4.t.6.4.4.6.6.t.t.t.t.t.t.y.y.y.t.t.t.t.t.t.t.y.t.d.d.t.d.t.y.y.y.t.y.s.s.y.t.d.d.y.y.y.t.y.y.y.f.t.t.t.t.t.y.t.t.y.f.f.f.f.s.y.f.s.t.t.y.f.f.d.f.f.d.d.f.f.d.f.s.t.s.f.f.f.f.t.f.f.h.h.f.f.g.g.g.h.g.g.h.h.f.h.k.f.s.s.f.f.f.h.s.f.h.s.s.s.f.f.s.s.s.s.s.s.f.s.s.s.s.t.s.s.s.h.f.s.s.s.s.e.e.t.t.e.e.s.t.t.e.6.6.6.6.6.;.;.-.-.-.-.-.*.&.&.&.#.#.#.#.#.#.&.#.@.@. .a.a.a.a.a.a.a.a.a.a.a.a.a.a.a.a.a.a.a.a.a.a.a.a.a.a.a.a.a.a.a.a.a.a.a.a.a.a.a.a.a.a.a.a.a.a.a.a.a.a.a.a.a.a.a.a.a.a.a.a.a.a.a.a.a.a.a.a.a.a.a.a.a.a.a.a.a.a.a.a.a.a.a.a.a.a.a.a.a.a.a.a.a.a.a.a.a.a.a.a.a.a.a.a.a.a.a.a.a.a.a.a.a.a.",
"a.a.a.a.a.a.a.a.a.a.a.a.a.a.a.a.a.a.a.a.a.a.a.S ]  . ._ T A S G T G C U ..E *.:.1.4.4.9.d.s.d.d. .] 7.5.} E  . .#...] _ W W W W / W W W W _ _ _ _ _ / E E R U S C m l k k l x m B V S L T W W _ ] ] }  . ...#.#.#.#.#.#.#.#.......#.#.@. . .} } } } [ } [ [ [ [ [ } ] ] ] / W W W R U U P J S Z V B c l l s t t 8 6 5 < , - : : # O O o o o o . X o           .   .   a.a.a.a.a.a.a.a.a.a.a.a.a.a.a.a.a.a.a.a.a.a.a.a.a.a.a.a.a.a.a.a.a.a.a.a.a.a.a.a.a.a.a.a.a.a.a.a.a.a.a.a.a., 8 9 t p d d l n B C Z S S S G G U T T E R E ^ E / ^ / / / _ ] ` _ ` } ` ` } } } } }  .}  .@.@.@. .@.@.#.#.&.&.#.#.#.&.*.*.*.-.*.-.-.-.-.-.6.4.-.-.-.-.-.6.4.-.-.6.t.t.t.t.t.t.s.s.y.s.s.y.y.s.y.t.y.y.s.s.s.s.s.y.t.y.t.t.t.t.y.y.y.y.t.e.t.y.y.t.t.t.f.t.e.t.y.t.t.t.y.t.s.g.k.f.f.y.f.f.t.f.s.t.f.s.s.f.d.f.f.f.f.s.t.y.d.f.s.f.t.t.y.s.f.f.d.d.h.g.h.h.f.f.f.f.f.f.f.s.s.f.h.f.s.f.f.f.h.f.h.h.f.s.s.s.t.f.s.f.s.s.s.t.t.t.s.s.f.t.s.s.s.t.t.t.t.t.e.e.e.e.e.e.e.t.-.;.e.e.-.-.-.-.-.-.-.*.*.*.*.#.#.&.#.&.&.&.&.#.@.@. .a.a.a.a.a.a.a.a.a.a.a.a.a.a.a.a.a.a.a.a.a.a.a.a.a.a.a.a.a.a.a.a.a.a.a.a.a.a.a.a.a.a.a.a.a.a.a.a.a.a.a.a.a.a.a.a.a.a.a.a.a.a.a.a.a.a.a.a.a.a.a.a.a.a.a.a.a.a.a.a.a.a.a.a.a.a.a.a.a.a.a.a.a.a.a.a.a.a.a.a.a.a.a.a.a.a.a.a.a.a.a.a.a.",
"a.a.a.a.a.a.a.a.a.a.a.a.a.a.a.a.a.a.a.a.a.a.a.} } ] E G C C F G U S m S .._ ] &.&.*.*.4.j.d.6.d.1./ ..5.&.G _ } } .. ._ / W W / W W W E E W _ _ W _ W E E U G S A m l d d d j l m B V S L T W W _ ] ] } } }  . . .#.#.#......... . . . .} } } } ] ] ] ] ] ] ) ) ) ] ] _ W W T R R Y U J J J S D B c l g s t 9 6 5 < = - * O O o o . . . . .   . .             a.a.a.a.a.a.a.a.a.a.a.a.a.a.a.a.a.a.a.a.a.a.a.a.a.a.a.a.a.a.a.a.a.a.a.a.a.a.a.a.a.a.a.a.a.a.a.a.a.a.a.a.a.a.a.a.a.< 6 8 t t s d l n B C Z Z S F F G U R T R R E ^ ^ / ^ / / / _ _ ` } } } } ` } } } } } } }  .@.@.@.} @.@.#.#.&.#.#.#.@.#.*.*.*.-.*.-.-.-.-.-.-.-.-.6.-.4.4.6.6.-.-.4.6.t.t.t.t.d.s.t.y.s.s.y.s.y.t.s.y.y.y.t.t.y.y.t.y.s.y.t.t.t.y.y.y.t.e.e.t.y.s.t.t.t.t.f.t.t.t.t.t.t.t.f.f.f.f.f.f.y.f.t.t.s.y.y.f.d.f.f.d.f.f.f.f.f.f.f.f.f.f.f.y.f.f.d.f.f.f.d.d.f.f.f.h.f.f.s.s.f.f.s.f.f.f.s.f.f.f.s.f.f.f.h.h.f.f.s.t.s.s.s.s.s.s.t.t.t.s.s.s.s.s.t.t.t.t.t.t.t.e.e.e.e.e.e.e.e.e.e.;.;.-.-.-.-.-.-.-.*.*.*.*.#.$.&.&.&.&.&.-.#.#.@.@.a.a.a.a.a.a.a.a.a.a.a.a.a.a.a.a.a.a.a.a.a.a.a.a.a.a.a.a.a.a.a.a.a.a.a.a.a.a.a.a.a.a.a.a.a.a.a.a.a.a.a.a.a.a.a.a.a.a.a.a.a.a.a.a.a.a.a.a.a.a.a.a.a.a.a.a.a.a.a.a.a.a.a.a.a.a.a.a.a.a.a.a.a.a.a.a.a.a.a.a.a.a.a.a.a.a.a.a.a.a.a.a.a.",
"a.a.a.a.a.a.a.a.a.a.a.a.a.a.a.a.a.a.a.a.a.a.W ] ] U A k 9 k F G U F m S  .] W ] o.#.*.:.9.d.6.6.6.] _ 1.1.T W  .]  ..._ W W W W E E E E E E E W W W E E U G G F Z B l l d d h d x B C Z S L U W W / _ ] } }  . . ...|  . . . . . ... .} } ] ] ] [ ] ] ] ) ) ) / W / W W R W U T U U P S S D V B c l k s t 9 6 3 , * & O o X   .                       a.a.a.a.a.a.a.a.a.a.a.a.a.a.a.a.a.a.a.a.a.a.a.a.a.a.a.a.a.a.a.a.a.a.a.a.a.a.a.a.a.a.a.a.a.a.a.a.a.a.a.a.a.a.a.a.a.a.a.a.a.a.5 8 r t s d k l m C Z Z S F F G U T T R R R ^ T T E ^ / / ` _ _ _ ` } } ` } } } } } } }  .@.@. . .@.@.@.#.#.#.#.#.@.#.*.&.&.&.-.-.-.-.-.4.6.4.4.-.-.4.-.4.4.4.-.-.6.t.t.t.t.s.s.y.s.s.t.y.y.t.t.s.d.t.t.y.t.t.y.s.s.y.y.t.t.t.y.y.t.e.e.e.t.t.y.t.s.f.t.f.f.t.t.t.t.t.t.s.f.s.t.d.s.t.s.f.y.s.f.f.d.g.g.f.f.t.f.g.d.f.y.t.s.f.f.f.t.f.f.f.f.f.f.f.f.f.s.f.f.f.f.f.f.f.f.f.f.f.f.f.f.d.f.f.f.f.f.f.g.g.h.f.s.s.f.s.s.t.t.s.s.t.t.s.s.f.s.s.t.t.s.s.t.t.e.e.e.e.e.e.;.e.t.t.-.;.;.;.-.-.-.-.-.-.-.*.*.#.#.&.&.-.&.&.&.*.&.#.@. .a.a.a.a.a.a.a.a.a.a.a.a.a.a.a.a.a.a.a.a.a.a.a.a.a.a.a.a.a.a.a.a.a.a.a.a.a.a.a.a.a.a.a.a.a.a.a.a.a.a.a.a.a.a.a.a.a.a.a.a.a.a.a.a.a.a.a.a.a.a.a.a.a.a.a.a.a.a.a.a.a.a.a.a.a.a.a.a.a.a.a.a.a.a.a.a.a.a.a.a.a.a.a.a.a.a.a.a.a.a.a.a.",
"a.a.a.a.a.a.a.a.a.a.a.a.a.a.a.a.a.a.a.a.a.a.] _ T B f N G C S G G S h n _ ] _ #.&.:.:.:.3.6.4.-.1.#._ #.:._ G } _ ] .._ W W R W E U U R R R U E W E T R T G F S Z B n k k d h h h x m B Z Z P U R W W _ _ ]  . .} } } } }  .} } } } ] ] ] ] ] ] ] ) ) ) ) W W W W W W W W W U U P P J S D C m c l h s t 7 5 < > * O o X                   a.a.a.a.a.a.a.a.a.a.a.a.a.a.a.a.a.a.a.a.a.a.a.a.a.a.a.a.a.a.a.a.a.a.a.a.a.a.a.a.a.a.a.a.a.a.a.a.a.a.a.a.a.a.a.a.a.a.a.a.a.a.a.a.a.a.a.a.3 6 8 t p s d l n C C Z Z F F G F T T R R R ^ E T T ^ / / _ _ _ _ ` ` } } } } } } } } }  .@. .}  .@.@.#.#.#.#.&.#.#.#.*.&.&.#.-.-.-.-.4.4.-.4.-.-.-.4.-.4.-.4.4.4.6.t.t.t.t.y.s.d.t.y.d.s.y.t.t.y.t.t.t.t.t.y.s.d.d.t.y.y.t.t.t.t.t.t.t.e.t.y.f.f.f.t.t.s.t.t.t.t.f.t.y.f.f.s.t.t.s.t.y.s.t.s.f.f.g.k.g.f.t.t.s.g.g.d.f.s.s.t.f.t.t.f.s.f.f.f.f.f.f.s.f.f.s.s.f.f.h.h.f.f.f.f.f.f.f.s.s.f.f.g.f.f.f.s.s.t.t.f.s.t.t.t.t.s.s.t.t.s.t.t.s.t.t.f.s.s.t.t.e.e.e.e.e.e.e.e.e.e.e.-.-.-.-.-.-.-.-.-.-.*.-.#.&.&.&.&.&.&.-.*.*.#.@.} @.a.a.a.a.a.a.a.a.a.a.a.a.a.a.a.a.a.a.a.a.a.a.a.a.a.a.a.a.a.a.a.a.a.a.a.a.a.a.a.a.a.a.a.a.a.a.a.a.a.a.a.a.a.a.a.a.a.a.a.a.a.a.a.a.a.a.a.a.a.a.a.a.a.a.a.a.a.a.a.a.a.a.a.a.a.a.a.a.a.a.a.a.a.a.a.a.a.a.a.a.a.a.a.a.a.a.a.a.a.a.a.",
"a.a.a.a.a.a.a.a.a.a.a.a.a.a.a.a.a.a.a.a.a.a.] E S G ..5.7.] Z G G S l l E ]  .*.1.4.:.*.1.3.3.4.*.&.} } 1.#.G W _ _  .] E E U T U U U U U U U U E R T T U G F S Z B m l k h h s h h l c B B Z S U R W W ) _ ] ] } ] ] [  .} } } ] [ ] ] ] ] ] ] ) ] ] ) / W W W W W R R T T P S S S D V B c x j s t r 7 5 > - & o X         a.a.a.a.a.a.a.a.a.a.a.a.a.a.a.a.a.a.a.a.a.a.a.a.a.a.a.a.a.a.a.a.a.a.a.a.a.a.a.a.a.a.a.a.a.a.a.a.a.a.a.a.a.a.a.a.a.a.a.a.a.a.a.a.a.a.a.a.a.a.a.a.a.a.a.a.5 7 t p s h d l B C C Z S F F F U T R T R T T T T ^ / / / _ _ ` ` } ` } ` } } } } }  . . .@. .@.@.#.#.&.#.#.#.#.#.#.#.&.&.&.&.*.-.-.4.-.-.-.-.-.6.4.-.4.-.-.4.4.6.t.y.t.t.y.y.t.t.y.d.t.t.y.d.y.t.t.s.t.t.t.s.s.y.t.t.t.t.t.t.t.6.t.t.e.t.e.e.t.t.t.f.t.t.t.s.t.t.t.s.y.y.f.s.s.f.f.y.t.s.f.s.s.f.f.f.s.t.y.y.f.f.f.d.f.y.y.y.y.f.f.f.f.f.f.d.d.f.s.s.s.f.s.t.f.h.h.f.f.h.h.f.s.f.f.f.V.k.k.h.f.f.s.s.s.s.s.s.t.t.t.t.s.s.s.e.t.s.t.s.t.t.t.t.t.t.s.t.s.e.e.e.e.e.e.e.e.e.;.-.-.-.-.-.-.-.-.-.-.*.&.&.&.#.&.&.:.-.#.*.#.#.#.@.@.a.a.a.a.a.a.a.a.a.a.a.a.a.a.a.a.a.a.a.a.a.a.a.a.a.a.a.a.a.a.a.a.a.a.a.a.a.a.a.a.a.a.a.a.a.a.a.a.a.a.a.a.a.a.a.a.a.a.a.a.a.a.a.a.a.a.a.a.a.a.a.a.a.a.a.a.a.a.a.a.a.a.a.a.a.a.a.a.a.a.a.a.a.a.a.a.a.a.a.a.a.a.a.a.a.a.a.a.a.a.",
"a.a.a.a.a.a.a.a.a.a.a.a.a.a.a.a.a.a.a.a.a.a.] W 1.M.N.x.0.W A G G C l k G W ] 1.*.1.3.o...1.5.5.*. . .] #.*.W G / / _ } W E R T U G G G G G G U R U G U G F S Z Z B m l j s s u s s s j x c B C Z J U R R W ] ] ] _ / _ ] ] ] ] ] ] ] ] ] ] ] ) ) / / W W W W R R T T U L J S D D B B m x g h p t 9 6 < : & O .     a.a.a.a.a.a.a.a.a.a.a.a.a.a.a.a.a.a.a.a.a.a.a.a.a.a.a.a.a.a.a.a.a.a.a.a.a.a.a.a.a.a.a.a.a.a.a.a.a.a.a.a.a.a.a.a.a.a.a.a.a.a.a.a.a.a.a.a.a.a.a.a.a.a.a.a.a.a.a.a.5 8 8 t s d j l B C Z S S F F F U T T T T T T T T ^ ^ ^ / _ _ _ ` ` ` } } } } } } }  . . . . .@.@.#.#.#.@.#.#.#.#.@.#.&.&.&.-.&.-.-.-.-.-.-.-.-.6.-.-.4.4.4.4.4.t.6.t.y.y.t.t.t.t.t.y.t.t.t.t.t.t.t.t.t.y.t.s.s.y.t.t.t.t.t.y.t.6.t.e.t.t.t.t.t.t.t.t.t.t.y.t.f.s.s.s.s.f.s.d.s.f.f.s.y.y.f.s.u.f.f.s.s.y.y.y.d.f.f.s.y.y.y.y.s.y.t.t.y.t.t.s.y.s.t.s.f.h.f.f.h.f.f.f.f.f.f.h.g.k.k.g.k.h.h.f.f.f.f.f.f.f.f.f.f.f.t.s.f.f.f.s.t.s.f.s.s.t.y.t.e.t.e.e.e.e.t.t.e.e.e.e.;.e.;.-.-.-.;.-.-.-.-.-.*.*.&.&.&.&.*.&.&.-.#.#.#.#.#.&.#.@.a.a.a.a.a.a.a.a.a.a.a.a.a.a.a.a.a.a.a.a.a.a.a.a.a.a.a.a.a.a.a.a.a.a.a.a.a.a.a.a.a.a.a.a.a.a.a.a.a.a.a.a.a.a.a.a.a.a.a.a.a.a.a.a.a.a.a.a.a.a.a.a.a.a.a.a.a.a.a.a.a.a.a.a.a.a.a.a.a.a.a.a.a.a.a.a.a.a.a.a.a.a.a.a.a.a.a.a.a.",
"a.a.a.a.a.a.a.a.a.a.a.a.a.a.a.a.a.a.a.a.a.1.1.m.M.!.E.x.0.R N S F C d s S _ _ 1.1.3.3.1. . .4.5.-.} ..]  .:. .G R W W ] / U U U U S F F S F P P G U G G F F S Z C B B l j s p t t t t p s j x x m Z S U Y W W W / _ / / _ _ _ _ ] _ _ ] ) / / W W R R W T T U U P U J J S D D B B c c l h s s 9 7 1 , * O o . a.a.a.a.a.a.a.a.a.a.a.a.a.a.a.a.a.a.a.a.a.a.a.a.a.a.a.a.a.a.a.a.a.a.a.a.a.a.a.a.a.a.a.a.a.a.a.a.a.a.a.a.a.a.a.a.a.a.a.a.a.a.a.a.a.a.a.a.a.a.a.a.a.a.a.a.a.a.a.a.a.a.a.5 5 8 t p s j l m C C Z S F F F G U T T T T T T T ^ / / / / _ _ _ ` _ ` ` ` ` ` } } }  .@. . .@.#.#.#.@.@.@.#.&.#.#.#.&.&.&.&.&.-.-.-.-.-.-.-.4.-.-.-.4.6.6.6.6.6.t.t.t.t.t.t.t.t.t.t.y.y.s.t.t.t.t.t.d.d.t.t.t.y.t.t.t.t.t.t.t.t.e.e.t.e.t.t.t.t.t.e.t.t.t.y.t.y.y.y.s.f.f.f.f.f.s.f.t.t.f.y.t.s.y.s.s.y.y.s.f.f.s.t.t.s.f.s.y.t.t.t.s.f.f.f.f.f.f.f.f.h.f.f.h.f.f.f.f.f.f.f.f.g.d.f.f.f.s.f.f.f.f.f.f.f.s.s.f.f.f.f.f.s.f.f.s.t.s.t.s.y.y.t.t.t.e.e.t.s.s.t.e.e.e.e.e.e.e.e.e.-.-.-.-.*.-.-.*.*.#.#.&.&.&.&.&.-.#.@.#.&.#.*.*.#.} a.a.a.a.a.a.a.a.a.a.a.a.a.a.a.a.a.a.a.a.a.a.a.a.a.a.a.a.a.a.a.a.a.a.a.a.a.a.a.a.a.a.a.a.a.a.a.a.a.a.a.a.a.a.a.a.a.a.a.a.a.a.a.a.a.a.a.a.a.a.a.a.a.a.a.a.a.a.a.a.a.a.a.a.a.a.a.a.a.a.a.a.a.a.a.a.a.a.a.a.a.a.a.a.a.a.a.a.",
"a.a.a.a.a.a.a.a.a.a.a.a.a.a.a.a.a.a.a.a.a.d.M.M.M.E.E.M.d.1.A A A B d 9 m / E #.1.3.7.0.:.] #.4.:. .]  ._ o.&./ T E R W _ U U U G S Z S S S S S S S S F S S C C C B c l j s p t r 9 9 t t p s h l m C S P U R W W W W W W W W W W W / / W W W W W R Y T T U P S S S S Z C B m l l h s t t 9 6 < , & +     a.a.a.a.a.a.a.a.a.a.a.a.a.a.a.a.a.a.a.a.a.a.a.a.a.a.a.a.a.a.a.a.a.a.a.a.a.a.a.a.a.a.a.a.a.a.a.a.a.a.a.a.a.a.a.a.a.a.a.a.a.a.a.a.a.a.a.a.a.a.a.a.a.a.a.a.a.a.a.a.a.a.a.a.a.a.< 8 9 p s d l l B B C Z F F F G U T U T T T T T E E ^ / / / _ _ ` ` ` ` ` ` ` ` ` } }  . . .@.@.@.@.@.#.#.#.#.#.#.#.&.-.&.&.*.-.-.*.&.-.-.-.-.-.-.-.4.-.4.6.t.t.t.t.t.t.t.t.t.t.t.t.t.t.y.t.t.t.t.y.d.y.t.t.t.y.t.t.t.y.t.t.t.t.t.t.t.t.t.t.t.t.e.t.t.t.t.e.t.t.t.t.y.f.f.f.f.f.f.f.t.t.s.u.t.s.s.y.y.s.u.f.f.t.y.y.s.f.f.s.f.f.f.y.y.f.f.f.s.f.f.f.k.h.s.t.f.f.s.f.s.s.f.f.f.f.f.s.t.s.f.f.f.s.s.f.f.f.h.f.f.f.f.f.s.s.s.s.s.s.s.s.t.t.s.t.t.t.t.t.s.t.t.t.e.e.t.e.e.t.e.e.e.;.-.-.-.-.-.-.*.*.*.&.&.#.&.&.&.&.#.@.#.#.#.*.&.#.@.} a.a.a.a.a.a.a.a.a.a.a.a.a.a.a.a.a.a.a.a.a.a.a.a.a.a.a.a.a.a.a.a.a.a.a.a.a.a.a.a.a.a.a.a.a.a.a.a.a.a.a.a.a.a.a.a.a.a.a.a.a.a.a.a.a.a.a.a.a.a.a.a.a.a.a.a.a.a.a.a.a.a.a.a.a.a.a.a.a.a.a.a.a.a.a.a.a.a.a.a.a.a.a.a.a.a.a.",
"a.a.a.a.a.a.a.a.a.a.a.a.a.a.a.a.a.a.a.a.b.M.M.M.N.].E.v.d.1.l B A B l 8 h T U ] *.5.6.d.d.*._ 1.#. ._ } _ [ ..] G W U W W R U P P S S A A Z Z S Z S S Z Z A C B B n l l h s t t 9 8 8 9 9 r t p s j m C Z J U U R R R R W W W W W W W W W R R W R Y U U U J J S D D C B c l h s t t 7 r 1 , - O   . . a.a.a.a.a.a.a.a.a.a.a.a.a.a.a.a.a.a.a.a.a.a.a.a.a.a.a.a.a.a.a.a.a.a.a.a.a.a.a.a.a.a.a.a.a.a.a.a.a.a.a.a.a.a.a.a.a.a.a.a.a.a.a.a.a.a.a.a.a.a.a.a.a.a.a.a.a.a.a.a.a.a.a.a.a.a.a.a., 5 9 t s h k l m C Z C S S F F U U T R T T T W / / / / / _ ` _ ` _ _ ` ` } } } } } }  . .@.@.@.@.@.@.@.#.@.@.@.@.@.-.-.&.&.*.-.-.-.-.-.-.4.-.-.-.-.-.-.;.6.4.6.t.t.t.t.t.t.t.t.t.t.s.t.t.t.t.t.s.s.t.t.t.t.t.t.t.y.t.t.t.6.t.y.s.s.t.t.t.t.t.t.e.e.t.e.e.t.t.t.t.t.t.f.f.f.f.f.f.t.t.t.t.t.t.y.y.t.y.t.y.f.s.t.s.d.f.f.s.y.s.f.f.f.d.k.d.f.f.f.f.s.f.s.s.t.s.f.f.f.f.h.h.g.f.f.s.s.s.f.s.f.f.f.s.f.f.f.f.f.f.f.f.f.f.f.f.f.f.f.s.s.t.t.s.s.s.s.s.s.f.t.t.e.t.e.t.t.t.t.e.e.;.;.e.;.-.-.-.*.*.*.-.-.-.&.&.#.#.&.#.#.#.&.&.&.-.&.@.@.a.a.a.a.a.a.a.a.a.a.a.a.a.a.a.a.a.a.a.a.a.a.a.a.a.a.a.a.a.a.a.a.a.a.a.a.a.a.a.a.a.a.a.a.a.a.a.a.a.a.a.a.a.a.a.a.a.a.a.a.a.a.a.a.a.a.a.a.a.a.a.a.a.a.a.a.a.a.a.a.a.a.a.a.a.a.a.a.a.a.a.a.a.a.a.a.a.a.a.a.a.a.a.a.a.a.a.",
"a.a.a.a.a.a.a.a.a.a.a.a.a.a.a.a.a.a.J i.x.M.M.E.N.J.E.v.y.1.U B A B k 8 t U W / #.5.d.l.9.6.` } 1.&._ / _ W  . .E R R U R R U F S S S A C C C C C C A B B B B m n l k k s s t 9 8 6 7 6 8 7 7 7 t p d m B V S S U U U T T T T Y R R R T T U U U U J J J J S D V B c l j s t r 7 4 < > * o o X     a.a.a.a.a.a.a.a.a.a.a.a.a.a.a.a.a.a.a.a.a.a.a.a.a.a.a.a.a.a.a.a.a.a.a.a.a.a.a.a.a.a.a.a.a.a.a.a.a.a.a.a.a.a.a.a.a.a.a.a.a.a.a.a.a.a.a.a.a.a.a.a.a.a.a.a.a.a.a.a.a.a.a.a.a.a.a.a.a.a.a.5 8 t s h d n m C Z C S S F P F F T T T T T / / / / / / / _ / / _ _ ` ` ` } ` ` } } }  . .@.@.@. . . .@.@.@.#.@.@.&.&.&.&.*.-.-.-.-.-.-.-.-.-.-.-.-.-.-.-.-.6.6.6.6.6.t.t.t.t.t.t.t.t.t.t.y.t.t.t.6.t.t.t.t.t.t.y.t.t.t.t.t.s.s.y.t.t.t.t.t.t.t.t.t.e.e.t.t.t.e.t.t.s.s.y.f.f.y.y.t.t.t.t.y.y.t.t.y.s.d.s.t.t.s.d.f.f.f.s.f.f.f.d.d.g.f.f.k.k.h.f.s.s.t.t.f.f.f.h.h.h.f.d.h.f.h.g.f.s.s.f.f.f.s.f.f.f.f.h.h.f.f.f.f.f.g.h.h.f.s.s.s.e.t.s.s.s.s.h.y.t.t.t.t.t.t.t.t.e.e.e.;.;.e.;.-.-.-.*.*.-.-.-.-.&.&.#.#.#.&.#.#.#.&.&.&.&.@.@.#.a.a.a.a.a.a.a.a.a.a.a.a.a.a.a.a.a.a.a.a.a.a.a.a.a.a.a.a.a.a.a.a.a.a.a.a.a.a.a.a.a.a.a.a.a.a.a.a.a.a.a.a.a.a.a.a.a.a.a.a.a.a.a.a.a.a.a.a.a.a.a.a.a.a.a.a.a.a.a.a.a.a.a.a.a.a.a.a.a.a.a.a.a.a.a.a.a.a.a.a.a.a.a.a.a.a.",
"a.a.a.a.a.a.a.a.a.a.a.a.a.a.a.a.a.2.x.z.v.M.M.N.E.E.E.M.d.1.G k B B n t 8 B U U ] 1.d.v.g.d.&.W  .*. ./ W U _ ..] U R U R W U F S S Z C B B B B B B B N b l l l d k h h s t 9 7 8 7 6 6 5 5 5 6 7 8 t s l c B C S J P P U U U T T U U U P J S S S J S D C B c c d h s p 9 6 5 , * O o         a.a.a.a.a.a.a.a.a.a.a.a.a.a.a.a.a.a.a.a.a.a.a.a.a.a.a.a.a.a.a.a.a.a.a.a.a.a.a.a.a.a.a.a.a.a.a.a.a.a.a.a.a.a.a.a.a.a.a.a.a.a.a.a.a.a.a.a.a.a.a.a.a.a.a.a.a.a.a.a.a.a.a.a.a.a.a.a.a.a.a.a.a.< 8 9 9 s s l m C Z Z Z S S F P U T T T T E / / / / / / / _ / / ` ` ` ` } } ` ` ` ` } } @.@.@. .} @. .@.@.@.@.#.#.#.&.&.*.*.-.-.-.-.-.-.-.-.-.-.-.-.-.-.-.;.6.t.t.;.6.6.6.t.t.t.y.t.t.t.t.y.y.t.6.6.t.t.t.t.t.t.t.t.t.t.t.6.t.d.t.t.t.t.t.t.t.t.t.u.y.t.y.t.t.t.t.t.t.t.t.t.f.y.t.t.t.t.t.s.s.y.t.s.d.y.y.t.t.s.f.f.y.s.s.f.f.g.d.f.g.g.f.f.f.f.s.s.s.s.s.s.f.f.g.g.h.f.f.h.h.f.h.f.t.s.f.f.f.f.s.f.s.f.f.h.h.f.f.f.f.s.s.s.s.s.s.f.t.s.f.s.s.f.f.t.s.t.e.t.e.e.e.e.e.e.e.;.6.e.;.-.-.-.-.-.-.-.-.-.*.-.*.#.#.&.&.#.#.#.#.#.&.*.*.#...a.a.a.a.a.a.a.a.a.a.a.a.a.a.a.a.a.a.a.a.a.a.a.a.a.a.a.a.a.a.a.a.a.a.a.a.a.a.a.a.a.a.a.a.a.a.a.a.a.a.a.a.a.a.a.a.a.a.a.a.a.a.a.a.a.a.a.a.a.a.a.a.a.a.a.a.a.a.a.a.a.a.a.a.a.a.a.a.a.a.a.a.a.a.a.a.a.a.a.a.a.a.a.a.a.",
"a.a.a.a.a.a.a.a.a.a.a.a.a.a.a.a.8._.z.M.M.E.M.M.M.J.M.v.y.1.| l B B B s 5 h U F W ..4.y.l.l.3.} E #.&. .E T E } ..E T U U W U F S S C B B m l l l c l l l d d h s s s p t 9 8 8 6 5 5 3 < < 3 < < 5 8 8 t s h l m V V S S J J J U J J J K S S V Z V m c x l g s t t 9 6 3 , * O o X       a.a.a.a.a.a.a.a.a.a.a.a.a.a.a.a.a.a.a.a.a.a.a.a.a.a.a.a.a.a.a.a.a.a.a.a.a.a.a.a.a.a.a.a.a.a.a.a.a.a.a.a.a.a.a.a.a.a.a.a.a.a.a.a.a.a.a.a.a.a.a.a.a.a.a.a.a.a.a.a.a.a.a.a.a.a.a.a.a.a.a.a.a.a.a.5 6 8 9 p s l l m C Z C S S F F P T T U U R / / / E / / / / / / _ ` ` ` ` } ` ` } } } } } }  .@. .}  .@.@.@.@.@.#.#.&.&.*.*.-.-.-.*.-.-.-.-.-.-.-.-.-.-.;.t.t.6.t.t.t.t.t.t.t.t.t.t.t.t.t.t.t.t.t.t.6.t.t.t.t.t.6.t.t.t.t.t.d.d.t.t.t.t.t.t.t.t.y.t.t.t.t.t.t.t.t.e.t.t.t.f.f.y.t.t.y.s.s.f.f.f.f.f.f.f.f.s.y.y.f.f.s.f.s.f.d.g.f.f.d.d.d.f.f.f.s.s.s.s.s.s.f.f.f.f.h.h.f.s.f.f.s.s.s.s.f.f.f.f.s.s.s.s.s.f.f.f.f.f.f.f.f.s.s.s.f.f.s.s.s.e.t.f.s.t.s.t.e.t.e.e.e.e.e.e.e.;.6.e.;.-.;.-.-.-.-.;.-.-.*.&.&.&.#.#.#.#.&.#.#.#.#.*.*.&.&.@.a.a.a.a.a.a.a.a.a.a.a.a.a.a.a.a.a.a.a.a.a.a.a.a.a.a.a.a.a.a.a.a.a.a.a.a.a.a.a.a.a.a.a.a.a.a.a.a.a.a.a.a.a.a.a.a.a.a.a.a.a.a.a.a.a.a.a.a.a.a.a.a.a.a.a.a.a.a.a.a.a.a.a.a.a.a.a.a.a.a.a.a.a.a.a.a.a.a.a.a.a.a.a.a.",
"a.a.a.a.a.a.a.a.a.a.a.a.a.a.a.a.'.z.z.v.v.M.M.J.M.M.M.z.7.5...h l l N f 8 8 V F P / *.6.y.d.t.1./ _ -.&._ E F / ..] U E G T R S S Z C B m n k h h s s s s p p t t 9 9 9 8 8 6 5 5 3 < < , , , , , , , 5 6 8 9 p s h l c m B V V V V V V B B B m m c l j h a t t 7 8 1 , * o   .       a.a.a.a.a.a.a.a.a.a.a.a.a.a.a.a.a.a.a.a.a.a.a.a.a.a.a.a.a.a.a.a.a.a.a.a.a.a.a.a.a.a.a.a.a.a.a.a.a.a.a.a.a.a.a.a.a.a.a.a.a.a.a.a.a.a.a.a.a.a.a.a.a.a.a.a.a.a.a.a.a.a.a.a.a.a.a.a.a.a.a.a.a.a.a.a.a.a.5 8 9 t p d l m B C Z S S F F P U T T T R E W E ^ / / _ _ / / ` / ` _ ` } ` ` } } } } }  . .@. .} @.@.@.@.@.#.#.#.#.&.&.*.-.-.-.-.-.-.-.-.-.*.*.-.-.t.t.t.6.t.6.t.t.6.6.t.y.t.t.t.t.t.t.t.t.t.t.6.6.t.6.6.t.6.t.t.t.t.t.t.t.d.t.t.t.t.t.t.t.t.t.t.t.t.t.t.t.e.t.t.f.f.t.f.f.f.t.t.f.f.f.f.d.f.t.s.f.f.s.t.t.f.f.s.f.f.f.f.g.d.s.s.f.s.t.f.g.h.f.s.s.s.s.s.f.s.f.s.s.f.s.f.h.s.s.f.s.s.s.s.s.f.s.s.s.s.s.s.f.s.s.s.s.f.f.s.s.s.f.f.s.s.t.t.s.s.s.t.t.t.s.t.e.e.e.e.t.t.e.t.t.e.e.-.-.-.-.-.-.;.-.-.-.*.&.&.#.&.&.#.&.&.#.@.&.*.*.&.*.#...a.a.a.a.a.a.p.a.a.a.a.a.a.a.a.a.a.a.a.a.a.a.a.a.a.a.a.a.a.a.a.a.a.a.a.a.a.a.a.a.a.a.a.a.a.a.a.a.a.a.a.a.a.a.a.a.a.a.a.a.a.a.a.a.a.a.a.a.a.a.a.a.a.a.a.a.a.a.a.a.a.a.a.a.a.a.a.a.a.a.a.a.a.a.a.a.a.a.a.a.a.a.a.",
"a.a.a.a.a.a.a.a.a.a.a.a.a.a.a.].z.z.z.v.M.v.M.M.M.M.M.z.z.5.1.C s l n l 9 , s Z C U _ 1.7.l.t.6.@.E &.-.&._ G P ] ..E R G S T U S Z C B n l l s p p t r 9 9 8 7 8 6 6 5 5 3 < < , > > > > > > - * - - > , , 3 5 8 9 t s s g g l l l l l l g g h h s s p t r r 7 5 < : & o .       . a.a.a.a.a.a.a.a.a.a.a.a.a.a.a.a.a.a.a.a.a.a.a.a.a.a.a.a.a.a.a.a.a.a.a.a.a.a.a.a.a.a.a.a.a.a.a.a.a.a.a.a.a.a.a.a.a.a.a.a.a.a.a.a.a.a.a.a.a.a.a.a.a.a.a.a.a.a.a.a.a.a.a.a.a.a.a.a.a.a.a.a.a.a.a.a.a.a.a., 6 8 9 p s l n B C C C S F F P U T U T T E E E ^ / / / _ / / _ / ` ` ` } ` ` ` }  .} } }  . .} } @.@. .@.@.#.#.#.#.#.&.-.-.&.-.-.-.-.-.-.-.-.-.-.-.e.t.t.6.t.t.6.6.6.6.t.t.t.t.t.t.t.t.t.t.t.6.6.6.t.t.6.t.t.t.t.6.6.t.t.t.t.t.t.y.t.e.e.t.t.t.t.t.t.t.e.t.t.t.y.y.f.t.y.t.f.t.f.t.t.s.y.s.y.s.y.t.y.t.t.y.y.f.d.d.f.f.f.f.f.s.f.d.f.f.d.g.f.f.s.s.s.s.s.f.s.f.s.s.s.h.f.s.f.f.f.f.f.s.t.s.s.s.s.s.s.s.s.f.s.s.s.s.f.s.s.s.s.s.s.s.s.s.t.s.f.s.s.f.s.s.t.e.t.e.e.t.t.e.e.t.e.e.-.-.-.-.-.-.;.-.-.*.*.&.&.#.&.#.#.&.#.#.@.@.*.&.&.=.&.#.#.a.a.a.a.a.a.a.a.a.a.a.a.a.a.a.a.a.a.a.a.a.a.a.a.a.a.a.a.a.a.a.a.a.a.a.a.a.a.a.a.a.a.a.a.a.a.a.a.a.a.a.a.a.a.a.a.a.a.a.a.a.a.a.a.a.a.a.a.a.a.a.a.a.a.a.a.a.a.a.a.a.a.a.a.a.a.a.a.a.a.a.a.a.a.a.a.a.a.a.a.a.a.",
"a.a.a.a.a.a.a.a.a.a.a.a.a.a.].M.z.z.z.v.v.z.v.M.M.M.M.z.z.5.1.W p h k n s 8 6 m A l U } *.6.t.6.-._ / ;.6.#.W S W } / R R S F U S C B B l l h t 9 9 9 8 8 5 6 5 4 < , , , , < , , - * - * * * * * * * & % * * , , < 5 6 7 r r t t p p p p t t t t t 7 7 8 5 3 < , : & O o       a.a.a.a.a.a.a.a.a.a.a.a.a.a.a.a.a.a.a.a.a.a.a.a.a.a.a.a.a.a.a.a.a.a.a.a.a.a.a.a.a.a.a.a.a.a.a.a.a.a.a.a.a.a.a.a.a.a.a.a.a.a.a.a.a.a.a.a.a.a.a.a.a.a.a.a.a.a.a.a.a.a.a.a.a.a.a.a.a.a.a.a.a.a.a.a.a.a.a.a.a.a.5 8 9 t s d l m C C C S F F F U U U T T E E W / / / / _ / / _ / _ / ` ` ` ` ` } } } } } @.} }  . . .@.@.@.#.#.#.#.#.&.-.-.-.-.-.-.-.-.-.-.-.-.-.-.-.;.e.6.t.t.6.6.6.t.t.t.t.t.t.t.t.t.t.t.6.6.6.6.6.6.6.t.y.t.t.t.t.t.t.t.t.t.t.y.t.e.t.t.t.t.t.s.t.t.t.t.t.y.y.t.t.s.y.t.f.t.f.y.t.s.f.s.t.t.t.y.t.t.t.t.t.s.d.f.f.f.f.f.f.f.f.f.f.d.f.d.f.s.s.s.t.s.t.f.s.f.f.f.h.f.f.f.s.s.s.s.f.s.t.t.s.s.f.s.t.f.s.f.f.f.f.f.f.h.h.f.s.s.s.f.f.f.s.f.s.f.s.f.s.s.t.t.t.e.e.t.t.t.t.t.e.e.-.-.-.-.-.-.-.-.-.-.*.&.&.&.#.#.#.#.#.#.#.@.#.#.#.#.#.*.#.a.a.a.a.a.a.a.a.a.a.a.a.a.a.a.a.a.a.a.a.a.a.a.a.a.a.a.a.a.a.a.a.a.a.a.a.a.a.a.a.a.a.a.a.a.a.a.a.a.a.a.a.a.a.a.a.a.a.a.a.a.a.a.a.a.a.a.a.a.a.a.a.a.a.a.a.a.a.a.a.a.a.a.a.a.a.a.a.a.a.a.a.a.a.a.a.a.a.a.a.a.a.",
"a.a.a.a.a.a.a.a.a.a.a.a.a.a.`.z.d.z.z.v.z.z.v.M.M.M.M.z.z.5.<.Q 9 0 k k k 8 , t S C m E  .:.-.6.5.&.H ` -.-.} U F _ ] R U F C F S C B m l d p 9 8 9 7 5 5 3 , , , > > - - - - * * % % O o o o o o O O o o o O o % % * - > , < 5 5 6 6 6 7 7 6 6 5 2 , , , > > * O o       . a.a.a.a.a.a.a.a.a.a.a.a.a.a.a.a.a.a.a.a.a.a.a.a.a.a.a.a.a.a.a.a.a.a.a.a.a.a.a.a.a.a.a.a.a.a.a.a.a.a.a.a.a.a.a.a.a.a.a.a.a.a.a.a.a.a.a.a.a.a.a.a.a.a.a.a.a.a.a.a.a.a.a.a.a.a.a.a.a.a.a.a.a.a.a.a.a.a.a.a.a.a.a.a., 5 7 9 p d l m B C C Z F F F G U U U U E E W / / / / / / / / / ` _ _ ` ` ` ` } } } } } } } }  .}  .@.@.@.@.#.#.&.&.&.&.-.-.-.-.-.-.-.-.-.*.-.-.-.-.-.-.-.t.6.6.6.;.t.t.6.6.t.t.t.t.t.t.6.t.t.6.6.t.6.6.t.t.t.6.6.t.t.t.t.t.t.y.t.t.t.e.e.;.t.y.s.t.t.y.t.t.t.y.t.t.s.t.t.s.t.t.t.t.f.s.s.t.e.s.f.s.t.t.t.s.f.s.s.f.f.f.f.d.f.f.f.f.d.f.d.f.s.s.t.t.t.s.s.s.f.f.f.h.h.f.s.s.s.s.s.s.s.s.s.s.s.s.s.s.s.s.f.f.f.f.f.f.h.h.h.f.s.s.f.f.f.h.f.f.f.s.f.f.t.t.t.t.t.e.t.t.t.t.t.e.e.-.-.-.-.-.-.-.-.-.-.-.*.&.&.#.#.#.#.#.#.@.&.&.#.#.#.#.#.&.@.a.a.a.a.a.a.a.a.a.a.a.a.a.a.a.a.a.a.a.a.a.a.a.a.a.a.a.a.a.a.a.a.a.a.a.a.a.a.a.a.a.a.a.a.a.a.a.a.a.a.a.a.a.a.a.a.a.a.a.a.a.a.a.a.a.a.a.a.a.a.a.a.a.a.a.a.a.a.a.a.a.a.a.a.a.a.a.a.a.a.a.a.a.a.a.a.a.a.a.a.a.",
"a.a.a.a.a.a.a.a.a.a.a.a.a.].M.d.y.z.z.z.z.v.v.M.M.M.M.z.7.5.1.[ C 6 s f f 9 3 , g F N B W ] ..*.-.-. .G  .*.#.W A R / W F S B Z S C m l l d t t 8 6 5 3 < , > > : * * % & * * & O O o               . . . . . . + o X o O & & - - - - : : : - - * - : # # O O o o .   + a.a.a.a.a.a.a.a.a.a.a.a.a.a.a.a.a.a.a.a.a.a.a.a.a.a.a.a.a.a.a.a.a.a.a.a.a.a.a.a.a.a.a.a.a.a.a.a.a.a.a.a.a.a.a.a.a.a.a.a.a.a.a.a.a.a.a.a.a.a.a.a.a.a.a.a.a.a.a.a.a.a.a.a.a.a.a.a.a.a.a.a.a.a.a.a.a.a.a.a.a.a.a.a.a.a.< 4 6 9 s h d l C Z Z Z S F F G G U T T E E / ^ E / / / / / / / _ ` ` ` ` ` ` ` } } } } } } } @. .}  .@.#.#.#.#.&.&.#.*.-.-.&.-.-.-.-.-.-.-.-.-.-.-.-.-.4.4.-.-.-.4.6.t.6.6.t.t.6.t.t.6.6.t.6.t.t.t.t.t.t.t.t.6.t.t.t.t.t.t.y.t.t.t.t.t.e.e.e.t.t.t.t.t.t.t.t.t.t.t.s.t.t.s.f.s.s.s.s.s.t.t.s.y.t.s.t.t.t.s.f.t.y.s.f.k.g.f.g.g.f.g.f.f.f.f.f.f.f.s.s.f.s.f.t.f.f.d.h.f.f.f.s.s.s.s.t.t.f.s.t.s.f.s.f.f.f.f.f.h.f.f.h.g.s.s.f.f.s.f.f.s.s.f.s.s.s.s.s.t.t.t.s.s.t.e.e.e.e.e.e.e.-.;.;.-.-.-.-.-.-.-.*.&.&.&.#.#.#.&.&.#.#.#.@.#.#.#.#.#.&.&.a.a.a.a.a.a.a.a.a.a.a.a.a.a.a.a.a.a.a.a.a.a.a.a.a.a.a.a.a.a.a.a.a.a.a.a.a.a.a.a.a.a.a.a.a.a.a.a.a.a.a.a.a.a.a.a.a.a.a.a.a.a.a.a.a.a.a.a.a.a.a.a.a.a.a.a.a.a.a.a.a.a.a.a.a.a.a.a.a.a.a.a.a.a.a.a.a.a.a.a.",
"a.a.a.a.a.a.a.a.a.a.a.a.a.M.z.7.i.z.z.z.z.v.M.M.M.b.b.z.z.5.2.X.Y 9 s h f q 8 - 6 n E C B E ]  .*.-.1./ G  ... .G A R W P S B B C C N k d h t 9 7 5 < , ; - - * * % o o o o o o o .                                           . . X . X     o X .   . . . . . O O a.a.a.a.a.a.a.a.a.a.a.a.a.a.a.a.a.a.a.a.a.a.a.a.a.a.a.a.a.a.a.a.a.a.a.a.a.a.a.a.a.a.a.a.a.a.a.a.a.a.a.a.a.a.a.a.a.a.a.a.a.a.a.a.a.a.a.a.a.a.a.a.a.a.a.a.a.a.a.a.a.a.a.a.a.a.a.a.a.a.a.a.a.a.a.a.a.a.a.a.a.a.a.a.a.a.a.a.a.a., 8 8 p h k l B C C C Z F F G G U T T T R E E E E / / / / / / _ ` ` ` ` ` ` } } } } } } } } } @.}  .@.@.#.&.#.&.&.#.&.-.-.*.-.-.*.-.&.*.*.-.*.-.-.-.-.-.-.-.-.-.6.6.6.6.t.t.6.6.t.t.t.t.t.t.t.6.6.6.6.6.6.6.6.6.t.t.t.t.t.y.t.t.e.t.t.t.t.t.t.e.t.t.t.t.t.t.t.t.t.t.s.f.f.y.t.y.y.t.t.t.t.y.y.s.t.t.s.t.s.s.t.t.y.f.f.f.f.s.h.f.s.f.f.f.h.f.t.s.s.f.f.f.s.s.s.f.s.f.f.s.h.s.s.s.s.s.s.f.s.s.f.s.s.s.f.f.f.h.h.h.f.g.f.h.f.f.f.s.f.f.s.s.s.f.s.f.s.s.t.t.t.t.t.t.e.e.e.e.e.e.t.-.;.e.;.-.*.-.-.-.-.*.*.&.*.&.#.#.@.&.&.%.#.#.#.#.&.&.&.#.-.#.a.a.a.a.a.a.a.a.a.a.a.a.a.a.a.a.a.a.a.a.a.a.a.a.a.a.a.a.a.a.a.a.a.a.a.a.a.a.a.a.a.a.a.a.a.a.a.a.a.a.a.a.a.a.a.a.a.a.a.a.a.a.a.a.a.a.a.a.a.a.a.a.a.a.a.a.a.a.a.a.a.a.a.a.a.a.a.a.a.a.a.a.a.a.a.a.a.a.a.",
"a.a.a.a.a.a.a.a.a.a.a.a.].v.y.7.z.z.z.z.z.v.v.M.v.z.z.z.z.7.2.| ) l 8 k f q 8 ; ; 9 Z / N F W } } *.*.#.T T  . ._ A S W U S B B B B m h h s t 8 6 5 < , - * & % o o o X X .       .                           .                               o O O O a.a.a.a.a.a.a.a.a.a.a.a.a.a.a.a.a.a.a.a.a.a.a.a.a.a.a.a.a.a.a.a.a.a.a.a.a.a.a.a.a.a.a.a.a.a.a.a.a.a.a.a.a.a.a.a.a.a.a.a.a.a.a.a.a.a.a.a.a.a.a.a.a.a.a.a.a.a.a.a.a.a.a.a.a.a.a.a.a.a.a.a.a.a.a.a.a.a.a.a.a.a.a.a.a.a.a.a.a.a.a.a.a.a.a.a., 3 8 t s h l n C C Z S S S F G U T R R R E T T T / / / / / / _ ` ` ` ` ` ` } } } } @.} } } @.@.}  .@.@.#.#.#.#.&.&.#.*.*.-.-.-.*.-.&.*.-.-.-.-.-.-.-.-.-.-.-.-.6.4.4.6.t.t.t.6.6.6.4.6.t.t.t.t.6.4.4.6.6.t.6.6.t.t.t.t.t.t.6.t.t.e.e.t.t.t.t.e.t.s.t.t.t.t.t.y.y.t.t.s.y.t.t.t.y.t.t.t.s.s.f.f.u.s.f.t.y.f.y.t.s.f.t.t.s.f.f.k.f.f.f.f.h.h.f.f.h.h.s.f.s.s.s.s.s.f.s.s.f.s.s.s.f.s.s.s.t.s.s.s.s.t.s.f.f.h.f.f.f.f.f.f.h.f.s.f.f.f.f.f.s.s.s.s.s.s.t.e.e.t.t.e.e.e.e.e.e.e.e.e.;.e.-.-.*.-.-.-.*.&.*.*.-.&.&.#.#.#.&.&.#.#.#.#.@.&.&.#.*.&.#.a.a.a.a.a.a.a.a.a.a.a.a.a.a.a.a.a.a.a.a.a.a.a.a.a.a.a.a.a.a.a.a.a.a.a.a.a.a.a.a.a.a.a.a.a.a.a.a.a.a.a.a.a.a.a.a.a.a.a.a.a.a.a.a.a.a.a.a.a.a.a.a.a.a.a.a.a.a.a.a.a.a.a.a.a.a.a.a.a.a.a.a.a.a.a.a.a.a.",
"a.a.a.a.a.a.a.a.p.a.a.a.M.z.d.d.z.z.z.z.z.z.z.v.z.z.z.z.z.7.2.>.[ Z 5 p h q 9 5 * < s T ] C T ] [  .....} G E  .] U B S U S C B n n m h s t 8 8 6 5 , , - & O O o X X                                       . + O e w w a.a.a.a.a.a.a.a.a.a.a.a.a.a.a.a.a.a.a.a.a.a.a.a.a.a.a.a.a.a.a.a.a.a.a.a.a.a.a.a.a.a.a.a.a.a.a.a.a.a.a.a.a.a.a.a.a.a.a.a.a.a.a.a.a.a.a.a.a.a.a.a.a.a.a.a.a.a.a.a.a.a.a.a.a.a.a.a.a.a.a.a.a.a.a.a.a.a.a.a.a.a.a.a.a.a.a.a.a.a.a.a.a.a.a.a.a.a.a.a.a.a.a.a.a.a.a.a.a.a.a.a., 8 9 t s j l B V Z C S S F F G U T T R T T T T / / / / / / / ` ` ` ` ` ` } } } } } } } } @.@.}  .@.@.#.#.#.#.#.&.#.&.*.-.-.-.-.-.-.-.-.-.-.-.-.-.-.-.-.4.6.-.-.4.6.6.6.6.t.t.6.6.6.6.t.t.t.t.t.6.6.t.t.t.t.t.t.t.t.t.t.y.6.y.t.t.t.t.t.t.t.t.t.t.t.y.t.t.t.y.t.y.t.t.t.t.t.t.s.y.y.t.s.f.s.y.s.f.y.y.s.t.t.t.t.t.t.t.f.f.f.f.f.s.s.s.f.f.s.f.g.k.f.h.s.f.s.t.s.s.s.s.s.s.f.f.f.f.s.s.s.s.s.f.s.f.f.f.h.h.f.f.f.h.f.f.f.h.f.s.h.f.f.f.t.t.t.t.t.s.s.s.t.t.t.t.e.e.e.e.e.e.e.e.e.e.e.e.-.-.-.-.*.*.-.-.&.*.*.#.#.#.&.#.#.#.#.@.#.#.&.&.@.*.#.a.a.a.a.a.a.a.a.a.a.a.a.a.a.a.a.a.a.a.a.a.a.a.a.a.a.a.a.a.a.a.a.a.a.a.a.a.a.a.a.a.a.a.a.a.a.a.a.a.a.a.a.a.a.a.a.a.a.a.a.a.a.a.a.a.a.a.a.a.a.a.a.a.a.a.a.a.a.a.a.a.a.a.a.a.a.a.a.a.a.a.a.a.a.a.a.a.a.",
"a.a.a.a.a.a.a.a.a.a.a.a.x.y.d.z.z.z.z.z.z.z.z.z.z.z.z.z.z.7.2.,.[ R t 9 h s 9 6 , > 6 h E T C W [ .. . . ._ A W ] _ Z B G S C B l k k j s t 8 6 6 3 , , * * % o o X X .                               . + < a.a.a.a.a.a.a.a.a.a.a.a.a.a.a.a.a.a.a.a.a.a.a.a.a.a.a.a.a.a.a.a.a.a.a.a.a.a.a.a.a.a.a.a.a.a.a.a.a.a.a.a.a.a.a.a.a.a.a.a.a.a.a.a.a.a.a.a.a.a.a.a.a.a.a.a.a.a.a.a.a.a.a.a.a.a.a.a.a.a.a.a.a.a.a.a.a.a.a.a.a.a.a.a.a.a.a.a.a.a.a.a.a.a.a.a.a.a.a.a.a.a.a.a.a.a.a.a.a.a.a.a.a.a.a.a.a.a.4 6 8 t s d d m B Z Z Z S F G G U T T T T T E E ^ / / / / / _ ` _ / ` ` ` } ` } } } } }  .@.@.} }  .@.@.#.#.@.#.#.&.*.&.&.&.*.-.-.*.-.-.-.-.-.-.-.-.-.-.6.6.-.4.-.6.6.6.t.t.6.6.6.4.t.4.4.t.t.t.t.t.6.t.t.t.t.t.t.t.6.t.t.t.y.t.e.t.t.t.t.t.t.t.t.t.t.t.t.t.t.t.t.y.t.y.t.s.f.d.u.y.s.s.s.y.y.f.s.t.t.y.t.t.t.f.t.t.t.s.f.f.f.f.s.t.s.s.t.s.f.g.f.f.s.s.f.f.s.s.s.s.s.f.f.f.f.h.f.f.s.s.s.s.f.h.g.h.h.f.h.f.s.f.f.f.f.f.f.f.f.s.s.f.f.s.t.s.t.f.s.s.f.f.t.s.t.t.s.s.s.e.e.e.e.e.e.e.e.-.-.-.=.-.*.-.-.-.*.&.&.&.#.#.@.#.#.@.#.#.#.#.#.#.@.&.*.a.a.a.a.a.a.a.a.a.a.a.a.a.a.a.a.a.a.a.a.a.a.a.a.a.a.a.a.a.a.a.a.a.a.a.a.a.a.a.a.a.a.a.a.a.a.a.a.a.a.a.a.a.a.a.a.a.a.a.a.a.a.a.a.a.a.a.a.a.a.a.a.a.a.a.a.a.a.a.a.a.a.a.a.a.a.a.a.a.a.a.a.a.a.a.a.a.",
"a.a.a.a.a.a.a.a.a.a.a.b.z.y.d.z.z.z.z.d.d.d.d.d.d.z.z.z.z.7.2.>.[ Q B 5 s f s 9 5 - , 8 B / U G ] ...... .] U C W W E B l B B b d s s s t 9 7 6 3 , , - * & % o o o X X                       . . < w a.a.a.a.a.a.a.a.a.a.a.a.a.a.a.a.a.a.a.a.a.a.a.a.a.a.a.a.a.a.a.a.a.a.a.a.a.a.a.a.a.a.a.a.a.a.a.a.a.a.a.a.a.a.a.a.a.a.a.a.a.a.a.a.a.a.a.a.a.a.a.a.a.a.a.a.a.a.a.a.a.a.a.a.a.a.a.a.a.a.a.a.a.a.a.a.a.a.a.a.a.a.a.a.a.a.a.a.a.a.a.a.a.a.a.a.a.a.a.a.a.a.a.a.a.a.a.a.a.a.a.a.a.a.a.a.a.a.a.a.a.< , 8 9 p d d x B C C Z S F G G G T T T T T E E ^ / ^ / / / _ ` / ` ` ` ` ` ` } } } } } } @.} @.@.} @.@.@.#.&.&.&.&.*.&.&.*.-.-.-.-.-.&.*.-.-.-.*.*.-.-.-.-.4.4.4.6.6.6.t.t.4.4.6.t.t.6.t.6.6.t.t.t.t.t.t.t.t.6.t.t.t.t.t.t.t.t.t.t.t.t.t.t.t.t.t.t.t.t.s.t.t.t.y.y.y.y.t.t.t.t.t.t.t.y.y.t.t.y.f.t.t.t.t.t.t.t.f.f.f.f.f.f.t.s.s.s.f.f.f.f.f.s.f.f.f.s.h.s.s.f.s.s.s.f.f.f.f.s.f.f.f.h.f.h.h.h.g.f.h.f.g.f.f.f.f.g.f.f.h.h.f.f.f.f.f.f.f.f.s.f.s.s.f.t.s.f.s.t.t.t.t.t.e.e.e.e.e.e.e.-.-.-.-.-.-.-.*.-.&.&.-.&.&.#.#.@.#.@.#.#.#.#.#.@.@.&.-.*.a.a.a.a.a.a.a.a.a.a.a.a.a.a.a.a.a.a.a.a.a.a.a.a.a.a.a.a.a.a.a.a.a.a.a.a.a.a.a.a.a.a.a.a.a.a.a.a.a.a.a.a.a.a.a.a.a.a.a.a.a.a.a.a.a.a.a.a.a.a.a.a.a.a.a.a.a.a.a.a.a.a.a.a.a.a.a.a.a.a.a.a.a.a.a.a.",
"a.a.a.a.a.a.a.a.a.a.a.b.i.z.d.z.z.z.y.d.y.y.y.d.z.z.z.z.q.7.2.1.[ R S 8 9 s s 9 6 ; & 3 9 B W A G } .. . ._ E C A U U Z l d h h s t 9 9 9 8 5 3 , ; - - & @ o o o X                         + : a.a.a.a.a.a.a.a.a.a.a.a.a.a.a.a.a.a.a.a.a.a.a.a.a.a.a.a.a.a.a.a.a.a.a.a.a.a.a.a.a.a.a.a.a.a.a.a.a.a.a.a.a.a.a.a.a.a.a.a.a.a.a.a.a.a.a.a.a.a.a.a.a.a.a.a.a.a.a.a.a.a.a.a.a.a.a.a.a.a.a.a.a.a.a.a.a.a.a.a.a.a.a.a.a.a.a.a.a.a.a.a.a.a.a.a.a.a.a.a.a.a.a.a.a.a.a.a.a.a.a.a.a.a.a.a.a.a.a.a.a.a.a.a.a.< 5 8 t s d l m B Z A S F F G G T T T T T T T ^ ^ / ^ / / _ ` / ` ` _ ` ` ` } } } } } } } } @. .} @.@.@.#.#.#.#.#.*.*.*.-.-.-.-.-.-.#.&.*.-.*.-.-.-.6.4.-.4.-.4.4.6.6.t.6.4.4.6.t.6.-.6.6.6.6.4.t.t.t.6.6.t.t.t.t.t.s.y.t.t.t.t.t.t.t.t.t.t.t.t.t.t.s.t.t.t.t.f.y.t.t.t.t.t.t.t.t.t.t.t.t.t.t.y.t.y.t.t.t.t.t.y.y.s.s.s.s.s.f.f.s.s.s.f.s.f.f.f.s.s.s.f.s.s.s.s.s.s.f.f.f.f.f.h.g.f.f.f.f.h.g.k.f.f.f.g.g.h.h.g.k.g.k.h.f.f.f.f.f.f.h.f.f.f.f.s.s.s.t.t.f.f.t.e.e.t.t.t.t.e.e.;.e.e.;.-.-.-.-.-.-.-.*.&.&.*.&.&.#.#.@.@.@.@.#.#.#.#.@.@.#.&.#.#.a.a.a.a.a.a.a.a.a.a.a.a.a.a.a.a.a.a.a.a.a.a.a.a.a.a.a.a.a.a.a.a.a.a.a.a.a.a.a.a.a.a.a.a.a.a.a.a.a.a.a.a.a.a.a.a.a.a.a.a.a.a.a.a.a.a.a.a.a.a.a.a.a.a.a.a.a.a.a.a.a.a.a.a.a.a.a.a.a.a.a.a.a.a.a.",
"a.a.a.a.a.a.a.a.a.a.a.x.7.y.7.7.8.d.y.7.7.7.y.d.z.z.z.z.q.7.2.1.[ Q Y s 5 s s 0 9 5 * - 7 9 l G N G ] ] [ W U G B B B C l s p t 8 9 7 6 8 5 3 3 ; - * * $ o o o X X X                     : a.a.a.a.a.a.a.a.a.a.a.a.a.a.a.a.a.a.a.a.a.a.a.a.a.a.a.a.a.a.a.a.a.a.a.a.a.a.a.a.a.a.a.a.a.a.a.a.a.a.a.a.a.a.a.a.a.a.a.a.a.a.a.a.a.a.a.a.a.a.a.a.a.a.a.a.a.a.a.a.a.a.a.a.a.a.a.a.a.a.a.a.a.a.a.a.a.a.a.a.a.a.a.a.a.a.a.a.a.a.a.a.a.a.a.a.a.a.a.a.a.a.a.a.a.a.a.a.a.a.a.a.a.a.a.a.a.a.a.a.a.a.a.a.a.a.a.5 3 6 9 p d j x B C C Z F F G G U U T T T T T ^ ^ / / / / _ ` / ` _ / ` ` ` } } } } } } } } @.}  .@.@.@.#.#.#.#.#.#.&.*.*.-.-.-.-.-.&.&.*.*.-.-.-.4.-.-.-.-.-.4.4.4.6.t.6.4.6.6.6.6.-.-.6.t.6.6.t.t.t.6.6.t.t.t.t.t.y.t.t.t.e.e.e.t.t.t.t.t.e.t.t.y.y.t.t.t.t.y.t.f.t.t.s.y.t.t.t.t.t.y.t.t.t.y.t.t.t.t.t.y.y.t.t.s.s.s.f.s.f.f.t.s.t.s.s.f.f.f.s.s.s.s.t.s.s.s.s.t.f.f.f.s.f.f.f.f.f.f.f.f.h.h.f.f.f.h.h.h.h.g.g.g.h.g.g.f.f.h.h.h.g.h.g.f.f.f.f.f.f.s.s.t.t.t.t.t.t.t.t.t.e.;.;.e.-.;.-.-.-.-.-.-.-.*.&.&.&.&.#.#.@.@.@.@.#.#.#.#.@.&.#.#.#.@...a.a.a.a.a.a.a.a.a.a.a.a.a.a.a.a.a.a.a.a.a.a.a.a.a.a.a.a.a.a.a.a.a.a.a.a.a.a.a.a.a.a.a.a.a.a.a.a.a.a.a.a.a.a.a.a.a.a.a.a.a.a.a.a.a.a.a.a.a.a.a.a.a.a.a.a.a.a.a.a.a.a.a.a.a.a.a.a.a.a.a.a.a.a.",
"a.a.a.a.a.a.a.a.a.a.a.i.7.7.7.7.8.7.7.5.7.7.7.q.y.q.z.d.8.7.2.1.| ) Y B 5 8 9 9 9 8 , & > r t n T N A W / E G U J B l l l h t 9 8 6 5 , < < , , = - & $ % o o o X                       < a.a.a.a.a.a.a.a.a.a.a.a.a.p.a.a.a.a.a.a.a.a.a.a.a.a.a.a.a.a.a.a.a.a.a.a.a.a.a.a.a.a.a.a.a.a.a.a.a.a.a.a.a.a.a.a.a.a.a.a.a.a.a.a.a.a.a.a.a.a.a.a.a.a.a.a.a.a.a.a.a.a.a.a.a.a.a.a.a.a.a.a.a.a.a.a.a.a.a.a.a.a.a.a.a.a.a.a.a.a.a.a.a.a.a.a.a.a.a.a.a.a.a.a.a.a.a.a.a.a.a.a.a.a.a.a.a.a.a.a.a.a.a.a.a.a.a.a.a.4 6 8 p s d l B C Z Z S F F G U U T R T E T E E E / / / _ _ _ ` ` ` ` ` ` } } } } } } } @. .} @.@.@.@.@.@.#.&.&.#.#.-.*.-.-.-.*.&.&.&.-.-.-.4.4.4.*.-.-.-.-.-.-.-.4.6.6.6.6.4.4.4.4.6.t.6.6.4.4.t.t.6.t.t.t.t.s.t.t.t.t.t.t.t.t.t.t.y.y.y.t.t.t.s.f.s.t.t.t.t.t.f.s.y.t.y.t.t.s.f.s.s.y.y.y.t.s.s.t.t.t.y.t.t.t.t.t.t.e.t.f.h.f.f.s.y.t.f.f.f.f.f.s.s.s.s.s.s.s.t.s.s.f.f.h.h.f.f.f.f.f.f.f.f.f.f.f.f.f.f.f.h.h.g.f.f.f.g.k.g.h.h.h.h.h.f.f.h.h.h.h.f.f.s.t.t.t.s.t.t.s.t.t.e.e.e.e.;.-.-.-.-.-.-.-.-.*.&.*.&.&.&.@.@.@.#.@.#.*.#.#.#.#.#.#.#.#.#.a.a.a.a.a.a.a.a.a.a.a.a.a.a.a.a.a.a.a.a.a.a.a.a.a.a.a.a.a.a.a.a.a.a.a.a.a.a.a.a.a.a.a.a.a.a.a.a.a.a.a.a.a.a.a.a.a.a.a.a.a.a.a.a.a.a.a.a.a.a.a.a.a.a.a.a.a.a.a.a.a.a.a.a.a.a.a.a.a.a.a.a.a.",
"a.a.a.a.a.a.a.a.a.a.a.8.5.7.3.7.7.7.5.5.7.7.7.7.7.7.7.7.7.5.1.,.| ] Y S t < 9 9 t 9 5 - o , r 9 N T l B F T R S Z S B h h s t 9 6 5 , ; ; - - * * & O o o o o X .                     a.a.a.a.a.a.a.a.a.a.a.a.a.a.a.a.a.a.a.a.a.a.a.a.a.a.a.a.a.a.a.a.a.a.a.a.a.a.a.a.a.a.a.a.a.a.a.a.a.a.a.a.a.a.a.a.a.a.a.a.a.a.a.a.a.a.a.a.a.a.a.a.a.a.a.a.a.a.a.a.a.a.a.a.a.a.a.a.a.a.a.a.a.a.a.a.a.a.a.a.a.a.a.a.a.a.a.a.a.a.a.a.a.a.a.a.a.a.a.a.a.a.a.a.a.a.a.a.a.a.a.a.a.a.a.a.a.a.a.a.a.a.a.a.a.a.a.a.a.a.a., 4 8 p s h l m V Z Z S F F G F G T R R R T T T T ^ / / _ _ ` ` _ _ ` ` ` } }  .} } @. . . .} +.+.@.@.@.@.#.&.&.#.&.-.*.&.-.-.&.&.&.-.-.-.4.4.-.-.*.-.4.-.-.-.4.-.-.4.6.6.6.4.4.6.6.t.t.6.4.4.4.4.t.t.t.t.t.t.y.t.t.t.t.t.y.t.t.y.s.d.s.y.t.t.y.y.y.t.t.t.t.y.t.t.s.y.y.y.t.y.y.d.t.t.y.t.s.t.s.t.y.t.t.t.t.t.t.t.t.e.e.t.s.h.f.f.f.f.f.f.f.h.f.f.f.s.f.f.s.f.f.s.f.f.f.f.f.h.f.f.h.h.h.f.f.f.h.f.f.f.f.f.f.f.h.g.k.h.g.k.k.g.g.g.g.g.g.h.f.f.d.g.f.f.f.f.s.t.y.t.t.t.t.e.e.e.e.e.e.e.;.-.-.-.-.-.-.-.-.-.-.&.*.&.#.#.#.@.@.#.#.#.@.@.#.#.#.&.#.#.<.a.a.a.a.a.a.a.a.a.a.a.a.a.a.a.a.a.a.a.a.a.a.a.a.a.a.a.a.a.a.a.a.a.a.a.a.a.a.a.a.a.a.a.a.a.a.a.a.a.a.a.a.a.a.a.a.a.a.a.a.a.a.a.a.a.a.a.a.a.a.a.a.a.a.a.a.a.a.a.a.a.a.a.a.a.a.a.a.a.a.a.a.",
"a.a.a.a.a.a.a.a.a.a.a.8.2.4.3.5.5.5.5.5.5.5.5.5.5.7.7.5.5.2.1...[ Q T J c < 5 9 8 9 5 , $ o 3 9 9 l S Z l B S B l B Z c h s 9 8 5 3 , ; - * & & & o o o o o o X .                 . a.a.a.a.a.a.a.a.a.a.a.a.a.a.a.a.a.a.a.a.a.a.a.a.a.a.a.a.a.a.a.a.a.a.a.a.a.a.a.a.a.a.a.a.a.a.a.a.a.a.a.a.a.a.a.a.a.a.a.a.a.a.a.a.a.a.a.a.a.a.a.a.a.a.a.a.a.a.a.a.a.a.a.a.a.a.a.a.a.a.a.a.a.a.a.a.a.a.a.a.a.a.a.a.a.a.a.a.a.a.a.a.a.a.a.a.a.a.a.a.a.a.a.a.a.a.a.a.a.a.a.a.a.a.a.a.a.a.a.a.a.a.a.a.a.a.a.a.a.a.a.a.6 3 6 9 s h l m B C C S F F F F G U R R R T T T T ^ / / / _ _ _ _ ` ` ` ` } } } } } } } }  .+. .+.@.#.#.@.#.&.&.&.*.*.&.*.-.-.-.&.&.*.*.-.4.6.-.-.-.-.-.-.-.-.-.-.4.-.-.4.6.6.6.t.6.t.t.-.4.t.6.t.6.t.t.t.t.t.t.y.y.t.t.t.t.t.t.t.t.y.y.t.y.s.s.t.t.t.t.t.t.t.y.f.y.t.t.y.t.y.y.t.t.s.f.y.t.t.s.s.s.d.y.y.f.u.t.t.t.t.f.s.f.f.f.f.s.f.f.f.f.f.d.h.f.f.f.f.f.f.f.f.f.f.h.h.f.h.h.f.f.f.f.f.f.f.f.f.f.h.h.h.h.f.h.h.h.k.k.f.f.f.g.k.k.k.k.g.d.d.f.f.f.f.f.s.f.f.s.s.t.t.t.e.e.e.e.e.e.e.e.;.-.-.-.-.-.-.-.-.-.&.-.*.&.&.#.@.#.@.@.#.@.@.#.#.#.&.#.#...a.a.a.a.a.a.a.a.a.a.a.a.a.a.a.a.a.a.a.a.a.a.a.a.a.a.a.a.a.a.a.a.a.a.a.a.a.a.a.a.a.a.a.a.a.a.a.a.a.a.a.a.a.a.a.a.a.a.a.a.a.a.a.a.a.a.a.a.a.a.a.a.a.a.a.a.a.a.a.a.a.a.a.a.a.a.a.a.a.a.a.a.",
"a.a.a.a.a.a.a.a.a.a.a.5.2.4.4.5.5.5.5.5.5.3.5.2.3.2.2.2.2.1.1...[ Q Y S B t , 8 7 8 5 3 * X o < r s c Z C k h l B N l l d p 9 8 5 , ; - & & & $ o o o o o o X X   .               a.a.a.a.a.a.a.a.a.a.a.a.a.a.a.a.a.a.a.a.a.a.a.a.a.a.a.a.a.a.a.a.a.a.a.a.a.a.a.a.a.a.a.a.a.a.a.a.a.a.a.a.a.a.a.a.a.a.a.a.a.a.a.a.a.a.a.a.a.a.a.a.a.a.a.a.a.a.a.a.a.a.a.a.a.a.a.a.a.a.a.a.a.a.a.a.a.a.a.a.a.a.a.a.a.a.a.a.a.a.a.a.a.a.a.a.a.a.a.a.a.a.a.a.a.a.a.a.a.a.a.a.a.a.a.a.a.a.a.a.a.a.a.a.a.a.a.a.a.a.a.a.a.a.< 5 8 p h j l B C C S S F F F G U T R R T T T T ^ / / / / _ _ _ ` ` ` } } } } } } } } } +.@.+.@.@.#.#.@.#.&.&.#.-.*.&.-.-.&.&.&.&.&.&.-.4.-.-.-.4.-.-.-.-.-.-.4.4.-.-.4.6.6.6.t.6.6.6.4.6.6.6.6.6.t.t.t.t.t.t.t.t.t.t.t.t.d.d.t.t.s.y.y.s.s.t.t.t.t.t.t.t.t.t.y.t.t.t.t.t.t.t.t.t.t.s.y.u.u.t.y.y.s.t.f.f.t.t.e.e.t.u.t.f.f.y.s.y.s.f.f.f.f.d.k.h.h.f.f.f.f.f.f.f.f.f.f.f.f.f.f.h.f.h.f.f.f.f.h.g.g.g.g.g.h.h.h.h.h.h.f.f.f.f.k.g.g.d.d.h.d.f.f.f.f.f.f.f.s.s.t.t.t.t.t.t.t.e.e.e.e.e.;.e.;.-.-.-.-.-.-.-.-.*.-.&.&.#.@.#.#.#.&.#.#.#.@.#.&.#.*.#.#.a.a.a.a.a.a.a.a.a.a.a.a.a.a.a.a.a.a.a.a.a.a.a.a.a.a.a.a.a.a.a.a.a.a.a.a.a.a.a.a.a.a.a.a.a.a.a.a.a.a.a.a.a.a.a.a.a.a.a.a.a.a.a.a.a.a.a.a.a.a.a.a.a.a.a.a.a.a.a.a.a.a.a.a.a.a.a.a.a.a.a.",
"a.a.a.a.a.a.a.a.a.a.a.2.1.1.1.2.2.2.5.5.5.3.2.2.1.1.1.1.1.1.,.| ] Q T S C h 5 < 8 5 5 < > %   o : 5 t k C S B l h h 9 h h p t 6 3 3 , - * & o o o o o o X o o o   .           + a.a.a.a.a.a.a.a.a.a.a.a.a.a.a.a.a.a.a.a.a.a.a.a.a.a.a.a.a.a.a.a.a.a.a.a.a.a.a.a.a.a.a.a.a.a.a.a.a.a.a.a.a.a.a.a.a.a.a.a.a.a.a.a.a.a.a.a.a.a.a.a.a.a.a.a.a.a.a.a.a.a.a.a.a.a.a.a.a.a.a.a.a.a.a.a.a.a.a.a.a.a.a.a.a.a.a.a.a.a.a.a.a.a.a.a.a.a.a.a.a.a.a.a.a.a.a.a.a.a.a.a.a.a.a.a.a.a.a.a.a.a.a.a.a.a.a.a.a.a.a.a.a.a.a., 3 8 t s d l m B B S S S F F G G T R T T T T R ^ ^ / / / _ _ / ` ` ` ` ` ` } } } } }  . .+.@.@.@.#.@.@.#.#.&.#.&.*.*.*.-.&.&.&.&.&.&.-.-.*.-.-.-.-.*.-.-.-.4.-.-.-.-.4.6.6.6.t.6.6.6.6.4.6.4.6.6.6.6.t.t.t.t.t.t.t.t.t.t.s.y.t.s.s.y.s.s.t.t.t.t.t.t.t.t.t.t.t.s.t.t.t.t.t.t.t.e.t.s.y.y.y.t.t.s.t.u.s.t.t.t.t.t.t.y.s.h.f.f.s.f.s.f.f.f.f.f.h.h.f.f.f.f.h.h.f.f.f.f.f.f.f.f.f.f.h.h.f.f.f.f.f.h.g.g.g.g.g.g.f.f.h.h.h.h.g.f.f.h.h.f.f.k.h.d.g.d.d.d.f.f.s.y.s.t.s.s.t.t.t.t.e.e.e.e.e.;.e.;.-.-.-.-.-.-.-.-.-.&.&.#.#.#.#.#.&.#.#.#.#.#.&.&.#.#.#.#.a.a.a.a.a.a.a.a.a.a.a.a.a.a.a.a.a.a.a.a.a.a.a.a.a.a.a.a.a.a.a.a.a.a.a.a.a.a.a.a.a.a.a.a.a.a.a.a.a.a.a.a.a.a.a.a.a.a.a.a.a.a.a.a.a.a.a.a.a.a.a.a.a.a.a.a.a.a.a.a.a.a.a.a.a.a.a.a.a.a.",
"a.a.a.a.a.a.a.a.a.a.a.2.1.*.1.1.1.2.5.4.2.2.2.1.1.1.,.,.,.>...| [ ~ W L C c r , 5 5 5 , , - o o o * , 8 s n l l h p 8 9 9 8 7 6 5 3 , ; * * & $ $ o o o o o o X . .         a.a.a.a.a.a.a.a.a.a.a.a.a.a.a.a.a.a.a.a.a.a.a.a.a.a.a.a.a.a.a.a.a.a.a.a.a.a.a.a.a.a.a.a.a.a.a.a.a.a.a.a.a.a.a.a.a.a.a.a.a.a.a.a.a.a.a.a.a.a.a.a.a.a.a.a.a.a.a.a.a.a.a.a.a.a.a.a.a.a.a.a.a.a.a.a.a.a.a.a.a.a.a.a.a.a.a.a.a.a.a.a.a.a.a.a.a.a.a.a.a.a.a.a.a.a.a.a.a.a.a.a.a.a.a.a.a.a.a.a.a.a.a.a.a.a.a.a.a.a.a.a.a.a.a.a.a.a.< 8 9 p d l m B B C Z S F F G U T R T T T T T E ^ / / / _ _ / ` ` ` ` ` ` } } } } }  .+.+.@.@.@.@.@.@.#.#.&.#.#.&.*.&.&.&.&.&.&.&.-.-.-.-.-.-.-.-.-.-.-.-.-.-.4.-.-.4.6.4.6.t.6.6.6.t.6.-.6.6.6.6.6.t.t.t.t.t.t.t.t.t.t.s.t.t.y.t.t.y.t.t.t.t.t.t.t.t.t.t.t.t.t.t.t.t.t.e.-.t.t.t.t.t.t.t.y.s.s.s.y.t.t.t.t.u.t.t.f.h.h.f.s.f.f.s.h.d.h.f.f.f.f.f.f.f.f.f.f.f.f.h.k.h.f.f.f.h.f.g.g.h.h.f.f.h.g.g.g.g.k.g.g.g.f.h.h.h.k.f.f.h.k.k.h.f.d.f.d.g.g.h.k.f.f.s.s.s.y.s.s.s.s.t.t.s.t.t.e.t.e.e.;.-.-.-.;.-.-.-.-.-.-.&.&.&.@.#.#.&.#.#.#.#.#.&.&.#.#.#.#.#.a.a.a.a.a.a.a.a.a.a.a.a.a.a.a.a.a.a.a.a.a.a.a.a.a.a.a.a.a.a.a.a.a.a.a.a.a.a.a.a.a.a.a.a.a.a.a.a.a.a.a.a.a.a.a.a.a.a.a.a.a.a.a.a.a.a.a.a.a.a.a.a.a.a.a.a.a.a.a.a.a.a.a.a.a.a.a.a.a.",
"a.a.a.a.a.a.a.a.a.a.a.>.1.......1.1.1.1.1.1.1.1.>...........X.[ ] ~ E L V c u , , 7 5 3 , > > o . X o - r j C S S B h t 8 8 6 5 < < , = - - * & & & o o o o o X         . a.a.a.a.a.a.a.a.a.a.a.a.a.a.a.a.a.a.a.a.a.a.a.a.a.a.a.a.a.a.a.a.a.a.a.a.a.a.a.a.a.a.a.a.a.a.a.a.a.a.a.a.a.a.a.a.a.a.a.a.a.a.a.a.a.a.a.a.a.a.a.a.a.a.a.a.a.a.a.a.a.a.a.a.a.a.a.a.a.a.a.a.a.a.a.a.a.a.a.a.a.a.a.a.a.a.a.a.a.a.a.a.a.a.a.a.a.a.a.a.a.a.a.a.a.a.a.a.a.a.a.a.a.a.a.a.a.a.a.a.a.a.a.a.a.a.a.a.a.a.a.a.a.a.a.a.a.a.a., 8 9 0 h l l m C C C A F F F U T T T T T T T T ^ ^ / / _ _ / ` _ ` ` ` } ` } ] } } +.@.+.+.@.+.+.@.@.#.#.&.#.&.&.&.&.&.-.-.#.&.*.-.-.-.-.*.-.-.-.-.-.-.-.-.4.-.-.-.t.6.4.4.6.6.6.t.t.6.-.4.t.t.6.t.6.t.t.t.t.t.t.t.t.t.t.y.t.t.t.t.t.t.t.t.t.t.t.y.t.t.t.t.t.t.t.t.t.t.;.e.t.y.y.t.t.t.t.s.y.y.s.y.t.t.t.t.t.e.u.f.f.f.f.f.f.f.f.f.f.f.f.f.f.f.f.f.f.f.f.f.f.f.g.g.h.f.f.f.f.f.g.g.h.k.k.k.k.f.f.f.h.g.k.g.h.h.h.h.g.k.k.h.h.k.k.k.g.d.f.f.h.h.k.d.f.f.h.f.s.s.s.t.t.t.t.t.t.t.t.t.t.e.e.e.e.-.-.-.-.-.-.-.-.-.-.*.&.&.#.#.&.#.#.&.#.#.&.&.#.#.&.&.@.] a.a.a.a.a.a.a.a.a.a.a.a.a.a.a.a.a.a.a.a.a.a.a.a.a.a.a.a.a.a.a.a.a.a.a.a.a.a.a.a.a.a.a.a.a.a.a.a.a.a.a.a.a.a.a.a.a.a.a.a.a.a.a.a.a.a.a.a.a.a.a.a.a.a.a.a.a.a.a.a.a.a.a.a.a.a.a.a.",
"a.a.a.a.a.a.a.a.a.a.a.X.X.| [ | ..#.<.<.o.......X.X.| | | [ [ ] ] W T S C k u 5 : 2 6 1 , ; - * o     X & , 9 k b x l s 9 8 6 < , , , ; - - - * * & & $ o o o X   .   + a.a.a.a.a.a.a.a.a.a.a.a.a.a.a.a.a.a.a.a.a.a.a.a.a.a.a.a.a.a.a.a.a.a.a.a.a.a.a.a.a.a.a.a.a.a.a.a.a.a.a.a.a.a.a.a.a.a.a.a.a.a.a.a.a.a.a.a.a.a.a.a.a.a.a.a.a.a.a.a.a.a.a.a.a.a.a.a.a.a.a.a.a.a.a.a.a.a.a.a.a.a.a.a.a.a.a.a.a.a.a.a.a.a.a.a.a.a.a.a.a.a.a.a.a.a.a.a.a.a.a.a.a.a.a.a.a.a.a.a.a.a.a.a.a.a.a.a.a.a.a.a.a.a.a.a.a.a.a.a.6 < 8 9 h k l n B C C A F F G G U T T T T T T T E E / / _ _ / _ ` ` ` ` } } } ] } } @.+.+.+.+.+. .@.@.#.#.&.&.#.&.#.#.#.#.&.-.&.-.&.-.-.&.*.-.-.-.*.-.-.-.4.4.-.-.6.t.4.4.4.6.6.t.6.-.-.4.6.6.6.6.6.6.t.t.t.y.t.t.t.t.t.t.y.t.t.t.t.t.t.t.t.t.t.t.y.t.t.t.t.t.y.t.t.t.e.t.t.t.t.s.t.t.s.y.s.y.t.t.t.t.f.u.t.t.t.t.s.f.s.s.f.f.f.f.f.f.f.f.f.f.f.f.f.f.f.f.f.f.f.f.f.f.f.f.f.f.f.g.g.f.k.k.g.f.h.h.h.g.k.k.k.k.k.k.h.g.k.k.k.k.k.k.k.g.k.h.h.k.h.k.d.f.f.h.f.s.s.s.t.t.s.t.t.e.t.t.t.t.t.e.e.e.;.-.-.-.;.-.-.-.-.-.*.&.&.&.#.#.#.#.#.#.&.*.&.&.#.#.#.#.#.a.a.a.a.a.a.a.a.a.a.a.a.a.a.a.a.a.a.a.a.a.a.a.a.a.a.a.a.a.a.a.a.a.a.a.a.a.a.a.a.a.a.a.a.a.a.a.a.a.a.a.a.a.a.a.a.a.a.a.a.a.a.a.a.a.a.a.a.a.a.a.a.a.a.a.a.a.a.a.a.a.a.a.a.a.a.a.a.",
"a.a.a.a.a.a.a.a.a.a.a.Y [ [ ] ] X.....X...X.| [ { { [ [ [ [ [ ] W W T S B h t 7 , - < , , - * & o X       % * < 5 5 8 9 8 8 6 3 , , , , - - - * & & & & o X   .   . a.a.a.a.a.a.a.a.a.a.a.a.a.a.a.a.a.a.a.a.a.a.a.a.a.a.a.a.a.a.a.a.a.a.a.a.a.a.a.a.a.a.a.a.a.a.a.a.a.a.a.a.a.a.a.a.a.a.a.a.a.a.a.a.a.a.a.a.a.a.a.a.a.a.a.a.a.a.a.a.a.a.a.a.a.a.a.a.a.a.a.a.a.a.a.a.a.a.a.a.a.a.a.a.a.a.a.a.a.a.a.a.a.a.a.a.a.a.a.a.a.a.a.a.a.a.a.a.a.a.a.a.a.a.a.a.a.a.a.a.a.a.a.a.a.a.a.a.a.a.a.a.a.a.a.a.a.a.a.a.a.a.a., 8 9 s d l l B C C S S S P U G T T E T T E ^ / / / / / / _ / ` ` ` ` } } } } }  .@. . .+.+. .+.@.@.@.@.&.#.@.&.#.#.&.&.-.-.&.&.&.&.&.&.*.-.&.-.*.*.-.6.t.4.-.-.6.6.4.-.-.6.6.6.-.4.t.t.4.6.t.t.6.6.t.t.t.t.t.t.t.t.t.t.t.t.t.t.t.t.t.t.t.t.y.t.t.t.t.t.t.t.t.y.s.t.e.t.t.e.t.t.t.t.s.y.s.f.f.s.t.t.s.t.t.t.s.s.f.s.t.s.s.f.f.d.k.f.f.f.f.f.f.f.f.f.h.h.h.h.f.h.f.f.h.g.g.k.f.h.g.g.g.g.g.h.k.h.h.k.k.k.k.h.k.k.g.g.g.k.k.k.k.k.k.k.k.k.k.f.f.k.k.d.d.f.f.f.s.s.s.s.s.s.e.e.t.t.e.t.t.t.e.e.e.e.-.-.;.-.-.-.-.-.*.&.&.&.&.&.#.@.#.#.#.#.&.&.&.&.#.#.@...a.a.a.a.a.a.a.a.a.a.a.a.a.a.a.a.a.a.a.a.a.a.a.a.a.a.a.a.a.a.a.a.a.a.a.a.a.a.a.a.a.a.a.a.a.a.a.a.a.a.a.a.a.a.a.a.a.a.a.a.a.a.a.a.a.a.a.a.a.a.a.a.a.a.a.a.a.a.a.a.a.a.a.a.a.a.a.",
"a.a.a.a.a.a.a.a.a.a.a.a.Q ] Q Q ] [ [ [ [ ] [ ] ] ] ] Q Q Q W W R R U Z B h t 7 , @ > , > = * $ o   .       o O - > , < 3 5 5 5 < , , - - * & & & & & @ o o . o a.a.a.a.a.a.a.a.a.a.a.a.a.a.a.a.a.a.a.a.a.a.a.a.a.a.a.a.a.a.a.a.a.a.a.a.a.a.a.a.a.a.a.a.a.a.a.a.a.a.a.a.a.a.a.a.a.a.a.a.a.a.a.a.a.a.a.a.a.a.a.a.a.a.a.a.a.a.a.a.a.a.a.a.a.a.a.a.a.a.a.a.a.a.a.a.a.a.a.a.a.a.a.a.a.a.a.a.a.a.a.a.a.a.a.a.a.a.a.a.a.a.a.a.a.a.a.a.a.a.a.a.a.a.a.a.a.a.a.a.a.a.a.a.a.a.a.a.a.a.a.a.a.a.a.a.a.a.a.a.a.a.a.a.a.5 4 8 t d l l m B C Z C F F U G T R E E T ^ / / / / / _ _ _ / ` ` ` ` ` }  .} } } }  . . .+. . .@. .@.@.@.#.#.&.#.#.&.&.&.-.&.&.-.*.&.&.*.*.#.-.-.-.-.-.-.-.-.-.4.-.-.-.6.4.-.4.4.6.6.6.4.4.t.t.4.6.t.t.t.t.t.t.t.t.t.t.t.t.t.t.t.t.t.t.t.t.t.t.t.t.t.t.t.t.t.t.t.t.t.y.y.t.t.y.s.s.t.t.s.f.f.f.s.t.s.s.s.s.s.s.f.f.f.f.f.h.d.d.d.f.f.f.f.f.f.f.f.d.g.d.d.g.d.d.d.d.d.g.g.h.f.h.h.g.g.g.g.h.h.k.k.h.g.k.k.k.k.g.g.g.k.k.k.h.h.k.f.f.g.k.h.f.k.k.k.d.d.f.f.f.s.s.s.t.t.t.t.t.t.t.t.t.t.t.e.e.e.t.;.-.;.;.-.-.-.-.-.*.*.&.&.&.&.&.#.#.#.#.#.#.#.&.&.&.#.....a.a.a.a.a.a.a.a.a.a.a.a.a.a.a.a.a.a.a.a.a.a.a.a.a.a.a.a.a.a.a.a.a.a.a.a.a.a.a.a.a.a.a.a.a.a.a.a.a.a.a.a.a.a.a.a.a.a.a.a.a.a.a.a.a.a.a.a.a.a.a.a.a.a.a.a.a.a.a.a.a.a.a.a.a.a.",
"a.a.a.a.a.a.a.a.a.a.a.a.K Q Q R R Q W Q W Q W W W R R R W Y Y Y Y U J V c l t 7 1 - $ - - - * % o X X             o O * * : : , > : - * * * & & & $ o o . + : a.a.a.a.a.a.a.a.a.a.a.a.a.a.a.a.a.a.a.a.a.a.a.a.a.a.a.a.a.a.a.a.a.a.a.a.a.a.a.a.a.a.a.a.a.a.a.a.a.a.a.a.a.a.a.a.a.a.a.a.a.a.a.a.a.a.a.a.a.a.a.a.a.a.a.a.a.a.a.a.a.a.a.a.a.a.a.a.a.a.a.a.a.a.a.a.a.a.a.a.a.a.a.a.a.a.a.a.a.a.a.a.a.a.a.a.a.a.a.a.a.a.a.a.a.a.a.a.a.a.a.a.a.a.a.a.a.a.a.a.a.a.a.a.a.a.a.a.a.a.a.a.a.a.a.a.a.a.a.a.a.a.a.a.a.a.e 4 8 t s d l n B B C C S F U G T T E R T E / / / / / / _ _ ` ` ` ` ` ` } } } } } } +. . .@. .@.@.+.#.#.#.#.#.&.#.&.&.&.-.&.&.&.-.&.&.&.&.&.&.-.-.*.-.-.-.-.-.-.-.-.*.-.4.-.-.6.4.6.6.6.6.6.t.6.6.6.6.t.t.t.t.t.t.t.t.t.t.t.t.t.t.t.6.t.t.t.t.t.t.e.t.t.t.t.t.t.t.t.y.t.y.y.y.y.t.y.t.t.f.s.s.s.t.s.s.s.f.s.s.s.f.f.s.s.s.f.d.g.f.d.f.f.f.d.f.f.f.k.k.d.f.f.f.d.d.d.d.g.g.k.h.h.h.h.f.h.h.h.h.k.k.h.h.g.k.k.k.g.g.g.k.k.h.h.h.k.h.f.h.g.h.f.k.h.d.d.f.f.f.f.f.f.s.s.t.t.s.s.t.t.t.t.t.t.t.e.t.e.;.;.;.-.-.-.-.-.-.-.*.*.&.&.&.#.#.#.@.#.#.#.*.&.&.*.#.#.....a.a.a.a.a.a.a.a.a.a.a.a.a.a.a.a.a.a.a.a.a.a.a.a.a.a.a.a.a.a.a.a.a.a.a.a.a.a.a.a.a.a.a.a.a.a.a.a.a.a.a.a.a.a.a.a.a.a.a.a.a.a.a.a.a.a.a.a.a.a.a.a.a.a.a.a.a.a.a.a.a.a.a.a.a.",
"a.a.a.a.a.a.a.a.a.a.a.a.a.Y R Y Y Y Y Y Y Y Y Y Y Y U U U U J J J S D B c l u 9 5 ; , * & $ % & o o X                   . o o O O O O O o o o o X   o + a.a.a.a.a.a.a.a.a.a.a.a.a.a.a.a.a.a.a.a.a.a.a.a.a.a.a.a.a.a.a.a.a.a.a.a.a.a.a.a.a.a.a.a.a.a.a.a.a.a.a.a.a.a.a.a.a.a.a.a.a.a.a.a.a.a.a.a.a.a.a.a.a.a.a.a.a.a.a.a.a.a.a.a.a.a.a.a.a.a.a.a.a.a.a.a.a.a.a.a.a.a.a.a.a.a.a.a.a.a.a.a.a.a.a.a.a.a.a.a.a.a.a.a.a.a.a.a.a.a.a.a.a.a.a.a.a.a.a.a.a.a.a.a.a.a.a.a.a.a.a.a.a.a.a.a.a.a.a.a.a.a.a.a.a.a.a.a.a.a., 5 t s d l l B B C C S S P G T T T T T T ^ / / / / _ _ _ ` ` ` / _ ` } } } } }  .+. . .@.+.@.+. .@.@.#.#.&.#.#.&.&.&.-.-.-.&.&.&.&.#.#.&.-.-.&.-.-.-.-.-.-.-.4.-.-.-.-.-.-.6.6.6.4.4.6.6.6.6.6.6.t.t.t.t.t.t.t.t.t.t.t.t.t.t.t.6.6.t.t.t.t.e.t.t.t.t.t.t.t.t.t.t.t.t.t.y.t.s.s.y.t.s.s.t.t.t.s.f.s.t.s.s.s.s.s.s.s.s.s.f.d.g.f.d.f.h.d.h.f.f.f.f.k.d.d.f.f.d.d.d.d.g.h.k.h.h.h.h.h.h.h.h.k.g.g.k.k.g.k.k.k.k.k.g.k.k.g.g.g.k.k.h.h.k.h.f.k.h.h.d.f.f.f.f.f.f.f.s.s.s.s.t.t.t.t.t.t.t.e.e.t.t.;.;.;.-.-.-.-.-.-.-.-.*.*.*.&.#.#.#.#.#.#.#.&.&.&.&.-.#.#.#.] a.a.a.a.a.a.a.a.a.a.a.a.a.a.a.a.a.a.a.a.a.a.a.a.a.a.a.a.a.a.a.a.a.a.a.a.a.a.a.a.a.a.a.a.a.a.a.a.a.a.a.a.a.a.a.a.a.a.a.a.a.a.a.a.a.a.a.a.a.a.a.a.a.a.a.a.a.a.a.a.a.a.a.a.",
"a.a.a.a.a.a.a.a.a.a.a.a.a.B I Y I U J I I I J J J J K K S S D V V B c c h s 9 5 ; 8 l 5 * & % & % o o                             .             + a.a.a.a.a.a.a.a.a.a.a.a.a.a.a.a.a.a.a.a.a.a.a.a.a.a.a.a.a.a.a.a.a.a.a.a.a.a.a.a.a.a.a.a.a.a.a.a.a.a.a.a.a.a.a.a.a.a.a.a.a.a.a.a.a.a.a.a.a.a.a.a.a.a.a.a.a.a.a.a.a.a.a.a.a.a.a.a.a.a.a.a.a.a.a.a.a.a.a.a.a.a.a.a.a.a.a.a.a.a.a.a.a.a.a.a.a.a.a.a.a.a.a.a.a.a.a.a.a.a.a.a.a.a.a.a.a.a.a.a.a.a.a.a.a.a.a.a.a.a.a.a.a.a.a.a.a.a.a.a.a.a.a.a.a.a.a.a.a.a.a.a.a.6 4 9 t s d l m B C C C S F F U T T T T T ^ ^ / / / _ ` / / ` _ / ` ` } }  .} } }  . . .+.+.+.+.@.@.@.@.#.&.&.#.#.&.-.&.-.-.&.&.&.&.&.&.*.-.-.-.-.-.*.&.-.-.-.-.-.-.-.-.-.4.6.6.6.4.-.-.t.6.6.4.6.t.t.t.t.t.t.t.t.y.t.t.t.t.t.t.t.t.t.t.t.e.e.e.t.t.t.t.t.t.t.t.t.y.t.t.t.t.t.t.t.s.s.t.s.s.t.t.s.s.s.s.s.s.s.s.f.f.f.s.f.f.g.f.f.h.d.d.h.f.f.f.d.d.d.d.d.d.g.g.h.f.g.k.k.h.g.g.k.k.h.h.f.k.g.g.k.k.k.k.k.k.k.k.k.k.k.k.k.g.h.h.k.h.k.k.h.k.g.g.h.d.g.f.g.f.f.s.s.s.s.s.t.t.t.t.t.t.t.t.t.t.;.;.;.;.;.;.-.&.-.-.-.-.*.&.-.&.#.#.#.#.#.#.&.&.&.&.*.*.*.*.*...R a.a.a.a.a.a.a.a.a.a.a.a.a.a.a.a.a.a.a.a.a.a.a.a.a.a.a.a.a.a.a.a.a.a.a.a.a.a.a.a.a.a.a.a.a.a.a.a.a.a.a.a.a.a.a.a.a.a.a.a.a.a.a.a.a.a.a.a.a.a.a.a.a.a.a.a.a.a.a.a.a.a.a.",
"a.a.a.a.a.a.a.a.a.a.a.a.a.a.v I J J D S V D D D D V B B B c x c x x s u 9 8 5 8 B U C s 6 , * * * @ o X                                   o a.a.a.a.a.a.a.a.a.a.a.a.a.a.a.a.a.a.a.a.a.a.a.a.a.a.a.a.a.a.a.a.a.a.a.a.a.a.a.a.a.a.a.a.a.a.a.a.a.a.a.a.a.a.a.a.a.a.a.a.a.a.a.a.a.a.a.a.a.a.a.a.a.a.a.a.a.a.a.a.a.a.a.a.a.a.a.a.a.a.a.a.a.a.a.a.a.a.a.a.a.a.a.a.a.a.a.a.a.a.a.a.a.a.a.a.a.a.a.a.a.a.a.a.a.a.a.a.a.a.a.a.a.a.a.a.a.a.a.a.a.a.a.a.a.a.a.a.a.a.a.a.a.a.a.a.a.a.a.a.a.a.a.a.a.a.a.a.a.a.a.a.a.a.a.a.a., 8 p s d l n m B B C S F F U T T T T T ^ ^ / / / _ _ / / _ / / ` ` ` }  .} } }  .' } +.+. . . .#.@.@.#.#.&.#.#.#.&.&.#.#.&.#.&.&.&.-.*.-.-.-.-.-.*.-.-.-.-.-.-.-.-.-.-.-.6.4.4.6.6.6.t.6.t.t.6.t.t.t.t.t.t.t.t.y.t.t.t.t.t.t.6.t.t.t.t.t.e.e.e.t.e.t.t.e.t.t.t.d.t.t.t.s.y.t.t.s.t.t.t.s.s.s.f.f.s.s.s.f.f.f.f.f.f.s.f.f.h.h.d.d.f.f.f.f.d.d.d.d.d.d.d.d.f.d.h.k.g.k.k.k.g.g.k.k.h.h.k.g.g.k.k.k.k.k.k.k.k.k.k.k.k.k.k.h.k.g.k.k.k.k.k.k.g.h.h.g.k.g.g.f.f.f.s.s.s.s.t.t.t.t.t.t.t.t.t.t.;.;.6.-.6.;.-.-.-.-.-.-.-.-.-.&.&.&.&.&.&.&.#.&.*.&.-.&.*.*.&.....a.a.a.a.a.a.a.a.a.a.a.a.a.a.a.a.a.a.a.a.a.a.a.a.a.a.a.a.a.a.a.a.a.a.a.a.a.a.a.a.a.a.a.a.a.a.a.a.a.a.a.a.a.a.a.a.a.a.a.a.a.a.a.a.a.a.a.a.a.a.a.a.a.a.a.a.a.a.a.a.a.a.a.",
"a.a.a.a.a.a.a.a.a.a.a.a.a.a.a.a.K J D B B B m B c x j g h s s s s t 8 5 1 5 f T _ G C h 8 < = * * o o X     .                   .   a.a.a.a.a.a.a.a.a.a.a.a.a.a.a.a.a.a.a.a.a.a.a.a.a.a.a.a.a.a.a.a.a.a.a.a.a.a.a.a.a.a.a.a.a.a.a.a.a.a.a.a.a.a.a.a.a.a.a.a.a.a.a.a.a.a.a.a.a.a.a.a.a.a.a.a.a.a.a.a.a.a.a.a.a.a.a.a.a.a.a.a.a.a.a.a.a.a.a.a.a.a.a.a.a.a.a.a.a.a.a.a.a.a.a.a.a.a.a.a.a.a.a.a.a.a.a.a.a.a.a.a.a.a.a.a.a.a.a.a.a.a.a.a.a.a.a.a.a.a.a.a.a.a.a.a.a.a.a.a.a.a.a.a.a.a.a.a.a.a.a.a.a.a.a.a.a.a.a.a.a.< 5 t s s d l m B B C S S F G U T T T E ^ / / / / _ / / / / / _ ` ` ` } } } } +. .' '  . . . .+.@.@.@.#.#.#.&.#.&.&.&.#.&.&.#.&.#.&.-.-.-.*.*.&.*.-.-.-.-.-.-.-.-.-.4.-.6.4.-.-.6.t.6.6.4.6.6.6.t.t.6.t.t.t.t.6.t.t.6.t.t.6.6.6.t.t.t.t.t.t.t.t.t.t.t.t.e.t.t.t.t.y.y.t.t.s.t.s.s.t.t.y.s.s.s.f.f.s.s.s.f.h.f.s.f.f.f.f.f.g.g.f.f.h.f.d.d.d.d.d.f.g.f.g.g.f.h.h.k.g.h.k.k.k.k.k.k.g.g.k.k.k.k.k.k.k.k.k.k.k.k.k.k.k.k.k.k.k.k.k.k.k.k.k.g.k.h.f.k.k.g.h.f.f.f.f.f.s.s.s.t.t.t.t.t.t.t.t.t.t.6.6.;.;.;.;.4.-.-.*.-.-.-.-.-.-.&.&.&.&.&.#.*.*.*.*.&.&.&.&.&.#.] a.a.a.a.a.a.a.a.a.a.a.a.a.a.a.a.a.a.a.a.a.a.a.a.a.a.a.a.a.a.a.a.a.a.a.a.a.a.a.a.a.a.a.a.a.a.a.a.a.a.a.a.a.a.a.a.a.a.a.a.a.a.a.a.a.a.a.a.a.a.a.a.a.a.a.a.a.a.a.a.a.a.",
"a.a.a.a.a.a.a.a.a.a.a.a.a.a.a.a.a.m V B B x x x g d t t r r r 7 7 3 , , 6 l G U S B l t 6 , - - * o X                     a.a.a.a.a.a.a.a.a.a.a.a.a.a.a.a.a.a.a.a.a.a.a.a.a.a.a.a.a.a.a.a.a.a.a.a.a.a.a.a.a.a.a.a.a.a.a.a.a.a.a.a.a.a.a.a.a.a.a.a.a.a.a.a.a.a.a.a.a.a.a.a.a.a.a.a.a.a.a.a.a.a.a.a.a.a.a.a.a.a.a.a.a.a.a.a.a.a.a.a.a.a.a.a.a.a.a.a.a.a.a.a.a.a.a.a.a.a.a.a.a.a.a.a.a.a.a.a.a.a.a.a.a.a.a.a.a.a.a.a.a.a.a.a.a.a.a.a.a.a.a.a.a.a.a.a.a.a.a.a.a.a.a.a.a.a.a.a.a.a.a.a.a.a.a.a.a.a.a.a.a.a.a.a.a.a.w 5 t p s d k m B B C S S F G U U T R T ^ ^ / / / / _ / / / _ ` ` ` ` } } } } } +.' '  .+.+.@.+.@.@.#.#.#.#.&.&.#.#.&.&.#.#.&.#.#.#.&.&.&.*.&.&.*.-.-.-.-.-.-.-.-.-.4.4.4.-.-.4.6.4.6.6.4.6.t.6.t.t.6.t.t.t.t.6.t.t.t.t.6.t.6.t.t.t.t.t.e.t.t.t.t.t.e.t.t.e.t.y.t.y.t.t.t.t.y.t.t.t.t.s.s.s.s.s.s.s.f.f.f.f.f.f.f.f.f.f.f.d.g.g.f.f.f.d.k.g.g.g.d.g.g.g.k.h.f.g.h.h.g.k.k.k.k.k.k.g.k.k.k.k.k.k.k.k.k.k.k.k.k.k.k.k.k.k.h.k.k.h.k.k.k.h.g.k.h.h.k.k.g.h.h.f.s.f.f.f.s.s.t.y.t.t.t.t.t.t.t.t.6.6.6.;.-.;.-.-.-.-.-.-.-.&.-.&.&.#.#.&.&.&.-.-.-.-.&.*.*.&.&.#...] a.a.a.a.a.a.a.a.a.a.a.a.a.a.a.a.a.a.a.a.a.a.a.a.a.a.a.a.a.a.a.a.a.a.a.a.a.a.a.a.a.a.a.a.a.a.a.a.a.a.a.a.a.a.a.a.a.a.a.a.a.a.a.a.a.a.a.a.a.a.a.a.a.a.a.a.a.a.a.a.a.",
"a.a.a.a.a.a.a.a.a.a.a.a.a.a.a.a.a.a.a.x c x l x d u t r 7 6 2 < , - - 3 t s l h s 9 8 < > * * @ o .     a.a.a.a.a.a.a.a.a.a.a.a.a.a.a.a.a.a.a.a.a.a.a.a.a.a.a.a.a.a.a.a.a.a.a.a.a.a.a.a.a.a.a.a.a.a.a.a.a.a.a.a.a.a.a.a.a.a.a.a.a.a.a.a.a.a.a.a.a.a.a.a.a.a.a.a.a.a.a.a.a.a.a.a.a.a.a.a.a.a.a.a.a.a.a.a.a.a.a.a.a.a.a.a.a.a.a.a.a.a.a.a.a.a.a.a.a.a.a.a.a.a.a.a.a.a.a.a.a.a.a.a.a.a.a.a.a.a.a.a.a.a.a.a.a.a.a.a.a.a.a.a.a.a.a.a.a.a.a.a.a.a.a.a.a.a.a.a.a.a.a.a.a.a.a.a.a.a.a.a.a.a.a.a.a.a.a.a.a.a.a.a.a.a.a.a.3 9 t s h l n m B B Z S F F G U T R T T E ^ / / / _ / / _ ` ` _ ` ` } } } @.} } '  . . .+.@.+.+.+.@.#.@.#.&.&.#.#.&.&.#.@.#.&.&.&.&.-.&.*.&.&.-.-.-.-.-.-.-.-.-.4.-.-.-.-.4.6.6.4.4.6.-.;.t.t.t.6.t.6.6.6.6.6.t.s.t.t.t.t.t.t.6.t.t.t.t.t.t.t.t.e.e.t.t.t.e.t.t.t.t.t.t.t.t.t.t.t.y.s.t.s.s.s.s.s.f.f.f.f.f.f.f.f.f.f.f.d.d.d.h.d.d.d.d.f.f.h.h.f.f.k.k.k.k.k.h.k.k.k.k.g.k.k.k.g.k.k.k.k.k.k.k.k.k.k.k.k.k.k.k.k.k.k.k.k.k.h.g.g.h.h.k.k.k.k.k.k.k.k.h.f.f.f.f.f.f.f.s.s.y.y.t.t.t.t.t.t.e.e.e.e.-.;.-.-.-.-.-.-.-.-.-.-.-.&.&.&.&.&.-.-.&.-.&.&.&.&.-.-.#...U a.a.a.a.a.a.a.a.a.a.a.a.a.a.a.a.a.a.a.a.a.a.a.a.a.a.a.a.a.a.a.a.a.a.a.a.a.a.a.a.a.a.a.a.a.a.a.a.a.a.a.a.a.a.a.a.a.a.a.a.a.a.a.a.a.a.a.a.a.a.a.a.a.a.a.a.a.a.a.a.",
"a.a.a.a.a.a.a.a.a.a.a.a.a.a.a.a.a.a.a.a.a.a.d i y t r w w 6 w r 6 7 6 > , , < 4 a.a.a.a.a.a.a.a.a.a.a.a.a.a.a.a.a.a.a.a.a.a.a.a.a.a.a.a.a.a.a.a.a.a.a.a.a.a.a.a.a.a.a.a.a.a.a.a.a.a.a.a.a.a.a.a.a.a.a.a.a.a.a.a.a.a.a.a.a.a.a.a.a.a.a.a.a.a.a.a.a.a.a.a.a.a.a.a.a.a.a.a.a.a.a.a.a.a.a.a.a.a.a.a.a.a.a.a.a.a.a.a.a.a.a.a.a.a.a.a.a.a.a.a.a.a.a.a.a.a.a.a.a.a.a.a.a.a.a.a.a.a.a.a.a.a.a.a.a.a.a.a.a.a.a.a.a.a.a.a.a.a.a.a.a.a.a.a.a.a.a.a.a.a.a.a.a.a.a.a.a.a.a.a.a.a.a.a.a.a.a.a.a.a.a.a.a.a.a.a.a.a.a.a.a.a.a.a.6 8 9 p h k l n B B C F S F G P U T T T T E / / / _ / / _ ` _ _ ` ` } } } } } ' ' }  . .+. .@.+.@.#.@.@.&.#.&.&.#.&.&.#.#.#.&.&.&.*.-.&.-.*.-.-.-.-.-.-.-.*.-.-.-.-.-.-.-.-.4.6.6.-.-.6.t.6.6.t.t.t.;.6.t.t.t.t.t.t.t.t.t.t.t.t.t.t.t.t.t.t.t.t.e.e.t.t.t.e.e.e.t.t.t.t.t.t.t.t.t.y.t.t.s.s.s.s.s.f.s.s.f.h.f.f.f.d.d.f.f.f.f.d.d.d.d.d.f.f.f.k.k.f.k.f.f.k.k.h.k.k.g.h.h.k.k.k.k.k.k.k.g.k.k.k.g.k.k.k.k.k.k.k.k.k.k.k.k.k.k.g.g.h.h.k.k.k.k.k.k.k.k.h.f.f.f.f.h.f.f.s.s.y.y.t.t.t.t.t.e.e.e.e.e.;.;.-.-.-.-.-.-.;.;.-.-.-.-.-.-.&.&.&.&.&.&.*.#.@.#.:.:.*.&...a.a.a.a.a.a.a.a.a.a.a.a.a.a.a.a.a.a.a.a.a.a.a.a.a.a.a.a.a.a.a.a.a.a.a.a.a.a.a.a.a.a.a.a.a.a.a.a.a.a.a.a.a.a.a.a.a.a.a.a.a.a.a.a.a.a.a.a.a.a.a.a.a.a.a.a.a.a.a.a.",
"a.a.a.a.a.a.a.a.a.a.a.a.a.a.a.a.a.a.a.a.a.a.a.a.a.a.a.a.a.a.a.a.a.a.a.a.a.a.a.a.a.a.a.a.a.a.a.a.a.a.a.a.a.a.a.a.a.a.a.a.a.a.a.a.a.a.a.a.a.a.a.a.a.a.a.a.a.a.a.a.a.a.a.a.a.a.a.a.a.a.a.a.a.a.a.a.a.a.a.a.a.a.a.a.a.a.a.a.a.a.a.a.a.a.a.a.a.a.a.a.a.a.a.a.a.a.a.a.a.a.a.a.a.a.a.a.a.a.a.a.a.a.a.a.a.a.a.a.a.a.a.a.a.a.a.a.a.a.a.a.a.a.a.a.a.a.a.a.a.a.a.a.a.a.a.a.a.a.a.a.a.a.a.a.a.a.a.a.a.a.a.a.a.a.a.a.a.a.a.a.a.a.a.a.a.a.a.a.a.a.a.a.a.a.a.a.a.a.a.a.a.a.a.a.a.a.a.a.a.a.a.a.a.a.a.a.a.a.a.a.a.a.a.a.a.a.a.a.p 5 7 t s d l n m m C S S F F F G T T T T T / / / _ / ^ / _ _ ` ` ` ` ] } } } } ' '  .+.+. .@.@.#.#.@.@.#.@.#.&.#.#.#.#.#.#.&.&.&.&.&.*.*.*.*.-.-.-.-.-.-.-.-.-.-.-.-.-.4.4.-.-.4.-.-.t.6.6.6.t.t.t.6.t.t.t.t.t.6.6.6.t.t.t.t.t.t.s.t.t.t.t.t.6.e.t.t.t.t.e.e.e.t.t.t.t.t.t.t.t.t.t.t.s.f.s.s.s.f.f.f.f.d.d.f.f.f.d.d.d.f.d.d.d.d.d.f.d.k.f.h.k.k.k.k.k.k.k.k.k.k.k.k.k.k.k.k.k.k.k.k.k.k.k.k.k.k.k.k.k.k.k.k.k.k.k.k.k.k.k.k.k.k.k.k.k.k.g.k.k.k.k.k.f.h.h.f.f.f.f.f.f.f.t.y.y.t.t.t.t.t.e.e.e.e.;.-.-.-.-.;.-.;.4.-.-.-.-.-.-.-.-.-.&.&.&.#.#.#.#.&.&.&.&.*.#.] a.a.a.a.a.a.a.a.a.a.a.a.a.a.a.a.a.a.a.a.a.a.a.a.a.a.a.a.a.a.a.a.a.a.a.a.a.a.a.a.a.a.a.a.a.a.a.a.a.a.a.a.a.a.a.a.a.a.a.a.a.a.a.a.a.a.a.a.a.a.a.a.a.a.a.a.a.a.a.",
"a.a.a.a.a.a.a.a.a.a.a.a.a.a.a.a.a.a.a.a.a.a.a.a.a.a.a.a.a.a.a.a.a.a.a.a.a.a.a.a.a.a.a.a.a.a.a.a.a.a.a.a.a.a.a.a.a.a.a.a.a.a.a.a.a.a.a.a.a.a.a.a.a.a.a.a.a.a.a.a.a.a.a.a.a.a.a.a.a.a.a.a.a.a.a.a.a.a.a.a.a.a.a.a.a.a.a.a.a.a.a.a.a.a.a.a.a.a.a.a.a.a.a.a.a.a.a.a.a.a.a.a.a.a.a.a.a.a.a.a.a.a.a.a.a.a.a.a.a.a.a.a.a.a.a.a.a.a.a.a.a.a.a.a.a.a.a.a.a.a.a.a.a.a.a.a.a.a.a.a.a.a.a.a.a.a.a.a.a.a.a.a.a.a.a.a.a.a.a.a.a.a.a.a.a.a.a.a.a.a.a.a.a.a.a.a.a.a.a.a.a.a.a.a.a.a.a.a.a.a.a.a.a.a.a.a.a.a.a.a.a.a.a.a.a.a.a.a.a.1 6 9 s h k l B B C Z C F F F G T T T T T / / / / / / / _ _ _ ` ` ` ] } } }  .' '  . .+.+.+.@.@.@.@.@.@.#.#.#.#.#.@.#.#.@.&.&.&.&.#.-.*.*.-.-.-.*.-.-.-.-.-.-.-.-.-.-.4.4.-.-.-.-.6.t.6.t.t.t.t.6.t.t.6.t.t.t.t.t.6.6.t.t.t.t.t.y.t.t.t.;.e.t.t.t.e.t.t.e.e.e.t.t.t.e.t.t.t.t.t.t.t.s.s.s.s.f.f.f.h.f.f.d.f.f.f.d.d.d.f.f.d.d.d.f.f.f.f.f.h.k.g.g.g.k.h.g.k.k.k.k.k.g.k.k.g.k.k.k.k.k.k.g.k.k.k.k.k.k.V.k.k.k.k.k.k.k.k.k.k.k.k.k.k.k.k.g.k.g.k.k.k.f.h.h.h.f.f.f.f.f.f.y.y.y.t.t.t.t.t.e.e.e.e.;.;.-.-.;.;.;.-.;.;.-.-.-.-.-.-.-.-.*.&.#.&.#.#.#.#.&.&.&.&.#.#.] a.a.a.a.a.a.a.a.a.a.a.a.a.a.a.a.a.a.a.a.a.a.a.a.a.a.a.a.a.a.a.a.a.a.a.a.a.a.a.a.a.a.a.a.a.a.a.a.a.a.a.a.a.a.a.a.a.a.a.a.a.a.a.a.a.a.a.a.a.a.a.a.a.a.a.a.a.a.",
"a.a.a.a.a.a.a.a.a.a.a.a.a.a.a.a.a.a.a.a.a.a.a.a.a.a.a.a.a.a.a.a.a.a.a.a.a.a.a.a.a.a.a.a.a.a.a.a.a.a.a.a.a.a.a.a.a.a.a.a.a.a.a.a.a.a.a.a.a.a.a.a.a.a.a.a.a.a.a.a.a.a.a.a.a.a.a.a.a.a.a.a.a.a.a.a.a.a.a.a.a.a.a.a.a.a.a.a.a.a.a.a.a.a.a.a.a.a.a.a.a.a.a.a.a.a.a.a.a.a.a.a.a.a.a.a.a.a.a.a.a.a.a.a.a.a.a.a.a.a.a.a.a.a.a.a.a.a.a.a.a.a.a.a.a.a.a.a.a.a.a.a.a.a.a.a.a.a.a.a.a.a.a.a.a.a.a.a.a.a.a.a.a.a.a.a.a.a.a.a.a.a.a.a.a.a.a.a.a.a.a.a.a.a.a.a.a.a.a.a.a.a.a.a.a.a.a.a.a.a.a.a.a.a.a.a.a.a.a.a.a.a.a.a.a.a.a.a.a.7 3 8 t h k l m B C C C F F F G U T T T T / / / / / / / / _ _ _ ` ` ] } } } } } }  . . .+. .+.@.@.#.@.@.#.#.#.#.#.@.#.#.#.*.&.&.&.#.-.*.&.&.-.-.-.-.-.-.-.-.-.-.-.-.-.-.4.-.-.-.4.t.t.t.t.6.6.t.6.t.t.t.t.6.6.6.t.t.t.t.t.t.t.t.t.t.t.t.e.e.t.t.t.t.e.t.t.e.t.t.t.t.e.t.t.t.t.t.t.y.s.s.s.s.f.f.f.f.f.f.f.f.d.k.d.f.f.g.f.f.d.d.d.k.f.g.g.h.g.k.g.k.k.k.k.k.k.k.k.k.g.k.k.k.k.k.k.k.k.k.k.k.k.k.k.k.k.k.k.k.k.k.k.k.k.k.k.k.g.k.k.k.k.k.k.k.h.k.k.g.f.f.h.f.f.f.s.f.f.f.t.y.y.t.t.t.t.e.e.e.;.e.;.;.-.-.;.-.;.;.;.;.-.-.-.-.*.*.*.-.-.&.&.&.&.&.#.#.#.#.#.&.&.&.*.a.a.a.a.a.a.a.a.a.a.a.a.a.a.a.a.a.a.a.a.a.a.a.a.a.a.a.a.a.a.a.a.a.a.a.a.a.a.a.a.a.a.a.a.a.a.a.a.a.a.a.a.a.a.a.a.a.a.a.a.a.a.a.a.a.a.a.a.a.a.a.a.a.a.a.a.a.a.",
"a.a.a.a.a.a.a.a.a.a.a.a.a.a.a.a.a.a.a.a.a.a.a.a.a.a.a.a.a.a.a.a.a.a.a.a.a.a.a.a.a.a.a.a.a.a.a.a.a.a.a.a.a.a.a.a.a.a.a.a.a.a.a.a.a.a.a.a.a.a.a.a.a.a.a.a.a.a.a.a.a.a.a.a.a.a.a.a.a.a.a.a.a.a.a.a.a.a.a.a.a.a.a.a.a.a.a.a.a.a.a.a.a.a.a.a.a.a.a.a.a.a.a.a.a.a.a.a.a.a.a.a.a.a.a.a.a.a.a.a.a.a.a.a.a.a.a.a.a.a.a.a.a.a.a.a.a.a.a.a.a.a.a.a.a.a.a.a.a.a.a.a.a.a.a.a.a.a.a.a.a.a.a.a.a.a.a.a.a.a.a.a.a.a.a.a.a.a.a.a.a.a.a.a.a.a.a.a.a.a.a.a.a.a.a.a.a.a.a.a.a.a.a.a.a.a.a.a.a.a.a.a.a.a.a.a.a.a.a.a.a.a.a.a.a.a.a.a.a.r 3 6 t s k l n B C C C S F F G U U T T T / / / / / / / _ _ _ _ ` ` ] ` } } ` ' ' +. . . .@.+.@.@.@.@.@.@.#.@.@.#.#.#.#.&.&.#.#.&.&.&.*.*.&.*.-.-.-.-.-.-.-.-.-.-.-.-.-.4.-.-.4.4.t.t.t.t.;.6.t.t.t.t.t.t.6.6.t.t.t.t.t.6.t.t.t.t.t.t.t.t.t.t.t.t.t.t.t.t.e.t.t.t.e.t.t.t.t.t.t.t.t.s.s.s.s.f.f.f.f.f.f.f.f.d.d.d.f.h.d.d.f.f.d.k.k.k.g.k.k.g.k.k.k.k.k.k.k.k.k.k.k.k.k.k.k.k.g.k.k.k.k.k.k.k.k.k.k.k.k.k.k.k.k.k.k.k.k.k.k.g.k.k.h.k.k.k.k.k.k.g.h.h.h.h.f.f.f.f.h.f.f.f.s.y.t.t.t.t.t.e.e.e.e.;.;.w.-.;.-.6.;.;.;.-.-.-.-.-.-.-.-.-.-.&.&.&.&.@.#.#.#.#.#.&.*.*.#.a.a.a.a.a.a.a.a.a.a.a.a.a.a.a.a.a.a.a.a.a.a.a.a.a.a.a.a.a.a.a.a.a.a.a.a.a.a.a.a.a.a.a.a.a.a.a.a.a.a.a.a.a.a.a.a.a.a.a.a.a.a.a.a.a.a.a.a.a.a.a.a.a.a.a.a.a.",
"a.a.a.a.a.a.a.a.a.a.a.a.a.a.a.a.a.a.a.a.a.a.a.a.a.a.a.a.a.a.a.a.a.a.a.a.a.a.a.a.a.a.a.a.a.a.a.a.a.a.a.a.a.a.a.a.a.a.a.a.a.a.a.a.a.a.a.a.a.a.a.a.a.a.a.a.a.a.a.a.a.a.a.a.a.a.a.a.a.a.a.a.a.a.a.a.a.a.a.a.a.a.a.a.a.a.a.a.a.a.a.a.a.a.a.a.a.a.a.a.a.a.a.a.a.a.a.a.a.a.a.a.a.a.a.a.a.a.a.a.a.a.a.a.a.a.a.a.a.a.a.a.a.a.a.a.a.a.a.a.a.a.a.a.a.a.a.a.a.a.a.a.a.a.a.a.a.a.a.a.a.a.a.a.a.a.a.a.a.a.a.a.a.a.a.a.a.a.a.a.a.a.a.a.a.a.a.a.a.a.a.a.a.a.a.a.a.a.a.a.a.a.a.a.a.a.a.a.a.a.a.a.a.a.a.a.a.a.a.a.a.a.a.a.a.a.a.a.a.a.4 4 t s d l l B C C C S F F G U U T T T T T / / / ^ / / _ _ _ ` ` ` ` ` } ' } ' +.+. .+.@.+.@.@.@.@.@.@.#.#.#.#.#.#.#.&.*.@.#.&.&.&.&.-.-.*.-.-.-.-.*.-.-.-.-.-.-.-.-.4.6.6.-.-.t.6.t.t.6.t.t.t.t.t.t.t.6.6.t.t.t.t.t.t.t.t.t.t.t.t.t.t.t.t.t.t.t.t.t.e.e.t.t.t.t.t.t.t.t.t.y.t.s.s.s.s.s.f.f.f.f.f.f.f.f.f.f.f.f.d.h.g.g.h.h.g.k.g.k.k.k.k.k.k.k.k.k.k.k.k.k.k.k.k.g.k.k.k.k.k.k.k.k.k.k.g.k.k.k.V.k.k.k.k.k.k.k.k.k.k.k.k.k.g.h.k.k.k.k.k.k.h.h.f.f.f.f.f.f.f.f.f.f.s.t.s.t.t.t.y.t.t.e.t.e.e.;.-.-.;.;.;.;.;.;.-.-.-.-.-.-.-.-.-.-.*.&.*.&.#.#.&.&.&.*.#.&.&.@.] a.a.a.a.a.a.a.a.a.a.a.a.a.a.a.a.a.a.a.a.a.a.a.a.a.a.a.a.a.a.a.a.a.a.a.a.a.a.a.a.a.a.a.a.a.a.a.a.a.a.a.a.a.a.a.a.a.a.a.a.a.a.a.a.a.a.a.a.a.a.a.a.a.a.a.a.",
"a.a.a.a.a.a.a.a.a.a.a.a.a.a.a.a.a.a.a.a.a.a.a.a.a.a.a.a.a.a.a.a.a.a.a.a.a.a.a.a.a.a.a.a.a.a.a.a.a.a.a.a.a.a.a.a.a.a.a.a.a.a.a.a.a.a.a.a.a.a.a.a.a.a.a.a.a.a.a.a.a.a.a.a.a.a.a.a.a.a.a.a.a.a.a.a.a.a.a.a.a.a.a.a.a.a.a.a.a.a.a.a.a.a.a.a.a.a.a.a.a.a.a.a.a.a.a.a.a.a.a.a.a.a.a.a.a.a.a.a.a.a.a.a.a.a.a.a.a.a.a.a.a.a.a.a.a.a.a.a.a.a.a.a.a.a.a.a.a.a.a.a.a.a.a.a.a.a.a.a.a.a.a.a.a.a.a.a.a.a.a.a.a.a.a.a.a.a.a.a.a.a.a.a.a.a.a.a.a.a.a.a.a.a.a.a.a.a.a.a.a.a.a.a.a.a.a.a.a.a.a.a.a.a.a.a.a.a.a.a.a.a.a.a.a.a.a.a.a.a.e 4 t s h k l m C C C A F F F G U U T T T T / / ^ ^ / / _ ` _ ` ` ` ` ` ` } ' } +.+.} +.@.@.@.@.@.@.@.#.#.#.#.&.&.#.#.#.&.#.&.&.&.&.-.-.&.-.-.-.-.-.-.-.-.-.-.-.-.-.-.4.6.6.-.-.6.6.t.t.t.t.t.t.6.t.t.6.6.6.t.t.t.t.t.t.t.t.t.t.t.t.t.t.e.t.t.t.e.t.e.e.e.t.t.t.t.t.t.t.t.t.t.t.s.f.s.s.s.f.f.f.f.h.f.f.f.f.f.h.f.f.k.g.g.g.k.k.k.k.k.k.k.k.k.k.k.k.k.k.h.k.k.h.g.k.k.k.k.k.k.k.k.k.k.k.k.g.k.k.k.k.k.k.k.k.k.k.k.k.k.k.k.k.k.k.g.k.k.k.k.k.k.h.h.f.h.f.f.f.f.h.h.f.f.s.y.s.s.t.t.t.t.t.t.e.e.e.e.-.-.;.-.-.;.;.;.-.-.-.-.-.-.-.-.-.-.*.-.-.&.#.&.&.&.&.*.&.@.@.#.#.a.a.a.a.a.a.a.a.a.a.a.a.a.a.a.a.a.a.a.a.a.a.a.a.a.a.a.a.a.a.a.a.a.a.a.a.a.a.a.a.a.a.a.a.a.a.a.a.a.a.a.a.a.a.a.a.a.a.a.a.a.a.a.a.a.a.a.a.a.a.a.a.a.a.a.a.",
"a.a.a.a.a.a.a.a.a.a.a.a.a.a.a.a.a.a.a.a.a.a.a.a.a.a.a.a.a.a.a.a.a.a.a.a.a.a.a.a.a.a.a.a.a.a.a.a.a.a.a.a.a.a.a.a.a.a.a.a.a.a.a.a.a.a.a.a.a.a.a.a.a.a.a.a.a.a.a.a.a.a.a.a.a.a.a.a.a.a.a.a.a.a.a.a.a.a.a.a.a.a.a.a.a.a.a.a.a.a.a.a.a.a.a.a.a.a.a.a.a.a.a.a.a.a.a.a.a.a.a.a.a.a.a.a.a.a.a.a.a.a.a.a.a.a.a.a.a.a.a.a.a.a.a.a.a.a.a.a.a.a.a.a.a.a.a.a.a.a.a.a.a.a.a.a.a.a.a.a.a.a.a.a.a.a.a.a.a.a.a.a.a.a.a.a.a.a.a.a.a.a.a.a.a.a.a.a.a.a.a.a.a.a.a.a.a.a.a.a.a.a.a.a.a.a.a.a.a.a.a.a.a.a.a.a.a.a.a.a.a.a.a.a.a.a.a.a.a.a.y 4 7 t s h l n C C C S S S P G U U T T T E / _ / / / / _ _ ` ` ` ` ` ` } } } } '  .+. .+.@.@.@.#.@.@.&.@.@.#.&.#.#.#.@.#.#.&.&.&.-.-.&.&.-.-.-.-.-.-.-.-.-.-.-.-.-.4.4.4.6.6.-.;.6.6.6.6.6.6.6.6.6.6.6.6.6.t.t.6.t.t.t.t.t.t.t.t.e.e.e.t.t.t.t.e.t.e.e.e.t.t.e.t.t.t.t.t.s.s.f.f.s.s.s.s.s.s.f.f.f.f.f.f.f.d.f.g.f.h.k.g.g.f.k.k.g.k.k.k.h.g.k.k.k.k.k.k.k.k.k.k.k.k.k.k.k.k.k.k.k.k.k.k.k.k.k.k.k.k.k.k.k.k.k.k.k.k.k.h.k.k.k.h.k.k.k.k.k.k.k.h.g.k.g.g.h.f.h.h.f.f.f.f.f.f.f.s.t.t.t.t.t.t.t.t.-.-.;.-.6.-.-.-.-.-.;.-.-.-.-.-.-.-.-.-.-.-.-.&.&.&.&.&.#.&.@.*.#...a.a.a.a.a.a.a.a.a.a.a.a.a.a.a.a.a.a.a.a.a.a.a.a.a.a.a.a.a.a.a.a.a.a.a.a.a.a.a.a.a.a.a.a.a.a.a.a.a.a.a.a.a.a.a.a.a.a.a.a.a.a.a.a.a.a.a.a.a.a.a.a.a.a.a.",
"a.a.a.a.a.a.a.a.a.a.a.a.a.a.a.a.a.a.a.a.a.a.a.a.a.a.a.a.a.a.a.a.a.a.a.a.a.a.a.a.a.a.a.a.a.a.a.a.a.a.a.a.a.a.a.a.a.a.a.a.a.a.a.a.a.a.a.a.a.a.a.a.a.a.a.a.a.a.a.a.a.a.a.a.a.a.a.a.a.a.a.a.a.a.a.a.a.a.a.a.a.a.a.a.a.a.a.a.a.a.a.a.a.a.a.a.a.a.a.a.a.a.a.a.a.a.a.a.a.a.a.a.a.a.a.a.a.a.a.a.a.a.a.a.a.a.a.a.a.a.a.a.a.a.a.a.a.a.a.a.a.a.a.a.a.a.a.a.a.a.a.a.a.a.a.a.a.a.a.a.a.a.a.a.a.a.a.a.a.a.a.a.a.a.a.a.a.a.a.a.a.a.a.a.a.a.a.a.a.a.a.a.a.a.a.a.a.a.a.a.a.a.a.a.a.a.a.a.a.a.a.a.a.a.a.a.a.a.a.a.a.a.a.a.a.a.a.a.a.a.a.7 5 9 p h j l B C B S Z F F P U T U T E E / / _ / _ _ _ _ ` ` ` ` ` ` } } ` ' '  .+.+.@.+.@.+.@.@.@.#.#.@.@.@.#.#.@.@.#.#.&.&.&.-.-.-.-.-.*.*.-.-.-.-.-.-.-.-.-.-.-.-.-.6.4.4.6.6.6.6.6.6.4.4.6.6.6.6.t.t.t.6.t.t.t.t.t.t.y.y.t.-.;.e.e.e.e.t.e.t.t.t.t.e.t.t.t.t.t.t.t.s.s.s.s.s.s.s.s.s.s.f.f.f.f.s.f.h.f.f.h.f.h.h.g.g.h.h.h.h.h.k.k.k.g.g.g.k.k.k.k.k.k.k.k.k.k.k.k.k.k.k.k.k.k.k.k.k.k.k.k.k.k.k.k.k.k.k.k.k.k.k.k.k.k.k.k.k.k.k.k.k.k.k.k.g.k.h.g.h.h.f.f.f.f.s.s.s.f.f.s.t.t.t.t.t.t.t.t.t.6.6.6.;.;.-.-.;.;.;.6.-.-.-.-.-.-.-.-.-.-.-.&.&.&.#.#.&.&.&.&.#.#.] a.a.a.a.a.a.a.a.a.a.a.a.a.a.a.a.a.a.a.a.a.a.a.a.a.a.a.a.a.a.a.a.a.a.a.a.a.a.a.a.a.a.a.a.a.a.a.a.a.a.a.a.a.a.a.a.a.a.a.a.a.a.a.a.a.a.a.a.a.a.a.a.a.a.",
"a.a.a.a.a.a.a.a.a.a.a.a.a.a.a.a.a.a.a.a.a.a.a.a.a.a.a.a.a.a.a.a.a.a.a.a.a.a.a.a.a.a.a.a.a.a.a.a.a.a.a.a.a.a.a.a.a.a.a.a.a.a.a.a.a.a.a.a.a.a.a.a.a.a.a.a.a.a.a.a.a.a.a.a.a.a.a.a.a.a.a.a.a.a.a.a.a.a.a.a.a.a.a.a.a.a.a.a.a.a.a.a.a.a.a.a.a.a.a.a.a.a.a.a.a.a.a.a.a.a.a.a.a.a.a.a.a.a.a.a.a.a.a.a.a.a.a.a.a.a.a.a.a.a.a.a.a.a.a.a.a.a.a.a.a.a.a.a.a.a.a.a.a.a.a.a.a.a.a.a.a.a.a.a.a.a.a.a.a.a.a.a.a.a.a.a.a.a.a.a.a.a.a.a.a.a.a.a.a.a.a.a.a.a.a.a.a.a.a.a.a.a.a.a.a.a.a.a.a.a.a.a.a.a.a.a.a.a.a.a.a.a.a.a.a.a.a.a.a.a.a.e 5 9 p s d l m B B Z C F F F U T T R E E / / / / / ` _ _ _ ` ` ` _ ` } } ` `  .' '  .+.@.@.@.@.@.@.@.#.#.#.@.#.#.@.#.#.#.#.&.&.&.-.&.*.*.&.*.-.-.-.-.-.-.-.-.-.-.-.-.-.-.-.-.6.4.-.6.6.6.-.4.6.t.-.-.t.t.6.t.t.t.6.t.t.t.t.6.6.e.e.e.e.t.e.t.t.t.t.t.t.t.t.t.t.s.t.t.t.s.s.s.f.f.s.f.f.s.f.f.f.f.f.f.f.h.f.f.f.f.h.f.g.g.h.f.f.g.g.k.k.k.g.g.g.k.k.k.k.k.k.k.k.k.k.k.k.k.k.k.k.k.k.k.k.k.k.k.k.k.k.k.k.k.k.k.k.k.k.k.k.k.k.k.k.k.k.k.k.h.k.g.h.g.k.h.h.h.h.f.f.f.f.s.s.s.f.f.s.y.t.t.t.t.t.t.t.t.t.6.6.6.;.;.-.;.;.;.;.6.6.6.6.-.-.-.-.-.-.-.*.&.&.&.&.*.&.&.&.&. ...Y a.a.a.a.a.a.a.a.a.a.a.a.a.a.a.a.a.a.a.a.a.a.a.a.a.a.a.a.a.a.a.a.a.a.a.a.a.a.a.a.a.a.a.a.a.a.a.a.a.a.a.a.a.a.a.a.a.a.a.a.a.a.a.a.a.a.a.a.a.a.a.a.a.",
"a.a.a.a.a.a.a.a.a.a.a.a.a.a.a.a.a.a.a.a.a.a.a.a.a.a.a.a.a.a.a.a.a.a.a.a.a.a.a.a.a.a.a.a.a.a.a.a.a.a.a.a.a.a.a.a.a.a.a.a.a.a.a.a.a.a.a.a.a.a.a.a.a.a.a.a.a.a.a.a.a.a.a.a.a.a.a.a.a.a.a.a.a.a.a.a.a.a.a.a.a.a.a.a.a.a.a.a.a.a.a.a.a.a.a.a.a.a.a.a.a.a.a.a.a.a.a.a.a.a.a.a.a.a.a.a.a.a.a.a.a.a.a.a.a.a.a.a.a.a.a.a.a.a.a.a.a.a.a.a.a.a.a.a.a.a.a.a.a.a.a.a.a.a.a.a.a.a.a.a.a.a.a.a.a.a.a.a.a.a.a.a.a.a.a.a.a.a.a.a.a.a.a.a.a.a.a.a.a.a.a.a.a.a.a.a.a.a.a.a.a.a.a.a.a.a.a.a.a.a.a.a.a.a.a.a.a.a.a.a.a.a.a.a.a.a.a.a.a.a.a.y 4 8 t s s d l B B C C S F F G U T T E E / / / / / _ _ _ _ ` ` ` ` ` } } ` ` ` ' '  .@.+.+.@.@.@.@.@.#.#.#.#.#.#.#.&.#.#.#.#.&.&.&.&.&.#.*.-.-.-.-.-.-.-.-.-.-.-.-.-.-.-.-.-.-.4.6.4.4.6.4.4.6.6.6.6.t.t.t.t.t.t.t.t.t.y.t.t.t.t.e.e.t.t.t.t.t.t.t.t.t.t.t.t.t.s.s.s.t.t.s.s.f.f.s.s.f.s.f.f.f.f.f.f.f.h.f.f.f.f.h.h.g.h.h.h.g.g.g.k.k.g.k.g.g.k.k.k.k.k.k.k.k.k.k.k.k.k.k.k.k.k.k.k.k.k.k.k.k.k.V.V.k.k.k.k.k.k.k.k.k.k.k.k.k.k.k.V.k.k.k.k.f.g.k.h.h.k.h.h.d.f.f.s.s.s.f.f.f.y.y.y.t.e.t.t.e.t.6.6.6.6.6.6.;.6.6.-.-.;.6.;.;.-.-.-.-.-.-.*.*.*.*.*.*.*.-.&.&.&.&.....a.a.a.a.a.a.a.a.a.a.a.a.a.a.a.a.a.a.a.a.a.a.a.a.a.a.a.a.a.a.a.a.a.a.a.a.a.a.a.a.a.a.a.a.a.a.a.a.a.a.a.a.a.a.a.a.a.a.a.a.a.a.a.a.a.a.a.a.a.a.a.a.a.",
"a.a.a.a.a.a.a.a.a.a.a.a.a.a.a.a.a.a.a.a.a.a.a.a.a.a.a.a.a.a.a.a.a.a.a.a.a.a.a.a.a.a.a.a.a.a.a.a.a.a.a.a.a.a.a.a.a.a.a.a.a.a.a.a.a.a.a.a.a.a.a.a.a.a.a.a.a.a.a.a.a.a.a.a.a.a.a.a.a.a.a.a.a.a.a.a.a.a.a.a.a.a.a.a.a.a.a.a.a.a.a.a.a.a.a.a.a.a.a.a.a.a.a.a.a.a.a.a.a.a.a.a.a.a.a.a.a.a.a.a.a.a.a.a.a.a.a.a.a.a.a.a.a.a.a.a.a.a.a.a.a.a.a.a.a.a.a.a.a.a.a.a.a.a.a.a.a.a.a.a.a.a.a.a.a.a.a.a.a.a.a.a.a.a.a.a.a.a.a.a.a.a.a.a.a.a.a.a.a.a.a.a.a.a.a.a.a.a.a.a.a.a.a.a.a.a.a.a.a.a.a.a.a.a.a.a.a.a.a.a.a.a.a.a.a.a.a.a.a.a.a.a.5 5 9 p h k l B B C Z F F F U U T E E E E / / / / _ _ _ _ _ ` ` ` ` } } ` `  . . . .+.+.+.@.@.@.@.@.#.#.@.@.@.#.&.#.@.#.&.&.&.&.&.&.#.&.*.-.*.*.-.-.-.-.-.-.-.-.-.-.-.-.-.-.-.-.6.-.-.4.4.4.;.;.6.6.6.t.t.t.6.t.t.t.t.t.t.t.t.e.e.t.t.t.t.t.t.t.e.e.t.t.t.t.t.s.t.t.t.s.s.s.s.s.s.s.f.f.f.f.f.f.f.f.f.f.f.f.f.f.h.h.f.f.f.k.k.k.k.k.k.k.g.g.k.k.k.k.k.k.k.k.k.k.k.k.k.k.k.k.k.k.k.k.k.k.V.k.k.k.k.k.V.V.k.V.V.V.V.k.k.k.k.k.k.k.k.k.k.k.k.k.k.k.k.k.k.h.k.k.f.f.f.s.t.s.s.s.f.s.s.s.t.t.t.t.e.t.6.6.6.6.6.;.;.;.;.-.-.-.-.-.-.-.-.-.-.-.-.*.*.-.-.*.&.*.-.-.-.&.#.#.....a.a.a.a.a.a.a.a.a.a.a.a.a.a.a.a.a.a.a.a.a.a.a.a.a.a.a.a.a.a.a.a.a.a.a.a.a.a.a.a.a.a.a.a.a.a.a.a.a.a.a.a.a.a.a.a.a.a.a.a.a.a.a.a.a.a.a.a.a.a.a.a.",
"a.a.a.a.a.a.a.a.a.a.a.a.a.a.a.a.a.a.a.a.a.a.a.a.a.a.a.a.a.a.a.a.a.a.a.a.a.a.a.a.a.a.a.a.a.a.a.a.a.a.a.a.a.a.a.a.a.a.a.a.a.a.a.a.a.a.a.a.a.a.a.a.a.a.a.a.a.a.a.a.a.a.a.a.a.a.a.a.a.a.a.a.a.a.a.a.a.a.a.a.a.a.a.a.a.a.a.a.a.a.a.a.a.a.a.a.a.a.a.a.a.a.a.a.a.a.a.a.a.a.a.a.a.a.a.a.a.a.a.a.a.a.a.a.a.a.a.a.a.a.a.a.a.a.a.a.a.a.a.a.a.a.a.a.a.a.a.a.a.a.a.a.a.a.a.a.a.a.a.a.a.a.a.a.a.a.a.a.a.a.a.a.a.a.a.a.a.a.a.a.a.a.a.a.a.a.a.a.a.a.a.a.a.a.a.a.a.a.a.a.a.a.a.a.a.a.a.a.a.a.a.a.a.a.a.a.a.a.a.a.a.a.a.a.a.a.a.a.a.a.a.a.r 5 8 p h k l m B B C S F F G U T E E E W / / / / _ / _ _ _ _ ` _ ` } ` ` `  . . . .+.+.+.+.@.@.@.#.#.@.@.@.#.&.&.+.#.#.&.&.&.&.&.&.&.&.-.-.-.*.-.-.*.-.-.-.-.-.-.-.-.4.-.-.6.4.-.-.-.-.4.4.6.t.6.6.t.t.t.t.t.t.t.t.t.t.t.t.t.e.e.t.t.t.t.t.t.e.e.t.t.t.t.t.s.t.t.t.t.s.s.s.s.s.f.f.f.f.f.f.f.f.f.f.f.f.f.f.h.h.h.h.f.f.f.k.k.k.k.k.k.k.k.k.k.k.k.k.k.k.k.k.k.k.k.k.k.k.k.k.k.k.k.k.k.k.k.k.k.k.k.k.k.k.k.k.k.k.k.k.k.k.k.k.k.k.k.k.k.k.k.k.k.h.h.g.h.g.k.g.d.f.f.t.s.f.s.s.s.y.s.t.t.t.t.t.t.t.t.6.6.6.6.6.;.;.;.;.;.-.-.-.-.-.-.-.-.-.-.-.-.*.*.*.&.&.&.&.&.&.&.@.#. ...a.a.a.a.a.a.a.a.a.a.a.a.a.a.a.a.a.a.a.a.a.a.a.a.a.a.a.a.a.a.a.a.a.a.a.a.a.a.a.a.a.a.a.a.a.a.a.a.a.a.a.a.a.a.a.a.a.a.a.a.a.a.a.a.a.a.a.a.a.a.a.",
"a.a.a.a.a.a.a.a.a.a.a.a.a.a.a.a.a.a.a.a.a.a.a.a.a.a.a.a.a.a.a.a.a.a.a.a.a.a.a.a.a.a.a.a.a.a.a.a.a.a.a.a.a.a.a.a.a.a.a.a.a.a.a.a.a.a.a.a.a.a.a.a.a.a.a.a.a.a.a.a.a.a.a.a.a.a.a.a.a.a.a.a.a.a.a.a.a.a.a.a.a.a.a.a.a.a.a.a.a.a.a.a.a.a.a.a.a.a.a.a.a.a.a.a.a.a.a.a.a.a.a.a.a.a.a.a.a.a.a.a.a.a.a.a.a.a.a.a.a.a.a.a.a.a.a.a.a.a.a.a.a.a.a.a.a.a.a.a.a.a.a.a.a.a.a.a.a.a.a.a.a.a.a.a.a.a.a.a.a.a.a.a.a.a.a.a.a.a.a.a.a.a.a.a.a.a.a.a.a.a.a.a.a.a.a.a.a.a.a.a.a.a.a.a.a.a.a.a.a.a.a.a.a.a.a.a.a.a.a.a.a.a.a.a.a.a.a.a.a.a.a.a.a.5 8 p s d l n B C C S S F G U T R E E / / / / / _ / _ _ _ _ ` ` ` } ` ` ` } }  . .+.+.+. .@.@.@.#.#.@.@.@.+.#.&.#.#.@.#.&.#.&.#.#.&.&.-.-.-.-.-.*.-.-.-.-.-.-.-.-.-.4.-.-.6.6.-.-.-.-.4.4.6.6.;.t.t.t.6.6.6.6.t.t.t.t.t.t.t.t.t.t.t.e.t.t.t.e.t.t.t.t.t.t.t.s.s.t.t.s.t.s.s.s.f.f.f.f.f.f.f.f.f.f.f.f.f.h.h.h.f.f.f.f.h.h.k.k.g.g.g.g.k.k.k.k.k.k.k.k.k.k.k.k.k.k.k.k.k.k.k.k.k.k.k.k.k.k.k.k.k.k.k.V.k.V.V.k.k.k.k.k.k.k.k.k.k.k.k.k.k.g.g.h.h.g.f.g.k.k.k.h.f.f.f.f.s.s.t.t.t.t.t.t.t.t.t.t.t.t.6.6.t.6.6.;.;.;.;.;.;.;.;.-.-.-.-.-.-.6.-.-.*.-.*.&.&.&.&.*.&.&.#.@. .a.a.a.a.a.a.a.a.a.a.a.a.a.a.a.a.a.a.a.a.a.a.a.a.a.a.a.a.a.a.a.a.a.a.a.a.a.a.a.a.a.a.a.a.a.a.a.a.a.a.a.a.a.a.a.a.a.a.a.a.a.a.a.a.a.a.a.a.a.a.a.",
"a.a.a.a.a.a.a.a.a.a.a.a.a.a.a.a.a.a.a.a.a.a.a.a.a.a.a.a.a.a.a.a.a.a.a.a.a.a.a.a.a.a.a.a.a.a.a.a.a.a.a.a.a.a.a.a.a.a.a.a.a.a.a.a.a.a.a.a.a.a.a.a.a.a.a.a.a.a.a.a.a.a.a.a.a.a.a.a.a.a.a.a.a.a.a.a.a.a.a.a.a.a.a.a.a.a.a.a.a.a.a.a.a.a.a.a.a.a.a.a.a.a.a.a.a.a.a.a.a.a.a.a.a.a.a.a.a.a.a.a.a.a.a.a.a.a.a.a.a.a.a.a.a.a.a.a.a.a.a.a.a.a.a.a.a.a.a.a.a.a.a.a.a.a.a.a.a.a.a.a.a.a.a.a.a.a.a.a.a.a.a.a.a.a.a.a.a.a.a.a.a.a.a.a.a.a.a.a.a.a.a.a.a.a.a.a.a.a.a.a.a.a.a.a.a.a.a.a.a.a.a.a.a.a.a.a.a.a.a.a.a.a.a.a.a.a.a.a.a.a.a.a.a.5 8 p s j l n B C C A A F F U U R R E / / / / / _ / _ _ _ _ ` ` ` ` ` ` ` ' '  .+. . . .+.@.@.@.#.@.@.@.@.#.#.#.#.@.#.#.#.#.&.#.#.&.&.*.*.-.-.-.-.-.-.-.-.-.-.-.-.-.-.-.-.-.-.-.6.6.-.4.4.-.6.6.6.t.t.6.6.t.y.y.t.t.t.t.t.t.t.t.t.e.e.t.t.t.e.t.t.t.t.t.t.t.s.s.s.s.s.s.s.s.s.f.f.f.f.f.f.f.f.f.f.f.f.f.h.h.h.f.f.f.h.h.h.h.k.g.g.h.g.k.k.k.k.k.k.k.k.k.k.k.k.k.k.k.k.k.k.k.k.k.k.k.k.k.k.k.k.k.k.k.k.k.k.k.k.V.k.k.k.k.k.k.V.k.k.k.k.k.k.k.k.k.k.k.h.d.h.k.h.h.f.f.f.s.s.s.s.y.t.y.t.t.t.t.t.t.t.t.t.6.6.6.6.6.6.6.;.;.;.;.-.-.-.-.-.-.-.-.-.-.-.*.&.-.&.*.:.-.&.&.+.@...a.a.a.a.a.a.a.a.a.a.a.a.a.a.a.a.a.a.a.a.a.a.a.a.a.a.a.a.a.a.a.a.a.a.a.a.a.a.a.a.a.a.a.a.a.a.a.a.a.a.a.a.a.a.a.a.a.a.a.a.a.a.a.a.a.a.a.a.a.a.",
"a.a.a.a.a.a.a.a.a.a.a.a.a.a.a.a.a.a.a.a.a.a.a.a.a.a.a.a.a.a.a.a.a.a.a.a.a.a.a.a.a.a.a.a.a.a.a.a.a.a.a.a.a.a.a.a.a.a.a.a.a.a.a.a.a.a.a.a.a.a.a.a.a.a.a.a.a.a.a.a.a.a.a.a.a.a.a.a.a.a.a.a.a.a.a.a.a.a.a.a.a.a.a.a.a.a.a.a.a.a.a.a.a.a.a.a.a.a.a.a.a.a.a.a.a.a.a.a.a.a.a.a.a.a.a.a.a.a.a.a.a.a.a.a.a.a.a.a.a.a.a.a.a.a.a.a.a.a.a.a.a.a.a.a.a.a.a.a.a.a.a.a.a.a.a.a.a.a.a.a.a.a.a.a.a.a.a.a.a.a.a.a.a.a.a.a.a.a.a.a.a.a.a.a.a.a.a.a.a.a.a.a.a.a.a.a.a.a.a.a.a.a.a.a.a.a.a.a.a.a.a.a.a.a.a.a.a.a.a.a.a.a.a.a.a.a.a.a.a.a.a.a.a.w 5 9 p h d l m B C A S S G G T T T T E E / / / / / / / _ ` _ ` ` } } ` } ' } +. .' } +.@.@.@.@.@.@.#.#.#.#.@.#.#.@.#.#.#.#.&.#.#.&.*.&.-.-.*.-.-.-.-.*.-.-.-.-.-.-.-.-.-.4.4.6.-.4.-.4.-.6.6.6.6.-.-.t.;.t.t.t.t.t.t.e.t.t.t.t.e.e.e.t.t.t.t.t.t.t.t.t.t.t.s.s.s.s.s.s.s.s.s.f.f.f.f.f.f.f.f.f.f.f.f.f.f.h.h.g.f.h.k.g.h.h.k.k.k.k.k.k.k.k.k.k.k.k.k.k.k.k.V.k.k.k.k.k.k.k.V.V.k.k.k.k.V.k.k.k.V.V.Z.V.Z.V.V.V.k.k.k.k.k.k.k.k.k.k.k.k.k.k.k.k.f.k.k.d.h.d.d.h.d.h.f.f.f.s.s.y.y.y.t.t.e.t.t.e.t.e.e.e.e.e.;.;.6.-.-.-.;.;.;.6.-.-.-.-.-.-.-.-.-.-.*.*.-.-.-.-.&.&.#.#.@.| p.a.a.a.a.a.a.a.a.a.a.a.a.a.a.a.a.a.a.a.a.a.a.a.a.a.a.a.a.a.a.a.a.a.a.a.a.a.a.a.a.a.a.a.a.a.a.a.a.a.a.a.a.a.a.a.a.a.a.a.a.a.a.a.a.a.a.a.a.",
"a.a.a.a.a.a.a.a.a.a.a.a.a.a.a.a.a.a.a.a.a.a.a.a.a.a.a.a.a.a.a.a.a.a.a.a.a.a.a.a.a.a.a.a.a.a.a.a.a.a.a.a.a.a.a.a.a.a.a.a.a.a.a.a.a.a.a.a.a.a.a.a.a.a.a.a.a.a.a.a.a.a.a.a.a.a.a.a.a.a.a.a.a.a.a.a.a.a.a.a.a.a.a.a.a.a.a.a.a.a.a.a.a.a.a.a.a.a.a.a.a.a.a.a.a.a.a.a.a.a.a.a.a.a.a.a.a.a.a.a.a.a.a.a.a.a.a.a.a.a.a.a.a.a.a.a.a.a.a.a.a.a.a.a.a.a.a.a.a.a.a.a.a.a.a.a.a.a.a.a.a.a.a.a.a.a.a.a.a.a.a.a.a.a.a.a.a.a.a.a.a.a.a.a.a.a.a.a.a.a.a.a.a.a.a.a.a.a.a.a.a.a.a.a.a.a.a.a.a.a.a.a.a.a.a.a.a.a.a.a.a.a.a.a.a.a.a.a.a.a.a.a.a.a.5 9 9 s h l l B B C Z S F G U G T T E E / / / / / / _ _ / / ] ] } ` } } '  .+.} ' } +.@.@.@.@.@.@.@.@.#.#.#.#.#.#.#.@.#.#.&.#.&.&.&.-.-.*.&.-.-.&.&.&.*.-.-.-.-.-.-.-.-.-.4.4.4.-.4.4.-.6.6.6.6.-.-.;.-.e.e.e.e.e.e.t.e.e.t.t.t.e.e.t.t.e.t.t.t.t.t.t.t.t.s.s.s.s.s.s.s.s.s.f.f.s.f.f.f.f.f.f.f.f.f.f.h.g.h.k.h.h.g.g.g.k.k.k.k.k.k.k.k.k.k.k.k.k.k.k.k.k.k.k.k.V.V.V.V.V.k.V.V.V.V.V.k.V.V.V.V.V.V.A.V.V.V.V.k.k.V.V.V.V.k.k.k.k.k.k.k.k.k.k.k.h.h.h.f.f.d.d.d.d.f.f.f.s.s.s.y.s.t.t.t.t.t.e.e.e.e.e.e.e.6.;.;.-.6.6.-.-.;.;.-.-.-.;.6.6.-.-.;.-.-.-.-.-.&.&.&.*.#.@.@...a.p.a.a.a.a.a.a.a.a.a.a.a.a.a.a.a.a.a.a.a.a.a.a.a.a.a.a.a.a.a.a.a.a.a.a.a.a.a.a.a.a.a.a.a.a.a.a.a.a.a.a.a.a.a.a.a.a.a.a.a.a.a.a.a.a.a.a.a.",
"a.a.a.a.a.a.a.a.a.a.a.a.a.a.a.a.a.a.a.a.a.a.a.a.a.a.a.a.a.a.a.a.a.a.a.a.a.a.a.a.a.a.a.a.a.a.a.a.a.a.a.a.a.a.a.a.a.a.a.a.a.a.a.a.a.a.a.a.a.a.a.a.a.a.a.a.a.a.a.a.a.a.a.a.a.a.a.a.a.a.a.a.a.a.a.a.a.a.a.a.a.a.a.a.a.a.a.a.a.a.a.a.a.a.a.a.a.a.a.a.a.a.a.a.a.a.a.a.a.a.a.a.a.a.a.a.a.a.a.a.a.a.a.a.a.a.a.a.a.a.a.a.a.a.a.a.a.a.a.a.a.a.a.a.a.a.a.a.a.a.a.a.a.a.a.a.a.a.a.a.a.a.a.a.a.a.a.a.a.a.a.a.a.a.a.a.a.a.a.a.a.a.a.a.a.a.a.a.a.a.a.a.a.a.a.a.a.a.a.a.a.a.a.a.a.a.a.a.a.a.a.a.a.a.a.a.a.a.a.a.a.a.a.a.a.a.a.a.a.a.a.a.a.a.< 6 9 s h k l m B C Z S F F U T T T T T ^ / / / / / _ _ _ / ` ] ` ` } }  . . .` '  . .@.@.@.@.@.@.@.@.@.#.#.#.#.#.@.@.#.&.&.&.*.&.&.*.*.*.*.-.-.&.#.&.-.-.-.-.-.-.-.-.4.6.-.4.4.4.4.6.-.6.6.6.6.-.-.;.-.e.e.e.t.t.t.t.e.e.e.e.e.e.e.t.t.e.t.t.t.t.t.t.t.t.s.s.s.s.s.s.s.s.s.f.f.s.f.f.f.f.f.f.h.f.f.f.f.g.f.h.h.h.k.g.g.k.k.k.k.k.k.k.k.k.k.V.k.k.k.k.k.k.k.k.V.V.V.V.Z.Z.k.V.V.V.V.V.k.k.V.V.V.V.V.Z.V.V.Z.V.V.V.V.k.V.V.k.k.k.k.k.k.k.k.k.k.k.k.h.f.f.f.f.d.f.f.f.f.f.f.s.d.t.t.t.t.t.t.t.e.e.e.e.e.e.e.6.6.6.;.;.;.6.-.-.;.-.-.;.;.;.-.-.;.-.-.;.-.-.-.#.@.#.&.#.#.@.@...a.a.a.a.a.a.a.a.a.a.a.a.a.a.a.a.a.a.a.a.a.a.a.a.a.a.a.a.a.a.a.a.a.a.a.a.a.a.a.a.a.a.a.a.a.a.a.a.a.a.a.a.a.a.a.a.a.a.a.a.a.a.a.a.a.a.a.a.",
"a.a.a.a.a.a.a.a.a.a.a.a.a.a.a.a.a.a.a.a.a.a.a.a.a.a.a.a.a.a.a.a.a.a.a.a.a.a.a.a.a.a.a.a.a.a.a.a.a.a.a.a.a.a.a.a.a.a.a.a.a.a.a.a.a.a.a.a.a.a.a.a.a.a.a.a.a.a.a.a.a.a.a.a.a.a.a.a.a.a.a.a.a.a.a.a.a.a.a.a.a.a.a.a.a.a.a.a.a.a.a.a.a.a.a.a.a.a.a.a.a.a.a.a.a.a.a.a.a.a.a.a.a.a.a.a.a.a.a.a.a.a.a.a.a.a.a.a.a.a.a.a.a.a.a.a.a.a.a.a.a.a.a.a.a.a.a.a.a.a.a.a.a.a.a.a.a.a.a.a.a.a.a.a.a.a.a.a.a.a.a.a.a.a.a.a.a.a.a.a.a.a.a.a.a.a.a.a.a.a.a.a.a.a.a.a.a.a.a.a.a.a.a.a.a.a.a.a.a.a.a.a.a.a.a.a.a.a.a.a.a.a.a.a.a.a.a.a.a.a.a.a.a.a.e 5 9 9 s d l m B C C S F G U G T T T T / / / / / / _ ` / ` ` ] ` ` }  . .+. .'  . . .+.@.@.+.@.@.@.@.@.@.@.@.@.@.@.@.@.&.&.*.*.&.&.*.*.*.*.*.&.&.&.-.-.*.-.-.-.-.-.-.-.-.-.-.4.4.4.4.-.6.6.6.6.-.;.;.-.e.e.t.t.t.t.t.t.t.t.e.e.t.t.t.t.t.t.t.t.t.t.t.t.t.s.s.s.s.s.s.s.s.s.f.f.s.f.f.f.f.f.f.f.f.f.f.f.g.f.h.h.h.k.h.g.k.k.k.k.k.k.j.k.k.k.k.k.k.k.k.k.k.V.Z.k.V.V.Z.V.V.V.V.V.V.k.k.V.V.V.V.V.V.A.V.Z.V.V.V.V.A.V.V.V.V.k.k.V.k.k.k.k.k.k.k.k.k.k.h.f.f.d.d.f.f.f.f.f.f.s.s.y.t.t.t.t.t.t.e.e.e.e.e.e.e.6.6.6.6.;.6.;.;.6.;.6.6.6.;.-.-.-.-.-.-.-.-.-.-.*.&.&.#.&.&.#.@. .a.a.a.a.a.a.a.a.a.a.a.a.a.a.a.a.a.a.a.a.a.a.a.a.a.a.a.a.a.a.a.a.a.a.a.a.a.a.a.a.a.a.a.a.a.a.a.a.a.a.a.a.a.a.a.a.a.a.a.a.a.a.a.a.a.a.a.a.",
"a.a.a.a.a.a.a.a.a.a.a.a.a.a.a.a.a.a.a.a.a.a.a.a.a.a.a.a.a.a.a.a.a.a.a.a.a.a.a.a.a.a.a.a.a.a.a.a.a.a.a.a.a.a.a.a.a.a.a.a.a.a.a.a.a.a.a.a.a.a.a.a.a.a.a.a.a.a.a.a.a.a.a.a.a.a.a.a.a.a.a.a.a.a.a.a.a.a.a.a.a.a.a.a.a.a.a.a.a.a.a.a.a.a.a.a.a.a.a.a.a.a.a.a.a.a.a.a.a.a.a.a.a.a.a.a.a.a.a.a.a.a.a.a.a.a.a.a.a.a.a.a.a.a.a.a.a.a.a.a.a.a.a.a.a.a.a.a.a.a.a.a.a.a.a.a.a.a.a.a.a.a.a.a.a.a.a.a.a.a.a.a.a.a.a.a.a.a.a.a.a.a.a.a.a.a.a.a.a.a.a.a.a.a.a.a.a.a.a.a.a.a.a.a.a.a.a.a.a.a.a.a.a.a.a.a.a.a.a.a.a.a.a.a.a.a.a.a.a.a.a.a.a.a.a., 9 t s d k m B C C S F F G U T T T T / / / / / / / / / / _ _ ] ` } } }  .'  . .+.+.@.+. . .@.@.@.@.@.@.@.@.@.@.@.@.@.#.&.*.&.&.-.*.*.&.&.&.&.&.&.-.&.&.-.-.-.-.-.-.-.-.-.4.4.-.4.6.-.6.t.6.t.t.;.;.;.;.t.t.t.e.e.t.t.t.e.e.e.e.t.t.t.t.t.t.t.t.t.t.t.s.s.s.s.t.s.s.s.f.f.f.s.s.f.f.f.f.f.f.f.f.f.h.f.g.g.k.k.k.k.h.k.k.k.k.k.k.k.k.k.k.k.k.k.k.k.V.V.V.V.V.V.k.V.V.V.V.V.V.V.V.k.V.V.V.V.V.V.V.V.V.V.Z.Z.V.V.V.Z.V.V.V.k.k.k.k.k.k.k.k.k.k.k.k.k.k.h.f.d.d.f.f.f.f.f.f.s.y.t.s.t.t.t.t.e.e.e.t.e.e.e.e.6.6.6.6.6.6.6.6.t.6.6.6.6.6.;.-.-.;.;.-.-.-.-.-.-.&.*.&.&.&.#.@.+. .a.a.a.a.a.a.a.a.a.a.a.a.a.a.a.a.a.a.a.a.a.a.a.a.a.a.a.a.a.a.a.a.a.a.a.a.a.a.a.a.a.a.a.a.a.a.a.a.a.a.a.a.a.a.a.a.a.a.a.a.a.a.a.a.a.a.a.",
"a.a.a.a.a.a.a.a.a.a.a.a.a.a.a.a.a.a.a.a.a.a.a.a.a.a.a.a.a.a.a.a.a.a.a.a.a.a.a.a.a.a.a.a.a.a.a.a.a.a.a.a.a.a.a.a.a.a.a.a.a.a.a.a.a.a.a.a.a.a.a.a.a.a.a.a.a.a.a.a.a.a.a.a.a.a.a.a.a.a.a.a.a.a.a.a.a.a.a.a.a.a.a.a.a.a.a.a.a.a.a.a.a.a.a.a.a.a.a.a.a.a.a.a.a.a.a.a.a.a.a.a.a.a.a.a.a.a.a.a.a.a.a.a.a.a.a.a.a.a.a.a.a.a.a.a.a.a.a.a.a.a.a.a.a.a.a.a.a.a.a.a.a.a.a.a.a.a.a.a.a.a.a.a.a.a.a.a.a.a.a.a.a.a.a.a.a.a.a.a.a.a.a.a.a.a.a.a.a.a.a.a.a.a.a.a.a.a.a.a.a.a.a.a.a.a.a.a.a.a.a.a.a.a.a.a.a.a.a.a.a.a.a.a.a.a.a.a.a.a.a.a.a.a.a.< 7 9 p s d n B C C Z F F G U T T T T ^ / / / / / / _ / / _ _ ` ` } } ' } `  . . . . .+.+.+.@.@.@.#.#.@.@.#.#.@.#.#.@.#.&.&.&.&.-.-.&.&.&.&.-.-.-.-.&.&.-.*.-.-.-.-.*.-.4.4.-.-.-.6.-.6.t.6.t.t.e.e.;.e.t.t.t.e.e.t.t.t.e.e.e.t.t.t.t.t.t.t.t.y.t.t.t.y.t.s.s.s.s.s.f.f.f.f.s.s.f.f.f.f.h.h.h.f.f.h.h.g.k.k.k.k.g.g.k.k.k.k.k.k.k.k.k.k.k.k.V.V.V.V.Z.V.V.V.V.V.Z.V.V.V.A.V.V.V.V.V.Z.V.V.V.V.V.V.V.V.V.V.V.V.V.V.V.V.V.k.k.k.k.k.k.k.k.k.k.k.k.k.k.f.f.d.d.d.d.f.f.f.f.y.y.t.y.s.t.t.t.e.e.e.e.e.e.e.e.6.6.6.6.6.6.6.6.6.6.6.6.6.6.6.;.;.;.;.;.-.-.-.-.-.*.*.&.#.#.@.@.#.@./ a.a.a.a.a.a.a.a.a.a.a.a.a.a.a.a.a.a.a.a.a.a.a.a.a.a.a.a.a.a.a.a.a.a.a.a.a.a.a.a.a.a.a.a.a.a.a.a.a.a.a.a.a.a.a.a.a.a.a.a.a.a.a.a.a.a.",
"a.a.a.a.a.a.a.a.a.a.a.a.a.a.a.a.a.a.a.a.a.a.a.a.a.a.a.a.a.a.a.a.a.a.a.a.a.a.a.a.a.a.a.a.a.a.a.a.a.a.a.a.a.a.a.a.a.a.a.a.a.a.a.a.a.a.a.a.a.a.a.a.a.a.a.a.a.a.a.a.a.a.a.a.a.a.a.a.a.a.a.a.a.a.a.a.a.a.a.a.a.a.a.a.a.a.a.a.a.a.a.a.a.a.a.a.a.a.a.a.a.a.a.a.a.a.a.a.a.a.a.a.a.a.a.a.a.a.a.a.a.a.a.a.a.a.a.a.a.a.a.a.a.a.a.a.a.a.a.a.a.a.a.a.a.a.a.a.a.a.a.a.a.a.a.a.a.a.a.a.a.a.a.a.a.a.a.a.a.a.a.a.a.a.a.a.a.a.a.a.a.a.a.a.a.a.a.a.a.a.a.a.a.a.a.a.a.a.a.a.a.a.a.a.a.a.a.a.a.a.a.a.a.a.a.a.a.a.a.a.a.a.a.a.a.a.a.a.a.a.a.a.a.a.a.w 5 9 p s d l m C C Z F F G U T T T T ^ / / / / / / _ / / _ _ ` ` } } ` ` ' ' '  . .+. .+.@.@.@.@.@.@.#.@.#.#.@.@.#.#.#.&.#.&.*.*.-.&.#.#.&.-.-.-.*.&.&.-.*.*.-.-.-.*.-.-.4.-.-.-.4.6.;.6.6.t.e.;.e.t.t.e.e.e.e.e.e.e.t.t.t.e.e.t.t.t.t.t.t.t.t.t.t.t.t.t.s.s.s.s.f.f.f.f.f.f.f.f.f.f.f.h.f.f.f.f.h.h.g.k.k.k.g.g.k.k.k.k.k.k.k.k.k.k.k.V.V.V.V.V.V.Z.Z.V.V.V.V.Z.V.V.V.V.V.V.V.V.V.V.V.V.V.V.Z.V.V.V.V.V.Z.Z.Z.V.V.V.V.V.V.k.k.k.k.k.k.k.k.k.h.g.k.h.f.d.d.f.d.f.f.f.f.y.y.t.t.t.t.t.y.e.t.t.t.e.e.e.e.6.6.6.6.6.;.;.;.6.t.6.6.6.6.6.;.;.;.;.;.-.;.-.-.&.*.-.&.&.#.@.@.@.@. .a.a.a.a.a.a.a.a.a.a.a.a.a.a.a.a.a.a.a.a.a.a.a.a.a.a.a.a.a.a.a.a.a.a.a.a.a.a.a.a.a.a.a.a.a.a.a.a.a.a.a.a.a.a.a.a.a.a.a.a.a.a.a.a.a.a.",
"a.a.a.a.a.a.a.a.a.a.a.a.a.a.a.a.a.a.a.a.a.a.a.a.a.a.a.a.a.a.a.a.a.a.a.a.a.a.a.a.a.a.a.a.a.a.a.a.a.a.a.a.a.a.a.a.a.a.a.a.a.a.a.a.a.a.a.a.a.a.a.a.a.a.a.a.a.a.a.a.a.a.a.a.a.a.a.a.a.a.a.a.a.a.a.a.a.a.a.a.a.a.a.a.a.a.a.a.a.a.a.a.a.a.a.a.a.a.a.a.a.a.a.a.a.a.a.a.a.a.a.a.a.a.a.a.a.a.a.a.a.a.a.a.a.a.a.a.a.a.a.a.a.a.a.a.a.a.a.a.a.a.a.a.a.a.a.a.a.a.a.a.a.a.a.a.a.a.a.a.a.a.a.a.a.a.a.a.a.a.a.a.a.a.a.a.a.a.a.a.a.a.a.a.a.a.a.a.a.a.a.a.a.a.a.a.a.a.a.a.a.a.a.a.a.a.a.a.a.a.a.a.a.a.a.a.a.a.a.a.a.a.a.a.a.a.a.a.a.a.a.a.a.a.a.a.4 8 p s h l m C C Z F F G U T T T T E / / / / / / _ / / _ _ ` ` ` ` ' ` ' `  . . . .+.+.@.@.@.@.@.@.@.@.#.#.@.@.@.&.&.&.#.&.&.&.-.&.&.&.&.&.&.&.&.&.*.-.*.-.-.&.*.-.-.-.-.-.-.-.-.6.t.t.t.t.;.;.e.t.t.e.e.e.t.e.e.e.e.e.e.t.t.e.t.t.t.t.t.t.t.t.t.t.t.f.s.s.s.f.f.f.f.f.f.h.g.f.f.f.h.g.g.h.g.g.h.h.g.k.g.k.k.g.k.k.k.k.k.k.k.V.V.k.k.k.V.V.V.V.V.V.V.V.V.V.V.Z.V.V.V.Z.Z.V.V.Z.Z.Z.Z.V.V.V.V.V.V.V.V.V.V.V.Z.V.V.V.V.V.V.V.V.k.k.k.k.k.k.k.g.k.k.k.h.h.f.f.d.f.f.f.f.y.y.t.t.t.t.t.t.t.t.t.t.e.e.e.e.6.6.6.6.6.;.;.;.6.6.6.6.6.6.6.;.;.;.;.;.6.;.-.-.*.=.&.&.&.#.@.@.&. . ...a.a.a.a.a.a.a.a.a.a.a.a.a.a.a.a.a.a.a.a.a.a.a.a.a.a.a.a.a.a.a.a.a.a.a.a.a.a.a.a.a.a.a.a.a.a.a.a.a.a.a.a.a.a.a.a.a.a.a.a.a.a.a.a.a.",
"a.a.a.a.a.a.a.a.a.a.a.a.a.a.a.a.a.a.a.a.a.a.a.a.a.a.a.a.a.a.a.a.a.a.a.a.a.a.a.a.a.a.a.a.a.a.a.a.a.a.a.a.a.a.a.a.a.a.a.a.a.a.a.a.a.a.a.a.a.a.a.a.a.a.a.a.a.a.a.a.a.a.a.a.a.a.a.a.a.a.a.a.a.a.a.a.a.a.a.a.a.a.a.a.a.a.a.a.a.a.a.a.a.a.a.a.a.a.a.a.a.a.a.a.a.a.a.a.a.a.a.a.a.a.a.a.a.a.a.a.a.a.a.a.a.a.a.a.a.a.a.a.a.a.a.a.a.a.a.a.a.a.a.a.a.a.a.a.a.a.a.a.a.a.a.a.a.a.a.a.a.a.a.a.a.a.a.a.a.a.a.a.a.a.a.a.a.a.a.a.a.a.a.a.a.a.a.a.a.a.a.a.a.a.a.a.a.a.a.a.a.a.a.a.a.a.a.a.a.a.a.a.a.a.a.a.a.a.a.a.a.a.a.a.a.a.a.a.a.a.a.a.a.a.a.a., 8 9 p h k m B C C F F G G U T T T ^ / / / / _ _ _ _ _ / _ ` ` ` } } ` } } } } } } @.@.+.@.@.@.#.@.@.#.#.@.@.@.#.&.&.&.#.#.&.&.#.&.#.&.&.-.&.&.&.*.-.-.-.-.-.*.-.-.-.-.-.-.-.6.4.6.6.t.6.6.6.;.6.t.t.e.t.e.e.e.e.e.t.t.t.t.e.e.t.t.t.t.t.t.t.t.t.t.t.s.s.s.s.f.f.f.f.f.f.f.h.f.f.f.h.g.h.h.k.k.g.k.k.k.k.g.g.g.k.k.k.V.V.V.V.k.V.k.k.k.k.k.V.V.V.V.V.V.A.V.V.V.V.Z.V.Z.V.Z.D.D.V.Z.D.V.V.V.V.V.V.V.V.V.D.Z.V.V.V.k.k.k.k.V.V.k.k.k.k.k.k.k.g.g.k.g.f.k.d.f.f.h.f.f.f.s.s.y.t.t.t.t.t.e.e.t.e.e.t.e.e.t.t.6.6.6.6.6.6.6.6.6.6.6.6.6.;.;.;.;.-.6.;.-.-.&.&.&.*.&.&.&.#.#.@.@.] a.a.a.a.a.a.a.a.a.a.a.a.a.a.a.a.a.a.a.a.a.a.a.a.a.a.a.a.a.a.a.a.a.a.a.a.a.a.a.a.a.a.a.a.a.a.a.a.a.a.a.a.a.a.a.a.a.a.a.a.a.a.a.a.a.",
"a.a.a.a.a.a.a.a.a.a.a.a.a.a.a.a.a.a.a.a.a.a.a.a.a.a.a.a.a.a.a.a.a.a.a.a.a.a.a.a.a.a.a.a.a.a.a.a.a.a.a.a.a.a.a.a.a.a.a.a.a.a.a.a.a.a.a.a.a.a.a.a.a.a.a.a.a.a.a.a.a.a.a.a.a.a.a.a.a.a.a.a.a.a.a.a.a.a.a.a.a.a.a.a.a.a.a.a.a.a.a.a.a.a.a.a.a.a.a.a.a.a.a.a.a.a.a.a.a.a.a.a.a.a.a.a.a.a.a.a.a.a.a.a.a.a.a.a.a.a.a.a.a.a.a.a.a.a.a.a.a.a.a.a.a.a.a.a.a.a.a.a.a.a.a.a.a.a.a.a.a.a.a.a.a.a.a.a.a.a.a.a.a.a.a.a.a.a.a.a.a.a.a.a.a.a.a.a.a.a.a.a.a.a.a.a.a.a.a.a.a.a.a.a.a.a.a.a.a.a.a.a.a.a.a.a.a.a.a.a.a.a.a.a.a.a.a.a.a.a.a.a.a.a.a.a.r 6 9 t s j n B B C S F G G T T E E E / / / / / / _ ` ` _ ` ` ` ` ` } } } } ` ` } } +.@.@.@.@.+.@.@.@.@.@.@.@.#.#.#.&.&.&.&.&.&.&.#.&.&.&.&.-.-.&.&.-.-.&.*.-.-.-.-.-.-.-.-.4.6.4.-.6.6.;.6.6.t.t.t.6.e.e.e.e.e.e.e.t.t.e.e.t.e.t.t.t.t.t.t.t.t.t.t.t.s.s.s.s.f.f.f.f.f.f.f.f.f.f.f.h.g.h.h.h.h.k.k.k.k.k.k.k.k.k.k.k.k.k.k.k.k.k.k.k.k.k.k.k.V.k.V.V.V.V.V.k.V.V.Z.V.V.V.V.V.V.k.V.V.V.V.V.V.V.k.V.k.V.V.V.V.V.k.k.k.k.k.k.k.k.k.k.k.k.k.k.k.k.k.h.h.h.f.f.f.f.f.s.s.s.s.t.t.t.t.y.t.e.e.e.e.e.e.e.e.t.6.6.;.6.6.6.6.6.6.6.6.6.6.6.6.6.;.;.-.-.-.;.-.*.*.*.&.&.&.&.#. .@.+.} _ a.a.a.a.a.a.a.a.a.a.a.a.a.a.a.a.a.a.a.a.a.a.a.a.a.a.a.a.a.a.a.a.a.a.a.a.a.a.a.a.a.a.a.a.a.a.a.a.a.a.a.a.a.a.a.a.a.a.a.a.a.a.a.a.",
"a.a.a.a.a.a.a.a.a.a.a.a.a.a.a.a.a.a.a.a.a.a.a.a.a.a.a.a.a.a.a.a.a.a.a.a.a.a.a.a.a.a.a.a.a.a.a.a.a.a.a.a.a.a.a.a.a.a.a.a.a.a.a.a.a.a.a.a.a.a.a.a.a.a.a.a.a.a.a.a.a.a.a.a.a.a.a.a.a.a.a.a.a.a.a.a.a.a.a.a.a.a.a.a.a.a.a.a.a.a.a.a.a.a.a.a.a.a.a.a.a.a.a.a.a.a.a.a.a.a.a.a.a.a.a.a.a.a.a.a.a.a.a.a.a.a.a.a.a.a.a.a.a.a.a.a.a.a.a.a.a.a.a.a.a.a.a.a.a.a.a.a.a.a.a.a.a.a.a.a.a.a.a.a.a.a.a.a.a.a.a.a.a.a.a.a.a.a.a.a.a.a.a.a.a.a.a.a.a.a.a.a.a.a.a.a.a.a.a.a.a.a.a.a.a.a.a.a.a.a.a.a.a.a.a.a.a.a.a.a.a.a.a.a.a.a.a.a.a.a.a.a.a.a.a.a.a.3 9 t s d l B B C S F F G U T E E E / / / / / / / _ / / / ` ` ` ` } } } } ` ` } } +.@.@.@.@.+.@.@.@.@.@.@.@.@.#.#.#.#.#.&.&.&.#.#.&.*.&.&.&.-.&.&.&.&.&.&.-.-.-.-.-.-.-.-.4.4.4.4.6.6.6.6.6.t.t.t.t.e.e.e.e.e.e.e.t.t.e.e.e.t.t.t.t.t.t.t.t.t.t.t.y.f.s.s.s.f.f.f.f.h.f.f.f.f.f.f.f.k.g.g.h.h.k.k.k.k.k.k.k.k.k.V.V.k.k.k.k.k.k.k.k.V.A.V.k.k.k.k.k.V.A.V.V.V.V.V.V.V.V.V.V.V.V.V.Z.V.V.V.V.V.V.V.k.k.V.k.k.V.k.k.k.k.V.V.k.k.k.k.k.k.k.k.k.k.k.k.k.h.f.f.g.f.f.f.s.s.s.y.y.t.t.t.t.t.t.t.e.e.e.e.e.6.6.;.;.6.6.6.6.6.6.6.6.6.6.6.6.;.;.;.-.-.-.-.-.-.*.*.*.&.&.&.&.&.@.@.@.] [ a.a.a.a.a.a.a.a.a.a.a.a.a.a.a.a.a.a.a.a.a.a.a.a.a.a.a.a.a.a.a.a.a.a.a.a.a.a.a.a.a.a.a.a.a.a.a.a.a.a.a.a.a.a.a.a.a.a.a.a.a.a.a.",
"a.a.a.a.a.a.a.a.a.a.a.a.a.a.a.a.a.a.a.a.a.a.a.a.a.a.a.a.a.a.a.a.a.a.a.a.a.a.a.a.a.a.a.a.a.a.a.a.a.a.a.a.a.a.a.a.a.a.a.a.a.a.a.a.a.a.a.a.a.a.a.a.a.a.a.a.a.a.a.a.a.a.a.a.a.a.a.a.a.a.a.a.a.a.a.a.a.a.a.a.a.a.a.a.a.a.a.a.a.a.a.a.a.a.a.a.a.a.a.a.a.a.a.a.a.a.a.a.a.a.a.a.a.a.a.a.a.a.a.a.a.a.a.a.a.a.a.a.a.a.a.a.a.a.a.a.a.a.a.a.a.a.a.a.a.a.a.a.a.a.a.a.a.a.a.a.a.a.a.a.a.a.a.a.a.a.a.a.a.a.a.a.a.a.a.a.a.a.a.a.a.a.a.a.a.a.a.a.a.a.a.a.a.a.a.a.a.a.a.a.a.a.a.a.a.a.a.a.a.a.a.a.a.a.a.a.a.a.a.a.a.a.a.a.a.a.a.a.a.a.a.a.a.a.a.a.a.4 8 t s d l m m C S F F G U T E E T / / / / / / / / / / / ` ` / ` } } } } ` ` } ' @.@.@.@.#.+.@.@.@.@.+.@.@.#.@.@.@.#.#.#.#.&.&.&.&.&.&.&.-.-.&.&.&.-.*.-.-.-.-.-.-.-.-.-.-.-.-.-.-.6.t.6.6.t.t.t.t.e.e.e.e.e.e.e.e.t.e.e.e.t.t.t.t.t.t.t.t.s.t.s.f.f.s.s.f.f.h.f.f.f.g.h.h.f.f.f.h.k.k.g.k.h.k.k.k.k.k.k.k.k.k.k.k.k.k.k.k.k.k.k.k.V.V.V.V.V.V.V.V.V.V.V.V.V.V.Z.Z.V.V.V.V.V.V.V.Z.Z.Z.V.V.V.V.V.k.V.k.k.k.V.k.k.k.V.V.V.k.k.k.k.k.k.k.k.k.k.k.k.k.k.g.f.f.f.f.s.s.s.d.y.y.t.t.t.t.t.t.t.e.e.e.e.e.6.6.6.;.6.6.6.6.6.6.6.6.6.6.6.6.;.6.;.;.;.-.-.-.-.*.*.*.&.&.&.#.#.&.#.@. . .a.a.a.a.a.a.a.a.a.a.a.a.a.a.a.a.a.a.a.a.a.a.a.a.a.a.a.a.a.a.a.a.a.a.a.a.a.a.a.a.a.a.a.a.a.a.a.a.a.a.a.a.a.a.a.a.a.a.a.a.a.a.a.",
"a.a.a.a.a.a.a.a.a.a.a.a.a.a.a.a.a.a.a.a.a.a.a.a.a.a.a.a.a.a.a.a.a.a.a.a.a.a.a.a.a.a.a.a.a.a.a.a.a.a.a.a.a.a.a.a.a.a.a.a.a.a.a.a.a.a.a.a.a.a.a.a.a.a.a.a.a.a.a.a.a.a.a.a.a.a.a.a.a.a.a.a.a.a.a.a.a.a.a.a.a.a.a.a.a.a.a.a.a.a.a.a.a.a.a.a.a.a.a.a.a.a.a.a.a.a.a.a.a.a.a.a.a.a.a.a.a.a.a.a.a.a.a.a.a.a.a.a.a.a.a.a.a.a.a.a.a.a.a.a.a.a.a.a.a.a.a.a.a.a.a.a.a.a.a.a.a.a.a.a.a.a.a.a.a.a.a.a.a.a.a.a.a.a.a.a.a.a.a.a.a.a.a.a.a.a.a.a.a.a.a.a.a.a.a.a.a.a.a.a.a.a.a.a.a.a.a.a.a.a.a.a.a.a.a.a.a.a.a.a.a.a.a.a.a.a.a.a.a.a.a.a.a.a.a.a.a.< 8 9 s s k n m C S F F G T R R E T ^ / / / / / / / / / _ ` _ ` ` } } } } } ` ` }  .+.@.@.@.@.@.@.@.@.@.#.@.@.@.#.#.#.#.&.#.#.#.&.#.#.&.&.-.&.&.&.-.-.*.-.-.-.-.-.-.4.4.-.-.-.-.-.-.6.t.6.;.6.6.6.;.;.e.e.t.t.t.e.t.t.t.t.e.e.e.t.t.t.t.t.t.y.t.y.f.f.f.f.f.f.f.f.f.f.f.h.f.s.f.f.h.k.k.k.k.k.k.k.k.k.k.k.k.k.k.k.k.k.k.V.V.k.k.k.k.V.V.V.k.V.V.V.V.V.k.V.V.V.V.V.Z.k.V.Z.V.V.V.Z.V.V.V.V.V.k.V.V.V.V.V.V.V.V.V.V.V.V.V.k.k.k.k.k.k.k.k.k.k.k.k.k.k.k.h.h.f.f.f.f.f.f.s.y.s.t.t.y.t.t.t.t.t.e.t.e.e.6.;.;.6.;.6.;.6.6.;.6.;.;.6.6.6.6.6.6.6.6.-.-.;.*.*.*.*.&.&.&.&.&.&.&.@.#. . .a.a.a.a.a.a.a.a.a.a.a.a.a.a.a.a.a.a.a.a.a.a.a.a.a.a.a.a.a.a.a.a.a.a.a.a.a.a.a.a.a.a.a.a.a.a.a.a.a.a.a.a.a.a.a.a.a.a.a.a.a.a.",
"a.a.a.a.a.a.a.a.a.a.a.a.a.a.a.a.a.a.a.a.a.a.a.a.a.a.a.a.a.a.a.a.a.a.a.a.a.a.a.a.a.a.a.a.a.a.a.a.a.a.a.a.a.a.a.a.a.a.a.a.a.a.a.a.a.a.a.a.a.a.a.a.a.a.a.a.a.a.a.a.a.a.a.a.a.a.a.a.a.a.a.a.a.a.a.a.a.a.a.a.a.a.a.a.a.a.a.a.a.a.a.a.a.a.a.a.a.a.a.a.a.a.a.a.a.a.a.a.a.a.a.a.a.a.a.a.a.a.a.a.a.a.a.a.a.a.a.a.a.a.a.a.a.a.a.a.a.a.a.a.a.a.a.a.a.a.a.a.a.a.a.a.a.a.a.a.a.a.a.a.a.a.a.a.a.a.a.a.a.a.a.a.a.a.a.a.a.a.a.a.a.a.a.a.a.a.a.a.a.a.a.a.a.a.a.a.a.a.a.a.a.a.a.a.a.a.a.a.a.a.a.a.a.a.a.a.a.a.a.a.a.a.a.a.a.a.a.a.a.a.a.a.a.a.a.a.a.a.8 9 t s d n m B Z F F F U T E E T E / / / / / / / / ` ` _ _ ` ` } } } } } } } } } +.@.@.@.@.@.@.@.@.@.@.@.@.@.#.#.#.#.&.&.#.#.&.&.&.&.&.&.&.&.-.-.-.*.-.-.-.-.-.-.-.-.4.4.4.-.4.;.6.6.6.;.6.6.6.6.;.e.e.t.t.t.t.t.t.t.t.t.t.t.t.t.t.t.t.t.t.t.y.f.f.f.f.s.f.f.f.f.f.f.f.f.f.f.f.f.g.k.k.k.k.k.k.k.k.k.k.k.k.k.k.k.k.k.k.k.k.k.k.k.V.V.V.V.V.V.V.V.V.Z.V.V.V.k.V.V.V.Z.Z.V.k.k.k.k.k.V.V.V.V.V.V.Z.V.V.V.V.V.V.V.V.k.k.k.k.k.k.k.k.k.k.k.h.k.k.k.k.h.f.f.h.g.h.f.s.f.s.y.s.t.t.t.t.t.t.t.t.t.t.e.e.6.6.6.-.;.;.;.6.6.;.;.;.6.6.6.6.6.6.6.6.6.6.;.;.-.-.-.*.*.*.*.&.&.&.#.@.@.@. .a.a.a.a.a.a.a.a.a.a.a.a.a.a.a.a.a.a.a.a.a.a.a.a.a.a.a.a.a.a.a.a.a.a.a.a.a.a.a.a.a.a.a.a.a.a.a.a.a.a.a.a.a.a.a.a.a.a.a.a.a.a.",
"a.a.a.a.a.a.a.a.a.a.a.a.a.a.a.a.a.a.a.a.a.a.a.a.a.a.a.a.a.a.a.a.a.a.a.a.a.a.a.a.a.a.a.a.a.a.a.a.a.a.a.a.a.a.a.a.a.a.a.a.a.a.a.a.a.a.a.a.a.a.a.a.a.a.a.a.a.a.a.a.a.a.a.a.a.a.a.a.a.a.a.a.a.a.a.a.a.a.a.a.a.a.a.a.a.a.a.a.a.a.a.a.a.a.a.a.a.a.a.a.a.a.a.a.a.a.a.a.a.a.a.a.a.a.a.a.a.a.a.a.a.a.a.a.a.a.a.a.a.a.a.a.a.a.a.a.a.a.a.a.a.a.a.a.a.a.a.a.a.a.a.a.a.a.a.a.a.a.a.a.a.a.a.a.a.a.a.a.a.a.a.a.a.a.a.a.a.a.a.a.a.a.a.a.a.a.a.a.a.a.a.a.a.a.a.a.a.a.a.a.a.a.a.a.a.a.a.a.a.a.a.a.a.a.a.a.a.a.a.a.a.a.a.a.a.a.a.a.a.a.a.a.a.a.a.a.a.a.5 8 9 s d l m B Z S F G U T R E T E ^ / / / / / / / ` ` _ _ ` ` } } } } } } } }  .+.+.+.@.@.@.@.@.@.@.@.@.@.#.#.#.#.#.#.&.#.#.&.&.*.*.&.&.&.&.&.-.-.-.-.-.-.*.-.-.-.-.4.4.4.4.6.;.6.6.6.6.6.6.6.t.e.e.e.t.t.t.t.e.e.e.t.t.e.t.t.t.t.t.t.t.t.t.t.f.f.f.f.f.f.f.f.f.f.f.f.h.h.f.f.h.k.k.k.k.k.k.k.k.k.k.k.k.k.k.k.k.k.k.k.k.V.V.V.V.V.V.V.V.V.V.V.V.V.V.V.V.Z.V.V.Z.V.Z.Z.Z.V.V.V.V.Z.Z.Z.Z.Z.V.V.Z.V.V.V.V.k.V.V.V.V.V.k.k.V.k.k.k.k.k.k.g.g.h.h.h.h.h.h.f.h.f.f.s.f.y.t.s.t.t.t.t.t.t.t.t.t.t.e.e.6.t.6.;.6.6.;.6.6.;.6.;.6.;.;.;.6.t.6.6.6.6.;.;.-.*.-.*.*.-.*.-.&.&.&.#.&. . . .a.a.a.a.a.a.a.a.a.a.a.a.a.a.a.a.a.a.a.a.a.a.a.a.a.a.a.a.a.a.a.a.a.a.a.a.a.a.a.a.a.a.a.a.a.a.a.a.a.a.a.a.a.a.a.a.a.a.a.a.a.",
"a.a.a.a.a.a.a.a.a.a.a.a.a.a.a.a.a.a.a.a.a.a.a.a.a.a.a.a.a.a.a.a.a.a.a.a.a.a.a.a.a.a.a.a.a.a.a.a.a.a.a.a.a.a.a.a.a.a.a.a.a.a.a.a.a.a.a.a.a.a.a.a.a.a.a.a.a.a.a.a.a.a.a.a.a.a.a.a.a.a.a.a.a.a.a.a.a.a.a.a.a.a.a.a.a.a.a.a.a.a.a.a.a.a.a.a.a.a.a.a.a.a.a.a.a.a.a.a.a.a.a.a.a.a.a.a.a.a.a.a.a.a.a.a.a.a.a.a.a.a.a.a.a.a.a.a.a.a.a.a.a.a.a.a.a.a.a.a.a.a.a.a.a.a.a.a.a.a.a.a.a.a.a.a.a.a.a.a.a.a.a.a.a.a.a.a.a.a.a.a.a.a.a.a.a.a.a.a.a.a.a.a.a.a.a.a.a.a.a.a.a.a.a.a.a.a.a.a.a.a.a.a.a.a.a.a.a.a.a.a.a.a.a.a.a.a.a.a.a.a.a.a.a.a.a.a.a.a.3 8 9 p h l n B C S S G U U T E T T E / / / / / / / ` ` ` ` ` ` } } } } ` } } `  .+. .+.@.@.@.+.@.@.@.@.@.@.#.#.#.#.#.#.#.#.#.&.&.&.&.&.#.&.&.#.-.-.*.-.-.-.-.*.-.-.-.-.6.4.4.6.6.6.-.6.6.6.t.t.t.e.e.e.e.t.e.e.e.e.t.t.t.t.t.t.t.t.t.t.t.t.t.t.f.f.f.f.f.f.f.f.f.f.f.f.f.h.h.h.k.k.k.k.k.k.k.k.k.k.k.k.k.k.k.k.k.k.k.k.k.V.V.V.V.V.V.V.V.V.V.V.V.Z.D.D.V.V.V.V.V.V.Z.Z.Z.Z.Z.Z.Z.V.k.V.V.Z.Z.Z.Z.Z.V.V.k.V.k.V.V.V.V.V.k.k.k.k.V.k.k.k.k.f.h.f.h.h.g.h.g.f.f.f.f.s.s.t.s.t.t.t.t.t.t.t.t.t.t.e.e.t.6.6.6.6.6.;.6.6.6.;.-.6.6.6.;.6.6.6.6.6.6.;.6.-.-.-.-.-.-.-.-.#.#.#. .#. .@.@.[ a.a.a.a.a.a.a.a.a.a.a.a.a.a.a.a.a.a.a.a.a.a.a.a.a.a.a.a.a.a.a.a.a.a.a.a.a.a.a.a.a.a.a.a.a.a.a.a.a.a.a.a.a.a.a.a.a.a.a.a.",
"a.a.a.a.a.a.a.a.a.a.a.a.a.a.a.a.a.a.a.a.a.a.a.a.a.a.a.a.a.a.a.a.a.a.a.a.a.a.a.a.a.a.a.a.a.a.a.a.a.a.a.a.a.a.a.a.a.a.a.a.a.a.a.a.a.a.a.a.a.a.a.a.a.a.a.a.a.a.a.a.a.a.a.a.a.a.a.a.a.a.a.a.a.a.a.a.a.a.a.a.a.a.a.a.a.a.a.a.a.a.a.a.a.a.a.a.a.a.a.a.a.a.a.a.a.a.a.a.a.a.a.a.a.a.a.a.a.a.a.a.a.a.a.a.a.a.a.a.a.a.a.a.a.a.a.a.a.a.a.a.a.a.a.a.a.a.a.a.a.a.a.a.a.a.a.a.a.a.a.a.a.a.a.a.a.a.a.a.a.a.a.a.a.a.a.a.a.a.a.a.a.a.a.a.a.a.a.a.a.a.a.a.a.a.a.a.a.a.a.a.a.a.a.a.a.a.a.a.a.a.a.a.a.a.a.a.a.a.a.a.a.a.a.a.a.a.a.a.a.a.a.a.a.a.a.a.a.a.a.6 9 p s k l B C S S G G U T T T T T / / / / / / / _ _ _ ` ` ` ` } } } ` }  .` '  .+.+.@.+.@.@.@.@.@.@.@.#.#.#.#.#.#.#.#.#.@.&.&.&.&.#.&.&.#.#.&.-.*.-.-.*.-.-.-.-.-.-.-.-.4.6.-.6.6.6.6.6.6.t.t.e.e.e.e.t.e.t.t.e.t.t.t.t.t.t.t.t.t.t.t.t.t.t.s.f.f.f.f.f.f.f.f.f.f.h.h.h.h.k.k.k.k.k.k.k.k.k.k.k.k.k.k.k.k.V.k.k.k.k.k.k.V.V.k.k.V.k.V.A.V.V.V.V.V.V.V.V.V.Z.Z.Z.Z.Z.V.Z.Z.Z.V.V.k.k.V.Z.D.Z.V.Z.Z.V.V.k.V.V.V.V.V.k.V.k.V.k.k.k.k.k.k.k.g.h.h.d.g.d.f.d.f.f.s.s.s.s.y.t.t.t.t.t.e.e.t.t.t.t.e.t.6.6.6.6.6.;.6.6.6.6.6.6.6.6.6.6.6.6.;.;.;.;.;.-.-.-.-.-.-.-.-.&.#.#.@.#.#.}  .] a.a.a.a.a.a.a.a.a.a.a.a.a.a.a.a.a.a.a.a.a.a.a.a.a.a.a.a.a.a.a.a.a.a.a.a.a.a.a.a.a.a.a.a.a.a.a.a.a.a.a.a.a.a.a.a.a.a.a.a.",
"a.a.a.a.a.a.a.a.a.a.a.a.a.a.a.a.a.a.a.a.a.a.a.a.a.a.a.a.a.a.a.a.a.a.a.a.a.a.a.a.a.a.a.a.a.a.a.a.a.a.a.a.a.a.a.a.a.a.a.a.a.a.a.a.a.a.a.a.a.a.a.a.a.a.a.a.a.a.a.a.a.a.a.a.a.a.a.a.a.a.a.a.a.a.a.a.a.a.a.a.a.a.a.a.a.a.a.a.a.a.a.a.a.a.a.a.a.a.a.a.a.a.a.a.a.a.a.a.a.a.a.a.a.a.a.a.a.a.a.a.a.a.a.a.a.a.a.a.a.a.a.a.a.a.a.a.a.a.a.a.a.a.a.a.a.a.a.a.a.a.a.a.a.a.a.a.a.a.a.a.a.a.a.a.a.a.a.a.a.a.a.a.a.a.a.a.a.a.a.a.a.a.a.a.a.a.a.a.a.a.a.a.a.a.a.a.a.a.a.a.a.a.a.a.a.a.a.a.a.a.a.a.a.a.a.a.a.a.a.a.a.a.a.a.a.a.a.a.a.a.a.a.a.a.a.a.a.a.a.< 7 s s h n B C C Z F G U T R T T T / / / / / / / / / / / ` ` } } } } ` } ' _ '  . .+.@.+.+.@.@.@.@.@.@.#.@.#.#.#.#.#.#.@.#.&.&.&.&.#.&.#.#.&.*.-.*.*.*.&.-.-.-.-.-.-.-.-.4.6.-.6.6.6.t.6.6.6.t.e.e.e.e.t.e.t.t.e.e.t.t.t.t.t.t.t.t.t.t.t.t.t.f.f.f.f.f.f.f.f.f.h.h.g.g.g.h.k.k.k.k.k.k.k.k.k.k.k.k.k.k.k.k.k.k.k.k.k.k.k.k.k.j.V.V.V.V.k.V.V.V.V.V.V.V.V.Z.Z.Z.Z.Z.Z.V.Z.Z.D.D.D.Z.Z.V.Z.Z.V.Z.Z.Z.Z.Z.V.V.V.V.V.k.k.V.V.V.k.k.k.k.k.k.k.g.h.g.f.g.f.f.f.f.s.s.s.f.s.y.t.t.t.e.t.e.e.t.t.e.e.t.t.t.t.6.6.6.;.6.6.6.6.6.6.6.6.6.6.6.6.;.6.6.;.-.;.;.-.-.-.-.-.-.*.&.&.@.@.@. .}  ./ a.a.a.a.a.a.a.a.a.a.a.a.a.a.a.a.a.a.a.a.a.a.a.a.a.a.a.a.a.a.a.a.a.a.a.a.a.a.a.a.a.a.a.a.a.a.a.a.a.a.a.a.a.a.a.a.a.a.a.",
"a.a.a.a.a.a.a.a.a.a.a.a.a.a.a.a.a.a.a.a.a.a.a.a.a.a.a.a.a.a.a.a.a.a.a.a.a.a.a.a.a.a.a.a.a.a.a.a.a.a.a.a.a.a.a.a.a.a.a.a.a.a.a.a.a.a.a.a.a.a.a.a.a.a.a.a.a.a.a.a.a.a.a.a.a.a.a.a.a.a.a.a.a.a.a.a.a.a.a.a.a.a.a.a.a.a.a.a.a.a.a.a.a.a.a.a.a.a.a.a.a.a.a.a.a.a.a.a.a.a.a.a.a.a.a.a.a.a.a.a.a.a.a.a.a.a.a.a.a.a.a.a.a.a.a.a.a.a.a.a.a.a.a.a.a.a.a.a.a.a.a.a.a.a.a.a.a.a.a.a.a.a.a.a.a.a.a.a.a.a.a.a.a.a.a.a.a.a.a.a.a.a.a.a.a.a.a.a.a.a.a.a.a.a.a.a.a.a.a.a.a.a.a.a.a.a.a.a.a.a.a.a.a.a.a.a.a.a.a.a.a.a.a.a.a.a.a.a.a.a.a.a.a.a.a.a.a.a.a.5 8 p s h l B C C Z F F U T T T T T / / / / / / / / / / / ` } } ` } } ' ' ' ' '  . .+.@.+.@.@.@.@.@.@.@.@.@.#.#.#.#.@.@.@.#.&.#.&.&.&.#.#.#.&.*.&.*.&.&.-.-.-.-.-.-.4.-.4.4.4.-.6.6.6.6.6.6.t.t.e.e.;.t.t.e.t.t.e.t.t.t.t.t.t.t.s.t.t.t.t.y.y.f.f.f.f.f.h.f.g.h.f.g.h.h.h.h.g.g.g.g.k.k.k.k.k.k.k.k.k.k.k.k.k.k.k.k.k.k.k.k.k.k.V.V.V.k.V.V.V.V.V.V.V.V.V.Z.Z.Z.Z.Z.V.V.V.Z.D.D.Z.D.D.Z.V.Z.D.D.Z.Z.Z.Z.D.D.V.k.V.k.k.V.V.V.V.V.k.k.k.h.k.k.h.h.f.d.f.f.f.f.s.f.s.s.f.y.t.t.t.t.t.e.e.t.t.e.t.t.t.t.t.6.t.t.6.6.6.;.6.6.6.6.6.6.6.6.6.-.;.;.;.-.;.;.-.-.-.;.-.-.*.*.&.&.&.@. . .} } a.a.a.a.a.a.a.a.a.a.a.a.a.a.a.a.a.a.a.a.a.a.a.a.a.a.a.a.a.a.a.a.a.a.a.a.a.a.a.a.a.a.a.a.a.a.a.a.a.a.a.a.a.a.a.a.a.a.a.",
"a.a.a.a.a.a.a.a.a.a.a.a.a.a.a.a.a.a.a.a.a.a.a.a.a.a.a.a.a.a.a.a.a.a.a.a.a.a.a.a.a.a.a.a.a.a.a.a.a.a.a.a.a.a.a.a.a.a.a.a.a.a.a.a.a.a.a.a.a.a.a.a.a.a.a.a.a.a.a.a.a.a.a.a.a.a.a.a.a.a.a.a.a.a.a.a.a.a.a.a.a.a.a.a.a.a.a.a.a.a.a.a.a.a.a.a.a.a.a.a.a.a.a.a.a.a.a.a.a.a.a.a.a.a.a.a.a.a.a.a.a.a.a.a.a.a.a.a.a.a.a.a.a.a.a.a.a.a.a.a.a.a.a.a.a.a.a.a.a.a.a.a.a.a.a.a.a.a.a.a.a.a.a.a.a.a.a.a.a.a.a.a.a.a.a.a.a.a.a.a.a.a.a.a.a.a.a.a.a.a.a.a.a.a.a.a.a.a.a.a.a.a.a.a.a.a.a.a.a.a.a.a.a.a.a.a.a.a.a.a.a.a.a.a.a.a.a.a.a.a.a.a.a.a.a.a.a.a.a.a.8 9 s h l B C C Z F F U T R T T T / / / / / / / / / / / ` } } ` } } ' ' ` ` `  . .+.+.@.@.@.+.@.@.@.+.@.@.@.#.#.#.#.#.@.#.&.#.#.&.&.#.#.&.*.-.&.*.-.*.-.-.-.-.-.-.-.4.4.4.4.-.6.6.6.6.6.6.t.t.e.e.e.t.t.e.t.t.e.t.t.t.t.t.t.t.t.t.t.t.y.s.s.f.f.f.f.f.f.h.h.k.g.h.k.k.h.h.g.g.g.g.k.k.k.k.k.k.k.k.k.k.k.k.k.k.k.V.k.k.k.k.k.k.V.V.V.V.V.k.V.Z.V.Z.V.V.V.Z.Z.Z.Z.Z.Z.D.D.Z.Z.V.V.V.V.Z.Z.D.D.D.Z.V.Z.Z.Z.Z.V.k.V.k.k.V.V.k.k.k.k.k.k.k.k.k.k.f.t.f.f.f.g.d.f.f.s.f.f.y.t.t.t.t.t.e.e.e.e.t.t.t.t.t.t.6.6.t.6.6.6.6.6.6.6.6.6.6.6.6.6.;.;.;.;.-.;.;.-.-.-.-.-.-.-.*.&.@.@.@.@.@. .} [ a.a.a.a.a.a.a.a.a.a.a.a.a.a.a.a.a.a.a.a.a.a.a.a.a.a.a.a.a.a.a.a.a.a.a.a.a.a.a.a.a.a.a.a.a.a.a.a.a.a.a.a.a.a.a.a.a.a.",
"a.a.a.a.a.a.a.a.a.a.a.a.a.a.a.a.a.a.a.a.a.a.a.a.a.a.a.a.a.a.a.a.a.a.a.a.a.a.a.a.a.a.a.a.a.a.a.a.a.a.a.a.a.a.a.a.a.a.a.a.a.a.a.a.a.a.a.a.a.a.a.a.a.a.a.a.a.a.a.a.a.a.a.a.a.a.a.a.a.a.a.a.a.a.a.a.a.a.a.a.a.a.a.a.a.a.a.a.a.a.a.a.a.a.a.a.a.a.a.a.a.a.a.a.a.a.a.a.a.a.a.a.a.a.a.a.a.a.a.a.a.a.a.a.a.a.a.a.a.a.a.a.a.a.a.a.a.a.a.a.a.a.a.a.a.a.a.a.a.a.a.a.a.a.a.a.a.a.a.a.a.a.a.a.a.a.a.a.a.a.a.a.a.a.a.a.a.a.a.a.a.a.a.a.a.a.a.a.a.a.a.a.a.a.a.a.a.a.a.a.a.a.a.a.a.a.a.a.a.a.a.a.a.a.a.a.a.a.a.a.a.a.a.a.a.a.a.a.a.a.a.a.a.a.a.a.a.a.a.a.7 8 p h k n B C C F F U T R T T T / / / / / / / _ / / ` ` ` ` ` ` } } } ` ` ' '  . .+.@.@.@.@.@.@.@.@.@.+.@.#.#.#.#.#.@.#.#.&.#.&.&.#.&.&.*.-.*.-.-.-.-.-.*.-.-.-.-.-.-.6.4.;.6.6.6.6.t.6.t.e.e.e.e.t.e.e.t.t.t.t.t.t.t.t.t.t.s.t.y.t.t.s.s.f.f.f.f.f.h.h.g.k.g.g.k.k.h.k.k.k.k.g.k.k.k.k.k.k.k.k.k.k.k.k.k.k.k.V.V.k.k.k.V.V.V.V.V.k.A.V.V.V.Z.V.V.V.Z.Z.Z.D.Z.Z.Z.D.H.H.Z.V.V.Z.Z.Z.D.Z.Z.Z.Z.Z.Z.Z.V.V.V.k.V.k.V.V.k.V.k.k.k.k.k.k.k.k.k.f.y.f.f.f.g.d.f.d.s.s.y.t.t.t.t.e.t.e.e.e.e.e.e.e.t.t.t.6.6.6.6.;.6.;.6.6.6.6.6.6.6.6.6.6.;.;.;.-.6.;.;.-.-.-.-.-.-.*.&.#.@.@.@.@.@. .} a.a.a.a.a.a.a.a.a.a.a.a.a.a.a.a.a.a.a.a.a.a.a.a.a.a.a.a.a.a.a.a.a.a.a.a.a.a.a.a.a.a.a.a.a.a.a.a.a.a.a.a.a.a.a.a.a.a.",
"a.a.a.a.a.a.a.a.a.a.a.a.a.a.a.a.a.a.a.a.a.a.a.a.a.a.a.a.a.a.a.a.a.a.a.a.a.a.a.a.a.a.a.a.a.a.a.a.a.a.a.a.a.a.a.a.a.a.a.a.a.a.a.a.a.a.a.a.a.a.a.a.a.a.a.a.a.a.a.a.a.a.a.a.a.a.a.a.a.a.a.a.a.a.a.a.a.a.a.a.a.a.a.a.a.a.a.a.a.a.a.a.a.a.a.a.a.a.a.a.a.a.a.a.a.a.a.a.a.a.a.a.a.a.a.a.a.a.a.a.a.a.a.a.a.a.a.a.a.a.a.a.a.a.a.a.a.a.a.a.a.a.a.a.a.a.a.a.a.a.a.a.a.a.a.a.a.a.a.a.a.a.a.a.a.a.a.a.a.a.a.a.a.a.a.a.a.a.a.a.a.a.a.a.a.a.a.a.a.a.a.a.a.a.a.a.a.a.a.a.a.a.a.a.a.a.a.a.a.a.a.a.a.a.a.a.a.a.a.a.a.a.a.a.a.a.a.a.a.a.a.a.a.a.a.a.a.a.a.a.5 9 p h d l B C Z F F U T R U T T T E / / / / / _ / _ ` ` ` ` ` } } ' ` ` `  .'  .+.+. .+.@.@.@.@.@.#.@.@.@.#.#.#.@.@.#.#.#.#.&.#.#.&.&.&.&.*.*.*.-.-.-.-.-.-.-.-.-.6.4.4.4.;.6.6.6.t.t.6.t.6.e.e.e.t.t.e.t.t.t.t.t.t.t.t.y.s.s.t.s.t.t.y.s.s.f.f.f.f.g.g.g.g.g.g.h.h.k.k.k.k.k.k.k.k.k.k.k.k.k.k.k.k.k.k.k.k.k.k.V.V.V.V.V.V.V.V.V.V.k.V.V.V.Z.V.V.V.Z.Z.Z.D.Z.Z.Z.D.D.Z.Z.D.V.V.V.V.V.Z.Z.Z.V.V.V.V.V.k.V.V.V.V.V.V.k.V.V.k.k.k.k.k.k.k.k.k.f.f.d.f.f.f.f.f.f.s.y.t.t.y.y.t.t.t.t.t.e.e.t.e.6.6.6.6.6.6.;.6.6.6.;.;.;.6.6.6.6.6.6.6.;.;.-.-.;.6.;.;.-.-.-.-.*.*.&.#.#.@.@.@.#. .} | a.a.a.a.a.a.a.a.a.a.a.a.a.a.a.a.a.a.a.a.a.a.a.a.a.a.a.a.a.a.a.a.a.a.a.a.a.a.a.a.a.a.a.a.a.a.a.a.a.a.a.a.a.a.a.a.a.",
"a.a.a.a.a.a.a.a.a.a.a.a.a.a.a.a.a.a.a.a.a.a.a.a.a.a.a.a.a.a.a.a.a.a.a.a.a.a.a.a.a.a.a.a.a.a.a.a.a.a.a.a.a.a.a.a.a.a.a.a.a.a.a.a.a.a.a.a.a.a.a.a.a.a.a.a.a.a.a.a.a.a.a.a.a.a.a.a.a.a.a.a.a.a.a.a.a.a.a.a.a.a.a.a.a.a.a.a.a.a.a.a.a.a.a.a.a.a.a.a.a.a.a.a.a.a.a.a.a.a.a.a.a.a.a.a.a.a.a.a.a.a.a.a.a.a.a.a.a.a.a.a.a.a.a.a.a.a.a.a.a.a.a.a.a.a.a.a.a.a.a.a.a.a.a.a.a.a.a.a.a.a.a.a.a.a.a.a.a.a.a.a.a.a.a.a.a.a.a.a.a.a.a.a.a.a.a.a.a.a.a.a.a.a.a.a.a.a.a.a.a.a.a.a.a.a.a.a.a.a.a.a.a.a.a.a.a.a.a.a.a.a.a.a.a.a.a.a.a.a.a.a.a.a.a.a.a.a.a.a.a.8 t s d l B C Z F F U U T T T T E E / / / / / / _ / ` ` ` ` ` }  .} ' ` `  .}  .+.+. .+.@.@.@.+.@.@.@.@.@.#.&.#.@.@.#.#.#.#.#.#.#.&.&.&.#.-.-.&.-.-.-.-.-.-.-.-.-.4.6.4.-.;.6.6.6.t.6.6.t.6.e.e.t.t.t.e.t.t.t.t.t.t.t.t.t.t.t.t.t.y.t.s.s.f.f.f.f.f.g.g.h.h.h.g.g.f.k.k.k.k.k.k.k.k.k.k.k.k.k.k.k.k.k.k.k.k.k.k.V.V.V.Z.V.Z.V.V.V.V.V.V.V.V.k.V.V.Z.Z.Z.Z.V.V.V.Z.D.D.D.D.D.H.H.H.H.D.D.H.H.D.D.D.Z.V.V.V.V.V.Z.Z.V.V.k.k.V.k.k.k.k.k.k.k.k.f.f.f.f.f.f.f.f.f.f.f.f.t.y.y.t.t.t.t.t.t.e.t.e.t.t.t.6.6.6.6.6.6.6.6.6.6.6.6.6.6.6.6.6.;.-.-.-.;.;.;.;.;.-.-.-.*.*.&.&.&.#.#.@.+. . ._ a.a.a.a.a.a.a.a.a.a.a.a.a.a.a.a.a.a.a.a.a.a.a.a.a.a.a.a.a.a.a.a.a.a.a.a.a.a.a.a.a.a.a.a.a.a.a.a.a.a.a.a.a.a.a.a.a.",
"a.a.a.a.a.a.a.a.a.a.a.a.a.a.a.a.a.a.a.a.a.a.a.a.a.a.a.a.a.a.a.a.a.a.a.a.a.a.a.a.a.a.a.a.a.a.a.a.a.a.a.a.a.a.a.a.a.a.a.a.a.a.a.a.a.a.a.a.a.a.a.a.a.a.a.a.a.a.a.a.a.a.a.a.a.a.a.a.a.a.a.a.a.a.a.a.a.a.a.a.a.a.a.a.a.a.a.a.a.a.a.a.a.a.a.a.a.a.a.a.a.a.a.a.a.a.a.a.a.a.a.a.a.a.a.a.a.a.a.a.a.a.a.a.a.a.a.a.a.a.a.a.a.a.a.a.a.a.a.a.a.a.a.a.a.a.a.a.a.a.a.a.a.a.a.a.a.a.a.a.a.a.a.a.a.a.a.a.a.a.a.a.a.a.a.a.a.a.a.a.a.a.a.a.a.a.a.a.a.a.a.a.a.a.a.a.a.a.a.a.a.a.a.a.a.a.a.a.a.a.a.a.a.a.a.a.a.a.a.a.a.a.a.a.a.a.a.a.a.a.a.a.a.a.a.a.a.a.a.a.a.8 9 s h l B C C F F G U T T T T E E / / / / / / / / / _ _ ` ` } } ' ' ` `  .}  .+.+. .+.@.@.@.@.@.+.@.#.#.#.#.#.@.@.#.#.#.#.#.#.&.&.&.&.&.&.&.&.-.-.-.-.-.-.-.-.-.-.6.4.-.;.6.6.6.6.6.t.t.t.e.e.e.e.t.e.t.t.t.t.t.t.t.t.t.t.t.t.t.y.s.s.f.f.f.g.f.f.g.g.h.h.h.g.g.h.k.g.g.k.k.k.k.k.k.k.k.k.k.k.k.k.k.k.k.k.k.k.V.V.V.V.V.V.V.V.V.V.V.V.V.V.V.V.Z.Z.Z.Z.V.V.V.V.V.Z.D.D.D.D.Z.Z.Z.D.Z.Z.D.D.V.Z.Z.Z.D.H.Z.D.V.V.V.V.V.k.k.V.k.k.k.k.k.k.k.k.d.f.f.f.f.f.f.f.f.s.t.t.t.t.t.t.t.t.t.t.t.e.t.e.t.t.t.t.6.6.6.6.6.6.6.6.6.6.6.6.6.6.6.6.6.;.;.-.;.6.;.;.;.;.-.-.-.*.*.&.&.#.#.#.@.` }  .[ a.a.a.a.a.a.a.a.a.a.a.a.a.a.a.a.a.a.a.a.a.a.a.a.a.a.a.a.a.a.a.a.a.a.a.a.a.a.a.a.a.a.a.a.a.a.a.a.a.a.a.a.a.a.a.a.",
"a.a.a.a.a.a.a.a.a.a.a.a.a.a.a.a.a.a.a.a.a.a.a.a.a.a.a.a.a.a.a.a.a.a.a.a.a.a.a.a.a.a.a.a.a.a.a.a.a.a.a.a.a.a.a.a.a.a.a.a.a.a.a.a.a.a.a.a.a.a.a.a.a.a.a.a.a.a.a.a.a.a.a.a.a.a.a.a.a.a.a.a.a.a.a.a.a.a.a.a.a.a.a.a.a.a.a.a.a.a.a.a.a.a.a.a.a.a.a.a.a.a.a.a.a.a.a.a.a.a.a.a.a.a.a.a.a.a.a.a.a.a.a.a.a.a.a.a.a.a.a.a.a.a.a.a.a.a.a.a.a.a.a.a.a.a.a.a.a.a.a.a.a.a.a.a.a.a.a.a.a.a.a.a.a.a.a.a.a.a.a.a.a.a.a.a.a.a.a.a.a.a.a.a.a.a.a.a.a.a.a.a.a.a.a.a.a.a.a.a.a.a.a.a.a.a.a.a.a.a.a.a.a.a.a.a.a.a.a.a.a.a.a.a.a.a.a.a.a.a.a.a.a.a.a.a.a.a.a.a.a.6 9 s h l B B C S F G U R T T R E E ^ / / / / / / ` / _ _ ` ` ` ` ' ` ` ' } }  .+. . .+.@.@.@.@.@.@.#.#.#.#.#.#.@.@.#.#.#.@.#.#.&.&.&.&.&.&.-.-.-.-.-.-.-.-.-.-.-.-.-.4.4.;.;.;.;.6.6.t.6.t.e.e.e.e.e.t.t.t.t.t.t.t.t.t.t.t.t.t.t.y.s.f.f.f.f.f.g.f.h.f.g.h.h.h.h.k.k.g.h.g.k.k.k.k.k.k.k.k.k.k.k.k.k.V.k.k.V.V.V.V.V.V.V.V.Z.V.V.V.V.V.V.V.V.Z.Z.Z.Z.Z.V.Z.V.V.V.Z.D.D.D.D.Z.V.Z.Z.V.V.Z.D.H.H.D.D.Z.Z.V.V.V.V.k.k.V.V.V.V.k.k.k.k.k.k.k.k.d.f.f.f.s.y.f.f.f.f.f.y.t.t.t.y.t.t.t.t.t.t.t.e.t.t.t.6.6.6.6.6.6.;.6.;.6.6.6.6.6.t.6.6.6.6.6.6.;.6.;.6.;.;.;.-.-.-.*.&.&.#.@.@.@.@.} } ] a.a.a.a.a.a.a.a.a.a.a.a.a.a.a.a.a.a.a.a.a.a.a.a.a.a.a.a.a.a.a.a.a.a.a.a.a.a.a.a.a.a.a.a.a.a.a.a.a.a.a.a.a.a.a.a.",
"a.a.a.a.a.a.a.a.a.a.a.a.a.a.a.a.a.a.a.a.a.a.a.a.a.a.a.a.a.a.a.a.a.a.a.a.a.a.a.a.a.a.a.a.a.a.a.a.a.a.a.a.a.a.a.a.a.a.a.a.a.a.a.a.a.a.a.a.a.a.a.a.a.a.a.a.a.a.a.a.a.a.a.a.a.a.a.a.a.a.a.a.a.a.a.a.a.a.a.a.a.a.a.a.a.a.a.a.a.a.a.a.a.a.a.a.a.a.a.a.a.a.a.a.a.a.a.a.a.a.a.a.a.a.a.a.a.a.a.a.a.a.a.a.a.a.a.a.a.a.a.a.a.a.a.a.a.a.a.a.a.a.a.a.a.a.a.a.a.a.a.a.a.a.a.a.a.a.a.a.a.a.a.a.a.a.a.a.a.a.a.a.a.a.a.a.a.a.a.a.a.a.a.a.a.a.a.a.a.a.a.a.a.a.a.a.a.a.a.a.a.a.a.a.a.a.a.a.a.a.a.a.a.a.a.a.a.a.a.a.a.a.a.a.a.a.a.a.a.a.a.a.a.a.a.a.a.a.a.a.a.6 8 p s l B C B Z F G T R T T T E E E / / / / / / / / _ _ ` / ` ` ` _ _ ' '  . .+. . .+.@.+.@.@.@.@.#.#.#.@.@.@.@.#.#.#.#.@.#.#.&.&.&.&.&.#.&.&.-.&.*.-.*.-.-.-.-.4.-.-.4.;.-.;.;.t.t.t.t.6.e.e.e.e.t.t.t.t.t.t.t.t.t.t.t.t.t.t.t.y.f.f.f.d.f.f.h.h.f.f.f.h.h.h.k.k.k.h.h.k.k.k.k.k.k.k.k.k.k.V.k.k.k.k.k.k.k.k.V.V.V.V.V.Z.Z.Z.Z.Z.Z.Z.Z.Z.V.V.V.V.V.V.V.V.V.V.Z.Z.Z.D.Z.Z.Z.Z.V.Z.V.V.Z.Z.D.Z.D.Z.Z.V.V.k.V.V.V.D.V.V.V.k.k.k.k.k.h.k.k.h.d.f.s.f.f.d.f.k.f.f.f.t.t.t.t.t.t.t.t.t.t.t.t.t.t.t.6.6.6.t.6.t.e.e.;.;.-.;.-.;.e.6.6.6.6.6.6.;.;.6.6.6.6.;.6.-.-.-.-.*.&.#.@.@.&.@.} } } ] a.a.a.a.a.a.a.a.a.a.a.a.a.a.a.a.a.a.a.a.a.a.a.a.a.a.a.a.a.a.a.a.a.a.a.a.a.a.a.a.a.a.a.a.a.a.a.a.a.a.a.a.a.a.a.",
"a.a.a.a.a.a.a.a.a.a.a.a.a.a.a.a.a.a.a.a.a.a.a.a.a.a.a.a.a.a.a.a.a.a.a.a.a.a.a.a.a.a.a.a.a.a.a.a.a.a.a.a.a.a.a.a.a.a.a.a.a.a.a.a.a.a.a.a.a.a.a.a.a.a.a.a.a.a.a.a.a.a.a.a.a.a.a.a.a.a.a.a.a.a.a.a.a.a.a.a.a.a.a.a.a.a.a.a.a.a.a.a.a.a.a.a.a.a.a.a.a.a.a.a.a.a.a.a.a.a.a.a.a.a.a.a.a.a.a.a.a.a.a.a.a.a.a.a.a.a.a.a.a.a.a.a.a.a.a.a.a.a.a.a.a.a.a.a.a.a.a.a.a.a.a.a.a.a.a.a.a.a.a.a.a.a.a.a.a.a.a.a.a.a.a.a.a.a.a.a.a.a.a.a.a.a.a.a.a.a.a.a.a.a.a.a.a.a.a.a.a.a.a.a.a.a.a.a.a.a.a.a.a.a.a.a.a.a.a.a.a.a.a.a.a.a.a.a.a.a.a.a.a.a.a.a.a.a.a.a.a.a.8 p s l m B C S S F U U R T R T E E / / ^ / / / / / _ _ ` / ` ` ` ` ` ` } }  . . . .+.+.+.@.@.@.@.@.@.@.@.@.#.@.@.#.#.#.#.#.#.#.&.#.@.&.&.-.-.-.*.*.-.*.-.-.-.4.4.-.-.4.4.-.-.e.-.;.t.t.t.e.e.t.t.t.t.t.t.t.t.t.t.t.t.t.t.t.t.f.f.f.f.f.f.f.f.g.h.f.f.f.g.g.h.k.g.h.g.k.k.k.k.k.k.k.k.k.k.k.k.k.k.k.V.k.k.k.k.V.V.V.V.V.V.V.Z.Z.D.Z.Z.Z.Z.V.V.V.V.V.V.V.V.V.V.Z.Z.Z.Z.Z.Z.Z.Z.Z.D.V.Z.Z.V.V.Z.D.D.Z.Z.V.V.V.V.V.Z.V.V.V.k.k.k.k.k.k.k.k.k.d.d.d.f.d.f.f.f.f.f.f.t.t.y.y.t.y.y.y.y.t.t.t.t.t.t.6.6.6.t.t.6.;.;.;.;.;.;.;.;.6.6.6.6.6.6.6.;.6.;.6.6.6.6.6.;.-.-.-.&.*.#.&.@.@.@.} }  . .a.a.a.a.a.a.a.a.a.a.a.a.a.a.a.a.a.a.a.a.a.a.a.a.a.a.a.a.a.a.a.a.a.a.a.a.a.a.a.a.a.a.a.a.a.a.a.a.a.a.a.a.a.a.a.",
"a.a.a.a.a.a.a.a.a.a.a.a.a.a.a.a.a.a.a.a.a.a.a.a.a.a.a.a.a.a.a.a.a.a.a.a.a.a.a.a.a.a.a.a.a.a.a.a.a.a.a.a.a.a.a.a.a.a.a.a.a.a.a.a.a.a.a.a.a.a.a.a.a.a.a.a.a.a.a.a.a.a.a.a.a.a.a.a.a.a.a.a.a.a.a.a.a.a.a.a.a.a.a.a.a.a.a.a.a.a.a.a.a.a.a.a.a.a.a.a.a.a.a.a.a.a.a.a.a.a.a.a.a.a.a.a.a.a.a.a.a.a.a.a.a.a.a.a.a.a.a.a.a.a.a.a.a.a.a.a.a.a.a.a.a.a.a.a.a.a.a.a.a.a.a.a.a.a.a.a.a.a.a.a.a.a.a.a.a.a.a.a.a.a.a.a.a.a.a.a.a.a.a.a.a.a.a.a.a.a.a.a.a.a.a.a.a.a.a.a.a.a.a.a.a.a.a.a.a.a.a.a.a.a.a.a.a.a.a.a.a.a.a.a.a.a.a.a.a.a.a.a.a.a.a.a.a.a.a.a.a.a.6 9 s d l B C Z S F G U T T R T E E / / ^ ^ / / / / _ _ _ / ` ` _ ` ` ` '  . . .+.+.+.+.+.@.@.@.@.@.@.@.@.@.@.@.@.@.@.#.#.&.#.#.&.#.@.&.-.-.-.-.&.*.-.*.-.-.-.-.4.-.-.4.4.-.e.e.;.e.;.t.;.e.t.t.t.t.t.e.t.t.t.t.t.t.t.t.t.t.y.f.f.f.f.f.f.f.f.h.h.f.f.f.g.f.h.k.k.f.g.k.k.k.k.k.k.k.k.k.k.k.k.k.k.k.k.k.k.k.V.V.V.V.Z.V.V.Z.Z.Z.Z.Z.Z.Z.Z.k.V.V.V.V.V.V.V.V.V.Z.Z.Z.Z.Z.Z.Z.Z.H.D.Z.Z.V.V.Z.Z.D.D.Z.Z.Z.Z.D.Z.Z.V.V.V.V.k.k.k.k.k.k.k.k.f.k.d.d.d.g.d.f.s.f.f.f.t.f.s.y.t.y.y.y.y.y.t.t.t.t.t.t.6.6.t.t.6.e.;.;.;.;.e.;.;.6.t.t.t.6.t.t.6.6.6.6.;.;.t.6.;.-.-.-.-.*.#.#.@.@.@.} }  . .) a.a.a.a.a.a.a.a.a.a.a.a.a.a.a.a.a.a.a.a.a.a.a.a.a.a.a.a.a.a.a.a.a.a.a.a.a.a.a.a.a.a.a.a.a.a.a.a.a.a.a.a.a.a.",
"a.a.a.a.a.a.a.a.a.a.a.a.a.a.a.a.a.a.a.a.a.a.a.a.a.a.a.a.a.a.a.a.a.a.a.a.a.a.a.a.a.a.a.a.a.a.a.a.a.a.a.a.a.a.a.a.a.a.a.a.a.a.a.a.a.a.a.a.a.a.a.a.a.a.a.a.a.a.a.a.a.a.a.a.a.a.a.a.a.a.a.a.a.a.a.a.a.a.a.a.a.a.a.a.a.a.a.a.a.a.a.a.a.a.a.a.a.a.a.a.a.a.a.a.a.a.a.a.a.a.a.a.a.a.a.a.a.a.a.a.a.a.a.a.a.a.a.a.a.a.a.a.a.a.a.a.a.a.a.a.a.a.a.a.a.a.a.a.a.a.a.a.a.a.a.a.a.a.a.a.a.a.a.a.a.a.a.a.a.a.a.a.a.a.a.a.a.a.a.a.a.a.a.a.a.a.a.a.a.a.a.a.a.a.a.a.a.a.a.a.a.a.a.a.a.a.a.a.a.a.a.a.a.a.a.a.a.a.a.a.a.a.a.a.a.a.a.a.a.a.a.a.a.a.a.a.a.a.a.a.a.a.5 9 t d l B C Z S F G U T T R E E E / / ^ ^ / / / / / _ ` / ` ` ` ` ` ` `  . . .+.+.+.+.+.@.@.@.#.@.@.@.@.#.#.@.@.@.#.#.#.&.&.#.#.#.#.&.&.&.&.&.&.&.-.-.-.-.-.-.-.4.4.-.-.e.e.e.e.e.;.;.6.e.e.e.t.t.t.t.t.t.t.t.t.t.t.t.t.y.y.f.f.f.f.f.f.f.f.h.h.h.h.h.g.g.h.f.h.h.k.k.k.k.k.k.g.g.k.k.k.k.k.k.k.k.k.k.k.k.V.V.V.V.V.V.V.D.Z.V.V.Z.Z.Z.Z.V.V.V.V.Z.Z.V.V.V.Z.Z.Z.D.Z.Z.Z.Z.D.D.Z.Z.V.V.V.V.Z.Z.V.V.Z.Z.D.Z.D.Z.V.V.k.V.k.k.k.V.V.k.V.k.k.k.d.f.g.d.d.f.f.f.f.f.t.s.s.t.t.s.s.s.y.y.t.t.t.t.t.t.t.6.t.t.t.e.e.;.;.;.e.;.;.6.t.t.t.6.t.6.6.6.6.6.6.;.;.-.-.-.-.-.-.*.&.&.&.@.@.}  .@.} ] a.a.a.a.a.a.a.a.a.a.a.a.a.a.a.a.a.a.a.a.a.a.a.a.a.a.a.a.a.a.a.a.a.a.a.a.a.a.a.a.a.a.a.a.a.a.a.a.a.a.a.a.a.a.",
"a.a.a.a.a.a.a.a.a.a.a.a.a.a.a.a.a.a.a.a.a.a.a.a.a.a.a.a.a.a.a.a.a.a.a.a.a.a.a.a.a.a.a.a.a.a.a.a.a.a.a.a.a.a.a.a.a.a.a.a.a.a.a.a.a.a.a.a.a.a.a.a.a.a.a.a.a.a.a.a.a.a.a.a.a.a.a.a.a.a.a.a.a.a.a.a.a.a.a.a.a.a.a.a.a.a.a.a.a.a.a.a.a.a.a.a.a.a.a.a.a.a.a.a.a.a.a.a.a.a.a.a.a.a.a.a.a.a.a.a.a.a.a.a.a.a.a.a.a.a.a.a.a.a.a.a.a.a.a.a.a.a.a.a.a.a.a.a.a.a.a.a.a.a.a.a.a.a.a.a.a.a.a.a.a.a.a.a.a.a.a.a.a.a.a.a.a.a.a.a.a.a.a.a.a.a.a.a.a.a.a.a.a.a.a.a.a.a.a.a.a.a.a.a.a.a.a.a.a.a.a.a.a.a.a.a.a.a.a.a.a.a.a.a.a.a.a.a.a.a.a.a.a.a.a.a.a.a.a.a.a.a.5 8 t k l B C Z S F G U T T T T T T ^ ^ ^ ^ / / _ _ _ ` / _ ` _ ` ` ` } '  . . .+. .+.@.+.+.@.@.@.#.@.+.+.#.#.@.@.@.@.#.#.#.&.#.#.#.&.&.&.&.&.-.-.-.-.-.-.-.-.-.-.4.-.-.4.e.e.e.e.t.e.t.t.e.e.t.t.t.t.t.t.t.t.t.t.t.t.t.y.y.f.f.f.f.f.s.f.f.f.f.f.f.h.h.g.k.g.f.g.k.k.k.k.k.g.k.g.k.k.k.k.k.k.V.k.k.k.k.k.k.V.V.V.V.V.V.V.V.V.V.D.Z.H.D.Z.V.V.V.V.Z.D.V.V.Z.Z.Z.D.D.Z.Z.Z.D.H.D.Z.Z.V.V.Z.Z.Z.Z.Z.V.Z.V.Z.V.Z.Z.V.k.V.k.k.V.V.V.V.k.k.k.k.k.k.d.f.f.f.f.f.s.f.s.t.s.f.t.t.s.s.s.y.s.t.t.t.t.t.t.t.t.t.t.t.e.e.e.;.;.;.;.;.6.6.6.6.6.t.6.6.t.6.6.t.6.6.6.;.-.-.-.*.*.&.&.&.&.@. .}  . ._ U a.a.a.a.a.a.a.a.a.a.a.a.a.a.a.a.a.a.a.a.a.a.a.a.a.a.a.a.a.a.a.a.a.a.a.a.a.a.a.a.a.a.a.a.a.a.a.a.a.a.a.a.a.",
"a.a.a.a.a.a.a.a.a.a.a.a.a.a.a.a.a.a.a.a.a.a.a.a.a.a.a.a.a.a.a.a.a.a.a.a.a.a.a.a.a.a.a.a.a.a.a.a.a.a.a.a.a.a.a.a.a.a.a.a.a.a.a.a.a.a.a.a.a.a.a.a.a.a.a.a.a.a.a.a.a.a.a.a.a.a.a.a.a.a.a.a.a.a.a.a.a.a.a.a.a.a.a.a.a.a.a.a.a.a.a.a.a.a.a.a.a.a.a.a.a.a.a.a.a.a.a.a.a.a.a.a.a.a.a.a.a.a.a.a.a.a.a.a.a.a.a.a.a.a.a.a.a.a.a.a.a.a.a.a.a.a.a.a.a.a.a.a.a.a.a.a.a.a.a.a.a.a.a.a.a.a.a.a.a.a.a.a.a.a.a.a.a.a.a.a.a.a.a.a.a.a.a.a.a.a.a.a.a.a.a.a.a.a.a.a.a.a.a.a.a.a.a.a.a.a.a.a.a.a.a.a.a.a.a.a.a.a.a.a.a.a.a.a.a.a.a.a.a.a.a.a.a.a.a.a.a.a.a.a.a.a.< 7 s h l B B C S F G U U T T T T T ^ / ^ / / / _ _ ` ` / / _ ` ` ` ` ` } }  . . . . .@.@.@.@.@.@.@.@.@.@.@.@.@.@.@.@.@.@.@.@.@.#.#.&.&.&.&.&.*.*.-.-.-.-.-.-.-.-.4.4.4.4.e.;.t.;.t.t.t.t.e.t.e.e.t.t.t.t.t.t.t.t.f.t.y.t.t.s.s.s.s.s.f.f.f.f.f.f.f.h.f.f.f.g.g.k.k.k.k.k.k.k.k.k.k.k.k.k.k.k.k.k.k.k.k.k.V.V.V.V.V.V.V.V.V.Z.Z.D.H.Z.Z.Z.V.V.V.V.D.V.V.D.Z.Z.Z.Z.D.Z.Z.Z.Z.Z.D.D.Z.V.V.Z.Z.Z.Z.Z.Z.Z.Z.Z.V.Z.Z.V.Z.Z.V.k.k.k.k.k.k.k.k.k.g.d.f.f.f.f.f.f.s.s.s.y.y.t.t.t.s.s.y.y.y.t.t.t.t.t.t.t.t.t.t.t.e.e.e.;.;.;.;.;.6.6.6.6.6.6.6.6.t.t.6.6.t.6.6.6.-.*.-.*.*.&.&.&.#.&.@.}  . .} / a.a.a.a.a.a.a.a.a.a.a.a.a.a.a.a.a.a.a.a.a.a.a.a.a.a.a.a.a.a.a.a.a.a.a.a.a.a.a.a.a.a.a.a.a.a.a.a.a.a.a.a.a.",
"a.a.a.a.a.a.a.a.a.a.a.a.a.a.a.a.a.a.a.a.a.a.a.a.a.a.a.a.a.a.a.a.a.a.a.a.a.a.a.a.a.a.a.a.a.a.a.a.a.a.a.a.a.a.a.a.a.a.a.a.a.a.a.a.a.a.a.a.a.a.a.a.a.a.a.a.a.a.a.a.a.a.a.a.a.a.a.a.a.a.a.a.a.a.a.a.a.a.a.a.a.a.a.a.a.a.a.a.a.a.a.a.a.a.a.a.a.a.a.a.a.a.a.a.a.a.a.a.a.a.a.a.a.a.a.a.a.a.a.a.a.a.a.a.a.a.a.a.a.a.a.a.a.a.a.a.a.a.a.a.a.a.a.a.a.a.a.a.a.a.a.a.a.a.a.a.a.a.a.a.a.a.a.a.a.a.a.a.a.a.a.a.a.a.a.a.a.a.a.a.a.a.a.a.a.a.a.a.a.a.a.a.a.a.a.a.a.a.a.a.a.a.a.a.a.a.a.a.a.a.a.a.a.a.a.a.a.a.a.a.a.a.a.a.a.a.a.a.a.a.a.a.a.a.a.a.a.a.a.a.a.a.a.6 t s k m B C S F G U U T R T T T ^ / ^ / / / / / / _ / / _ _ ` ` ` ` ' } ' '  . . .@.@.@.@.@.@.+.@.@.@.@.@.@.@.@.@.@.@.@.@.@.#.&.&.&.&.&.&.*.-.-.-.-.-.-.-.-.-.-.6.-.4.-.t.t.t.t.t.t.6.t.t.t.e.t.t.t.t.t.t.t.t.f.t.y.f.y.s.s.s.y.s.f.f.f.f.f.f.f.h.h.f.f.f.k.k.k.k.g.k.k.k.k.k.k.k.k.k.k.k.k.k.k.k.k.k.V.V.V.V.V.V.V.V.D.D.Z.Z.D.D.D.Z.V.V.V.V.Z.Z.V.V.Z.Z.Z.Z.Z.Z.Z.H.D.D.D.Z.Z.V.V.Z.D.D.D.D.D.Z.D.H.V.V.Z.H.V.Z.V.k.k.V.k.k.k.k.k.k.f.d.f.f.f.f.f.f.s.f.s.y.y.t.t.t.s.s.s.y.t.y.y.t.t.t.t.t.6.6.t.6.e.e.e.;.w.;.;.;.6.6.6.6.6.6.6.6.t.6.6.t.6.t.6.6.-.-.-.*.*.&.:.*.&.&. . . .@._ / V a.a.a.a.a.a.a.a.a.a.a.a.a.a.a.a.a.a.a.a.a.a.a.a.a.a.a.a.a.a.a.a.a.a.a.a.a.a.a.a.a.a.a.a.a.a.a.a.a.a.a.a.",
"a.a.a.a.a.a.a.a.a.a.a.a.a.a.a.a.a.a.a.a.a.a.a.a.a.a.a.a.a.a.a.a.a.a.a.a.a.a.a.a.a.a.a.a.a.a.a.a.a.a.a.a.a.a.a.a.a.a.a.a.a.a.a.a.a.a.a.a.a.a.a.a.a.a.a.a.a.a.a.a.a.a.a.a.a.a.a.a.a.a.a.a.a.a.a.a.a.a.a.a.a.a.a.a.a.a.a.a.a.a.a.a.a.a.a.a.a.a.a.a.a.a.a.a.a.a.a.a.a.a.a.a.a.a.a.a.a.a.a.a.a.a.a.a.a.a.a.a.a.a.a.a.a.a.a.a.a.a.a.a.a.a.a.a.a.a.a.a.a.a.a.a.a.a.a.a.a.a.a.a.a.a.a.a.a.a.a.a.a.a.a.a.a.a.a.a.a.a.a.a.a.a.a.a.a.a.a.a.a.a.a.a.a.a.a.a.a.a.a.a.a.a.a.a.a.a.a.a.a.a.a.a.a.a.a.a.a.a.a.a.a.a.a.a.a.a.a.a.a.a.a.a.a.a.a.a.a.a.a.a.a.a.a.5 t h l m B C Z F G U U T T T T T / / ^ / / / / / / _ / / / ` ` ` ` ` ' ' ' '  . . .+.@.@.+.+.@.@.@.@.@.@.@.@.@.#.#.@.#.#.#.#.#.&.&.&.&.&.&.*.*.*.-.-.-.-.-.-.-.-.4.4.-.-.;.t.t.t.e.t.t.t.e.e.t.e.t.t.t.t.y.y.f.f.t.s.s.y.f.s.s.s.s.f.d.f.f.f.f.h.f.h.k.f.k.k.k.g.h.h.k.k.k.k.k.k.k.k.k.k.k.k.k.k.k.k.k.V.V.V.V.V.V.V.V.D.Z.D.H.Z.Z.D.H.V.V.V.Z.D.D.D.V.Z.Z.Z.Z.Z.Z.Z.H.H.H.D.Z.Z.V.Z.Z.D.H.D.D.D.Z.Z.Z.k.V.Z.H.V.k.Z.V.k.k.k.k.k.k.k.k.f.d.f.f.f.f.f.f.s.f.y.y.s.t.y.y.y.y.y.t.t.t.t.t.t.t.t.6.6.e.t.;.e.e.e.e.;.;.;.;.6.6.6.6.6.6.6.6.6.6.6.t.6.;.;.-.-.-.-.-.*.*.*.*.*.#.@.@.@.` } / Q a.a.a.a.a.a.a.a.a.a.a.a.a.a.a.a.a.a.a.a.a.a.a.a.a.a.a.a.a.a.a.a.a.a.a.a.a.a.a.a.a.a.a.a.a.a.a.a.a.a.a.a.",
"a.a.a.a.a.a.a.a.a.a.a.a.a.a.a.a.a.a.a.a.a.a.a.a.a.a.a.a.a.a.a.a.a.a.a.a.a.a.a.a.a.a.a.a.a.a.a.a.a.a.a.a.a.a.a.a.a.a.a.a.a.a.a.a.a.a.a.a.a.a.a.a.a.a.a.a.a.a.a.a.a.a.a.a.a.a.a.a.a.a.a.a.a.a.a.a.a.a.a.a.a.a.a.a.a.a.a.a.a.a.a.a.a.a.a.a.a.a.a.a.a.a.a.a.a.a.a.a.a.a.a.a.a.a.a.a.a.a.a.a.a.a.a.a.a.a.a.a.a.a.a.a.a.a.a.a.a.a.a.a.a.a.a.a.a.a.a.a.a.a.a.a.a.a.a.a.a.a.a.a.a.a.a.a.a.a.a.a.a.a.a.a.a.a.a.a.a.a.a.a.a.a.a.a.a.a.a.a.a.a.a.a.a.a.a.a.a.a.a.a.a.a.a.a.a.a.a.a.a.a.a.a.a.a.a.a.a.a.a.a.a.a.a.a.a.a.a.a.a.a.a.a.a.a.a.a.a.a.a.a.a.a.a.5 t s k m B C Z F G U U R T T T T ^ / ^ ^ / / / / / _ _ _ _ / ` ` ` ` ' ' ' '  . . .+.+.@.+.+.@.@.@.@.@.@.@.@.@.#.#.@.#.@.#.&.&.&.&.&.*.*.&.&.*.-.-.*.-.-.-.-.4.-.-.4.4.-.-.-.;.t.e.t.t.e.t.t.e.e.e.t.y.t.t.t.f.t.t.t.s.s.f.f.f.f.f.f.f.h.f.f.f.h.h.f.f.f.f.h.h.h.f.f.h.g.k.k.k.h.k.k.k.k.k.k.k.k.k.k.k.k.V.k.Z.V.V.V.Z.Z.Z.Z.Z.D.V.Z.H.V.V.Z.H.H.D.Z.Z.V.V.Z.Z.Z.Z.Z.D.D.D.D.Z.V.Z.Z.Z.D.D.Z.D.Z.V.V.Z.D.Z.Z.V.D.V.Z.V.V.V.k.k.k.k.k.k.g.k.k.d.f.d.d.s.f.f.y.y.t.t.t.u.t.t.t.t.t.t.t.t.e.t.e.e.e.e.e.e.e.e.e.e.e.e.;.;.6.t.6.6.6.6.6.6.6.6.6.6.-.;.;.6.-.-.-.1.-.*.&.&.#.#.#.@.@.} } ` ] c a.a.a.a.a.a.a.a.a.a.a.a.a.a.a.a.a.a.a.a.a.a.a.a.a.a.a.a.a.a.a.a.a.a.a.a.a.a.a.a.a.a.a.a.a.a.a.a.a.a.a.",
"a.a.a.a.a.a.a.a.a.a.a.a.a.a.a.a.a.a.a.a.a.a.a.a.a.a.a.a.a.a.a.a.a.a.a.a.a.a.a.a.a.a.a.a.a.a.a.a.a.a.a.a.a.a.a.a.a.a.a.a.a.a.a.a.a.a.a.a.a.a.a.a.a.a.a.a.a.a.a.a.a.a.a.a.a.a.a.a.a.a.a.a.a.a.a.a.a.a.a.a.a.a.a.a.a.a.a.a.a.a.a.a.a.a.a.a.a.a.a.a.a.a.a.a.a.a.a.a.a.a.a.a.a.a.a.a.a.a.a.a.a.a.a.a.a.a.a.a.a.a.a.a.a.a.a.a.a.a.a.a.a.a.a.a.a.a.a.a.a.a.a.a.a.a.a.a.a.a.a.a.a.a.a.a.a.a.a.a.a.a.a.a.a.a.a.a.a.a.a.a.a.a.a.a.a.a.a.a.a.a.a.a.a.a.a.a.a.a.a.a.a.a.a.a.a.a.a.a.a.a.a.a.a.a.a.a.a.a.a.a.a.a.a.a.a.a.a.a.a.a.a.a.a.a.a.a.a.a.a.a.a.a.a.6 9 s d l m C Z F G U G T R T T T ^ ^ ^ ^ / / / / _ _ ` / / ` ` ` ` ` ' } ' }  . . .+.+.@.+.+.@.@.@.@.@.@.@.@.@.#.#.@.#.#.#.#.#.&.&.#.#.&.&.&.-.-.-.*.-.-.-.-.-.-.4.4.4.6.-.;.-.e.e.t.t.t.e.e.e.e.t.t.t.t.t.s.t.t.y.y.s.s.f.f.f.f.f.f.f.f.f.f.f.h.f.f.d.f.g.h.h.h.f.f.f.k.g.g.k.h.k.k.k.k.k.k.k.k.k.k.k.V.V.k.Z.V.V.V.V.Z.Z.Z.Z.V.Z.D.H.V.V.Z.H.D.H.Z.Z.Z.Z.C.Z.H.H.Z.V.Z.D.D.D.D.D.Z.Z.H.D.Z.H.Z.Z.Z.H.V.Z.H.H.D.Z.V.V.V.V.k.k.k.k.k.k.d.d.f.d.f.d.d.f.g.f.t.y.t.t.t.t.t.t.t.t.t.t.t.t.e.t.e.e.e.e.;.e.e.;.e.e.e.e.;.;.6.6.6.6.6.6.6.6.6.6.6.6.;.6.6.6.4.-.-.-.-.-.*.&.&.&.#.@.@. .} ` _ W a.a.a.a.a.a.a.a.a.a.a.a.a.a.a.a.a.a.a.a.a.a.a.a.a.a.a.a.a.a.a.a.a.a.a.a.a.a.a.a.a.a.a.a.a.a.a.a.a.a.a.",
"a.a.a.a.a.a.a.a.a.a.a.a.a.a.a.a.a.a.a.a.a.a.a.a.a.a.a.a.a.a.a.a.a.a.a.a.a.a.a.a.a.a.a.a.a.a.a.a.a.a.a.a.a.a.a.a.a.a.a.a.a.a.a.a.a.a.a.a.a.a.a.a.a.a.a.a.a.a.a.a.a.a.a.a.a.a.a.a.a.a.a.a.a.a.a.a.a.a.a.a.a.a.a.a.a.a.a.a.a.a.a.a.a.a.a.a.a.a.a.a.a.a.a.a.a.a.a.a.a.a.a.a.a.a.a.a.a.a.a.a.a.a.a.a.a.a.a.a.a.a.a.a.a.a.a.a.a.a.a.a.a.a.a.a.a.a.a.a.a.a.a.a.a.a.a.a.a.a.a.a.a.a.a.a.a.a.a.a.a.a.a.a.a.a.a.a.a.a.a.a.a.a.a.a.a.a.a.a.a.a.a.a.a.a.a.a.a.a.a.a.a.a.a.a.a.a.a.a.a.a.a.a.a.a.a.a.a.a.a.a.a.a.a.a.a.a.a.a.a.a.a.a.a.a.a.a.a.a.a.a.a.a.a.< 8 9 h l B C C F F U G T R T T T ^ ^ ^ ^ / / / / _ _ _ / ` ` ` ` ` ` ' } ' }  . . .+.@. .@.+.+.+.@.@.@.@.@.@.@.#.#.@.#.#.#.#.#.&.&.&.&.&.&.&.-.-.-.*.-.-.-.-.-.-.4.4.4.t.t.;.-.e.e.t.t.e.e.t.e.t.t.t.t.t.s.t.t.t.y.y.s.s.f.s.f.f.f.f.f.f.f.f.h.g.g.g.d.f.h.h.h.h.f.f.f.k.k.k.k.h.k.k.k.k.k.k.k.k.k.k.k.V.V.k.Z.V.k.k.V.Z.Z.D.Z.A.H.D.H.V.V.Z.D.Z.Z.H.H.H.C.C.C.H.H.Z.H.H.D.Z.Z.D.H.Z.D.H.H.H.H.H.Z.Z.H.H.Z.Z.V.Z.V.Z.Z.V.V.k.k.k.k.k.k.d.g.f.d.f.d.d.f.f.f.s.f.t.t.t.t.t.t.t.t.t.t.t.t.t.t.e.e.e.e.e.e.e.e.e.e.e.e.;.;.6.t.t.6.t.6.6.6.6.6.6.6.;.;.-.6.-.-.-.-.6.-.*.&.&.&.#.@.@. . .} } W a.a.a.a.a.a.a.a.a.a.a.a.a.a.a.a.a.a.a.a.a.a.a.a.a.a.a.a.a.a.a.a.a.a.a.a.a.a.a.a.a.a.a.a.a.a.a.a.a.a.a.",
"a.a.a.a.a.a.a.a.a.a.a.a.a.a.a.a.a.a.a.a.a.a.a.a.a.a.a.a.a.a.a.a.a.a.a.a.a.a.a.a.a.a.a.a.a.a.a.a.a.a.a.a.a.a.a.a.a.a.a.a.a.a.a.a.a.a.a.a.a.a.a.a.a.a.a.a.a.a.a.a.a.a.a.a.a.a.a.a.a.a.a.a.a.a.a.a.a.a.a.a.a.a.a.a.a.a.a.a.a.a.a.a.a.a.a.a.a.a.a.a.a.a.a.a.a.a.a.a.a.a.a.a.a.a.a.a.a.a.a.a.a.a.a.a.a.a.a.a.a.a.a.a.a.a.a.a.a.a.a.a.a.a.a.a.a.a.a.a.a.a.a.a.a.a.a.a.a.a.a.a.a.a.a.a.a.a.a.a.a.a.a.a.a.a.a.a.a.a.a.a.a.a.a.a.a.a.a.a.a.a.a.a.a.a.a.a.a.a.a.a.a.a.a.a.a.a.a.a.a.a.a.a.a.a.a.a.a.a.a.a.a.a.a.a.a.a.a.a.a.a.a.a.a.a.a.a.a.a.a.a.a.a.a.a.8 t h l m C C S F P U T T T T T ^ / ^ ^ / / / / _ _ / _ ` ` ` ` _ ` ' ' }  . .}  .+.@.+.@.+. .@.+.@.@.@.@.@.@.@.@.@.#.#.&.#.#.#.&.&.&.&.&.&.&.-.-.&.-.-.-.-.-.-.4.4.e.e.t.-.-.t.t.;.t.e.t.e.e.t.t.t.t.t.y.t.t.y.t.y.f.f.f.f.f.f.f.f.h.f.f.f.f.f.f.f.d.f.h.h.h.f.f.f.k.k.k.k.g.h.k.k.k.k.k.k.k.k.k.k.k.V.V.V.V.k.k.V.V.Z.Z.Z.V.D.D.D.Z.V.V.Z.Z.Z.Z.Z.H.H.H.H.H.Z.C.H.H.H.D.H.Z.Z.H.D.D.H.H.H.H.H.Z.Z.H.Z.Z.H.H.V.V.D.Z.V.V.k.k.k.k.k.k.k.d.f.f.f.d.d.d.f.f.f.f.y.t.t.t.t.t.t.t.t.t.t.t.t.t.e.e.e.e.e.e.e.e.e.;.e.;.;.;.;.6.6.6.6.6.6.6.6.6.6.6.6.;.;.6.4.-.-.-.-.-.-.*.&.&.#.#.@. . .} } _ S a.a.a.a.a.a.a.a.a.a.a.a.a.a.a.a.a.a.a.a.a.a.a.a.a.a.a.a.a.a.a.a.a.a.a.a.a.a.a.a.a.a.a.a.a.a.a.a.a.a.",
"a.a.a.a.a.a.a.a.a.a.a.a.a.a.a.a.a.a.a.a.a.a.a.a.a.a.a.a.a.a.a.a.a.a.a.a.a.a.a.a.a.a.a.a.a.a.a.a.a.a.a.a.a.a.a.a.a.a.a.a.a.a.a.a.a.a.a.a.a.a.a.a.a.a.a.a.a.a.a.a.a.a.a.a.a.a.a.a.a.a.a.a.a.a.a.a.a.a.a.a.a.a.a.a.a.a.a.a.a.a.a.a.a.a.a.a.a.a.a.a.a.a.a.a.a.a.a.a.a.a.a.a.a.a.a.a.a.a.a.a.a.a.a.a.a.a.a.a.a.a.a.a.a.a.a.a.a.a.a.a.a.a.a.a.a.a.a.a.a.a.a.a.a.a.a.a.a.a.a.a.a.a.a.a.a.a.a.a.a.a.a.a.a.a.a.a.a.a.a.a.a.a.a.a.a.a.a.a.a.a.a.a.a.a.a.a.a.a.a.a.a.a.a.a.a.a.a.a.a.a.a.a.a.a.a.a.a.a.a.a.a.a.a.a.a.a.a.a.a.a.a.a.a.a.a.a.a.a.a.a.a.a.a.a.6 9 s l B C C S F P U T T T T T ^ / ^ ^ / E / / _ _ / / / ` ` ` _ ` ' }  . .+. . . .+.+.+. . .+.@.@.@.@.@.@.@.@.@.#.#.#.#.&.#.&.&.&.&.&.&.&.&.&.-.-.-.-.-.-.4.4.4.4.t.e.-.-.t.t.t.t.;.e.e.t.e.t.t.t.t.t.t.t.t.t.t.s.f.f.f.f.f.f.f.f.g.f.f.f.f.f.f.h.d.f.f.f.h.f.f.f.f.h.g.k.k.k.k.k.h.k.k.k.k.k.k.V.V.V.Z.V.k.V.k.V.V.Z.Z.Z.Z.H.D.Z.V.V.V.Z.Z.Z.Z.Z.H.H.H.Z.Z.Z.H.H.H.H.D.Z.Z.D.H.V.Z.H.C.H.C.Z.H.H.Z.H.Z.Z.Z.V.V.k.k.V.V.k.k.k.k.k.k.k.d.f.f.f.f.f.f.s.t.f.s.y.t.t.t.t.t.t.t.t.t.t.t.t.e.e.e.e.e.e.e.e.e.;.;.;.;.;.-.6.t.t.t.t.t.t.6.6.6.6.6.6.6.6.6.;.-.-.-.-.-.-.*.&.&.&.@.@.@. .} _ / W a.a.a.a.a.a.a.a.a.a.a.a.a.a.a.a.a.a.a.a.a.a.a.a.a.a.a.a.a.a.a.a.a.a.a.a.a.a.a.a.a.a.a.a.a.a.a.a.a.a.",
"a.a.a.a.a.a.a.a.a.a.a.a.a.a.a.a.a.a.a.a.a.a.a.a.a.a.a.a.a.a.a.a.a.a.a.a.a.a.a.a.a.a.a.a.a.a.a.a.a.a.a.a.a.a.a.a.a.a.a.a.a.a.a.a.a.a.a.a.a.a.a.a.a.a.a.a.a.a.a.a.a.a.a.a.a.a.a.a.a.a.a.a.a.a.a.a.a.a.a.a.a.a.a.a.a.a.a.a.a.a.a.a.a.a.a.a.a.a.a.a.a.a.a.a.a.a.a.a.a.a.a.a.a.a.a.a.a.a.a.a.a.a.a.a.a.a.a.a.a.a.a.a.a.a.a.a.a.a.a.a.a.a.a.a.a.a.a.a.a.a.a.a.a.a.a.a.a.a.a.a.a.a.a.a.a.a.a.a.a.a.a.a.a.a.a.a.a.a.a.a.a.a.a.a.a.a.a.a.a.a.a.a.a.a.a.a.a.a.a.a.a.a.a.a.a.a.a.a.a.a.a.a.a.a.a.a.a.a.a.a.a.a.a.a.a.a.a.a.a.a.a.a.a.a.a.a.a.a.a.a.a.a.a.a.7 9 s k m C Z F F F U U T T T T E / ^ ^ / / / / _ _ / / / _ ` ` _ ` ` ` }  .+. . . .+.+.+.+.@.' @.@.@.@.@.@.@.@.@.#.#.#.#.&.&.#.&.&.&.&.&.&.-.-.-.-.-.-.-.-.4.4.4.4.;.;.-.t.t.t.t.;.;.e.t.t.e.t.t.t.t.t.t.t.t.t.t.t.s.s.f.f.f.f.f.f.h.f.f.f.f.f.f.h.d.f.f.f.f.f.f.h.f.g.k.k.k.k.k.k.k.k.k.k.k.k.k.V.V.V.V.V.V.V.V.V.V.Z.Z.Z.Z.D.D.Z.Z.Z.Z.D.D.H.H.H.H.V.H.H.H.H.H.H.H.Z.V.V.V.D.H.H.C.H.C.H.H.H.D.Z.Z.Z.V.V.Z.Z.Z.V.V.V.V.k.k.k.k.k.k.k.k.f.f.f.f.f.f.f.f.s.y.y.f.f.t.t.t.t.t.t.t.t.e.e.e.e.e.e.e.e.e.e.e.e.;.;.;.;.;.6.;.6.6.t.6.6.6.6.6.6.6.6.6.;.6.6.4.4.-.-.1.-.&.-.&.&.@.@.@. . .` ` / B a.a.a.a.a.a.a.a.a.a.a.a.a.a.a.a.a.a.a.a.a.a.a.a.a.a.a.a.a.a.a.a.a.a.a.a.a.a.a.a.a.a.a.a.a.a.a.a.a.",
"a.a.a.a.a.a.a.a.a.a.a.a.a.a.a.a.a.a.a.a.a.a.a.a.a.a.a.a.a.a.a.a.a.a.a.a.a.a.a.a.a.a.a.a.a.a.a.a.a.a.a.a.a.a.a.a.a.a.a.a.a.a.a.a.a.a.a.a.a.a.a.a.a.a.a.a.a.a.a.a.a.a.a.a.a.a.a.a.a.a.a.a.a.a.a.a.a.a.a.a.a.a.a.a.a.a.a.a.a.a.a.a.a.a.a.a.a.a.a.a.a.a.a.a.a.a.a.a.a.a.a.a.a.a.a.a.a.a.a.a.a.a.a.a.a.a.a.a.a.a.a.a.a.a.a.a.a.a.a.a.a.a.a.a.a.a.a.a.a.a.a.a.a.a.a.a.a.a.a.a.a.a.a.a.a.a.a.a.a.a.a.a.a.a.a.a.a.a.a.a.a.a.a.a.a.a.a.a.a.a.a.a.a.a.a.a.a.a.a.a.a.a.a.a.a.a.a.a.a.a.a.a.a.a.a.a.a.a.a.a.a.a.a.a.a.a.a.a.a.a.a.a.a.a.a.a.a.a.a.a.a.a.a.a.7 9 s d l B C S F F U U U T T T E / E T / / / / _ _ / / / _ / / ` ` } `  .' '  .+.@.+.+.+.+. .+.@.@.@.@.+.@.@.@.@.#.#.#.#.&.&.#.#.&.&.&.&.&.-.-.-.-.-.-.4.4.4.4.4.4.;.;.;.t.t.t.e.;.;.e.t.t.t.t.t.t.t.t.t.t.t.t.t.t.s.s.f.f.f.f.f.f.h.f.f.f.f.f.f.h.d.f.f.f.f.f.h.f.k.k.h.f.f.h.k.k.k.k.k.k.k.V.k.V.V.V.k.k.V.V.k.V.V.D.D.D.D.D.D.D.Z.V.Z.Z.Z.D.H.H.H.Z.H.H.H.H.U.H.H.V.V.V.V.Z.H.H.H.C.H.H.H.H.H.H.H.Z.Z.V.Z.V.V.k.k.k.V.V.k.k.k.k.k.k.k.f.f.f.d.d.d.f.f.f.s.t.f.f.f.t.t.t.t.t.t.t.e.e.t.e.e.e.e.e.e.e.e.e.e.;.-.;.;.6.;.6.6.t.t.6.6.6.6.6.6.6.6.6.6.6.4.4.-.-.-.-.-.-.&.&.&.@.@. . .`  . .W a.a.a.a.a.a.a.a.a.a.a.a.a.a.a.a.a.a.a.a.a.a.a.a.a.a.a.a.a.a.a.a.a.a.a.a.a.a.a.a.a.a.a.a.a.a.a.a.a.",
"a.a.a.a.a.a.a.a.a.a.a.a.a.a.a.a.a.a.a.a.a.a.a.a.a.a.a.a.a.a.a.a.a.a.a.a.a.a.a.a.a.a.a.a.a.a.a.a.a.a.a.a.a.a.a.a.a.a.a.a.a.a.a.a.a.a.a.a.a.a.a.a.a.a.a.a.a.a.a.a.a.a.a.a.a.a.a.a.a.a.a.a.a.a.a.a.a.a.a.a.a.a.a.a.a.a.a.a.a.a.a.a.a.a.a.a.a.a.a.a.a.a.a.a.a.a.a.a.a.a.a.a.a.a.a.a.a.a.a.a.a.a.a.a.a.a.a.a.a.a.a.a.a.a.a.a.a.a.a.a.a.a.a.a.a.a.a.a.a.a.a.a.a.a.a.a.a.a.a.a.a.a.a.a.a.a.a.a.a.a.a.a.a.a.a.a.a.a.a.a.a.a.a.a.a.a.a.a.a.a.a.a.a.a.a.a.a.a.a.a.a.a.a.a.a.a.a.a.a.a.a.a.a.a.a.a.a.a.a.a.a.a.a.a.a.a.a.a.a.a.a.a.a.a.a.a.a.a.a.a.a.a.a.a.r 8 s h l B C S F F U U T T T T E ^ / / / ^ / / / _ / _ / / / / ` } } ' ' ' '  .+. .+. .+.+. .@.@.@.@.@.+.@.@.@.@.@.#.#.#.#.&.&.#.&.&.&.&.&.-.-.-.-.-.-.4.4.4.6.4.4.6.t.;.;.t.t.t.t.6.t.e.e.t.t.t.t.t.t.t.t.t.t.t.t.s.s.f.f.f.f.f.f.f.f.f.f.f.h.f.f.d.f.f.f.h.f.h.h.k.k.h.h.h.g.k.k.k.k.k.k.k.k.V.V.V.Z.V.V.V.Z.V.Z.V.V.V.V.Z.D.D.D.Z.V.V.Z.Z.Z.H.H.H.H.D.H.H.H.H.C.H.Z.C.Z.Z.H.H.H.H.C.H.H.H.Z.H.D.D.H.D.Z.H.Z.D.V.Z.V.V.V.V.k.k.k.k.k.k.d.f.f.f.f.f.f.f.f.f.f.s.s.f.t.t.t.t.t.t.t.e.e.t.t.e.e.e.e.e.e.e.e.e.e.;.;.;.6.6.6.6.6.6.6.;.6.6.6.6.6.6.6.6.4.-.-.-.-.-.-.-.&.&.&.#.@.@. . .' ` _ W a.a.a.a.a.a.a.a.a.a.a.a.a.a.a.a.a.a.a.a.a.a.a.a.a.a.a.a.a.a.a.a.a.a.a.a.a.a.a.a.a.a.a.a.a.a.a.a.a.",
"a.a.a.a.a.a.a.a.a.a.a.a.a.a.a.a.a.a.a.a.a.a.a.a.a.a.a.a.a.a.a.a.a.a.a.a.a.a.a.a.a.a.a.a.a.a.a.a.a.a.a.a.a.a.a.a.a.a.a.a.a.a.a.a.a.a.a.a.a.a.a.a.a.a.a.a.a.a.a.a.a.a.a.a.a.a.a.a.a.a.a.a.a.a.a.a.a.a.a.a.a.a.a.a.a.a.a.a.a.a.a.a.a.a.a.a.a.a.a.a.a.a.a.a.a.a.a.a.a.a.a.a.a.a.a.a.a.a.a.a.a.a.a.a.a.a.a.a.a.a.a.a.a.a.a.a.a.a.a.a.a.a.a.a.a.a.a.a.a.a.a.a.a.a.a.a.a.a.a.a.a.a.a.a.a.a.a.a.a.a.a.a.a.a.a.a.a.a.a.a.a.a.a.a.a.a.a.a.a.a.a.a.a.a.a.a.a.a.a.a.a.a.a.a.a.a.a.a.a.a.a.a.a.a.a.a.a.a.a.a.a.a.a.a.a.a.a.a.a.a.a.a.a.a.a.a.a.a.a.a.a.a.a.a.a.8 p s l B C S F G G U T T T T T ^ / / / / / / / / / / / / ` / ` ` ` '  . .'  .+.+.+. .+.@.@.@.@.@.@.@.+.@.@.@.@.@.#.#.#.#.&.&.&.&.&.&.-.-.-.-.-.-.-.-.-.4.4.4.6.6.t.t.-.;.t.t.t.t.t.e.e.e.t.e.e.t.t.t.t.t.t.t.t.t.s.s.s.s.f.f.f.f.f.f.f.f.f.h.h.h.d.f.f.f.f.g.g.g.k.k.k.k.k.g.k.k.k.k.k.k.k.k.k.k.V.Z.V.Z.Z.D.D.D.Z.Z.Z.Z.V.H.D.D.Z.k.V.V.Z.Z.Z.C.H.H.Z.H.H.H.Z.C.Z.Z.H.H.C.V.V.V.V.C.H.H.A.H.U.H.D.H.A.D.H.V.Z.D.V.V.V.V.V.k.k.k.k.k.k.d.f.d.f.f.f.d.f.f.s.f.f.f.s.s.t.t.t.t.t.t.e.e.t.t.e.e.e.e.e.e.e.e.e.e.e.e.e.e.e.e.e.;.;.;.;.e.6.6.6.6.6.6.6.;.-.-.-.-.-.-.-.&.#.#.#.&.@.@. . .} _ / J a.a.a.a.a.a.a.a.a.a.a.a.a.a.a.a.a.a.a.a.a.a.a.a.a.a.a.a.a.a.a.a.a.a.a.a.a.a.a.a.a.a.a.a.a.a.a.a.",
"a.a.a.a.a.a.a.a.a.a.a.a.a.a.a.a.a.a.a.a.a.a.a.a.a.a.a.a.a.a.a.a.a.a.a.a.a.a.a.a.a.a.a.a.a.a.a.a.a.a.a.a.a.a.a.a.a.a.a.a.a.a.a.a.a.a.a.a.a.a.a.a.a.a.a.a.a.a.a.a.a.a.a.a.a.a.a.a.a.a.a.a.a.a.a.a.a.a.a.a.a.a.a.a.a.a.a.a.a.a.a.a.a.a.a.a.a.a.a.a.a.a.a.a.a.a.a.a.a.a.a.a.a.a.a.a.a.a.a.a.a.a.a.a.a.a.a.a.a.a.a.a.a.a.a.a.a.a.a.a.a.a.a.a.a.a.a.a.a.a.a.a.a.a.a.a.a.a.a.a.a.a.a.a.a.a.a.a.a.a.a.a.a.a.a.a.a.a.a.a.a.a.a.a.a.a.a.a.a.a.a.a.a.a.a.a.a.a.a.a.a.a.a.a.a.a.a.a.a.a.a.a.a.a.a.a.a.a.a.a.a.a.a.a.a.a.a.a.a.a.a.a.a.a.a.a.a.a.a.a.a.a.a.a.a.7 t s d B C S F F G U T T T T T ^ / / / / / / / _ / / / / / ` ` ` ` ' }  .+.+. .+. . .+.+.+.+.+.+.@.@.@.@.@.@.@.#.#.#.@.#.&.&.&.&.&.&.-.-.-.-.-.-.-.4.4.4.6.4.6.6.6.;.-.;.t.t.t.t.t.e.t.t.t.e.e.t.t.t.t.t.t.t.t.t.f.f.f.f.f.f.f.f.s.s.f.f.f.f.f.f.f.f.f.h.h.h.f.d.f.g.g.g.k.k.k.k.k.k.k.k.k.k.k.k.k.V.A.Z.V.D.D.H.Z.H.D.D.H.Z.D.D.V.V.V.V.V.Z.Z.D.H.Z.H.H.H.Z.C.C.C.H.H.H.H.C.H.H.H.Z.H.H.H.U.H.C.H.Z.H.H.H.V.Z.Z.V.k.k.k.k.V.k.k.k.k.g.k.d.k.f.f.f.d.f.f.f.f.f.f.s.y.t.t.t.t.t.t.e.e.t.t.e.e.e.e.e.e.e.e.e.e.e.e.;.;.;.;.;.;.;.;.;.6.6.6.6.6.6.6.6.;.-.-.-.-.-.-.-.*.#.&.#.&.@.@. .} ' ` / W a.a.a.a.a.a.a.a.a.a.a.a.a.a.a.a.a.a.a.a.a.a.a.a.a.a.a.a.a.a.a.a.a.a.a.a.a.a.a.a.a.a.a.a.a.a.a.a.",
"a.a.a.a.a.a.a.a.a.a.a.a.a.a.a.a.a.a.a.a.a.a.a.a.a.a.a.a.a.a.a.a.a.a.a.a.a.a.a.a.a.a.a.a.a.a.a.a.a.a.a.a.a.a.a.a.a.a.a.a.a.a.a.a.a.a.a.a.a.a.a.a.a.a.a.a.a.a.a.a.a.a.a.a.a.a.a.a.a.a.a.a.a.a.a.a.a.a.a.a.a.a.a.a.a.a.a.a.a.a.a.a.a.a.a.a.a.a.a.a.a.a.a.a.a.a.a.a.a.a.a.a.a.a.a.a.a.a.a.a.a.a.a.a.a.a.a.a.a.a.a.a.a.a.a.a.a.a.a.a.a.a.a.a.a.a.a.a.a.a.a.a.a.a.a.a.a.a.a.a.a.a.a.a.a.a.a.a.a.a.a.a.a.a.a.a.a.a.a.a.a.a.a.a.a.a.a.a.a.a.a.a.a.a.a.a.a.a.a.a.a.a.a.a.a.a.a.a.a.a.a.a.a.a.a.a.a.a.a.a.a.a.a.a.a.a.a.a.a.a.a.a.a.a.a.a.a.a.a.a.a.a.a.a.a.7 t s d B C Z S F G U T U T T T ^ / / / / / / / _ / / / / / ` ` ` ` '  .}  .+.+. . .+. .+.@. . .+.@.+.@.@.@.@.@.@.#.#.#.#.&.&.&.&.&.&.&.-.-.-.-.-.-.4.-.4.4.4.6.6.6.-.-.t.t.t.t.t.t.e.e.t.t.e.e.t.t.t.t.t.t.t.t.y.t.s.f.s.s.f.f.f.s.s.s.f.f.f.f.f.f.f.f.f.h.h.f.h.f.f.f.f.g.k.k.k.k.k.k.k.k.k.k.k.k.V.V.V.V.V.V.V.V.D.D.D.Z.D.D.Z.V.V.V.V.V.Z.H.H.H.Z.Z.Z.H.H.H.H.H.H.H.H.C.V.V.V.Z.C.H.H.H.H.H.H.H.C.H.H.D.V.Z.Z.V.k.k.k.k.k.k.k.k.g.g.k.k.k.d.f.d.d.f.f.f.f.f.f.s.t.y.t.t.t.t.t.e.e.t.t.e.e.e.e.e.e.e.e.e.e.e.;.;.;.-.;.;.;.;.;.;.6.6.6.6.6.6.6.6.;.-.-.-.-.-.-.-.*.&.&.#.#.@.@. . .` ` / / a.a.a.a.a.a.a.a.a.a.a.a.a.a.a.a.a.a.a.a.a.a.a.a.a.a.a.a.a.a.a.a.a.a.a.a.a.a.a.a.a.a.a.a.a.a.a.a.",
"a.a.a.a.a.a.a.a.a.a.a.a.a.a.a.a.a.a.a.a.a.a.a.a.a.a.a.a.a.a.a.a.a.a.a.a.a.a.a.a.a.a.a.a.a.a.a.a.a.a.a.a.a.a.a.a.a.a.a.a.a.a.a.a.a.a.a.a.a.a.a.a.a.a.a.a.a.a.a.a.a.a.a.a.a.a.a.a.a.a.a.a.a.a.a.a.a.a.a.a.a.a.a.a.a.a.a.a.a.a.a.a.a.a.a.a.a.a.a.a.a.a.a.a.a.a.a.a.a.a.a.a.a.a.a.a.a.a.a.a.a.a.a.a.a.a.a.a.a.a.a.a.a.a.a.a.a.a.a.a.a.a.a.a.a.a.a.a.a.a.a.a.a.a.a.a.a.a.a.a.a.a.a.a.a.a.a.a.a.a.a.a.a.a.a.a.a.a.a.a.a.a.a.a.a.a.a.a.a.a.a.a.a.a.a.a.a.a.a.a.a.a.a.a.a.a.a.a.a.a.a.a.a.a.a.a.a.a.a.a.a.a.a.a.a.a.a.a.a.a.a.a.a.a.a.a.a.a.a.a.a.a.a.a.a.6 9 p d B C Z S F F U U T T T T ^ / / / / / _ / _ / / / / / ` ` ` ` ' '  .} }  . . .+. .+.@. . .@.+.+.@.@.@.@.@.@.@.#.#.#.#.&.&.&.&.&.-.-.-.-.-.-.-.-.-.-.4.4.4.6.4.-.-.;.t.t.t.t.t.e.e.e.t.t.e.t.t.t.t.t.t.t.t.t.y.s.s.s.s.f.f.f.f.s.s.s.f.s.f.f.f.f.f.f.f.f.f.h.f.h.f.f.g.k.k.k.k.k.k.k.k.k.k.k.k.V.A.V.k.V.V.Z.Z.H.H.D.D.Z.D.Z.V.V.Z.Z.Z.Z.D.Z.Z.Z.Z.Z.H.U.H.C.Z.C.H.H.H.C.D.D.Z.H.H.H.C.C.H.H.H.C.H.H.H.Z.Z.V.V.k.V.V.k.k.k.k.k.g.d.g.d.g.d.d.k.d.f.f.f.f.f.s.s.t.t.t.y.t.t.t.t.t.t.e.t.e.e.e.e.e.e.e.e.e.e.;.-.;.;.;.;.;.;.;.;.6.6.6.6.6.6.6.6.;.;.;.-.-.-.-.-.-.*.*.#.#.@.@.@. .} ` _ W J a.a.a.a.a.a.a.a.a.a.a.a.a.a.a.a.a.a.a.a.a.a.a.a.a.a.a.a.a.a.a.a.a.a.a.a.a.a.a.a.a.a.a.a.a.a.a.",
"a.a.a.a.a.a.a.a.a.a.a.a.a.a.a.a.a.a.a.a.a.a.a.a.a.a.a.a.a.a.a.a.a.a.a.a.a.a.a.a.a.a.a.a.a.a.a.a.a.a.a.a.a.a.a.a.a.a.a.a.a.a.a.a.a.a.a.a.a.a.a.a.a.a.a.a.a.a.a.a.a.a.a.a.a.a.a.a.a.a.a.a.a.a.a.a.a.a.a.a.a.a.a.a.a.a.a.a.a.a.a.a.a.a.a.a.a.a.a.a.a.a.a.a.a.a.a.a.a.a.a.a.a.a.a.a.a.a.a.a.a.a.a.a.a.a.a.a.a.a.a.a.a.a.a.a.a.a.a.a.a.a.a.a.a.a.a.a.a.a.a.a.a.a.a.a.a.a.a.a.a.a.a.a.a.a.a.a.a.a.a.a.a.a.a.a.a.a.a.a.a.a.a.a.a.a.a.a.a.a.a.a.a.a.a.a.a.a.a.a.a.a.a.a.a.a.a.a.a.a.a.a.a.a.a.a.a.a.a.a.a.a.a.a.a.a.a.a.a.a.a.a.a.a.a.a.a.a.a.a.a.a.a.a.a.7 8 p d n B Z S S F U U R T T T ^ / ^ / / / / / / / / / / / / _ ` } } } }  . . . . .+. .+. . . . . . .@.@.@.@.@.@.@.#.#.#.#.#.&.&.&.-.*.-.-.-.-.-.-.-.-.-.4.6.4.4.-.-.-.;.t.t.t.t.t.e.e.e.e.t.t.t.t.t.t.t.t.t.t.t.t.s.s.f.f.f.f.s.s.s.f.f.f.f.f.f.f.f.f.f.f.f.f.h.h.h.h.h.k.k.k.k.k.k.k.k.k.k.k.k.k.V.V.k.k.k.k.V.V.D.D.Z.Z.Z.Z.Z.D.D.Z.Z.Z.Z.D.Z.Z.Z.D.D.D.H.Z.Z.H.H.H.H.H.H.H.D.Z.H.H.H.H.C.H.Z.C.C.H.H.H.Z.V.Z.V.k.V.V.V.k.k.k.k.k.k.d.d.f.d.d.d.k.d.f.f.f.f.s.y.t.t.t.y.t.t.t.t.t.t.e.t.e.e.e.e.e.e.e.e.e.e.;.;.e.e.e.e.e.;.-.e.6.6.6.6.6.6.6.6.;.e.w.-.-.-.-.-.-.*.&.#.&.&.@.@. .} ` _ / R a.a.a.a.a.a.a.a.a.a.a.a.a.a.a.a.a.a.a.a.a.a.a.a.a.a.a.a.a.a.a.a.a.a.a.a.a.a.a.a.a.a.a.a.a.a.a.",
"a.a.a.a.a.a.a.a.a.a.a.a.a.a.a.a.a.a.a.a.a.a.a.a.a.a.a.a.a.a.a.a.a.a.a.a.a.a.a.a.a.a.a.a.a.a.a.a.a.a.a.a.a.a.a.a.a.a.a.a.a.a.a.a.a.a.a.a.a.a.a.a.a.a.a.a.a.a.a.a.a.a.a.a.a.a.a.a.a.a.a.a.a.a.a.a.a.a.a.a.a.a.a.a.a.a.a.a.a.a.a.a.a.a.a.a.a.a.a.a.a.a.a.a.a.a.a.a.a.a.a.a.a.a.a.a.a.a.a.a.a.a.a.a.a.a.a.a.a.a.a.a.a.a.a.a.a.a.a.a.a.a.a.a.a.a.a.a.a.a.a.a.a.a.a.a.a.a.a.a.a.a.a.a.a.a.a.a.a.a.a.a.a.a.a.a.a.a.a.a.a.a.a.a.a.a.a.a.a.a.a.a.a.a.a.a.a.a.a.a.a.a.a.a.a.a.a.a.a.a.a.a.a.a.a.a.a.a.a.a.a.a.a.a.a.a.a.a.a.a.a.a.a.a.a.a.a.a.a.a.a.a.a.a.a.a.8 p h l B Z S S F G U T T T T E ^ ^ / / / / / / / / / / / / _ ` ` ' ' ' }  . . . .+. .+. . . . .+.+.@.@.@.@.@.@.@.#.#.#.#.#.&.&.&.&.&.-.-.-.-.-.-.-.-.-.4.4.4.;.;.;.-.e.t.t.t.t.t.e.e.e.e.t.t.t.t.t.t.t.t.t.t.t.t.s.s.s.s.f.s.s.s.f.f.f.s.s.f.s.s.s.s.s.s.f.f.f.k.h.f.h.h.k.k.k.k.k.k.k.k.k.k.k.k.k.V.k.k.k.V.V.V.D.D.Z.Z.H.H.H.H.Z.V.V.Z.Z.V.Z.H.H.Z.Z.V.Z.C.H.H.H.H.H.H.D.H.H.Z.Z.H.H.H.H.C.H.Z.Z.Z.Z.Z.V.V.Z.Z.V.k.k.k.k.k.k.k.k.k.d.f.f.d.d.d.g.d.f.f.f.f.s.y.t.t.t.t.t.t.t.t.t.e.e.e.e.e.e.e.e.e.e.e.e.;.e.;.;.e.e.;.e.;.;.e.6.6.6.6.6.6.6.t.e.e.;.-.-.-.-.-.*.*.*.&.&.&.@.@. . .` _ / W B a.a.a.p.a.a.a.a.a.a.a.a.a.a.a.a.a.a.a.a.a.a.a.a.a.a.a.a.a.a.a.a.a.a.a.a.a.a.a.a.a.a.a.a.a.a.",
"a.a.a.a.a.a.a.a.a.a.a.a.a.a.a.a.a.a.a.a.a.a.a.a.a.a.a.a.a.a.a.a.a.a.a.a.a.a.a.a.a.a.a.a.a.a.a.a.a.a.a.a.a.a.a.a.a.a.a.a.a.a.a.a.a.a.a.a.a.a.a.a.a.a.a.a.a.a.a.a.a.a.a.a.a.a.a.a.a.a.a.a.a.a.a.a.a.a.a.a.a.a.a.a.a.a.a.a.a.a.a.a.a.a.a.a.a.a.a.a.a.a.a.a.a.a.a.a.a.a.a.a.a.a.a.a.a.a.a.a.a.a.a.a.a.a.a.a.a.a.a.a.a.a.a.a.a.a.a.a.a.a.a.a.a.a.a.a.a.a.a.a.a.a.a.a.a.a.a.a.a.a.a.a.a.a.a.a.a.a.a.a.a.a.a.a.a.a.a.a.a.a.a.a.a.a.a.a.a.a.a.a.a.a.a.a.a.a.a.a.a.a.a.a.a.a.a.a.a.a.a.a.a.a.a.a.a.a.a.a.a.a.a.a.a.a.a.a.a.a.a.a.a.a.a.a.a.a.a.a.a.a.a.a.a.a.8 p d l B C A F F G U T T T T T ^ / / / / / / / / / / _ / / _ ` ` ` ' ' '  .' '  .+. .+. . . . . .+.@.@.@.@.@.@.@.#.#.#.#.#.&.&.&.&.&.-.-.-.-.-.-.-.-.-.4.4.4.4.4.;.-.t.t.t.t.t.t.e.e.e.e.t.t.t.t.t.t.t.t.t.t.t.t.s.s.s.f.f.f.f.f.f.f.s.s.s.s.s.s.s.f.f.f.f.f.f.h.f.f.f.h.k.k.k.k.k.k.k.k.V.k.V.j.k.k.k.k.j.k.V.A.D.D.Z.Z.D.D.D.D.V.k.V.Z.Z.Z.D.H.H.H.Z.Z.Z.C.H.H.H.H.H.H.H.D.D.Z.H.H.H.H.H.H.H.Z.Z.Z.H.U.H.Z.Z.Z.V.k.k.k.k.k.k.k.k.k.d.f.f.d.d.d.g.d.f.f.f.d.s.y.y.t.t.t.t.t.e.t.t.e.e.e.e.t.t.t.e.e.e.e.e.e.e.e.e.e.e.e.e.;.e.e.6.6.6.6.6.6.6.t.e.e.;.;.-.-.-.-.-.-.*.*.*.&.@.@.@. .' _ / / J a.a.a.a.a.a.a.a.a.a.a.a.a.a.a.a.a.a.a.a.a.a.a.a.a.a.a.a.a.a.a.a.a.a.a.a.a.a.a.a.a.a.a.a.a.a.",
"a.a.a.a.a.a.a.a.a.a.a.a.a.a.a.a.a.a.a.a.a.a.a.a.a.a.a.a.a.a.a.a.a.a.a.a.a.a.a.a.a.a.a.a.a.a.a.a.a.a.a.a.a.a.a.a.a.a.a.a.a.a.a.a.a.a.a.a.a.a.a.a.a.a.a.a.a.a.a.a.a.a.a.a.a.a.a.a.a.a.a.a.a.a.a.a.a.a.a.a.a.a.a.a.a.a.a.a.a.a.a.a.a.a.a.a.a.a.a.a.a.a.a.a.a.a.a.a.a.a.a.a.a.a.a.a.a.a.a.a.a.a.a.a.a.a.a.a.a.a.a.a.a.a.a.a.a.a.a.a.a.a.a.a.a.a.a.a.a.a.a.a.a.a.a.a.a.a.a.a.a.a.a.a.a.a.a.a.a.a.a.a.a.a.a.a.a.a.a.a.a.a.a.a.a.a.a.a.a.a.a.a.a.a.a.a.a.a.a.a.a.a.a.a.a.a.a.a.a.a.a.a.a.a.a.a.a.a.a.a.a.a.a.a.a.a.a.a.a.a.a.a.a.a.a.a.a.a.a.a.a.a.a.a.a.a.8 t d n B C Z F F G U T T T T T T / / / / / ^ / / / / _ _ _ _ ` ` } } ` ' } } } }  . . .+. . . . . .@.@.@.@.@.@.#.#.#.#.#.#.&.&.&.&.*.-.-.-.-.-.-.4.-.4.4.4.4.6.t.;.-.e.t.t.t.t.t.e.e.e.t.t.t.t.t.t.t.t.t.t.t.t.t.s.s.s.f.f.s.s.s.s.s.s.s.s.s.s.s.f.f.g.g.h.f.f.f.f.h.h.k.k.k.k.k.k.k.k.k.k.k.k.k.j.V.V.V.V.V.V.V.Z.D.V.V.Z.Z.Z.Z.V.V.V.V.V.D.D.Z.D.Z.Z.Z.V.C.H.H.H.H.U.H.H.Z.H.H.H.H.H.H.H.H.H.V.H.H.H.H.H.H.Z.V.V.V.k.k.k.k.k.k.k.k.k.d.d.d.d.d.g.f.f.f.f.s.s.t.t.t.t.t.t.t.t.t.t.e.e.e.t.t.t.t.e.e.e.e.e.e.e.e.e.;.;.e.e.e.;.e.;.;.6.t.6.6.6.6.;.;.;.e.-.-.-.-.-.-.-.*.*.&.&.@.@. .' ` _ / Y a.a.a.a.a.a.a.a.a.a.a.a.a.a.a.a.a.a.a.a.a.a.a.a.a.a.a.a.a.a.a.a.a.a.a.a.a.a.a.a.a.a.a.a.a.a.",
"a.a.a.a.a.a.a.a.a.a.a.a.a.a.a.a.a.a.a.a.a.a.a.a.a.a.a.a.a.a.a.a.a.a.a.a.a.a.a.a.a.a.a.a.a.a.a.a.a.a.a.a.a.a.a.a.a.a.a.a.a.a.a.a.a.a.a.a.a.a.a.a.a.a.a.a.a.a.a.a.a.a.a.a.a.a.a.a.a.a.a.a.a.a.a.a.a.a.a.a.a.a.a.a.a.a.a.a.a.a.a.a.a.a.a.a.a.a.a.a.a.a.a.a.a.a.a.a.a.a.a.a.a.a.a.a.a.a.a.a.a.a.a.a.a.a.a.a.a.a.a.a.a.a.a.a.a.a.a.a.a.a.a.a.a.a.a.a.a.a.a.a.a.a.a.a.a.a.a.a.a.a.a.a.a.a.a.a.a.a.a.a.a.a.a.a.a.a.a.a.a.a.a.a.a.a.a.a.a.a.a.a.a.a.a.a.a.a.a.a.a.a.a.a.a.a.a.a.a.a.a.a.a.a.a.a.a.a.a.a.a.a.a.a.a.a.a.a.a.a.a.a.a.a.a.a.a.a.a.a.a.a.a.a.a.a.8 t d l C B C S F G U T T T T T T ^ / ^ / / ^ / / / / _ _ _ ` ` ` } } } } ` } } } ' '  .+. . . . .+.@.@.@.@.@.@.#.#.#.#.#.#.&.&.&.*.*.-.-.-.-.-.-.-.-.-.-.-.;.t.t.;.;.t.t.t.;.t.t.e.e.t.t.t.t.t.t.e.t.t.t.t.t.t.t.s.t.s.s.s.s.f.f.s.s.s.s.s.s.s.f.f.f.d.h.f.d.d.h.f.h.g.k.k.k.k.k.k.k.k.k.k.V.V.k.V.V.V.V.V.V.V.V.V.V.V.k.V.V.V.V.V.V.V.V.Z.Z.D.H.H.Z.Z.Z.D.H.H.C.Z.Z.C.H.Z.H.H.H.H.H.H.H.H.H.H.H.H.U.Z.H.Z.Z.Z.V.V.V.k.k.k.k.k.k.h.h.h.h.h.h.h.f.d.f.d.s.d.s.s.t.t.t.t.t.t.t.t.t.t.t.t.t.t.t.t.e.t.e.e.t.t.t.e.e.e.;.;.;.e.e.e.;.;.e.e.e.;.;.;.e.;.;.;.;.-.-.-.-.-.-.*.=.*.#.@.@. . .` ' _ / / B a.a.a.a.a.a.a.a.a.a.a.a.a.a.a.a.a.a.a.a.a.a.a.a.a.a.a.a.a.a.a.a.a.a.a.a.a.a.a.a.a.a.a.a.a.",
"a.a.a.a.a.a.a.a.a.a.a.a.a.a.a.a.a.a.a.a.a.a.a.a.a.a.a.a.a.a.a.a.a.a.a.a.a.a.a.a.a.a.a.a.a.a.a.a.a.a.a.a.a.a.a.a.a.a.a.a.a.a.a.a.a.a.a.a.a.a.a.a.a.a.a.a.a.a.a.a.a.a.a.a.a.a.a.a.a.a.a.a.a.a.a.a.a.a.a.a.a.a.a.a.a.a.a.a.a.a.a.a.a.a.a.a.a.a.a.a.a.a.a.a.a.a.a.a.a.a.a.a.a.a.a.a.a.a.a.a.a.a.a.a.a.a.a.a.a.a.a.a.a.a.a.a.a.a.a.a.a.a.a.a.a.a.a.a.a.a.a.a.a.a.a.a.a.a.a.a.a.a.a.a.a.a.a.a.a.a.a.a.a.a.a.a.a.a.a.a.a.a.a.a.a.a.a.a.a.a.a.a.a.a.a.a.a.a.a.a.a.a.a.a.a.a.a.a.a.a.a.a.a.a.a.a.a.a.a.a.a.a.a.a.a.a.a.a.a.a.a.a.a.a.a.a.a.a.a.a.a.a.a.a.a.a.7 t h l m C C S S F U U T T T T T ^ / ^ / / ^ / / / / _ / ` ` ` ` ` } } ` } } } +. .} }  .+. . .+.@.+.@.@.@.@.@.#.#.#.#.#.#.&.&.&.-.-.-.-.-.-.-.-.-.-.-.-.-.e.w.t.;.;.t.t.t.e.t.t.t.e.t.t.t.t.t.t.t.t.e.e.e.t.t.s.s.t.t.t.s.s.f.f.s.s.s.f.s.s.s.f.f.f.d.d.g.g.k.h.h.h.k.k.k.g.k.k.k.k.k.k.V.V.V.k.k.V.V.V.V.V.V.V.V.Z.V.V.V.Z.Z.V.V.V.V.Z.Z.Z.Z.H.H.H.H.Z.H.H.H.H.Z.C.D.H.H.K.H.H.H.H.H.H.V.H.H.H.H.H.Z.C.H.D.Z.Z.V.V.V.k.k.k.k.k.k.h.h.h.h.h.h.f.d.f.s.y.f.s.d.t.y.y.t.t.t.t.t.t.t.t.t.e.e.t.t.e.e.e.e.e.e.e.e.e.e.e.;.e.t.e.e.;.e.e.e.e.;.;.;.;.;.;.;.;.-.-.-.-.-.-.-.*.=.&.#.@.@.} } ` _ ` / J a.a.a.a.a.a.a.a.a.a.a.a.a.a.a.a.a.a.a.a.a.a.a.a.a.a.a.a.a.a.a.a.a.a.a.a.a.a.a.a.a.a.a.a.a.",
"a.a.a.a.a.a.a.a.a.a.a.a.a.a.a.a.a.a.a.a.a.a.a.a.a.a.a.a.a.a.a.a.a.a.a.a.a.a.a.a.a.a.a.a.a.a.a.a.a.a.a.a.a.a.a.a.a.a.a.a.a.a.a.a.a.a.a.a.a.a.a.a.a.a.a.a.a.a.a.a.a.a.a.a.a.a.a.a.a.a.a.a.a.a.a.a.a.a.a.a.a.a.a.a.a.a.a.a.a.a.a.a.a.a.a.a.a.a.a.a.a.a.a.a.a.a.a.a.a.a.a.a.a.a.a.a.a.a.a.a.a.a.a.a.a.a.a.a.a.a.a.a.a.a.a.a.a.a.a.a.a.a.a.a.a.a.a.a.a.a.a.a.a.a.a.a.a.a.a.a.a.a.a.a.a.a.a.a.a.a.a.a.a.a.a.a.a.a.a.a.a.a.a.a.a.a.a.a.a.a.a.a.a.a.a.a.a.a.a.a.a.a.a.a.a.a.a.a.a.a.a.a.a.a.a.a.a.a.a.a.a.a.a.a.a.a.a.a.a.a.a.a.a.a.a.a.a.a.a.a.a.a.a.a.a.a.7 t s l n B C S F F G U T T T T T E / / / / ^ / / / / / / ` ` ` ` ` ` ` } } } } }  . .}  . . .+.@.+.+.+.@.@.@.#.#.#.#.#.#.#.&.&.&.-.-.-.-.-.-.-.-.-.-.-.-.;.e.-.e.e.;.t.t.t.e.t.t.t.e.t.t.e.e.t.t.t.t.t.t.t.t.t.t.t.t.t.s.s.s.s.s.s.s.s.f.s.s.f.h.f.f.f.d.d.d.g.f.h.h.k.k.f.g.k.k.k.k.k.k.V.V.V.k.V.V.V.V.Z.V.V.V.k.Z.Z.Z.V.Z.Z.V.V.V.V.Z.D.Z.D.H.H.H.H.V.C.H.H.V.D.H.H.H.H.U.H.H.H.H.H.H.H.H.H.Z.H.H.V.C.H.D.D.Z.V.Z.V.V.k.k.k.k.k.h.h.h.h.h.h.f.d.f.f.s.f.s.s.y.y.s.y.t.t.t.t.y.t.t.t.e.e.t.t.e.t.e.e.t.t.e.e.e.t.e.e.e.e.e.;.;.e.e.e.e.;.;.;.;.;.;.;.;.-.-.-.-.-.-.=.*.=.#.#.#.@.@. .` } _ / U a.a.a.a.a.a.a.a.a.a.a.a.a.a.a.a.a.a.a.a.a.a.a.a.a.a.a.a.a.a.a.a.a.a.a.a.a.a.a.a.a.a.a.a.a.",
"a.a.a.a.a.a.a.a.a.a.a.a.a.a.a.a.a.a.a.a.a.a.a.a.a.a.a.a.a.a.a.a.a.a.a.a.a.a.a.a.a.a.a.a.a.a.a.a.a.a.a.a.a.a.a.a.a.a.a.a.a.a.a.a.a.a.a.a.a.a.a.a.a.a.a.a.a.a.a.a.a.a.a.a.a.a.a.a.a.a.a.a.a.a.a.a.a.a.a.a.a.a.a.a.a.a.a.a.a.a.a.a.a.a.a.a.a.a.a.a.a.a.a.a.a.a.a.a.a.a.a.a.a.a.a.a.a.a.a.a.a.a.a.a.a.a.a.a.a.a.a.a.a.a.a.a.a.a.a.a.a.a.a.a.a.a.a.a.a.a.a.a.a.a.a.a.a.a.a.a.a.a.a.a.a.a.a.a.a.a.a.a.a.a.a.a.a.a.a.a.a.a.a.a.a.a.a.a.a.a.a.a.a.a.a.a.a.a.a.a.a.a.a.a.a.a.a.a.a.a.a.a.a.a.a.a.a.a.a.a.a.a.a.a.a.a.a.a.a.a.a.a.a.a.a.a.a.a.a.a.a.a.a.a.a.a.a.8 s d n N C S F F G U U U T U T E / / / / / / / / / / / ` ` ` ` ` ` ` } } } } } }  . .' +. .+.@.@.@.@.@.@.@.@.#.#.#.#.#.#.&.&.&.&.-.-.-.-.-.-.-.-.-.-.;.e.;.;.e.t.-.t.t.e.e.t.6.t.e.e.t.e.e.e.t.e.t.t.t.t.t.t.t.t.t.t.s.s.s.f.f.s.s.s.f.s.s.f.h.f.f.h.f.f.d.d.k.h.g.k.k.k.k.k.k.k.k.k.k.k.V.k.V.V.V.V.V.V.V.V.V.V.Z.Z.Z.Z.Z.Z.Z.Z.D.Z.Z.Z.Z.D.H.H.H.C.V.Z.Z.D.Z.H.K.U.H.H.H.H.H.H.H.U.H.H.H.H.H.H.C.Z.H.H.D.D.D.Z.Z.V.V.k.k.j.k.k.k.g.h.h.h.f.f.k.f.f.f.d.s.s.s.s.y.t.t.t.t.t.t.t.e.t.t.t.t.t.e.t.t.t.e.t.e.e.e.e.e.e.e.e.e.e.e.e.e.e.e.;.;.;.;.;.e.;.;.-.-.-.-.-.-.-.*.*.#.#.#.#.@.+.} ` } / / m a.a.a.a.a.a.a.a.a.a.a.a.a.a.a.a.a.a.a.a.a.a.a.a.a.a.a.a.a.a.a.a.a.a.a.a.a.a.a.a.a.a.a.a.",
"a.a.a.a.a.a.a.a.a.a.a.a.a.a.a.a.a.a.a.a.a.a.a.a.a.a.a.a.a.a.a.a.a.a.a.a.a.a.a.a.a.a.a.a.a.a.a.a.a.a.a.a.a.a.a.a.a.a.a.a.a.a.a.a.a.a.a.a.a.a.a.a.a.a.a.a.a.a.a.a.a.a.a.a.a.a.a.a.a.a.a.a.a.a.a.a.a.a.a.a.a.a.a.a.a.a.a.a.a.a.a.a.a.a.a.a.a.a.a.a.a.a.a.a.a.a.a.a.a.a.a.a.a.a.a.a.a.a.a.a.a.a.a.a.a.a.a.a.a.a.a.a.a.a.a.a.a.a.a.a.a.a.a.a.a.a.a.a.a.a.a.a.a.a.a.a.a.a.a.a.a.a.a.a.a.a.a.a.a.a.a.a.a.a.a.a.a.a.a.a.a.a.a.a.a.a.a.a.a.a.a.a.a.a.a.a.a.a.a.a.a.a.a.a.a.a.a.a.a.a.a.a.a.a.a.a.a.a.a.a.a.a.a.a.a.a.a.a.a.a.a.a.a.a.a.a.a.a.a.a.a.a.a.a.a.a.a.8 p d l B C C S F G U U T T T T ^ / ^ / / / / ^ / / / / ` ` ` ` ` ` } ` } } } }  . . .'  . . .+.@.#.@.+.@.#.#.#.#.#.#.#.#.#.#.&.&.&.&.-.-.-.-.-.-.-.;.;.;.e.e.t.t.t.t.-.t.t.t.6.e.t.t.t.e.e.e.t.e.e.t.t.e.e.e.t.t.t.t.s.s.s.s.s.s.s.s.s.s.s.s.f.f.f.g.f.h.g.g.k.f.h.k.k.k.g.k.k.k.k.k.k.k.V.k.V.k.V.V.V.V.V.V.V.V.V.Z.Z.V.V.Z.Z.Z.Z.Z.V.Z.Z.Z.D.D.H.H.Z.Z.Z.V.Z.H.H.H.H.H.H.K.H.H.H.H.H.H.H.H.H.H.H.H.H.H.D.V.D.Z.Z.Z.V.V.V.V.V.k.k.k.k.h.h.f.f.d.f.f.f.s.s.f.s.t.t.t.t.t.t.t.t.t.t.t.t.t.t.t.e.e.t.t.e.t.t.t.e.e.e.t.e.;.e.e.e.e.e.e.e.e.e.e.e.;.e.-.-.-.-.-.-.-.-.-.*.*.&.#.&.#.@. .} ` ` _ / S a.a.a.a.a.a.a.a.a.a.a.a.a.a.a.a.a.a.a.a.a.a.a.a.a.a.a.a.a.a.a.a.a.a.a.a.a.a.a.a.a.a.a.a.",
"a.a.a.a.a.a.a.a.a.a.a.a.a.a.a.a.a.a.a.a.a.a.a.a.a.a.a.a.a.a.a.a.a.a.a.a.a.a.a.a.a.a.a.a.a.a.a.a.a.a.a.a.a.a.a.a.a.a.a.a.a.a.a.a.a.a.a.a.a.a.a.a.a.a.a.a.a.a.a.a.a.a.a.a.a.a.a.a.a.a.a.a.a.a.a.a.a.a.a.a.a.a.a.a.a.a.a.a.a.a.a.a.a.a.a.a.a.a.a.a.a.a.a.a.a.a.a.a.a.a.a.a.a.a.a.a.a.a.a.a.a.a.a.a.a.a.a.a.a.a.a.a.a.a.a.a.a.a.a.a.a.a.a.a.a.a.a.a.a.a.a.a.a.a.a.a.a.a.a.a.a.a.a.a.a.a.a.a.a.a.a.a.a.a.a.a.a.a.a.a.a.a.a.a.a.a.a.a.a.a.a.a.a.a.a.a.a.a.a.a.a.a.a.a.a.a.a.a.a.a.a.a.a.a.a.a.a.a.a.a.a.a.a.a.a.a.a.a.a.a.a.a.a.a.a.a.a.a.a.a.a.a.a.a.a.a.a.6 t d l n B C S F G U G U T T T / / ^ / / / / ^ / / / / ` ` ` ` ` ` } } } } } }  . . .'  . . .+.+.@.@.@.@.#.#.#.#.#.#.#.#.#.&.&.&.&.*.*.&.-.-.-.-.-.-.;.;.;.;.;.t.t.;.-.;.t.t.6.e.e.e.t.t.e.t.t.t.t.t.t.t.t.t.t.t.s.s.s.s.s.s.s.s.s.s.f.s.f.f.f.d.d.g.h.h.k.k.k.h.h.h.k.k.k.k.k.k.k.k.k.V.V.V.V.V.V.V.V.V.V.V.V.V.V.Z.Z.V.V.Z.D.V.V.V.V.Z.V.H.H.Z.H.H.Z.Z.V.Z.H.H.H.H.D.U.H.H.H.U.W.H.H.H.C.H.C.Z.H.H.H.U.D.Z.V.D.D.Z.Z.V.V.V.k.k.k.k.k.h.h.f.f.f.f.f.f.s.s.t.t.t.t.t.t.t.t.t.t.t.t.t.t.t.t.t.e.e.t.t.e.e.t.t.t.e.e.e.e.e.e.;.e.;.e.e.e.e.e.e.e.e.e.-.-.-.;.;.-.-.-.-.*.-.&.&.#.#.@.@.} } } ] / T a.a.a.a.a.a.a.a.a.a.a.a.a.a.a.a.a.a.a.a.a.a.a.a.a.a.a.a.a.a.a.a.a.a.a.a.a.a.a.a.a.a.a.a.",
"a.a.a.a.a.a.a.a.a.a.a.a.a.a.a.a.a.a.a.a.a.a.a.a.a.a.a.a.a.a.a.a.a.a.a.a.a.a.a.a.a.a.a.a.a.a.a.a.a.a.a.a.a.a.a.a.a.a.a.a.a.a.a.a.a.a.a.a.a.a.a.a.a.a.a.a.a.a.a.a.a.a.a.a.a.a.a.a.a.a.a.a.a.a.a.a.a.a.a.a.a.a.a.a.a.a.a.a.a.a.a.a.a.a.a.a.a.a.a.a.a.a.a.a.a.a.a.a.a.a.a.a.a.a.a.a.a.a.a.a.a.a.a.a.a.a.a.a.a.a.a.a.a.a.a.a.a.a.a.a.a.a.a.a.a.a.a.a.a.a.a.a.a.a.a.a.a.a.a.a.a.a.a.a.a.a.a.a.a.a.a.a.a.a.a.a.a.a.a.a.a.a.a.a.a.a.a.a.a.a.a.a.a.a.a.a.a.a.a.a.a.a.a.a.a.a.a.a.a.a.a.a.a.a.a.a.a.a.a.a.a.a.a.a.a.a.a.a.a.a.a.a.a.a.a.a.a.a.a.a.a.a.a.a.a.a.a.6 p h l n B C S F F G U U U T T / / ^ / / / / / / ^ / / ` ` ` ` ` ` ] } } ' }  . . . .' '  . .+. .+.@.@.@.#.#.#.#.#.#.#.&.&.*.&.&.&.*.*.*.-.-.-.-.-.-.-.-.;.;.-.t.;.;.-.t.t.t.6.e.e.t.t.t.t.e.t.t.t.t.t.t.t.t.t.s.s.s.s.s.s.s.s.s.s.s.f.f.f.f.f.d.g.h.k.k.k.k.k.h.k.h.k.k.k.k.k.k.k.k.k.V.V.V.Z.V.V.Z.Z.Z.Z.Z.Z.V.Z.V.Z.V.V.Z.Z.Z.V.V.V.Z.Z.C.C.H.H.H.Z.H.Z.Z.H.H.H.U.W.U.H.H.H.H.H.H.H.H.H.H.H.Z.H.H.U.H.D.Z.V.H.D.D.Z.V.V.j.k.k.k.k.k.h.h.f.f.f.f.f.s.s.s.t.t.t.t.t.t.t.t.t.t.t.t.t.t.t.t.t.e.t.t.t.e.e.t.t.e.e.e.e.e.;.e.e.e.;.e.e.e.e.e.e.e.e.e.-.-.-.;.;.-.-.-.-.-.-.&.&.&.#.@.@.} } } ` / W a.a.a.a.a.a.a.a.a.a.a.a.a.a.a.a.a.a.a.a.a.a.a.a.a.a.a.a.a.a.a.a.a.a.a.a.a.a.a.a.a.a.a.a.",
"a.a.a.a.a.a.a.a.a.a.a.a.a.a.a.a.a.a.a.a.a.a.a.a.a.a.a.a.a.a.a.a.a.a.a.a.a.a.a.a.a.a.a.a.a.a.a.a.a.a.a.a.a.a.a.a.a.a.a.a.a.a.a.a.a.a.a.a.a.a.a.a.a.a.a.a.a.a.a.a.a.a.a.a.a.a.a.a.a.a.a.a.a.a.a.a.a.a.a.a.a.a.a.a.a.a.a.a.a.a.a.a.a.a.a.a.a.a.a.a.a.a.a.a.a.a.a.a.a.a.a.a.a.a.a.a.a.a.a.a.a.a.a.a.a.a.a.a.a.a.a.a.a.a.a.a.a.a.a.a.a.a.a.a.a.a.a.a.a.a.a.a.a.a.a.a.a.a.a.a.a.a.a.a.a.a.a.a.a.a.a.a.a.a.a.a.a.a.a.a.a.a.a.a.a.a.a.a.a.a.a.a.a.a.a.a.a.a.a.a.a.a.a.a.a.a.a.a.a.a.a.a.a.a.a.a.a.a.a.a.a.a.a.a.a.a.a.a.a.a.a.a.a.a.a.a.a.a.a.a.a.a.a.a.a.a.a.6 t s j n B C S F F G U T R T T ^ ^ ^ ^ / / / / / / / / ` _ ` ` ` ` ` } ` ' } } } } } } } }  . .}  .@.@.@.@.#.#.#.#.&.#.&.*.*.*.*.&.*.*.-.-.-.-.-.-.-.-.-.w.-.;.t.t.;.-.t.;.t.t.e.e.e.t.t.t.t.t.t.t.t.t.t.t.t.t.s.s.s.s.s.s.s.s.s.s.s.f.f.f.f.f.d.g.g.k.k.k.k.k.h.g.f.h.g.k.k.k.k.k.k.k.V.V.V.V.V.D.Z.Z.Z.Z.Z.Z.V.Z.Z.Z.V.Z.Z.Z.D.H.D.H.D.H.Z.C.H.C.H.H.H.H.H.H.Y.U.W.W.U.U.H.U.U.H.H.U.H.H.H.H.H.H.H.H.H.D.H.D.H.D.Z.H.Z.V.V.V.k.k.k.k.h.f.f.f.f.f.s.t.f.t.t.y.t.t.t.t.t.t.t.t.t.t.t.t.y.t.t.t.t.t.t.t.t.t.t.t.t.e.e.e.e.e.e.e.e.e.e.;.e.e.e.e.e.;.;.-.-.;.;.-.-.-.-.-.-.*.&.&.#.@.@. .} } ` / / S a.a.a.a.a.a.a.a.a.a.a.a.a.a.a.a.a.a.a.a.a.a.a.a.a.a.a.a.a.a.a.a.a.a.a.a.a.a.a.a.a.a.a.",
"a.a.a.a.a.a.a.a.a.a.a.a.a.a.a.a.a.a.a.a.a.a.a.a.a.a.a.a.a.a.a.a.a.a.a.a.a.a.a.a.a.a.a.a.a.a.a.a.a.a.a.a.a.a.a.a.a.a.a.a.a.a.a.a.a.a.a.a.a.a.a.a.a.a.a.a.a.a.a.a.a.a.a.a.a.a.a.a.a.a.a.a.a.a.a.a.a.a.a.a.a.a.a.a.a.a.a.a.a.a.a.a.a.a.a.a.a.a.a.a.a.a.a.a.a.a.a.a.a.a.a.a.a.a.a.a.a.a.a.a.a.a.a.a.a.a.a.a.a.a.a.a.a.a.a.a.a.a.a.a.a.a.a.a.a.a.a.a.a.a.a.a.a.a.a.a.a.a.a.a.a.a.a.a.a.a.a.a.a.a.a.a.a.a.a.a.a.a.a.a.a.a.a.a.a.a.a.a.a.a.a.a.a.a.a.a.a.a.a.a.a.a.a.a.a.a.a.a.a.a.a.a.a.a.a.a.a.a.a.a.a.a.a.a.a.a.a.a.a.a.a.a.a.a.a.a.a.a.a.a.a.a.a.a.a.a.a.6 t p d l m C Z S F G U T T R T ^ / / / / / / / / / / / ` _ _ ` ` ` ` } ` ` } } } } } } } }  . . .@.@.@.@.@.@.#.#.#.#.#.*.-.&.&.&.&.*.*.-.-.-.-.-.-.-.-.-.-.-.t.6.6.6.6.6.6.6.;.e.e.e.t.t.t.t.t.t.t.t.t.t.t.t.t.t.t.t.t.f.s.s.s.s.s.s.f.s.f.f.f.f.f.h.d.k.k.k.f.f.g.h.h.h.k.k.k.k.k.k.k.k.k.k.k.V.Z.D.V.Z.Z.V.V.Z.D.Z.Z.Z.D.D.Z.D.H.H.D.D.H.D.C.H.H.H.H.U.H.U.U.U.W.W.U.H.H.U.H.H.U.H.H.H.H.H.Z.H.C.C.C.H.V.H.V.Z.V.V.D.V.V.V.V.k.k.k.k.h.h.f.g.f.s.s.s.s.t.t.t.t.y.t.y.t.t.t.y.s.s.s.y.d.s.y.y.y.t.t.t.t.t.t.t.t.t.t.t.e.;.;.;.e.e.e.e.e.e.;.e.e.e.e.e.-.e.e.-.-.-.-.-.-.*.*.&.#.@.@.+. .} ` / _ R a.a.a.a.a.a.a.a.a.a.a.a.a.a.a.a.a.a.a.a.a.a.a.a.a.a.a.a.a.a.a.a.a.a.a.a.a.a.a.a.a.a.a.",
"a.a.a.a.a.a.a.a.a.a.a.a.a.a.a.a.a.a.a.a.a.a.a.a.a.a.a.a.a.a.a.a.a.a.a.a.a.a.a.a.a.a.a.a.a.a.a.a.a.a.a.a.a.a.a.a.a.a.a.a.a.a.a.a.a.a.a.a.a.a.a.a.a.a.a.a.a.a.a.a.a.a.a.a.a.a.a.a.a.a.a.a.a.a.a.a.a.a.a.a.a.a.a.a.a.a.a.a.a.a.a.a.a.a.a.a.a.a.a.a.a.a.a.a.a.a.a.a.a.a.a.a.a.a.a.a.a.a.a.a.a.a.a.a.a.a.a.a.a.a.a.a.a.a.a.a.a.a.a.a.a.a.a.a.a.a.a.a.a.a.a.a.a.a.a.a.a.a.a.a.a.a.a.a.a.a.a.a.a.a.a.a.a.a.a.a.a.a.a.a.a.a.a.a.a.a.a.a.a.a.a.a.a.a.a.a.a.a.a.a.a.a.a.a.a.a.a.a.a.a.a.a.a.a.a.a.a.a.a.a.a.a.a.a.a.a.a.a.a.a.a.a.a.a.a.a.a.a.a.a.a.a.a.a.a.a.a.a.9 p h l m C C S F G U T T T E ^ / / / / / / / / _ / / ` _ _ ` ` } ` } ` } } } } } } } @.} @.@. .@.@.@.@.@.@.@.#.#.#.&.&.&.&.&.&.&.*.*.-.-.-.-.-.-.;.-.-.-.-.e.6.t.t.t.6.6.6.e.e.e.t.t.t.t.t.t.e.t.t.t.e.t.t.t.t.t.t.t.s.s.s.s.s.s.f.f.s.f.f.f.f.f.h.h.g.g.g.h.h.g.k.k.k.k.k.k.k.k.k.k.k.k.k.k.V.V.V.Z.Z.Z.Z.V.Z.D.D.Z.Z.D.D.Z.Z.H.H.D.H.H.H.H.H.H.C.H.H.H.U.H.H.H.H.H.H.H.H.H.C.H.H.H.H.H.H.H.Z.H.H.C.H.Z.D.Z.H.D.Z.Z.V.V.V.V.k.k.k.k.k.g.h.h.f.s.s.f.s.s.s.s.t.y.t.t.y.t.t.t.y.y.y.y.y.y.s.s.y.t.t.t.t.t.t.t.t.t.t.e.e.e.e.e.e.e.;.e.e.e.e.;.;.e.;.;.-.;.;.-.-.-.-.-.-.-.*.*.&.#.@.+. . .} ` ` W a.a.a.a.a.a.a.a.a.a.a.a.a.a.a.a.a.a.a.a.a.a.a.a.a.a.a.a.a.a.a.a.a.a.a.a.a.a.a.a.a.a.a.",
"a.a.a.a.a.a.a.a.a.a.a.a.a.a.a.a.a.a.a.a.a.a.a.a.a.a.a.a.a.a.a.a.a.a.a.a.a.a.a.a.a.a.a.a.a.a.a.a.a.a.a.a.a.a.a.a.a.a.a.a.a.a.a.a.a.a.a.a.a.a.a.a.a.a.a.a.a.a.a.a.a.a.a.a.a.a.a.a.a.a.a.a.a.a.a.a.a.a.a.a.a.a.a.a.a.a.a.a.a.a.a.a.a.a.a.a.a.a.a.a.a.a.a.a.a.a.a.a.a.a.a.a.a.a.a.a.a.a.a.a.a.a.a.a.a.a.a.a.a.a.a.a.a.a.a.a.a.a.a.a.a.a.a.a.a.a.a.a.a.a.a.a.a.a.a.a.a.a.a.a.a.a.a.a.a.a.a.a.a.a.a.a.a.a.a.a.a.a.a.a.a.a.a.a.a.a.a.a.a.a.a.a.a.a.a.a.a.a.a.a.a.a.a.a.a.a.a.a.a.a.a.a.a.a.a.a.a.a.a.a.a.a.a.a.a.a.a.a.a.a.a.a.a.a.a.a.a.a.a.a.a.a.a.a.a.a.a.a.7 p h l n B C S F P G U U U E ^ / / / / / / / / _ / / _ _ _ ` ` ` ` } ` } } } } } } } } } @.@.@.@.@.@.@.@.@.@.#.#.#.&.&.&.&.&.&.&.*.*.-.-.-.-.-.-.;.-.-.-.-.;.6.t.t.6.6.6.6.e.e.e.e.e.e.t.e.e.e.t.t.t.t.t.t.t.t.t.t.s.s.s.s.s.s.s.s.f.s.f.f.f.f.f.f.h.h.f.f.h.k.k.k.k.k.k.k.k.k.k.V.k.k.k.k.k.V.V.V.V.V.V.V.V.V.D.D.D.Z.H.D.Z.Z.H.H.D.H.H.H.H.H.C.C.H.H.H.H.H.H.H.H.H.H.H.H.H.H.H.H.H.U.U.U.H.H.H.H.H.H.H.Z.D.V.Z.D.V.V.V.V.V.V.k.k.k.k.k.h.g.f.f.f.f.s.s.t.t.t.t.t.t.t.t.t.t.y.y.y.y.s.s.y.y.t.t.t.t.t.e.e.t.t.e.t.e.e.e.e.e.e.e.e.;.e.e.e.e.;.;.;.;.-.;.;.-.-.-.-.-.-.-.*.-.&.#.#.@. . .} ] _ / P a.a.a.a.a.a.a.a.a.a.a.a.a.a.a.a.a.a.a.a.a.a.a.a.a.a.a.a.a.a.a.a.a.a.a.a.a.a.a.a.a.a.",
"a.a.a.a.a.a.a.a.a.a.a.a.a.a.a.a.a.a.a.a.a.a.a.a.a.a.a.a.a.a.a.a.a.a.a.a.a.a.a.a.a.a.a.a.a.a.a.a.a.a.a.a.a.a.a.a.a.a.a.a.a.a.a.a.a.a.a.a.a.a.a.a.a.a.a.a.a.a.a.a.a.a.a.a.a.a.a.a.a.a.a.a.a.a.a.a.a.a.a.a.a.a.a.a.a.a.a.a.a.a.a.a.a.a.a.a.a.a.a.a.a.a.a.a.a.a.a.a.a.a.a.a.a.a.a.a.a.a.a.a.a.a.a.a.a.a.a.a.a.a.a.a.a.a.a.a.a.a.a.a.a.a.a.a.a.a.a.a.a.a.a.a.a.a.a.a.a.a.a.a.a.a.a.a.a.a.a.a.a.a.a.a.a.a.a.a.a.a.a.a.a.a.a.a.a.a.a.a.a.a.a.a.a.a.a.a.a.a.a.a.a.a.a.a.a.a.a.a.a.a.a.a.a.a.a.a.a.a.a.a.a.a.a.a.a.a.a.a.a.a.a.a.a.a.a.a.a.a.a.a.a.a.a.a.a.a.a.a.7 t h k n B C S F F G G U R E ^ / / / / / / / / / / / _ / _ ` ` ` ` } ` } } } } } } } } }  .@. . .@.@.@.@.@.#.#.#.#.&.&.#.&.&.&.*.*.&.-.-.-.-.-.-.-.-.-.-.-.;.6.6.t.6.6.6.6.;.e.e.e.e.e.t.e.e.e.e.t.e.t.t.t.t.t.t.s.s.t.t.t.s.s.s.s.s.s.f.f.f.f.f.h.h.h.f.h.h.k.k.k.k.k.k.k.k.k.k.k.k.k.k.k.V.V.V.V.V.V.V.V.V.V.Z.D.D.D.V.Z.Z.D.H.H.D.H.H.H.H.H.H.H.H.H.H.H.H.U.U.U.U.H.H.H.H.H.H.U.U.U.U.U.U.H.H.Z.H.Z.D.V.Z.Z.D.H.Z.V.Z.V.V.V.k.k.k.k.g.k.g.f.f.f.f.s.t.e.e.t.t.y.y.t.t.t.t.y.t.y.y.d.d.y.y.t.t.t.t.t.e.e.e.e.e.e.e.e.e.e.e.e.e.e.e.e.e.e.;.;.;.;.;.;.e.e.-.-.;.-.-.-.-.*.*.#.#.@.@.@. .} } ` / U a.a.a.a.a.a.a.a.a.a.a.a.a.a.a.a.a.a.a.a.a.a.a.a.a.a.a.a.a.a.a.a.a.a.a.a.a.a.a.a.a.a.",
"a.a.a.a.a.a.a.a.a.a.a.a.a.a.a.a.a.a.a.a.a.a.a.a.a.a.a.a.a.a.a.a.a.a.a.a.a.a.a.a.a.a.a.a.a.a.a.a.a.a.a.a.a.a.a.a.a.a.a.a.a.a.a.a.a.a.a.a.a.a.a.a.a.a.a.a.a.a.a.a.a.a.a.a.a.a.a.a.a.a.a.a.a.a.a.a.a.a.a.a.a.a.a.a.a.a.a.a.a.a.a.a.a.a.a.a.a.a.a.a.a.a.a.a.a.a.a.a.a.a.a.a.a.a.a.a.a.a.a.a.a.a.a.a.a.a.a.a.a.a.a.a.a.a.a.a.a.a.a.a.a.a.a.a.a.a.a.a.a.a.a.a.a.a.a.a.a.a.a.a.a.a.a.a.a.a.a.a.a.a.a.a.a.a.a.a.a.a.a.a.a.a.a.a.a.a.a.a.a.a.a.a.a.a.a.a.a.a.a.a.a.a.a.a.a.a.a.a.a.a.a.a.a.a.a.a.a.a.a.a.a.a.a.a.a.a.a.a.a.a.a.a.a.a.a.a.a.a.a.a.a.a.a.a.a.a.a.a.6 t s j l B C S F F F U T T E ^ ^ / / / / / / _ _ / / / / / ` } ` ` ` ` ` } } } } } } } }  . . .} @.@.@.@.@.#.#.#.&.&.&.&.&.&.&.*.-.-.-.-.-.-.-.-.-.-.-.-.-.;.6.6.6.6.6.6.t.t.e.e.e.e.t.t.t.e.e.e.e.t.t.t.e.t.t.s.t.t.s.t.t.t.t.s.s.s.f.f.s.f.f.f.f.f.h.f.h.f.h.h.k.g.k.k.k.k.k.k.k.k.k.k.k.V.V.k.V.V.V.V.V.Z.V.V.Z.Z.D.V.Z.D.D.D.D.Z.H.U.H.H.H.H.H.C.C.H.H.H.H.H.U.U.H.U.H.H.H.H.W.U.H.U.U.R.Z.H.H.H.Z.Z.D.D.D.D.D.V.V.Z.Z.V.k.k.k.k.k.g.g.f.f.h.h.h.s.s.t.t.t.t.t.t.s.t.t.t.s.y.y.y.d.d.s.s.y.t.t.t.t.t.e.e.e.;.e.e.e.t.t.e.e.e.e.e.e.e.e.;.;.;.;.;.;.e.-.-.-.-.-.-.-.-.*.*.*.#.#.@.@.@.} } ` / W a.a.a.a.a.a.a.a.a.a.a.a.a.a.a.a.a.a.a.a.a.a.a.a.a.a.a.a.a.a.a.a.a.a.a.a.a.a.a.a.a.a.",
"a.a.a.a.a.a.a.a.a.a.a.a.a.a.a.a.a.a.a.a.a.a.a.a.a.a.a.a.a.a.a.a.a.a.a.a.a.a.a.a.a.a.a.a.a.a.a.a.a.a.a.a.a.a.a.a.a.a.a.a.a.a.a.a.a.a.a.a.a.a.a.a.a.a.a.a.a.a.a.a.a.a.a.a.a.a.a.a.a.a.a.a.a.a.a.a.a.a.a.a.a.a.a.a.a.a.a.a.a.a.a.a.a.a.a.a.a.a.a.a.a.a.a.a.a.a.a.a.a.a.a.a.a.a.a.a.a.a.a.a.a.a.a.a.a.a.a.a.a.a.a.a.a.a.a.a.a.a.a.a.a.a.a.a.a.a.a.a.a.a.a.a.a.a.a.a.a.a.a.a.a.a.a.a.a.a.a.a.a.a.a.a.a.a.a.a.a.a.a.a.a.a.a.a.a.a.a.a.a.a.a.a.a.a.a.a.a.a.a.a.a.a.a.a.a.a.a.a.a.a.a.a.a.a.a.a.a.a.a.a.a.a.a.a.a.a.a.a.a.a.a.a.a.a.a.a.a.a.a.a.a.a.a.a.a.a.a.a.5 t s d l B C Z S F F U T R T E ^ / / / / / / _ _ / / _ ` / ` ` ` ` ` ` ` ` } } } } } } }  .@.@.@.@.@.@.@.@.#.#.#.&.&.&.&.&.&.-.-.-.-.-.-.-.-.-.-.-.-.-.w.-.;.6.6.6.6.;.6.6.e.e.e.e.e.t.e.t.t.e.e.e.e.t.t.t.t.t.t.t.s.s.t.s.s.s.s.s.f.f.f.s.f.f.f.f.f.f.f.f.h.h.h.g.g.h.k.k.k.k.V.k.k.k.k.k.V.V.V.V.V.k.V.V.Z.V.V.Z.Z.Z.V.V.V.Z.Z.Z.Z.H.H.H.H.U.H.H.H.H.H.C.H.U.H.H.H.H.U.U.H.H.H.U.U.U.H.H.H.V.C.H.H.Z.D.D.D.Z.Z.Z.V.V.V.V.V.k.k.k.k.h.f.f.f.f.f.f.f.f.s.s.s.t.t.t.y.y.t.t.t.y.y.y.y.s.s.y.y.t.t.t.e.e.t.t.e.t.e.e.e.e.t.e.e.e.e.e.e.e.e.e.e.;.;.;.;.;.e.-.-.-.-.;.-.-.-.-.*.&.#.#.@.#. .} ' ` / _ R a.a.a.a.a.a.a.a.a.a.a.a.a.a.a.a.a.a.a.a.a.a.a.a.a.a.a.a.a.a.a.a.a.a.a.a.a.a.a.a.a.",
"a.a.a.a.a.a.a.a.a.a.a.a.a.a.a.a.a.a.a.a.a.a.a.a.a.a.a.a.a.a.a.a.a.a.a.a.a.a.a.a.a.a.a.a.a.a.a.a.a.a.a.a.a.a.a.a.a.a.a.a.a.a.a.a.a.a.a.a.a.a.a.a.a.a.a.a.a.a.a.a.a.a.a.a.a.a.a.a.a.a.a.a.a.a.a.a.a.a.a.a.a.a.a.a.a.a.a.a.a.a.a.a.a.a.a.a.a.a.a.a.a.a.a.a.a.a.a.a.a.a.a.a.a.a.a.a.a.a.a.a.a.a.a.a.a.a.a.a.a.a.a.a.a.a.a.a.a.a.a.a.a.a.a.a.a.a.a.a.a.a.a.a.a.a.a.a.a.a.a.a.a.a.a.a.a.a.a.a.a.a.a.a.a.a.a.a.a.a.a.a.a.a.a.a.a.a.a.a.a.a.a.a.a.a.a.a.a.a.a.a.a.a.a.a.a.a.a.a.a.a.a.a.a.a.a.a.a.a.a.a.a.a.a.a.a.a.a.a.a.a.a.a.a.a.a.a.a.a.a.a.a.a.a.a.a.a.a.a.6 9 p h l m C C S F F G U U T E ^ ^ / / / / / _ _ / / / / / ` ` _ ` ` ` ` } } } } } } } } } @.@. .@.@.@.@.@.#.#.#.&.&.&.&.&.&.-.-.-.-.*.-.-.-.-.-.-.-.-.-.-.;.6.6.6.6.6.6.6.e.e.e.e.e.e.e.t.e.e.e.e.e.e.t.t.t.t.t.t.s.t.t.f.f.f.f.s.s.f.f.s.f.f.f.f.f.f.f.f.f.f.h.k.k.g.k.k.k.k.k.k.k.V.V.V.V.V.V.V.k.k.V.V.V.V.V.D.Z.D.A.V.V.Z.Z.H.H.H.H.H.H.H.H.H.H.H.C.C.H.H.H.H.H.U.W.U.U.U.U.U.H.H.H.H.H.Z.C.H.H.Z.D.H.D.Z.D.Z.V.Z.V.k.k.k.k.k.k.k.f.g.f.f.s.s.f.s.s.s.s.s.t.t.y.t.t.t.t.y.y.y.y.s.y.y.t.t.t.t.e.t.t.t.e.e.e.e.e.t.t.e.e.t.t.e.e.e.t.e.e.;.;.;.;.;.e.;.-.-.-.-.-.-.-.-.-.&.&.#.#.@.@. .} ` _ _ W a.a.a.a.a.a.a.a.a.a.a.a.a.a.a.a.a.a.a.a.a.a.a.a.a.a.a.a.a.a.a.a.a.a.a.a.a.a.a.a.a.",
"a.a.a.a.a.a.a.a.a.a.a.a.a.a.a.a.a.a.a.a.a.a.a.a.a.a.a.a.a.a.a.a.a.a.a.a.a.a.a.a.a.a.a.a.a.a.a.a.a.a.a.a.a.a.a.a.a.a.a.a.a.a.a.a.a.a.a.a.a.a.a.a.a.a.a.a.a.a.a.a.a.a.a.a.a.a.a.a.a.a.a.a.a.a.a.a.a.a.a.a.a.a.a.a.a.a.a.a.a.a.a.a.a.a.a.a.a.a.a.a.a.a.a.a.a.a.a.a.a.a.a.a.a.a.a.a.a.a.a.a.a.a.a.a.a.a.a.a.a.a.a.a.a.a.a.a.a.a.a.a.a.a.a.a.a.a.a.a.a.a.a.a.a.a.a.a.a.a.a.a.a.a.a.a.a.a.a.a.a.a.a.a.a.a.a.a.a.a.a.a.a.a.a.a.a.a.a.a.a.a.a.a.a.a.a.a.a.a.a.a.a.a.a.a.a.a.a.a.a.a.a.a.a.a.a.a.a.a.a.a.a.a.a.a.a.a.a.a.a.a.a.a.a.a.a.a.a.a.a.a.a.a.a.a.a.a.a.a.a.8 p h l m B C S F F G T T T E E ^ ^ / / / / / / / / / ` ` ` ` _ _ ` ` ` } } } } } } } } }  .@. .@.@.@.@.@.#.#.#.&.&.&.&.&.&.&.-.-.-.-.-.-.-.-.-.-.-.-.-.-.4.;.;.6.;.;.t.e.e.e.e.e.e.e.e.e.t.t.t.t.t.t.t.t.t.t.t.t.t.t.t.s.s.f.f.f.s.f.s.s.h.h.f.f.h.g.h.f.f.h.k.k.k.k.k.k.k.k.k.k.V.k.k.V.V.k.V.V.V.V.V.V.V.V.V.Z.V.V.V.V.Z.H.H.H.H.H.Z.C.C.Z.H.H.H.H.C.C.H.H.H.H.H.U.W.U.H.H.U.U.H.H.H.H.H.H.H.H.C.H.H.H.H.H.H.H.C.C.V.k.k.k.k.k.k.k.g.h.h.f.f.f.f.s.s.f.s.s.s.t.t.t.t.t.t.t.t.t.t.t.t.t.t.t.t.t.t.t.t.t.t.t.t.t.t.t.e.e.e.t.e.e.t.t.t.t.e.e.;.;.e.;.e.;.;.t.;.-.-.-.-.-.-.*.*.&.#.@.@.@.} ` ` ` _ a.a.a.a.a.a.a.a.a.a.a.a.a.a.a.a.a.a.a.a.a.a.a.a.a.a.a.a.a.a.a.a.a.a.a.a.a.a.a.a.a.",
"a.a.a.a.a.a.a.a.a.a.a.a.a.a.a.a.a.a.a.a.a.a.a.a.a.a.a.a.a.a.a.a.a.a.a.a.a.a.a.a.a.a.a.a.a.a.a.a.a.a.a.a.a.a.a.a.a.a.a.a.a.a.a.a.a.a.a.a.a.a.a.a.a.a.a.a.a.a.a.a.a.a.a.a.a.a.a.a.a.a.a.a.a.a.a.a.a.a.a.a.a.a.a.a.a.a.a.a.a.a.a.a.a.a.a.a.a.a.a.a.a.a.a.a.a.a.a.a.a.a.a.a.a.a.a.a.a.a.a.a.a.a.a.a.a.a.a.a.a.a.a.a.a.a.a.a.a.a.a.a.a.a.a.a.a.a.a.a.a.a.a.a.a.a.a.a.a.a.a.a.a.a.a.a.a.a.a.a.a.a.a.a.a.a.a.a.a.a.a.a.a.a.a.a.a.a.a.a.a.a.a.a.a.a.a.a.a.a.a.a.a.a.a.a.a.a.a.a.a.a.a.a.a.a.a.a.a.a.a.a.a.a.a.a.a.a.a.a.a.a.a.a.a.a.a.a.a.a.a.a.a.a.a.a.a.a.a.a.a.8 p h j n B C S F F G U U T T T T / / / ` / / / _ ` _ ` ` ` ` _ ` ` ` ` ` } ` } } } } } } @.@. .@. .@.@.@.#.#.#.#.#.#.&.&.&.&.-.&.&.-.*.-.-.-.-.-.-.-.4.4.4.-.-.-.-.-.;.;.6.6.6.6.6.t.t.t.t.t.t.t.t.t.t.t.t.t.t.t.t.t.t.s.f.s.f.f.f.f.s.s.f.f.f.f.f.h.f.f.f.h.k.k.k.k.k.k.k.k.k.k.k.V.V.V.V.k.V.V.V.V.V.k.V.H.Z.Z.V.V.Z.V.V.H.U.U.C.Z.V.Z.H.C.Z.H.H.H.Z.Z.C.H.H.H.H.H.H.H.H.Z.H.H.H.H.H.H.Z.H.H.H.H.U.H.H.D.Z.V.V.Z.V.k.V.k.k.k.k.k.k.k.h.h.f.f.f.f.s.s.f.f.f.s.s.t.e.t.t.t.t.t.t.t.t.t.t.y.t.t.t.t.t.t.t.t.t.t.t.t.t.t.t.t.t.e.e.t.t.t.t.t.e.e.e.e.;.;.;.-.;.;.;.;.;.-.-.*.*.=.=.#.@.@.@. .] ] ` ` U a.a.a.a.a.a.a.a.a.a.a.a.a.a.a.a.a.a.a.a.a.a.a.a.a.a.a.a.a.a.a.a.a.a.a.a.a.a.a.a.",
"a.a.a.a.a.a.a.a.a.a.a.a.a.a.a.a.a.a.a.a.a.a.a.a.a.a.a.a.a.a.a.a.a.a.a.a.a.a.a.a.a.a.a.a.a.a.a.a.a.a.a.a.a.a.a.a.a.a.a.a.a.a.a.a.a.a.a.a.a.a.a.a.a.a.a.a.a.a.a.a.a.a.a.a.a.a.a.a.a.a.a.a.a.a.a.a.a.a.a.a.a.a.a.a.a.a.a.a.a.a.a.a.a.a.a.a.a.a.a.a.a.a.a.a.a.a.a.a.a.a.a.a.a.a.a.a.a.a.a.a.a.a.a.a.a.a.a.a.a.a.a.a.a.a.a.a.a.a.a.a.a.a.a.a.a.a.a.a.a.a.a.a.a.a.a.a.a.a.a.a.a.a.a.a.a.a.a.a.a.a.a.a.a.a.a.a.a.a.a.a.a.a.a.a.a.a.a.a.a.a.a.a.a.a.a.a.a.a.a.a.a.a.a.a.a.a.a.a.a.a.a.a.a.a.a.a.a.a.a.a.a.a.a.a.a.a.a.a.a.a.a.a.a.a.a.a.a.a.a.a.a.a.a.a.a.a.a.a.a.7 p s d n B C C S F F G T U T T ^ / / / _ / / / _ _ _ _ ` ` ` ` ` ` ` ` ` } } } } } } } }  . . .@.@.@.@.@.#.#.#.#.#.#.&.&.&.&.&.*.*.-.*.*.-.-.-.-.-.-.-.4.4.-.-.-.;.;.;.;.6.6.6.6.6.t.t.6.t.e.e.t.t.t.e.t.t.t.t.t.t.t.t.t.t.s.f.f.f.f.s.s.s.f.h.h.h.h.f.k.k.k.k.k.h.k.k.k.k.k.k.k.k.k.k.V.V.k.V.V.V.Z.Z.Z.Z.H.D.D.V.Z.H.H.Z.H.R.U.H.H.H.H.H.C.C.H.Z.Z.Z.H.H.H.H.H.H.H.H.H.H.H.H.H.H.H.H.H.C.H.H.H.H.U.H.D.D.Z.V.V.D.V.k.V.k.V.k.k.k.k.k.g.k.f.h.h.f.t.s.f.s.s.s.t.t.e.t.t.e.t.t.t.t.t.t.y.s.t.t.t.t.t.t.t.t.t.t.t.e.t.t.e.t.e.e.t.t.t.t.t.t.t.e.e.e.;.;.-.-.6.;.;.-.;.-.-.*.*.*.*.#.#.#.@.@.} } ` _ / a.a.a.a.a.a.a.a.a.a.a.a.a.a.a.a.a.a.a.a.a.a.a.a.a.a.a.a.a.a.a.a.a.a.a.a.a.a.a.a.",
"a.a.a.a.a.a.a.a.a.a.a.a.a.a.a.a.a.a.a.a.a.a.a.a.a.a.a.a.a.a.a.a.a.a.a.a.a.a.a.a.a.a.a.a.a.a.a.a.a.a.a.a.a.a.a.a.a.a.a.a.a.a.a.a.a.a.a.a.a.a.a.a.a.a.a.a.a.a.a.a.a.a.a.a.a.a.a.a.a.a.a.a.a.a.a.a.a.a.a.a.a.a.a.a.a.a.a.a.a.a.a.a.a.a.a.a.a.a.a.a.a.a.a.a.a.a.a.a.a.a.a.a.a.a.a.a.a.a.a.a.a.a.a.a.a.a.a.a.a.a.a.a.a.a.a.a.a.a.a.a.a.a.a.a.a.a.a.a.a.a.a.a.a.a.a.a.a.a.a.a.a.a.a.a.a.a.a.a.a.a.a.a.a.a.a.a.a.a.a.a.a.a.a.a.a.a.a.a.a.a.a.a.a.a.a.a.a.a.a.a.a.a.a.a.a.a.a.a.a.a.a.a.a.a.a.a.a.a.a.a.a.a.a.a.a.a.a.a.a.a.a.a.a.a.a.a.a.a.a.a.a.a.a.a.a.a.a.a.a.6 t s h l B C C S F F G U U U T T ^ / / / ^ / / _ _ _ _ ` _ ` ` ` ` ` ` ` } } } } } } } }  . . .@.@.@.@.@.#.#.#.#.#.#.&.&.&.&.&.*.-.-.*.-.-.-.-.-.-.-.-.-.4.-.-.-.t.t.-.-.;.6.t.6.6.t.t.t.t.e.e.t.t.t.t.t.t.t.t.t.t.t.t.t.t.s.s.f.f.f.s.s.f.f.h.h.h.f.h.k.k.k.k.k.g.k.k.V.k.k.k.k.k.k.k.k.k.k.V.V.V.Z.Z.Z.Z.D.D.Z.V.Z.H.H.H.H.H.H.H.H.H.H.C.V.Z.H.H.H.H.C.H.H.H.H.H.U.U.U.U.U.W.H.H.U.H.H.C.H.H.H.C.U.H.D.Z.Z.V.V.Z.V.k.V.k.V.k.k.k.k.k.g.g.f.h.h.f.t.s.f.f.s.s.t.t.e.e.e.e.t.t.t.y.y.t.t.t.t.t.y.y.t.t.t.t.t.t.t.t.t.t.t.t.t.e.t.t.t.t.t.t.t.t.e.;.e.;.;.-.6.;.;.-.6.-.-.*.*.*.*.#.#.#.@.@.} } ` ` W a.a.a.a.a.a.a.a.a.a.a.a.a.a.a.a.a.a.a.a.a.a.a.a.a.a.a.a.a.a.a.a.a.a.a.a.a.a.a.a.",
"a.a.a.a.a.a.a.a.a.a.a.a.a.a.a.a.a.a.a.a.a.a.a.a.a.a.a.a.a.a.a.a.a.a.a.a.a.a.a.a.a.a.a.a.a.a.a.a.a.a.a.a.a.a.a.a.a.a.a.a.a.a.a.a.a.a.a.a.a.a.a.a.a.a.a.a.a.a.a.a.a.a.a.a.a.a.a.a.a.a.a.a.a.a.a.a.a.a.a.a.a.a.a.a.a.a.a.a.a.a.a.a.a.a.a.a.a.a.a.a.a.a.a.a.a.a.a.a.a.a.a.a.a.a.a.a.a.a.a.a.a.a.a.a.a.a.a.a.a.a.a.a.a.a.a.a.a.a.a.a.a.a.a.a.a.a.a.a.a.a.a.a.a.a.a.a.a.a.a.a.a.a.a.a.a.a.a.a.a.a.a.a.a.a.a.a.a.a.a.a.a.a.a.a.a.a.a.a.a.a.a.a.a.a.a.a.a.a.a.a.a.a.a.a.a.a.a.a.a.a.a.a.a.a.a.a.a.a.a.a.a.a.a.a.a.a.a.a.a.a.a.a.a.a.a.a.a.a.a.a.a.a.a.a.a.a.a.a.a.5 t s d l B C C S F F G U T T T T ^ / / / / / / / _ _ _ ` / _ ` ` ` ` ` ` } } } } } } } }  .}  . .@.@.@.@.#.#.#.#.#.#.&.&.&.-.&.&.&.&.*.*.-.-.-.-.-.-.-.-.-.-.;.-.e.e.;.-.;.6.t.t.t.6.6.t.t.e.e.e.t.e.e.e.t.t.t.t.t.t.t.t.y.s.s.s.f.f.s.f.f.h.f.f.h.g.h.k.h.g.k.k.k.k.k.k.k.k.k.k.k.k.k.k.k.k.V.V.V.V.k.k.V.V.V.V.D.D.H.H.H.U.Z.C.H.U.H.H.H.V.Z.H.H.H.C.Z.C.H.H.H.H.H.H.H.H.H.H.H.H.H.H.H.C.H.H.H.C.H.D.Z.Z.D.V.V.Z.V.k.V.k.k.k.k.k.k.g.h.h.f.h.f.f.s.s.s.s.s.t.s.s.e.e.e.t.t.t.t.t.t.t.t.t.t.t.y.y.t.t.t.t.t.t.t.t.t.t.t.t.t.t.t.t.t.t.t.t.t.t.e.;.e.e.;.;.6.;.;.;.;.-.-.-.*.*.*.#.#.#.@.@. . .` _ / a.a.a.a.a.a.a.a.a.a.a.a.a.a.a.a.a.a.a.a.a.a.a.a.a.a.a.a.a.a.a.a.a.a.a.a.a.a.a.a.",
"a.a.a.a.a.a.a.a.a.a.a.a.a.a.a.a.a.a.a.a.a.a.a.a.a.a.a.a.a.a.a.a.a.a.a.a.a.a.a.a.a.a.a.a.a.a.a.a.a.a.a.a.a.a.a.a.a.a.a.a.a.a.a.a.a.a.a.a.a.a.a.a.a.a.a.a.a.a.a.a.a.a.a.a.a.a.a.a.a.a.a.a.a.a.a.a.a.a.a.a.a.a.a.a.a.a.a.a.a.a.a.a.a.a.a.a.a.a.a.a.a.a.a.a.a.a.a.a.a.a.a.a.a.a.a.a.a.a.a.a.a.a.a.a.a.a.a.a.a.a.a.a.a.a.a.a.a.a.a.a.a.a.a.a.a.a.a.a.a.a.a.a.a.a.a.a.a.a.a.a.a.a.a.a.a.a.a.a.a.a.a.a.a.a.a.a.a.a.a.a.a.a.a.a.a.a.a.a.a.a.a.a.a.a.a.a.a.a.a.a.a.a.a.a.a.a.a.a.a.a.a.a.a.a.a.a.a.a.a.a.a.a.a.a.a.a.a.a.a.a.a.a.a.a.a.a.a.a.a.a.a.a.a.a.a.a.a.a.a.5 9 p h l B B C Z F F G U U T T T ^ / / / / / / / _ _ ` ` / / ` ` ` ` ` ` ` } } } } } } } } }  . .@.@.@.@.@.#.@.@.#.#.&.#.&.&.&.&.&.&.&.*.-.-.-.-.-.-.-.-.-.-.-.;.e.e.;.;.;.6.6.t.6.6.6.6.6.t.e.t.t.e.e.t.t.t.y.t.t.t.s.t.y.s.s.s.s.f.f.h.f.f.f.g.g.f.g.g.h.h.h.k.k.k.k.k.k.k.V.k.k.V.k.k.k.V.k.k.V.Z.k.V.Z.Z.V.V.Z.V.Z.H.H.H.H.H.H.H.H.H.U.U.H.D.H.H.H.H.H.U.U.U.U.H.H.Z.H.H.H.H.C.H.H.H.H.H.C.C.Z.C.Z.Z.Z.V.V.Z.Z.V.V.k.V.Z.V.k.k.k.k.g.h.f.f.f.f.f.f.s.s.s.s.s.s.t.t.e.e.t.t.t.t.t.t.t.t.t.t.t.y.t.t.t.t.t.t.t.t.t.t.t.t.t.t.t.t.t.t.t.t.t.t.e.;.;.e.e.e.6.6.6.6.;.-.-.-.*.*.*.#.#.#.#.@.@. .` _ / / a.a.a.a.a.a.a.a.a.a.a.a.a.a.a.a.a.a.a.a.a.a.a.a.a.a.a.a.a.a.a.a.a.a.a.a.a.a.a.",
"a.a.a.a.a.a.a.a.a.a.a.a.a.a.a.a.a.a.a.a.a.a.a.a.a.a.a.a.a.a.a.a.a.a.a.a.a.a.a.a.a.a.a.a.a.a.a.a.a.a.a.a.a.a.a.a.a.a.a.a.a.a.a.a.a.a.a.a.a.a.a.a.a.a.a.a.a.a.a.a.a.a.a.a.a.a.a.a.a.a.a.a.a.a.a.a.a.a.a.a.a.a.a.a.a.a.a.a.a.a.a.a.a.a.a.a.a.a.a.a.a.a.a.a.a.a.a.a.a.a.a.a.a.a.a.a.a.a.a.a.a.a.a.a.a.a.a.a.a.a.a.a.a.a.a.a.a.a.a.a.a.a.a.a.a.a.a.a.a.a.a.a.a.a.a.a.a.a.a.a.a.a.a.a.a.a.a.a.a.a.a.a.a.a.a.a.a.a.a.a.a.a.a.a.a.a.a.a.a.a.a.a.a.a.a.a.a.a.a.a.a.a.a.a.a.a.a.a.a.a.a.a.a.a.a.a.a.a.a.a.a.a.a.a.a.a.a.a.a.a.a.a.a.a.a.a.a.a.a.a.a.a.a.a.a.a.a.a.a.7 8 p s d l B C A S F G G U U T T T / / / / / / / _ _ ` ` / / _ _ ` ` ` ` ` } } } } } } } } }  . .@.@. .@.@.@.@.@.@.#.&.&.&.&.&.&.&.&.&.*.-.-.-.-.-.-.-.-.-.-.-.-.;.;.;.;.;.6.6.6.6.t.6.6.t.e.t.t.e.e.e.t.t.t.t.t.t.t.t.y.y.f.s.s.s.f.f.f.f.f.g.f.g.f.g.g.h.h.h.h.k.k.k.k.k.k.k.k.k.V.V.V.k.V.V.V.V.V.V.V.V.k.V.V.D.D.Z.Z.Z.H.H.H.C.Z.H.H.U.U.H.Z.H.H.H.U.U.H.H.H.U.H.H.H.U.R.H.H.H.H.U.H.H.H.H.H.Z.H.Z.V.Z.V.V.V.Z.k.V.V.k.V.V.k.k.k.k.k.h.h.f.f.f.h.f.f.s.s.s.s.s.t.t.t.e.t.t.t.t.t.y.t.t.t.t.t.t.t.t.t.t.t.t.t.t.y.t.t.t.t.t.t.t.t.t.t.t.t.t.e.e.e.e.e.e.6.6.6.6.;.-.-.-.*.*.*.&.&.#.@.@.@. .` / / _ a.a.a.a.a.a.a.a.a.a.a.a.a.a.a.a.a.a.a.a.a.a.a.a.a.a.a.a.a.a.a.a.a.a.a.a.a.a.a.",
"a.a.a.a.a.a.a.a.a.a.a.a.a.a.a.a.a.a.a.a.a.a.a.a.a.a.a.a.a.a.a.a.a.a.a.a.a.a.a.a.a.a.a.a.a.a.a.a.a.a.a.a.a.a.a.a.a.a.a.a.a.a.a.a.a.a.a.a.a.a.a.a.a.a.a.a.a.a.a.a.a.a.a.a.a.a.a.a.a.a.a.a.a.a.a.a.a.a.a.a.a.a.a.a.a.a.a.a.a.a.a.a.a.a.a.a.a.a.a.a.a.a.a.a.a.a.a.a.a.a.a.a.a.a.a.a.a.a.a.a.a.a.a.a.a.a.a.a.a.a.a.a.a.a.a.a.a.a.a.a.a.a.a.a.a.a.a.a.a.a.a.a.a.a.a.a.a.a.a.a.a.a.a.a.a.a.a.a.a.a.a.a.a.a.a.a.a.a.a.a.a.a.a.a.a.a.a.a.a.a.a.a.a.a.a.a.a.a.a.a.a.a.a.a.a.a.a.a.a.a.a.a.a.a.a.a.a.a.a.a.a.a.a.a.a.a.a.a.a.a.a.a.a.a.a.a.a.a.a.a.a.a.a.a.a.a.a.a.a.a.8 p s j n B C Z S F F F U U U T T / / / / ^ / / _ _ ` ` / / / _ ` ` ` ` ` } } } } } } } } }  . .@.@.@.@.@.@.@.@.@.#.&.&.&.&.&.&.&.&.&.*.-.-.-.-.-.-.-.-.-.-.-.-.;.;.;.;.;.6.6.6.6.t.6.6.6.e.e.t.e.t.e.t.t.t.e.t.t.t.t.t.f.f.f.f.f.f.f.f.f.f.f.f.g.h.g.g.h.h.h.g.k.k.k.k.k.k.g.k.V.V.V.V.V.V.V.Z.Z.V.V.V.V.V.V.Z.Z.Z.V.Z.C.H.H.H.H.H.H.H.H.H.H.H.R.H.H.H.H.H.W.W.H.U.H.H.H.H.H.H.U.U.U.H.Z.H.C.C.Z.H.Z.Z.Z.Z.V.V.Z.D.V.V.V.k.V.V.k.k.k.k.k.k.h.f.f.h.f.f.s.t.s.s.s.t.t.s.t.y.t.t.t.t.t.t.t.s.t.t.t.y.t.t.t.t.t.y.y.y.t.y.y.t.t.t.t.t.t.t.t.e.e.e.t.e.t.t.e.t.6.6.6.;.-.-.-.-.*.*.*.*.#.#.@.#.+.` / _ ` R a.a.a.a.a.a.a.a.a.a.a.a.a.a.a.a.a.a.a.a.a.a.a.a.a.a.a.a.a.a.a.a.a.a.a.a.a.a.",
"a.a.a.a.a.a.a.a.a.a.a.a.a.a.a.a.a.a.a.a.a.a.a.a.a.a.a.a.a.a.a.a.a.a.a.a.a.a.a.a.a.a.a.a.a.a.a.a.a.a.a.a.a.a.a.a.a.a.a.a.a.a.a.a.a.a.a.a.a.a.a.a.a.a.a.a.a.a.a.a.a.a.a.a.a.a.a.a.a.a.a.a.a.a.a.a.a.a.a.a.a.a.a.a.a.a.a.a.a.a.a.a.a.a.a.a.a.a.a.a.a.a.a.a.a.a.a.a.a.a.a.a.a.a.a.a.a.a.a.a.a.a.a.a.a.a.a.a.a.a.a.a.a.a.a.a.a.a.a.a.a.a.a.a.a.a.a.a.a.a.a.a.a.a.a.a.a.a.a.a.a.a.a.a.a.a.a.a.a.a.a.a.a.a.a.a.a.a.a.a.a.a.a.a.a.a.a.a.a.a.a.a.a.a.a.a.a.a.a.a.a.a.a.a.a.a.a.a.a.a.a.a.a.a.a.a.a.a.a.a.a.a.a.a.a.a.a.a.a.a.a.a.a.a.a.a.a.a.a.a.a.a.a.a.a.a.a.a.a.a.8 t s h l B C C A F F G U U T T T / / / / / / / / _ ` ` / / / ` ` ` ` ` ` } ` } } } } } } }  . .@.@.@.@.@.@.@.@.@.#.&.-.&.&.&.&.&.&.&.*.-.-.-.-.-.-.-.-.-.-.-.-.-.-.;.;.;.;.6.;.;.6.e.e.e.e.e.e.t.t.e.t.t.t.t.t.t.t.t.t.y.f.f.f.f.f.f.f.f.h.h.h.g.g.d.d.f.h.g.k.k.k.k.k.k.g.k.k.k.V.V.V.V.k.k.k.k.V.V.V.V.V.k.V.V.V.Z.H.H.H.H.H.H.H.U.U.R.W.U.C.H.H.H.H.H.U.H.H.U.U.U.U.U.W.U.H.H.H.H.H.Z.H.H.C.Z.H.Z.Z.D.Z.Z.Z.V.V.Z.k.k.k.V.V.k.k.g.g.k.k.h.f.s.f.f.s.s.s.s.s.s.t.t.y.t.y.y.t.t.t.t.y.t.t.t.t.t.t.e.t.t.t.y.t.t.y.t.t.s.t.t.t.t.t.t.t.t.t.t.t.e.e.e.t.e.;.e.6.6.;.;.-.-.-.-.-.*.*.#.#.@.@.@.` ` ` ` / a.a.a.a.a.a.a.a.a.a.a.a.a.a.a.a.a.a.a.a.a.a.a.a.a.a.a.a.a.a.a.a.a.a.a.a.a.a.",
"a.a.a.a.a.a.a.a.a.a.a.a.a.a.a.a.a.a.a.a.a.a.a.a.a.a.a.a.a.a.a.a.a.a.a.a.a.a.a.a.a.a.a.a.a.a.a.a.a.a.a.a.a.a.a.a.a.a.a.a.a.a.a.a.a.a.a.a.a.a.a.a.a.a.a.a.a.a.a.a.a.a.a.a.a.a.a.a.a.a.a.a.a.a.a.a.a.a.a.a.a.a.a.a.a.a.a.a.a.a.a.a.a.a.a.a.a.a.a.a.a.a.a.a.a.a.a.a.a.a.a.a.a.a.a.a.a.a.a.a.a.a.a.a.a.a.a.a.a.a.a.a.a.a.a.a.a.a.a.a.a.a.a.a.a.a.a.a.a.a.a.a.a.a.a.a.a.a.a.a.a.a.a.a.a.a.a.a.a.a.a.a.a.a.a.a.a.a.a.a.a.a.a.a.a.a.a.a.a.a.a.a.a.a.a.a.a.a.a.a.a.a.a.a.a.a.a.a.a.a.a.a.a.a.a.a.a.a.a.a.a.a.a.a.a.a.a.a.a.a.a.a.a.a.a.a.a.a.a.a.a.a.a.a.a.a.a.a.a.a.6 t s d l B B C S S F G U U T T ^ T / / / / / / / _ _ _ / / ` ` ` ` ` ` } } } } } } } } } }  . .@.@.@.@.@.@.@.#.#.#.@.#.#.#.&.&.&.&.&.*.-.-.-.-.-.-.-.-.-.-.-.-.-.-.-.-.-.;.e.;.-.-.;.e.e.e.e.e.e.t.e.t.t.t.t.e.t.t.y.y.t.s.d.s.s.s.f.d.d.d.f.d.d.d.f.f.d.h.g.g.k.k.h.k.k.k.V.V.k.k.B.k.k.k.k.k.k.k.k.V.V.V.V.V.V.H.H.H.Z.Z.H.H.H.C.H.U.U.U.C.H.H.Z.Z.H.H.H.Z.H.U.U.W.U.U.U.H.H.H.H.H.H.H.H.H.H.H.H.Z.V.D.Z.H.D.k.V.V.k.k.k.k.k.k.k.k.k.g.h.h.h.f.f.f.f.f.t.y.t.t.t.t.t.t.s.t.t.t.t.t.y.t.t.y.y.t.t.t.e.e.t.t.t.y.t.t.t.t.t.t.t.y.y.t.e.t.t.e.t.t.e.e.t.e.e.;.;.;.6.6.;.;.;.;.-.-.*.&.#.@.@. .} } / / / a.a.a.a.a.a.a.a.a.a.a.a.a.a.a.a.a.a.a.a.a.a.a.a.a.a.a.a.a.a.a.a.a.a.a.a.a.a.",
"a.a.a.a.a.a.a.a.a.a.a.a.a.a.a.a.a.a.a.a.a.a.a.a.a.a.a.a.a.a.a.a.a.a.a.a.a.a.a.a.a.a.a.a.a.a.a.a.a.a.a.a.a.a.a.a.a.a.a.a.a.a.a.a.a.a.a.a.a.a.a.a.a.a.a.a.a.a.a.a.a.a.a.a.a.a.a.a.a.a.a.a.a.a.a.a.a.a.a.a.a.a.a.a.a.a.a.a.a.a.a.a.a.a.a.a.a.a.a.a.a.a.a.a.a.a.a.a.a.a.a.a.a.a.a.a.a.a.a.a.a.a.a.a.a.a.a.a.a.a.a.a.a.a.a.a.a.a.a.a.a.a.a.a.a.a.a.a.a.a.a.a.a.a.a.a.a.a.a.a.a.a.a.a.a.a.a.a.a.a.a.a.a.a.a.a.a.a.a.a.a.a.a.a.a.a.a.a.a.a.a.a.a.a.a.a.a.a.a.a.a.a.a.a.a.a.a.a.a.a.a.a.a.a.a.a.a.a.a.a.a.a.a.a.a.a.a.a.a.a.a.a.a.a.a.a.a.a.a.a.a.a.a.a.a.a.a.a.a.a.6 9 p h l m B C S F G U U U T T T T / / / / / / / / _ _ / / ` ` ` ` ` ` ` } } } } } } } } } } } @.@.@.@.@.@.@.@.#.#.#.#.#.#.&.&.&.&.&.*.-.-.-.-.-.-.-.-.-.-.-.-.-.-.;.-.;.e.;.;.e.e.;.e.e.e.;.e.e.t.e.e.e.t.t.t.t.t.t.t.t.y.s.s.f.f.f.d.f.f.d.f.f.g.f.g.d.h.g.g.h.k.k.k.k.k.k.V.k.B.k.k.k.B.V.B.k.g.B.k.k.V.V.Z.Z.Z.D.Z.Z.H.H.Z.Z.H.U.U.H.H.H.H.H.H.C.H.H.U.H.H.U.R.U.H.H.H.C.H.U.H.H.H.Z.H.C.H.H.H.Z.Z.D.H.Z.V.k.V.V.k.k.k.k.k.k.V.k.k.k.k.h.f.f.s.s.s.f.y.t.t.t.e.t.t.y.f.s.s.t.t.y.t.t.t.y.s.t.t.t.t.t.y.y.t.s.t.t.t.t.t.t.t.t.y.t.t.t.t.e.t.t.e.t.t.e.t.;.e.-.6.6.6.;.;.;.-.-.*.&.#.@.@. .+.} } _ / / a.a.a.a.a.a.a.a.a.a.a.a.a.a.a.a.a.a.a.a.a.a.a.a.a.a.a.a.a.a.a.a.a.a.a.a.a.",
"a.a.a.a.a.a.a.a.a.a.a.a.a.a.a.a.a.a.a.a.a.a.a.a.a.a.a.a.a.a.a.a.a.a.a.a.a.a.a.a.a.a.a.a.a.a.a.a.a.a.a.a.a.a.a.a.a.a.a.a.a.a.a.a.a.a.a.a.a.a.a.a.a.a.a.a.a.a.a.a.a.a.a.a.a.a.a.a.a.a.a.a.a.a.a.a.a.a.a.a.a.a.a.a.a.a.a.a.a.a.a.a.a.a.a.a.a.a.a.a.a.a.a.a.a.a.a.a.a.a.a.a.a.a.a.a.a.a.a.a.a.a.a.a.a.a.a.a.a.a.a.a.a.a.a.a.a.a.a.a.a.a.a.a.a.a.a.a.a.a.a.a.a.a.a.a.a.a.a.a.a.a.a.a.a.a.a.a.a.a.a.a.a.a.a.a.a.a.a.a.a.a.a.a.a.a.a.a.a.a.a.a.a.a.a.a.a.a.a.a.a.a.a.a.a.a.a.a.a.a.a.a.a.a.a.a.a.a.a.a.a.a.a.a.a.a.a.a.a.a.a.a.a.a.a.a.a.a.a.a.a.a.a.a.a.a.a.a.a.a.6 9 p h l m B C Z F F U H U T T T ^ / / / / / / / / / / / / ` ` ` ` ` ` ` ` } } } } } } } } } @.@.@. .@.@.@.@.@.@.@.@.&.#.#.&.&.&.*.&.*.-.-.-.-.-.-.-.-.-.-.-.-.-.;.;.-.-.-.-.-.e.e.;.;.e.e.e.e.e.t.e.e.t.t.t.t.t.t.t.t.t.y.s.s.f.f.f.d.f.f.f.f.f.d.d.d.d.h.k.k.h.k.k.k.k.k.k.V.k.B.k.k.k.B.k.B.V.V.B.B.k.V.Z.Z.Z.H.H.D.H.H.H.Z.Z.H.W.U.U.H.H.H.W.U.H.U.U.W.W.R.U.U.H.H.H.H.C.H.U.H.H.H.C.H.C.C.H.H.Z.V.H.D.V.V.V.k.V.k.k.k.k.k.k.k.k.g.k.k.k.h.f.s.s.s.f.y.t.t.t.t.t.t.t.t.s.s.s.t.y.t.t.t.y.y.t.s.t.u.t.t.y.s.t.t.t.t.t.t.y.t.t.t.t.t.t.t.t.t.t.e.e.e.e.t.e.e.e.6.6.6.6.6.;.-.-.&.&.&.#.@.@.} } } ` _ / a.a.a.a.a.a.a.a.a.a.a.a.a.a.a.a.a.a.a.a.a.a.a.a.a.a.a.a.a.a.a.a.a.a.a.a.a.",
"a.a.a.a.a.a.a.a.a.a.a.a.a.a.a.a.a.a.a.a.a.a.a.a.a.a.a.a.a.a.a.a.a.a.a.a.a.a.a.a.a.a.a.a.a.a.a.a.a.a.a.a.a.a.a.a.a.a.a.a.a.a.a.a.a.a.a.a.a.a.a.a.a.a.a.a.a.a.a.a.a.a.a.a.a.a.a.a.a.a.a.a.a.a.a.a.a.a.a.a.a.a.a.a.a.a.a.a.a.a.a.a.a.a.a.a.a.a.a.a.a.a.a.a.a.a.a.a.a.a.a.a.a.a.a.a.a.a.a.a.a.a.a.a.a.a.a.a.a.a.a.a.a.a.a.a.a.a.a.a.a.a.a.a.a.a.a.a.a.a.a.a.a.a.a.a.a.a.a.a.a.a.a.a.a.a.a.a.a.a.a.a.a.a.a.a.a.a.a.a.a.a.a.a.a.a.a.a.a.a.a.a.a.a.a.a.a.a.a.a.a.a.a.a.a.a.a.a.a.a.a.a.a.a.a.a.a.a.a.a.a.a.a.a.a.a.a.a.a.a.a.a.a.a.a.a.a.a.a.a.a.a.a.a.a.a.a.a.a.a.6 8 p h l n B C C S F F H U T T T ^ / / / / / / / / / / / / _ _ _ ` ` ` ` ` ` } } } } } } } } } @.@.@.@.@.@.#.@.@.@.@.#.#.#.&.&.&.&.&.*.-.-.-.-.-.-.-.-.-.-.-.-.-.;.;.;.;.-.-.-.e.e.;.;.e.e.e.e.e.e.e.e.t.t.t.t.t.t.t.t.t.y.s.s.f.f.f.f.d.f.f.f.f.d.f.d.g.k.k.k.h.k.k.h.f.k.k.B.k.B.k.k.B.k.k.k.k.V.k.V.H.D.D.Z.D.D.H.Z.Z.Z.D.H.H.H.H.U.U.H.H.H.U.H.H.W.R.H.H.H.H.U.H.C.H.U.U.U.H.H.H.H.C.Z.H.H.H.H.D.V.Z.V.V.V.V.k.V.V.k.k.k.k.k.k.g.k.k.k.k.h.f.s.t.s.s.t.t.t.t.t.t.t.y.t.s.s.t.t.t.t.t.t.t.t.t.t.t.t.t.t.t.y.t.f.t.t.t.y.t.t.t.t.y.y.t.t.t.t.t.e.e.e.e.t.e.e.e.t.6.6.6.;.;.-.-.&.*.&.#.@.@. .} } ` _ / a.a.a.a.a.a.a.a.a.a.a.a.a.a.a.a.a.a.a.a.a.a.a.a.a.a.a.a.a.a.a.a.a.a.a.a.a.",
"a.a.a.a.a.a.a.a.a.a.a.a.a.a.a.a.a.a.a.a.a.a.a.a.a.a.a.a.a.a.a.a.a.a.a.a.a.a.a.a.a.a.a.a.a.a.a.a.a.a.a.a.a.a.a.a.a.a.a.a.a.a.a.a.a.a.a.a.a.a.a.a.a.a.a.a.a.a.a.a.a.a.a.a.a.a.a.a.a.a.a.a.a.a.a.a.a.a.a.a.a.a.a.a.a.a.a.a.a.a.a.a.a.a.a.a.a.a.a.a.a.a.a.a.a.a.a.a.a.a.a.a.a.a.a.a.a.a.a.a.a.a.a.a.a.a.a.a.a.a.a.a.a.a.a.a.a.a.a.a.a.a.a.a.a.a.a.a.a.a.a.a.a.a.a.a.a.a.a.a.a.a.a.a.a.a.a.a.a.a.a.a.a.a.a.a.a.a.a.a.a.a.a.a.a.a.a.a.a.a.a.a.a.a.a.a.a.a.a.a.a.a.a.a.a.a.a.a.a.a.a.a.a.a.a.a.a.a.a.a.a.a.a.a.a.a.a.a.a.a.a.a.a.a.a.a.a.a.a.a.a.a.a.a.a.a.a.a.a.a.6 8 t s h l m C C S F P H U T T T / ^ / / / ^ ^ / / _ _ / / _ / _ _ ` ` ` ` ` } } ` } } } } @.@.@.@. .@.@.@.@.@.#.#.#.#.#.#.#.&.&.&.&.&.*.-.-.-.-.-.-.-.-.-.-.-.-.;.w.;.-.-.-.-.e.e.;.e.e.e.e.e.e.e.e.t.t.t.t.e.t.t.t.t.t.y.f.f.s.f.f.f.s.s.f.f.f.d.d.g.k.k.k.k.k.k.k.k.k.k.V.V.k.k.k.k.k.k.H.V.V.V.D.D.D.D.H.Z.D.Z.Z.Z.H.H.H.Z.H.H.H.H.H.Z.C.V.H.H.H.H.H.H.H.H.H.W.U.U.H.H.H.U.H.H.H.U.H.H.H.H.H.H.H.Z.V.V.V.V.k.V.k.k.k.g.k.k.k.k.h.h.f.h.f.f.f.f.f.s.f.t.t.t.t.t.t.t.t.t.y.s.y.t.y.t.y.t.t.t.t.t.t.t.t.y.s.s.t.t.s.t.t.t.t.t.t.t.y.y.t.y.s.t.t.t.t.e.e.t.t.e.e.t.6.6.6.6.;.-.-.*.-.#.#.@.@.@. .} } ` / / a.a.a.a.a.a.a.a.a.a.a.a.a.a.a.a.a.a.a.a.a.a.a.a.a.a.a.a.a.a.a.a.a.a.a.a.",
"a.a.a.a.a.a.a.a.a.a.a.a.a.a.a.a.a.a.a.a.a.a.a.a.a.a.a.a.a.a.a.a.a.a.a.a.a.a.a.a.a.a.a.a.a.a.a.a.a.a.a.a.a.a.a.a.a.a.a.a.a.a.a.a.a.a.a.a.a.a.a.a.a.a.a.a.a.a.a.a.a.a.a.a.a.a.a.a.a.a.a.a.a.a.a.a.a.a.a.a.a.a.a.a.a.a.a.a.a.a.a.a.a.a.a.a.a.a.a.a.a.a.a.a.a.a.a.a.a.a.a.a.a.a.a.a.a.a.a.a.a.a.a.a.a.a.a.a.a.a.a.a.a.a.a.a.a.a.a.a.a.a.a.a.a.a.a.a.a.a.a.a.a.a.a.a.a.a.a.a.a.a.a.a.a.a.a.a.a.a.a.a.a.a.a.a.a.a.a.a.a.a.a.a.a.a.a.a.a.a.a.a.a.a.a.a.a.a.a.a.a.a.a.a.a.a.a.a.a.a.a.a.a.a.a.a.a.a.a.a.a.a.a.a.a.a.a.a.a.a.a.a.a.a.a.a.a.a.a.a.a.a.a.a.a.a.a.a.a.a.5 8 t p d l m C B S F F H U T T T ^ E / / / / / / / _ _ / / _ / _ _ ` ` ` ` ` } } } } } } }  . . . .@.@.@.@.@.@.@.#.#.#.#.#.#.&.#.&.&.&.*.*.-.-.-.-.-.-.-.-.-.-.-.-.-.-.-.-.-.-.;.-.e.e.e.e.e.e.e.e.e.t.t.t.t.e.t.t.t.t.t.y.s.f.f.f.f.f.s.f.f.f.f.f.k.d.d.h.k.k.k.k.k.k.k.k.V.V.k.k.k.h.k.k.V.V.D.V.V.D.H.H.H.Z.H.H.Z.H.Z.H.U.H.H.H.H.Z.C.Z.Z.Z.H.H.H.H.H.H.H.H.U.R.U.U.H.H.U.U.H.H.H.U.H.H.H.Z.Z.V.Z.D.H.Z.V.Z.k.V.k.k.k.k.k.k.k.h.g.g.f.k.f.f.h.f.f.f.s.t.t.t.t.s.t.t.t.t.t.t.t.t.y.y.t.t.t.y.t.t.t.t.y.y.t.y.t.t.s.t.t.s.y.t.t.t.t.t.t.t.t.t.t.t.t.e.e.t.e.e.e.t.6.6.6.6.6.;.-.-.&.&.#.@.@.@. . .} ] _ / a.a.a.a.a.a.a.a.a.a.a.a.a.a.a.a.a.a.a.a.a.a.a.a.a.a.a.a.a.a.a.a.a.a.a.a.",
"a.a.a.a.a.a.a.a.a.a.a.a.a.a.a.a.a.a.a.a.a.a.a.a.a.a.a.a.a.a.a.a.a.a.a.a.a.a.a.a.a.a.a.a.a.a.a.a.a.a.a.a.a.a.a.a.a.a.a.a.a.a.a.a.a.a.a.a.a.a.a.a.a.a.a.a.a.a.a.a.a.a.a.a.a.a.a.a.a.a.a.a.a.a.a.a.a.a.a.a.a.a.a.a.a.a.a.a.a.a.a.a.a.a.a.a.a.a.a.a.a.a.a.a.a.a.a.a.a.a.a.a.a.a.a.a.a.a.a.a.a.a.a.a.a.a.a.a.a.a.a.a.a.a.a.a.a.a.a.a.a.a.a.a.a.a.a.a.a.a.a.a.a.a.a.a.a.a.a.a.a.a.a.a.a.a.a.a.a.a.a.a.a.a.a.a.a.a.a.a.a.a.a.a.a.a.a.a.a.a.a.a.a.a.a.a.a.a.a.a.a.a.a.a.a.a.a.a.a.a.a.a.a.a.a.a.a.a.a.a.a.a.a.a.a.a.a.a.a.a.a.a.a.a.a.a.a.a.a.a.a.a.a.a.a.a.a.a.a.a.a.6 9 t h l m B C A F F F U U U T T T ^ / / / / / / / _ / / _ / _ _ ` ` ` ` ` } } } } } } }  . . . . .@.@.@.@.@.@.@.@.@.#.#.#.#.#.#.#.&.&.&.*.*.-.-.-.-.-.-.-.-.-.-.-.-.-.-.-.-.;.;.;.e.e.;.e.e.e.e.e.e.e.t.t.e.t.t.t.t.y.s.y.s.f.f.f.f.s.f.f.f.s.f.f.f.d.k.k.k.h.h.g.g.k.V.k.k.k.V.k.B.k.k.V.V.D.V.Z.D.U.H.D.V.V.H.Z.H.H.H.U.H.H.H.H.H.H.H.H.H.U.W.W.W.R.H.U.H.H.R.U.U.H.H.H.H.H.H.H.H.H.H.H.Z.Z.V.Z.D.D.Z.Z.D.k.V.V.k.k.k.k.k.k.k.k.k.k.g.h.f.h.f.f.s.s.s.t.t.t.t.t.t.t.t.t.t.t.t.y.t.t.t.t.y.t.t.t.t.y.y.s.t.t.t.t.s.s.d.y.y.t.t.t.t.t.t.t.t.t.t.t.t.t.e.t.e.e.t.6.6.;.6.6.;.-.-.-.&.&.#.@.@.@. . .} _ _ a.a.a.a.a.a.a.a.a.a.a.a.a.a.a.a.a.a.a.a.a.a.a.a.a.a.a.a.a.a.a.a.a.a.a.a.",
"a.a.a.a.a.a.a.a.a.a.a.a.a.a.a.a.a.a.a.a.a.a.a.a.a.a.a.a.a.a.a.a.a.a.a.a.a.a.a.a.a.a.a.a.a.a.a.a.a.a.a.a.a.a.a.a.a.a.a.a.a.a.a.a.a.a.a.a.a.a.a.a.a.a.a.a.a.a.a.a.a.a.a.a.a.a.a.a.a.a.a.a.a.a.a.a.a.a.a.a.a.a.a.a.a.a.a.a.a.a.a.a.a.a.a.a.a.a.a.a.a.a.a.a.a.a.a.a.a.a.a.a.a.a.a.a.a.a.a.a.a.a.a.a.a.a.a.a.a.a.a.a.a.a.a.a.a.a.a.a.a.a.a.a.a.a.a.a.a.a.a.a.a.a.a.a.a.a.a.a.a.a.a.a.a.a.a.a.a.a.a.a.a.a.a.a.a.a.a.a.a.a.a.a.a.a.a.a.a.a.a.a.a.a.a.a.a.a.a.a.a.a.a.a.a.a.a.a.a.a.a.a.a.a.a.a.a.a.a.a.a.a.a.a.a.a.a.a.a.a.a.a.a.a.a.a.a.a.a.a.a.a.a.a.a.a.a.a.a.a.a.5 9 p h l n B C S F F F U U T T T T E / / ^ / / / / _ / / _ / ` _ ` ` ` ` ` } } } } } } }  . .}  . . .@.@.@.@.@.@.@.#.#.#.#.#.#.#.#.#.&.&.*.*.-.-.-.-.-.-.-.-.-.-.-.-.-.-.-.-.-.;.-.e.;.;.e.t.e.e.e.e.e.t.e.e.t.t.t.t.t.y.y.s.f.f.f.f.s.f.f.f.f.d.g.g.k.k.k.k.h.h.g.h.k.V.k.j.k.j.V.V.V.V.V.V.H.H.H.H.C.C.H.H.H.H.Z.H.W.U.U.H.H.H.H.H.U.K.K.K.R.R.R.R.R.H.H.H.H.R.U.U.H.H.H.H.H.H.H.H.U.H.H.H.C.C.D.Z.Z.D.Z.D.V.V.k.k.k.k.k.k.k.k.k.f.k.k.h.f.h.h.f.s.f.y.t.t.t.t.t.t.y.t.t.t.s.t.t.y.t.t.s.s.y.y.t.y.y.s.f.s.y.t.t.y.d.s.y.t.t.y.t.y.t.e.t.t.t.t.t.t.t.e.t.e.e.t.6.6.6.6.6.;.-.-.-.*.&.#.#.@.@. . .} ` _ / a.a.a.a.a.a.a.a.a.a.a.a.a.a.a.a.a.a.a.a.a.a.a.a.a.a.a.a.a.a.a.a.a.a.a.",
"a.a.a.a.a.a.a.a.a.a.a.a.a.a.a.a.a.a.a.a.a.a.a.a.a.a.a.a.a.a.a.a.a.a.a.a.a.a.a.a.a.a.a.a.a.a.a.a.a.a.a.a.a.a.a.a.a.a.a.a.a.a.a.a.a.a.a.a.a.a.a.a.a.a.a.a.a.a.a.a.a.a.a.a.a.a.a.a.a.a.a.a.a.a.a.a.a.a.a.a.a.a.a.a.a.a.a.a.a.a.a.a.a.a.a.a.a.a.a.a.a.a.a.a.a.a.a.a.a.a.a.a.a.a.a.a.a.a.a.a.a.a.a.a.a.a.a.a.a.a.a.a.a.a.a.a.a.a.a.a.a.a.a.a.a.a.a.a.a.a.a.a.a.a.a.a.a.a.a.a.a.a.a.a.a.a.a.a.a.a.a.a.a.a.a.a.a.a.a.a.a.a.a.a.a.a.a.a.a.a.a.a.a.a.a.a.a.a.a.a.a.a.a.a.a.a.a.a.a.a.a.a.a.a.a.a.a.a.a.a.a.a.a.a.a.a.a.a.a.a.a.a.a.a.a.a.a.a.a.a.a.a.a.a.a.a.a.a.a.a.a.5 8 t s d l m B Z S S F U T T R T T E / ^ ^ / / / / / / _ _ _ _ _ ` ` ` } } } } }  .} } } } }  . .@.@.@.@.@.@.@.@.@.@.#.#.#.&.#.#.&.&.&.&.*.*.*.*.*.*.-.-.-.-.-.-.-.-.;.6.6.6.6.;.;.6.6.6.e.e.e.e.t.e.e.t.e.t.t.t.t.y.t.t.y.s.s.f.f.f.f.f.f.f.f.f.d.g.g.k.k.d.d.f.d.g.k.j.j.j.j.j.k.Z.V.k.V.V.Z.k.k.V.V.C.H.Z.V.Z.H.U.H.Z.Z.Z.V.Z.H.H.H.K.H.H.H.H.R.R.R.R.W.W.R.U.W.U.H.U.U.H.R.U.H.H.U.K.H.C.Z.V.V.V.V.C.D.Z.V.V.k.k.k.V.k.k.k.k.k.k.g.g.h.f.f.f.f.f.f.f.f.f.f.t.t.y.t.y.t.t.y.y.y.y.f.s.s.d.d.s.d.d.d.s.s.d.t.t.y.t.y.y.y.t.t.y.s.y.t.t.t.y.y.y.t.t.t.t.t.e.t.t.e.e.e.t.-.-.-.-.-.*.&.#.@.@.+. . .} ` / / a.a.a.a.a.a.a.a.a.a.a.a.a.a.a.a.a.a.a.a.a.a.a.a.a.a.a.a.a.a.a.a.a.a.a.",
"a.a.a.a.a.a.a.a.a.a.a.a.a.a.a.a.a.a.a.a.a.a.a.a.a.a.a.a.a.a.a.a.a.a.a.a.a.a.a.a.a.a.a.a.a.a.a.a.a.a.a.a.a.a.a.a.a.a.a.a.a.a.a.a.a.a.a.a.a.a.a.a.a.a.a.a.a.a.a.a.a.a.a.a.a.a.a.a.a.a.a.a.a.a.a.a.a.a.a.a.a.a.a.a.a.a.a.a.a.a.a.a.a.a.a.a.a.a.a.a.a.a.a.a.a.a.a.a.a.a.a.a.a.a.a.a.a.a.a.a.a.a.a.a.a.a.a.a.a.a.a.a.a.a.a.a.a.a.a.a.a.a.a.a.a.a.a.a.a.a.a.a.a.a.a.a.a.a.a.a.a.a.a.a.a.a.a.a.a.a.a.a.a.a.a.a.a.a.a.a.a.a.a.a.a.a.a.a.a.a.a.a.a.a.a.a.a.a.a.a.a.a.a.a.a.a.a.a.a.a.a.a.a.a.a.a.a.a.a.a.a.a.a.a.a.a.a.a.a.a.a.a.a.a.a.a.a.a.a.a.a.a.a.a.a.a.a.a.a.a.a.7 9 9 p d l m B C S F F G U T T R R E ^ ^ ^ ^ ^ / / / _ _ _ _ _ _ ` ` } ` } } } `  . .} } } }  . .@.@.@.@.@.@.@.@.@.@.@.#.#.#.#.#.&.&.&.&.&.&.*.*.*.*.-.-.-.-.-.-.-.-.;.6.;.6.6.6.6.t.6.e.e.e.t.;.e.e.e.t.t.t.t.t.t.t.s.s.s.y.t.s.f.f.f.f.f.f.f.f.d.k.g.k.d.g.k.k.k.k.k.j.j.A.j.V.k.V.k.k.V.V.V.V.V.k.H.H.H.V.V.D.H.H.Z.V.Z.C.H.H.C.H.H.H.H.H.K.K.H.K.H.H.U.Y.W.U.W.U.U.W.W.H.U.U.H.H.H.K.K.C.V.Z.Z.Z.Z.V.V.V.k.V.k.k.k.k.k.k.k.k.k.h.h.h.h.f.f.f.f.s.f.y.s.s.s.y.s.t.t.t.t.t.y.t.t.y.y.s.d.d.d.d.d.s.d.f.s.y.s.s.s.y.s.s.y.y.t.y.s.s.t.t.y.t.t.t.t.t.t.t.t.t.t.e.;.e.e.;.;.;.-.-.-.*.*.=.#.@.+. .} } ] ` / _ a.a.a.a.a.a.a.a.a.a.a.a.a.a.a.a.a.a.a.a.a.a.a.a.a.a.a.a.a.a.a.a.a.a.",
"a.a.a.a.a.a.a.a.a.a.a.a.a.a.a.a.a.a.a.a.a.a.a.a.a.a.a.a.a.a.a.a.a.a.a.a.a.a.a.a.a.a.a.a.a.a.a.a.a.a.a.a.a.a.a.a.a.a.a.a.a.a.a.a.a.a.a.a.a.a.a.a.a.a.a.a.a.a.a.a.a.a.a.a.a.a.a.a.a.a.a.a.a.a.a.a.a.a.a.a.a.a.a.a.a.a.a.a.a.a.a.a.a.a.a.a.a.a.a.a.a.a.a.a.a.a.a.a.a.a.a.a.a.a.a.a.a.a.a.a.a.a.a.a.a.a.a.a.a.a.a.a.a.a.a.a.a.a.a.a.a.a.a.a.a.a.a.a.a.a.a.a.a.a.a.a.a.a.a.a.a.a.a.a.a.a.a.a.a.a.a.a.a.a.a.a.a.a.a.a.a.a.a.a.a.a.a.a.a.a.a.a.a.a.a.a.a.a.a.a.a.a.a.a.a.a.a.a.a.a.a.a.a.a.a.a.a.a.a.a.a.a.a.a.a.a.a.a.a.a.a.a.a.a.a.a.a.a.a.a.a.a.a.a.a.a.a.a.a.a.a.5 6 9 p s d m B C Z S F G U T T T T E ^ ^ ^ ^ / / / / / _ _ _ _ _ ` ` ` ` ` } } }  . .} } } }  . .@.@.@.@.+.@.@.@.@.@.@.@.#.#.#.#.&.&.&.&.&.&.-.*.*.*.-.-.-.-.-.-.-.-.-.6.;.6.6.6.6.6.;.;.e.;.e.e.e.t.e.t.e.t.y.t.t.t.y.s.f.f.s.s.f.f.f.f.f.f.f.f.f.d.d.d.f.d.k.k.k.j.j.j.j.j.j.j.j.V.k.k.V.k.V.V.V.V.V.H.Z.Z.Z.Z.Z.H.H.V.C.H.H.H.H.H.K.H.H.H.K.R.R.R.R.W.Y.Y.W.W.W.W.W.U.H.H.Y.U.H.H.H.H.Z.Z.V.Z.Z.Z.V.V.V.V.k.V.k.k.k.k.k.k.k.k.k.h.g.g.h.f.f.f.f.f.f.s.s.s.s.s.y.t.t.t.t.t.y.y.t.y.t.d.d.d.s.s.d.d.d.f.f.s.s.f.f.f.f.d.d.d.y.d.y.t.s.t.s.y.y.y.t.t.t.t.t.t.t.t.e.t.e.6.;.;.;.;.-.*.*.#.&.#.@.@. .} } ] ` ] a.a.a.a.a.a.a.a.a.a.a.a.a.a.a.a.a.a.a.a.a.a.a.a.a.a.a.a.a.a.a.a.a.a.",
"a.a.a.a.a.a.a.a.a.a.a.a.a.a.a.a.a.a.a.a.a.a.a.a.a.a.a.a.a.a.a.a.a.a.a.a.a.a.a.a.a.a.a.a.a.a.a.a.a.a.a.a.a.a.a.a.a.a.a.a.a.a.a.a.a.a.a.a.a.a.a.a.a.a.a.a.a.a.a.a.a.a.a.a.a.a.a.a.a.a.a.a.a.a.a.a.a.a.a.a.a.a.a.a.a.a.a.a.a.a.a.a.a.a.a.a.a.a.a.a.a.a.a.a.a.a.a.a.a.a.a.a.a.a.a.a.a.a.a.a.a.a.a.a.a.a.a.a.a.a.a.a.a.a.a.a.a.a.a.a.a.a.a.a.a.a.a.a.a.a.a.a.a.a.a.a.a.a.a.a.a.a.a.a.a.a.a.a.a.a.a.a.a.a.a.a.a.a.a.a.a.a.a.a.a.a.a.a.a.a.a.a.a.a.a.a.a.a.a.a.a.a.a.a.a.a.a.a.a.a.a.a.a.a.a.a.a.a.a.a.a.a.a.a.a.a.a.a.a.a.a.a.a.a.a.a.a.a.a.a.a.a.a.a.a.a.a.a.a.a.a.6 6 8 p s k n B C S S F G G U T R T E ^ E ^ ^ ^ / / / _ _ _ _ _ _ ` ` ` ` } } } }  . .} } } } }  .} @.@.@.@.@.@.@.@.@.@.@.@.#.#.#.&.&.&.&.&.-.*.*.&.*.-.-.-.-.-.-.-.-.;.6.6.6.;.;.6.6.;.;.e.;.t.t.e.e.e.e.e.t.t.e.t.t.t.t.y.y.s.s.s.s.s.f.d.d.d.f.f.g.f.g.k.k.k.d.k.j.j.j.j.j.j.j.g.k.k.k.k.k.V.k.V.H.V.V.V.D.Z.V.Z.H.H.H.H.H.H.H.H.H.H.C.H.K.R.R.R.W.W.Y.H.U.U.U.Y.W.W.U.Y.U.W.H.W.H.H.H.H.Z.V.C.Z.Z.Z.H.H.V.V.V.k.k.k.k.k.k.h.k.k.h.h.g.k.f.f.f.f.f.f.t.y.y.s.t.y.t.t.t.t.t.t.t.t.t.t.s.d.s.y.y.d.d.d.f.f.f.s.f.f.f.f.f.f.d.s.s.y.t.s.t.t.y.s.s.t.t.t.t.t.t.t.t.e.t.e.6.6.;.;.6.-.-.*.&.#.@.@.@. .} } _ ` _ a.a.a.a.a.a.a.a.a.a.a.a.a.a.a.a.a.a.a.a.a.a.a.a.a.a.a.a.a.a.a.a.a.a.",
"a.a.a.a.a.a.a.a.a.a.a.a.a.a.a.a.a.a.a.a.a.a.a.a.a.a.a.a.a.a.a.a.a.a.a.a.a.a.a.a.a.a.a.a.a.a.a.a.a.a.a.a.a.a.a.a.a.a.a.a.a.a.a.a.a.a.a.a.a.a.a.a.a.a.a.a.a.a.a.a.a.a.a.a.a.a.a.a.a.a.a.a.a.a.a.a.a.a.a.a.a.a.a.a.a.a.a.a.a.a.a.a.a.a.a.a.a.a.a.a.a.a.a.a.a.a.a.a.a.a.a.a.a.a.a.a.a.a.a.a.a.a.a.a.a.a.a.a.a.a.a.a.a.a.a.a.a.a.a.a.a.a.a.a.a.a.a.a.a.a.a.a.a.a.a.a.a.a.a.a.a.a.a.a.a.a.a.a.a.a.a.a.a.a.a.a.a.a.a.a.a.a.a.a.a.a.a.a.a.a.a.a.a.a.a.a.a.a.a.a.a.a.a.a.a.a.a.a.a.a.a.a.a.a.a.a.a.a.a.a.a.a.a.a.a.a.a.a.a.a.a.a.a.a.a.a.a.a.a.a.a.a.a.a.a.a.a.a.a.a.a.e 5 8 t s d n B C C S F F G U T R R R E E ^ / / / / / / / _ _ _ _ ` _ ` ` } } ` }  .} } } } } } } @.@.@.@.@.@.@.@.@.@.@.@.@.@.@.#.#.#.#.*.&.&.-.-.-.-.-.-.-.-.-.-.-.-.;.;.-.6.;.;.;.6.6.-.;.e.e.e.t.t.e.t.t.t.t.t.t.t.t.y.f.d.t.s.s.s.s.y.f.g.d.g.k.k.f.d.g.d.f.d.k.k.k.j.V.V.j.j.j.V.A.k.V.V.k.k.k.V.Z.H.V.D.D.Z.C.H.H.H.H.H.R.U.U.H.H.H.H.K.R.R.H.C.R.W.W.W.R.U.Y.W.W.U.Y.Y.Y.W.W.U.H.H.H.C.Z.Z.Z.Z.Z.Z.V.V.V.k.k.k.k.k.k.k.k.k.k.k.k.k.f.f.f.f.f.f.f.s.s.y.y.y.s.s.y.y.t.t.t.t.t.t.s.s.d.s.y.s.s.d.d.f.f.f.f.f.s.s.y.f.f.f.f.y.s.s.t.t.t.y.y.s.s.s.t.t.y.t.t.t.t.t.e.6.6.;.;.6.-.-.-.*.#.#.@.@. .} } ` _ ` ] a.a.a.a.a.a.a.a.a.a.a.a.a.a.a.a.a.a.a.a.a.a.a.a.a.a.a.a.a.a.a.a.a.",
"a.a.a.a.a.a.a.a.a.a.a.a.a.a.a.a.a.a.a.a.a.a.a.a.a.a.a.a.a.a.a.a.a.a.a.a.a.a.a.a.a.a.a.a.a.a.a.a.a.a.a.a.a.a.a.a.a.a.a.a.a.a.a.a.a.a.a.a.a.a.a.a.a.a.a.a.a.a.a.a.a.a.a.a.a.a.a.a.a.a.a.a.a.a.a.a.a.a.a.a.a.a.a.a.a.a.a.a.a.a.a.a.a.a.a.a.a.a.a.a.a.a.a.a.a.a.a.a.a.a.a.a.a.a.a.a.a.a.a.a.a.a.a.a.a.a.a.a.a.a.a.a.a.a.a.a.a.a.a.a.a.a.a.a.a.a.a.a.a.a.a.a.a.a.a.a.a.a.a.a.a.a.a.a.a.a.a.a.a.a.a.a.a.a.a.a.a.a.a.a.a.a.a.a.a.a.a.a.a.a.a.a.a.a.a.a.a.a.a.a.a.a.a.a.a.a.a.a.a.a.a.a.a.a.a.a.a.a.a.a.a.a.a.a.a.a.a.a.a.a.a.a.a.a.a.a.a.a.a.a.a.a.a.a.a.a.a.a.a.a.a.e , 6 t p h l m B C S F F F U U T T T E E E / / / / / / / _ _ _ _ _ ` ` ` } } ` } } ' } } } } } } }  .@.@.@.@.@.@.@.@.@.@.@.@.#.#.#.&.#.&.&.&.-.*.*.-.-.-.-.-.-.-.-.-.-.;.-.;.;.;.-.6.;.-.e.e.e.t.e.e.t.e.t.t.t.t.t.t.s.f.s.s.y.y.s.s.s.s.f.k.g.g.k.k.k.f.d.k.k.k.V.j.v.j.j.j.V.V.k.V.Z.V.V.V.B.V.V.V.V.D.Z.H.V.Z.H.H.H.Z.H.H.U.H.U.R.W.R.K.K.R.W.H.C.R.H.U.W.W.W.Y.Y.W.W.W.W.U.W.W.R.U.H.H.H.Z.Z.C.V.V.Z.V.V.k.k.k.k.k.V.V.k.k.k.k.g.g.k.g.h.f.f.f.s.s.s.s.y.s.s.y.y.t.t.t.y.y.t.y.t.y.s.d.s.s.d.s.s.d.f.f.f.f.f.s.y.t.d.f.f.f.s.s.s.t.y.t.t.t.y.y.y.t.t.t.t.t.t.t.t.e.6.6.;.6.6.-.-.-.*.#.#.@.@. .} } } } _ / a.a.a.a.a.a.a.a.a.a.a.a.a.a.a.a.a.a.a.a.a.a.a.a.a.a.a.a.a.a.a.a.a.",
"a.a.a.a.a.a.a.a.a.a.a.a.a.a.a.a.a.a.a.a.a.a.a.a.a.a.a.a.a.a.a.a.a.a.a.a.a.a.a.a.a.a.a.a.a.a.a.a.a.a.a.a.a.a.a.a.a.a.a.a.a.a.a.a.a.a.a.a.a.a.a.a.a.a.a.a.a.a.a.a.a.a.a.a.a.a.a.a.a.a.a.a.a.a.a.a.a.a.a.a.a.a.a.a.a.a.a.a.a.a.a.a.a.a.a.a.a.a.a.a.a.a.a.a.a.a.a.a.a.a.a.a.a.a.a.a.a.a.a.a.a.a.a.a.a.a.a.a.a.a.a.a.a.a.a.a.a.a.a.a.a.a.a.a.a.a.a.a.a.a.a.a.a.a.a.a.a.a.a.a.a.a.a.a.a.a.a.a.a.a.a.a.a.a.a.a.a.a.a.a.a.a.a.a.a.a.a.a.a.a.a.a.a.a.a.a.a.a.a.a.a.a.a.a.a.a.a.a.a.a.a.a.a.a.a.a.a.a.a.a.a.a.a.a.a.a.a.a.a.a.a.a.a.a.a.a.a.a.a.a.a.a.a.a.a.a.a.a.a.a.a.a.5 5 9 p s l l B C S F F G T T U T T T E E ^ / / / / / / / / _ _ ` ` } ` ` } } } } } } } } } } } } }  .+.@.@.@.@.@.@.@.@.@.#.#.#.#.#.#.&.&.&.*.*.&.*.-.-.-.-.-.-.-.-.;.e.-.-.;.;.-.6.;.;.e.e.e.t.e.e.e.e.e.e.t.t.t.t.y.y.t.t.y.t.s.y.f.d.d.g.g.g.g.g.k.g.f.k.k.k.j.V.j.j.j.j.j.k.k.V.V.V.V.V.V.V.D.Z.k.V.Z.H.V.V.H.H.H.H.H.H.H.H.R.W.W.R.R.R.R.R.K.H.K.U.W.R.W.R.U.H.U.Y.W.W.Y.W.W.U.U.K.K.H.Z.Z.V.V.V.Z.V.V.k.k.k.k.k.k.k.k.k.h.g.g.g.g.h.f.f.f.s.s.s.s.s.s.s.s.y.y.t.t.t.t.t.f.y.y.y.s.d.s.s.s.s.d.d.f.f.f.f.t.s.y.y.f.f.f.f.d.s.s.t.y.t.t.t.t.t.t.y.t.t.t.t.t.t.t.e.6.t.;.6.6.-.-.-.*.&.#.@.@.@. .} } ]  .` a.a.a.a.a.a.a.a.a.a.a.a.a.a.a.a.a.a.a.a.a.a.a.a.a.a.a.a.a.a.a.a.a.",
"a.a.a.a.a.a.a.a.a.a.a.a.a.a.a.a.a.a.a.a.a.a.a.a.a.a.a.a.a.a.a.a.a.a.a.a.a.a.a.a.a.a.a.a.a.a.a.a.a.a.a.a.a.a.a.a.a.a.a.a.a.a.a.a.a.a.a.a.a.a.a.a.a.a.a.a.a.a.a.a.a.a.a.a.a.a.a.a.a.a.a.a.a.a.a.a.a.a.a.a.a.a.a.a.a.a.a.a.a.a.a.a.a.a.a.a.a.a.a.a.a.a.a.a.a.a.a.a.a.a.a.a.a.a.a.a.a.a.a.a.a.a.a.a.a.a.a.a.a.a.a.a.a.a.a.a.a.a.a.a.a.a.a.a.a.a.a.a.a.a.a.a.a.a.a.a.a.a.a.a.a.a.a.a.a.a.a.a.a.a.a.a.a.a.a.a.a.a.a.a.a.a.a.a.a.a.a.a.a.a.a.a.a.a.a.a.a.a.a.a.a.a.a.a.a.a.a.a.a.a.a.a.a.a.a.a.a.a.a.a.a.a.a.a.a.a.a.a.a.a.a.a.a.a.a.a.a.a.a.a.a.a.a.a.a.a.a.a.a.a.a.a.6 6 8 p s k l B C Z F F P G T R T T T T E E / / / / / / / / ` _ _ ` ` ` ` } } } } } } } } } } } } }  .+.@.@.+.+.@.@.@.@.@.#.#.#.#.#.#.#.#.#.-.&.&.&.-.-.-.-.-.-.-.-.-.-.-.;.;.;.;.t.;.;.;.;.t.t.;.t.t.e.e.e.e.t.t.t.y.y.t.s.s.t.s.f.f.d.d.g.j.j.g.g.k.k.k.k.k.k.j.j.j.j.k.V.V.k.k.V.k.V.V.V.H.H.V.V.H.Z.H.H.Z.Z.U.R.U.C.V.Z.K.R.W.W.W.W.R.R.K.H.R.K.H.R.R.R.R.R.Y.Y.Y.Y.W.U.Y.Y.R.U.H.K.K.H.H.Z.V.V.V.Z.V.V.V.V.k.k.k.k.k.k.h.h.h.g.g.g.d.f.f.f.s.s.s.s.y.y.s.s.s.y.t.y.y.y.t.t.y.y.t.s.s.s.s.y.y.d.d.d.f.f.f.t.t.y.s.f.f.f.f.d.s.s.y.t.s.y.t.t.t.t.s.t.y.t.t.t.t.t.t.t.6.;.6.6.-.-.-.-.*.&.@.#.@.@.+. .} } ` / a.a.a.a.a.a.a.a.a.a.a.a.a.a.a.a.a.a.a.a.a.a.a.a.a.a.a.a.a.a.a.a.",
"a.a.a.a.a.a.a.a.a.a.a.a.a.a.a.a.a.a.a.a.a.a.a.a.a.a.a.a.a.a.a.a.a.a.a.a.a.a.a.a.a.a.a.a.a.a.a.a.a.a.a.a.a.a.a.a.a.a.a.a.a.a.a.a.a.a.a.a.a.a.a.a.a.a.a.a.a.a.a.a.a.a.a.a.a.a.a.a.a.a.a.a.a.a.a.a.a.a.a.a.a.a.a.a.a.a.a.a.a.a.a.a.a.a.a.a.a.a.a.a.a.a.a.a.a.a.a.a.a.a.a.a.a.a.a.a.a.a.a.a.a.a.a.a.a.a.a.a.a.a.a.a.a.a.a.a.a.a.a.a.a.a.a.a.a.a.a.a.a.a.a.a.a.a.a.a.a.a.a.a.a.a.a.a.a.a.a.a.a.a.a.a.a.a.a.a.a.a.a.a.a.a.a.a.a.a.a.a.a.a.a.a.a.a.a.a.a.a.a.a.a.a.a.a.a.a.a.a.a.a.a.a.a.a.a.a.a.a.a.a.a.a.a.a.a.a.a.a.a.a.a.a.a.a.a.a.a.a.a.a.a.a.a.a.a.a.a.a.a.a.a.a.6 6 8 9 s h l B B Z S F F G U T T T E E E / / / / / / / / / _ _ _ _ _ _ ` ` } } } } } } } }  . .}  . .+.@.@.+.@.@.@.@.@.@.@.#.#.#.#.&.#.#.&.-.-.&.*.-.-.-.-.-.-.-.-.-.-.-.-.-.-.-.-.;.t.;.t.t.t.t.t.t.t.t.t.t.t.t.t.t.t.t.s.t.s.f.f.f.y.f.d.k.d.d.d.d.j.m.j.k.d.k.j.k.j.k.k.V.V.A.V.H.H.H.H.Z.V.V.V.V.Z.Z.H.H.H.U.H.U.H.Z.Z.H.K.K.K.R.W.R.H.H.K.H.H.C.K.K.K.K.H.H.H.R.W.W.W.U.Y.W.R.H.K.H.H.H.Z.C.V.V.D.Z.Z.Z.V.k.V.V.k.k.k.k.h.g.h.f.d.f.f.s.f.s.s.y.t.t.t.s.y.t.t.y.t.u.t.t.t.t.t.t.t.t.t.s.y.y.y.d.d.s.f.s.y.s.f.f.f.f.f.s.d.f.f.f.s.s.s.t.t.y.t.t.t.t.t.t.t.t.t.e.t.t.6.6.6.;.;.-.-.*.*.&.#.@.@. . .} ` _ _ a.a.a.a.a.a.a.a.a.a.a.a.a.a.a.a.a.a.a.a.a.a.a.a.a.a.a.a.a.a.a.a.",
"a.a.a.a.a.a.a.a.a.a.a.a.a.a.a.a.a.a.a.a.a.a.a.a.a.a.a.a.a.a.a.a.a.a.a.a.a.a.a.a.a.a.a.a.a.a.a.a.a.a.a.a.a.a.a.a.a.a.a.a.a.a.a.a.a.a.a.a.a.a.a.a.a.a.a.a.a.a.a.a.a.a.a.a.a.a.a.a.a.a.a.a.a.a.a.a.a.a.a.a.a.a.a.a.a.a.a.a.a.a.a.a.a.a.a.a.a.a.a.a.a.a.a.a.a.a.a.a.a.a.a.a.a.a.a.a.a.a.a.a.a.a.a.a.a.a.a.a.a.a.a.a.a.a.a.a.a.a.a.a.a.a.a.a.a.a.a.a.a.a.a.a.a.a.a.a.a.a.a.a.a.a.a.a.a.a.a.a.a.a.a.a.a.a.a.a.a.a.a.a.a.a.a.a.a.a.a.a.a.a.a.a.a.a.a.a.a.a.a.a.a.a.a.a.a.a.a.a.a.a.a.a.a.a.a.a.a.a.a.a.a.a.a.a.a.a.a.a.a.a.a.a.a.a.a.a.a.a.a.a.a.a.a.a.a.a.a.a.a.a.a.a.r 6 8 9 p h l m B C S S F G U T T R T E E ^ / / / / / / / / / _ _ _ _ _ ` ` } ` } } } } } } } } } @. .+.+.@.@.@.@.+.@.@.@.@.#.#.#.#.&.#.#.&.&.&.&.*.-.-.-.-.-.-.-.-.-.-.-.-.-.-.-.-.e.t.t.t.t.t.t.t.6.e.e.t.y.t.t.t.y.y.s.s.f.f.d.f.f.f.f.d.g.g.g.k.j.j.j.g.d.d.k.k.k.j.V.j.B.j.j.j.V.V.H.H.Z.H.H.H.H.V.V.Z.H.U.R.H.C.H.Z.H.K.K.R.H.H.H.C.C.C.K.H.H.K.R.K.K.H.H.H.R.R.U.W.W.R.R.W.R.H.H.H.H.H.H.C.C.H.H.Z.Z.Z.V.V.V.V.V.k.k.k.h.h.h.h.f.f.f.s.s.s.f.s.t.t.t.s.t.t.t.y.t.t.t.t.t.t.t.t.t.t.t.s.s.y.y.d.f.f.f.f.f.f.f.f.f.f.f.s.s.y.y.y.s.s.t.s.t.t.t.t.t.t.t.t.t.t.t.t.t.t.t.6.6.6.;.;.-.*.*.*.#.@.@.@. .} } ` ` ] a.a.a.a.a.a.a.a.a.a.a.a.a.a.a.a.a.a.a.a.a.a.a.a.a.a.a.a.a.a.a.",
"a.a.a.a.a.a.a.a.a.a.a.a.a.a.a.a.a.a.a.a.a.a.a.a.a.a.a.a.a.a.a.a.a.a.a.a.a.a.a.a.a.a.a.a.a.a.a.a.a.a.a.a.a.a.a.a.a.a.a.a.a.a.a.a.a.a.a.a.a.a.a.a.a.a.a.a.a.a.a.a.a.a.a.a.a.a.a.a.a.a.a.a.a.a.a.a.a.a.a.a.a.a.a.a.a.a.a.a.a.a.a.a.a.a.a.a.a.a.a.a.a.a.a.a.a.a.a.a.a.a.a.a.a.a.a.a.a.a.a.a.a.a.a.a.a.a.a.a.a.a.a.a.a.a.a.a.a.a.a.a.a.a.a.a.a.a.a.a.a.a.a.a.a.a.a.a.a.a.a.a.a.a.a.a.a.a.a.a.a.a.a.a.a.a.a.a.a.a.a.a.a.a.a.a.a.a.a.a.a.a.a.a.a.a.a.a.a.a.a.a.a.a.a.a.a.a.a.a.a.a.a.a.a.a.a.a.a.a.a.a.a.a.a.a.a.a.a.a.a.a.a.a.a.a.a.a.a.a.a.a.a.a.a.a.a.a.a.a.a.a.a.a.e 3 8 9 p s l n B C S F F G G U T T T T E ^ ^ / / / / / / / _ _ _ _ _ _ ` ` } } } } } } } } } } @.@.}  . .+.@.+.@.+.@.@.@.@.#.#.#.#.&.#.#.&.&.&.*.*.-.-.-.-.-.-.-.-.-.-.-.-.-.-.-.-.-.e.t.t.t.t.t.e.;.e.e.t.y.t.t.t.t.y.s.t.f.f.f.d.f.f.d.d.f.d.f.f.j.k.j.j.k.j.k.d.f.k.V.k.j.V.V.D.H.V.V.H.H.H.H.H.V.H.H.H.H.H.H.Z.H.Z.Z.H.H.R.R.H.H.R.R.R.K.H.R.R.R.K.K.K.H.R.R.R.R.W.W.W.R.R.W.U.H.H.H.H.H.H.C.C.H.Z.Z.Z.Z.V.V.V.k.k.k.k.k.h.h.h.h.f.f.f.s.s.s.s.y.y.t.t.t.t.t.t.t.t.t.t.t.t.t.t.t.y.t.t.s.s.d.d.d.d.f.f.f.f.f.f.d.f.f.f.s.s.s.s.s.s.s.t.y.y.y.t.y.t.t.t.t.t.t.t.t.t.t.t.6.6.t.6.6.-.-.*.&.&.#.@.@. . .} _ _ ] a.a.a.a.a.a.a.a.a.a.a.a.a.a.a.a.a.a.a.a.a.a.a.a.a.a.a.a.a.a.a.",
"a.a.a.a.a.a.a.a.a.a.a.a.a.a.a.a.a.a.a.a.a.a.a.a.a.a.a.a.a.a.a.a.a.a.a.a.a.a.a.a.a.a.a.a.a.a.a.a.a.a.a.a.a.a.a.a.a.a.a.a.a.a.a.a.a.a.a.a.a.a.a.a.a.a.a.a.a.a.a.a.a.a.a.a.a.a.a.a.a.a.a.a.a.a.a.a.a.a.a.a.a.a.a.a.a.a.a.a.a.a.a.a.a.a.a.a.a.a.a.a.a.a.a.a.a.a.a.a.a.a.a.a.a.a.a.a.a.a.a.a.a.a.a.a.a.a.a.a.a.a.a.a.a.a.a.a.a.a.a.a.a.a.a.a.a.a.a.a.a.a.a.a.a.a.a.a.a.a.a.a.a.a.a.a.a.a.a.a.a.a.a.a.a.a.a.a.a.a.a.a.a.a.a.a.a.a.a.a.a.a.a.a.a.a.a.a.a.a.a.a.a.a.a.a.a.a.a.a.a.a.a.a.a.a.a.a.a.a.a.a.a.a.a.a.a.a.a.a.a.a.a.a.a.a.a.a.a.a.a.a.a.a.a.a.a.a.a.a.a.a.a.a.d 4 8 9 t h k n B C S S F F G T T T T T T ^ ^ / / / / / / / _ _ _ _ _ _ ` ` } } } } } } } } } } } } }  . . .+.+.@.@.@.@.@.@.@.#.#.#.#.#.#.&.&.&.&.-.-.-.-.-.-.-.-.-.-.-.-.-.-.-.-.-.e.e.t.t.t.t.t.t.6.t.t.t.t.t.t.t.t.y.t.t.f.f.f.f.s.f.d.f.f.s.f.f.k.V.j.j.k.k.k.f.h.k.k.k.k.k.k.V.V.V.V.H.V.V.V.H.H.H.H.H.H.Z.H.H.C.Z.C.K.K.K.K.K.R.R.K.K.R.R.R.K.K.K.K.R.R.R.R.R.R.U.R.W.R.R.W.Y.U.H.K.H.H.H.H.C.H.C.H.Z.V.Z.V.V.k.k.k.k.k.h.g.g.f.f.f.f.s.s.s.s.y.y.t.t.y.t.t.t.t.t.t.t.t.t.e.t.t.y.y.y.s.s.y.d.s.s.s.f.f.f.f.d.d.f.f.s.f.f.f.f.f.f.s.t.y.s.s.s.y.t.t.t.t.t.t.t.t.t.t.t.t.6.t.6.6.-.-.*.*.&.#.#.@. . .} ]  ._ a.a.a.a.a.a.a.a.a.a.a.a.a.a.a.a.a.a.a.a.a.a.a.a.a.a.a.a.a.a.a.",
"a.a.a.a.a.a.a.a.a.a.a.a.a.a.a.a.a.a.a.a.a.a.a.a.a.a.a.a.a.a.a.a.a.a.a.a.a.a.a.a.a.a.a.a.a.a.a.a.a.a.a.a.a.a.a.a.a.a.a.a.a.a.a.a.a.a.a.a.a.a.a.a.a.a.a.a.a.a.a.a.a.a.a.a.a.a.a.a.a.a.a.a.a.a.a.a.a.a.a.a.a.a.a.a.a.a.a.a.a.a.a.a.a.a.a.a.a.a.a.a.a.a.a.a.a.a.a.a.a.a.a.a.a.a.a.a.a.a.a.a.a.a.a.a.a.a.a.a.a.a.a.a.a.a.a.a.a.a.a.a.a.a.a.a.a.a.a.a.a.a.a.a.a.a.a.a.a.a.a.a.a.a.a.a.a.a.a.a.a.a.a.a.a.a.a.a.a.a.a.a.a.a.a.a.a.a.a.a.a.a.a.a.a.a.a.a.a.a.a.a.a.a.a.a.a.a.a.a.a.a.a.a.a.a.a.a.a.a.a.a.a.a.a.a.a.a.a.a.a.a.a.a.a.a.a.a.a.a.a.a.a.a.a.a.a.a.a.a.a.a.a.a.a.2 6 8 9 s d l B C S S F F G U T T T T E E E ^ / / / / / / / _ _ _ _ _ ` ` ` ` ` } } } } } } } } } @.+. . .+.@.+.@.@.@.@.@.@.@.#.#.#.#.#.&.*.&.&.&.-.-.-.-.&.-.-.-.-.-.;.-.-.-.-.-.e.;.;.t.t.;.-.t.6.t.t.e.e.t.t.t.t.y.t.t.f.f.d.f.f.f.f.s.f.d.f.f.k.k.d.j.k.g.f.f.k.k.g.k.k.B.k.V.V.B.V.B.V.H.V.V.H.H.D.H.H.H.H.H.C.C.Z.H.W.R.R.K.H.R.K.K.R.R.R.R.R.R.R.W.R.R.K.R.R.U.R.W.R.H.W.U.Y.W.K.K.R.H.C.Z.C.C.H.Z.V.V.V.k.k.k.k.k.h.h.g.g.f.d.f.s.s.s.s.f.y.t.t.t.y.y.t.t.t.t.t.t.e.t.t.e.t.s.d.s.y.s.y.s.d.s.d.f.f.f.d.d.k.f.f.f.f.f.f.f.f.f.s.s.y.t.y.t.y.t.t.t.t.t.t.t.t.t.y.t.t.6.t.;.6.-.-.-.*.*.#.#.#.@. .} ]  ._ / a.a.a.a.a.a.a.a.a.a.a.a.a.a.a.a.a.a.a.a.a.a.a.a.a.a.a.a.a.a.",
"a.a.a.a.a.a.a.a.a.a.a.a.a.a.a.a.a.a.a.a.a.a.a.a.a.a.a.a.a.a.a.a.a.a.a.a.a.a.a.a.a.a.a.a.a.a.a.a.a.a.a.a.a.a.a.a.a.a.a.a.a.a.a.a.a.a.a.a.a.a.a.a.a.a.a.a.a.a.a.a.a.a.a.a.a.a.a.a.a.a.a.a.a.a.a.a.a.a.a.a.a.a.a.a.a.a.a.a.a.a.a.a.a.a.a.a.a.a.a.a.a.a.a.a.a.a.a.a.a.a.a.a.a.a.a.a.a.a.a.a.a.a.a.a.a.a.a.a.a.a.a.a.a.a.a.a.a.a.a.a.a.a.a.a.a.a.a.a.a.a.a.a.a.a.a.a.a.a.a.a.a.a.a.a.a.a.a.a.a.a.a.a.a.a.a.a.a.a.a.a.a.a.a.a.a.a.a.a.a.a.a.a.a.a.a.a.a.a.a.a.a.a.a.a.a.a.a.a.a.a.a.a.a.a.a.a.a.a.a.a.a.a.a.a.a.a.a.a.a.a.a.a.a.a.a.a.a.a.a.a.a.a.a.a.a.a.a.a.a.a.a.a.a.6 5 8 9 s d l B Z A S F F G U T T T T T E ^ ^ / / / / / / / _ _ _ _ _ ` ` ` ` } } } } } } } } } }  . . . .+.@.+.@.@.@.@.@.@.@.#.#.#.#.#.&.&.&.&.&.-.-.-.-.-.-.-.-.-.-.-.-.t.-.-.-.-.-.;.t.t.e.t.t.t.t.e.e.t.t.e.t.t.t.s.t.s.y.s.y.y.f.f.f.f.d.d.g.k.d.d.j.k.f.f.f.k.k.k.k.k.f.g.k.V.k.V.V.H.H.Z.Z.H.H.Z.H.H.H.H.H.H.C.K.H.R.H.H.R.R.R.R.R.W.R.K.K.R.R.H.H.R.R.W.R.R.W.U.U.R.U.R.R.R.R.K.K.R.K.H.H.H.C.D.Z.Z.V.V.k.k.k.k.k.g.h.g.g.h.f.f.s.f.s.s.s.y.y.y.t.y.t.t.t.t.t.t.t.t.t.t.t.t.s.s.s.y.s.s.s.d.s.d.f.f.d.f.d.k.f.f.f.f.f.f.f.f.f.s.s.y.t.t.s.y.t.t.t.t.t.t.t.e.t.t.t.t.t.t.6.;.-.-.-.-.-.&.#.@.@. .} } } ` _ a.a.a.a.a.a.a.a.a.a.a.a.a.a.a.a.a.a.a.a.a.a.a.a.a.a.a.a.a.a.",
"a.a.a.a.a.a.a.a.a.a.a.a.a.a.a.a.a.a.a.a.a.a.a.a.a.a.a.a.a.a.a.a.a.a.a.a.a.a.a.a.a.a.a.a.a.a.a.a.a.a.a.a.a.a.a.a.a.a.a.a.a.a.a.a.a.a.a.a.a.a.a.a.a.a.a.a.a.a.a.a.a.a.a.a.a.a.a.a.a.a.a.a.a.a.a.a.a.a.a.a.a.a.a.a.a.a.a.a.a.a.a.a.a.a.a.a.a.a.a.a.a.a.a.a.a.a.a.a.a.a.a.a.a.a.a.a.a.a.a.a.a.a.a.a.a.a.a.a.a.a.a.a.a.a.a.a.a.a.a.a.a.a.a.a.a.a.a.a.a.a.a.a.a.a.a.a.a.a.a.a.a.a.a.a.a.a.a.a.a.a.a.a.a.a.a.a.a.a.a.a.a.a.a.a.a.a.a.a.a.a.a.a.a.a.a.a.a.a.a.a.a.a.a.a.a.a.a.a.a.a.a.a.a.a.a.a.a.a.a.a.a.a.a.a.a.a.a.a.a.a.a.a.a.a.a.a.a.a.a.a.a.a.a.a.a.a.a.a.a.a.a.a.a.r 3 8 9 s h l m C C Z S F F G H T T T T E T E / / ^ / / / / / / _ _ _ ` ` ` } } } } } } } } } } }  . . . .+.@.+.@.@.@.@.@.@.@.#.#.#.#.#.&.&.&.&.&.-.-.-.-.-.-.-.-.-.-.-.-.t.-.-.-.-.-.e.t.e.e.t.t.t.t.t.t.t.y.t.y.s.t.y.t.y.y.s.f.f.f.k.k.d.k.k.k.k.f.f.d.k.f.g.k.B.h.k.k.g.k.k.k.V.V.B.V.H.H.Z.Z.H.C.C.H.H.H.H.H.H.H.R.R.C.R.R.W.W.R.R.R.R.R.W.R.K.K.H.H.R.K.R.W.R.R.U.R.R.U.R.R.R.R.K.K.R.K.H.H.K.H.H.V.V.V.V.k.k.k.k.k.k.h.f.g.h.f.f.s.f.y.s.f.y.s.t.t.t.y.t.t.t.t.t.t.t.t.t.t.t.t.y.y.s.d.s.s.s.s.s.f.f.f.d.d.g.f.f.f.f.f.f.f.f.f.s.s.s.y.s.s.y.t.t.t.t.t.t.t.e.t.t.t.t.t.t.6.6.-.-.-.-.*.&.#.#.@. .} } } ` _ W a.a.a.a.a.a.a.a.a.a.a.a.a.a.a.a.a.a.a.a.a.a.a.a.a.a.a.a.a.",
"a.a.a.a.a.a.a.a.a.a.a.a.a.a.a.a.a.a.a.a.a.a.a.a.a.a.a.a.a.a.a.a.a.a.a.a.a.a.a.a.a.a.a.a.a.a.a.a.a.a.a.a.a.a.a.a.a.a.a.a.a.a.a.a.a.a.a.a.a.a.a.a.a.a.a.a.a.a.a.a.a.a.a.a.a.a.a.a.a.a.a.a.a.a.a.a.a.a.a.a.a.a.a.a.a.a.a.a.a.a.a.a.a.a.a.a.a.a.a.a.a.a.a.a.a.a.a.a.a.a.a.a.a.a.a.a.a.a.a.a.a.a.a.a.a.a.a.a.a.a.a.a.a.a.a.a.a.a.a.a.a.a.a.a.a.a.a.a.a.a.a.a.a.a.a.a.a.a.a.a.a.a.a.a.a.a.a.a.a.a.a.a.a.a.a.a.a.a.a.a.a.a.a.a.a.a.a.a.a.a.a.a.a.a.a.a.a.a.a.a.a.a.a.a.a.a.a.a.a.a.a.a.a.a.a.a.a.a.a.a.a.a.a.a.a.a.a.a.a.a.a.a.a.a.a.a.a.a.a.a.a.a.a.a.a.a.a.a.a.a.a.a.a.w 3 8 9 p h l m B C Z A F F G U T T T T T E E E E ^ / / / / / / / _ _ _ ` ` } } } } } } } } } } }  . . . .+.+.+.@.@.@.@.@.@.@.@.#.@.#.#.#.#.#.&.*.-.&.-.-.-.-.-.-.-.-.-.e.;.-.-.-.-.-.t.t.t.t.t.t.6.t.t.t.t.y.t.y.t.s.t.t.t.t.f.f.f.f.d.g.k.k.k.k.j.d.d.d.f.f.g.k.j.k.B.V.k.k.k.j.Z.V.V.V.H.H.Z.Z.Z.Z.H.H.C.C.H.H.H.H.C.C.H.R.R.K.K.R.R.W.W.W.R.R.W.W.K.R.W.W.R.R.R.R.R.R.K.U.R.R.U.R.H.H.R.H.H.H.H.H.C.C.Z.V.V.V.k.k.k.k.k.g.g.g.h.f.f.f.f.s.f.f.t.s.t.t.t.y.t.t.t.t.t.t.t.t.t.t.t.t.y.y.s.s.y.s.d.s.s.f.f.d.f.d.d.f.f.f.d.f.f.f.f.f.d.s.y.y.s.f.s.t.t.t.t.t.t.t.e.t.t.t.t.t.t.t.6.;.-.-.-.-.&.&.#.@.@.} } }  .` / a.a.a.a.a.a.a.a.a.a.a.a.a.a.a.a.a.a.a.a.a.a.a.a.a.a.a.a.a.",
"a.a.a.a.a.a.a.a.a.a.a.a.a.a.a.a.a.a.a.a.a.a.a.a.a.a.a.a.a.a.a.a.a.a.a.a.a.a.a.a.a.a.a.a.a.a.a.a.a.a.a.a.a.a.a.a.a.a.a.a.a.a.a.a.a.a.a.a.a.a.a.a.a.a.a.a.a.a.a.a.a.a.a.a.a.a.a.a.a.a.a.a.a.a.a.a.a.a.a.a.a.a.a.a.a.a.a.a.a.a.a.a.a.a.a.a.a.a.a.a.a.a.a.a.a.a.a.a.a.a.a.a.a.a.a.a.a.a.a.a.a.a.a.a.a.a.a.a.a.a.a.a.a.a.a.a.a.a.a.a.a.a.a.a.a.a.a.a.a.a.a.a.a.a.a.a.a.a.a.a.a.a.a.a.a.a.a.a.a.a.a.a.a.a.a.a.a.a.a.a.a.a.a.a.a.a.a.a.a.a.a.a.a.a.a.a.a.a.a.a.a.a.a.a.a.a.a.a.a.a.a.a.a.a.a.a.a.a.a.a.a.a.a.a.a.a.a.a.a.a.a.a.a.a.a.a.a.a.a.a.a.a.a.a.a.a.a.a.a.a.a.a.a.y 5 8 9 0 s d n B C C S F F F G G G T T T E E E E / / / _ / / / _ / _ _ _ ` ` } } ` } ` } } } } } }  . . . . .+.+.+.+.@.@.@.@.@.@.@.#.#.#.#.#.&.&.&.&.&.-.-.-.-.-.-.-.-.6.-.-.-.-.4.-.-.t.e.t.t.t.t.t.t.t.t.t.y.y.y.d.y.t.s.f.f.y.y.d.d.g.k.k.j.j.d.f.f.k.j.k.f.k.k.g.k.k.k.k.B.j.j.V.V.V.A.A.Z.V.Z.H.H.C.V.C.H.H.H.U.H.C.W.W.R.R.U.W.Q.W.R.W.W.W.W.R.R.R.W.W.W.W.R.R.R.R.R.K.K.K.R.K.H.H.H.K.H.H.K.H.V.H.Z.V.D.V.V.k.k.k.k.k.k.g.g.f.f.f.f.f.f.f.s.y.t.t.t.t.t.t.t.y.t.t.t.t.t.t.y.y.t.y.s.s.d.s.d.y.s.f.f.s.s.s.s.f.f.f.d.f.g.d.f.s.s.s.y.f.f.s.y.y.s.s.y.t.t.t.t.t.t.t.t.t.t.6.6.;.4.4.-.-.-.&.&.@.@. .} } } _ / a.a.a.a.a.a.a.a.a.a.a.a.a.a.a.a.a.a.a.a.a.a.a.a.a.a.a.a.a.",
"a.a.a.a.a.a.a.a.a.a.a.a.a.a.a.a.a.a.a.a.a.a.a.a.a.a.a.a.a.a.a.a.a.a.a.a.a.a.a.a.a.a.a.a.a.a.a.a.a.a.a.a.a.a.a.a.a.a.a.a.a.a.a.a.a.a.a.a.a.a.a.a.a.a.a.a.a.a.a.a.a.a.a.a.a.a.a.a.a.a.a.a.a.a.a.a.a.a.a.a.a.a.a.a.a.a.a.a.a.a.a.a.a.a.a.a.a.a.a.a.a.a.a.a.a.a.a.a.a.a.a.a.a.a.a.a.a.a.a.a.a.a.a.a.a.a.a.a.a.a.a.a.a.a.a.a.a.a.a.a.a.a.a.a.a.a.a.a.a.a.a.a.a.a.a.a.a.a.a.a.a.a.a.a.a.a.a.a.a.a.a.a.a.a.a.a.a.a.a.a.a.a.a.a.a.a.a.a.a.a.a.a.a.a.a.a.a.a.a.a.a.a.a.a.a.a.a.a.a.a.a.a.a.a.a.a.a.a.a.a.a.a.a.a.a.a.a.a.a.a.a.a.a.a.a.a.a.a.a.a.a.a.a.a.a.a.a.a.a.a.a.a.a.a.5 6 8 9 s h l B C C S F F F G G G T T T E E E W / / / / / / / _ / _ _ _ ] ] } } ` } } } } } } ' }  . .+. . . .+.+.+.+.+.@.@.#.@.#.#.#.&.#.#.#.#.&.&.&.-.-.-.-.-.-.-.-.-.-.-.-.-.-.t.t.-.t.t.t.t.t.t.t.y.y.t.y.y.y.s.s.t.f.f.f.s.y.f.f.f.g.k.k.k.f.f.f.g.j.V.j.k.k.f.g.g.k.k.V.V.V.V.B.V.V.H.H.V.H.Z.V.Z.H.U.H.H.H.U.H.H.W.W.W.W.W.W.W.W.Q.~.W.W.R.R.W.W.W.W.R.R.R.R.R.R.R.K.H.H.R.H.Z.H.K.K.K.K.H.C.V.C.Z.Z.D.V.k.k.k.k.k.k.k.k.k.d.f.d.f.f.f.f.s.t.t.t.t.t.t.t.t.s.t.t.t.t.t.t.y.t.t.t.t.t.y.s.s.s.s.f.f.f.d.s.s.f.d.f.f.f.d.d.f.f.d.s.s.s.s.s.s.y.s.y.t.t.t.t.t.t.y.t.t.t.t.6.6.6.6.4.-.-.-.*.&.#.@.@. .} ] _ / / a.a.a.a.a.a.a.a.a.a.a.a.a.a.a.a.a.a.a.a.a.a.a.a.a.a.a.a.",
"a.a.a.a.a.a.a.a.a.a.a.a.a.a.a.a.a.a.a.a.a.a.a.a.a.a.a.a.a.a.a.a.a.a.a.a.a.a.a.a.a.a.a.a.a.a.a.a.a.a.a.a.a.a.a.a.a.a.a.a.a.a.a.a.a.a.a.a.a.a.a.a.a.a.a.a.a.a.a.a.a.a.a.a.a.a.a.a.a.a.a.a.a.a.a.a.a.a.a.a.a.a.a.a.a.a.a.a.a.a.a.a.a.a.a.a.a.a.a.a.a.a.a.a.a.a.a.a.a.a.a.a.a.a.a.a.a.a.a.a.a.a.a.a.a.a.a.a.a.a.a.a.a.a.a.a.a.a.a.a.a.a.a.a.a.a.a.a.a.a.a.a.a.a.a.a.a.a.a.a.a.a.a.a.a.a.a.a.a.a.a.a.a.a.a.a.a.a.a.a.a.a.a.a.a.a.a.a.a.a.a.a.a.a.a.a.a.a.a.a.a.a.a.a.a.a.a.a.a.a.a.a.a.a.a.a.a.a.a.a.a.a.a.a.a.a.a.a.a.a.a.a.a.a.a.a.a.a.a.a.a.a.a.a.a.a.a.a.a.a.a.a.a.a.6 5 8 9 s s l m C C Z S F F F G G T T T T E E E ^ / / / _ / / _ / ` _ ` } ] } } ` ` } } } } } } }  . .+. . .+.+.+.+.+.+.@.@.#.#.@.#.#.#.#.#.#.#.&.&.&.-.-.-.-.-.-.-.-.-.-.-.-.-.-.t.t.-.t.t.t.t.t.t.t.t.y.y.y.t.s.g.y.t.s.d.d.y.y.f.d.d.d.k.k.k.f.f.f.k.V.V.B.j.k.g.f.g.g.k.k.V.Z.B.B.V.V.V.V.V.Z.V.V.Z.U.H.H.C.D.H.H.H.H.U.W.W.W.W.W.!.Y.Y.R.R.R.R.W.W.W.W.R.R.W.R.R.R.R.R.W.R.W.K.H.H.R.K.K.K.H.C.V.C.Z.C.D.A.V.k.k.k.k.k.k.k.k.d.f.d.f.f.f.f.s.t.t.t.t.t.t.t.t.t.t.t.t.6.t.t.t.t.t.t.t.t.y.y.s.f.y.f.d.f.f.f.f.f.f.f.f.f.f.d.f.f.f.f.f.s.s.s.f.s.s.s.t.y.y.t.t.t.t.t.t.t.t.t.6.6.6.-.-.-.-.*.&.#.@.@. .} } ` _ / a.a.a.a.a.a.a.a.a.a.a.a.a.a.a.a.a.a.a.a.a.a.a.a.a.a.a.a.",
"a.a.a.a.a.a.a.a.a.a.a.a.a.a.a.a.a.a.a.a.a.a.a.a.a.a.a.a.a.a.a.a.a.a.a.a.a.a.a.a.a.a.a.a.a.a.a.a.a.a.a.a.a.a.a.a.a.a.a.a.a.a.a.a.a.a.a.a.a.a.a.a.a.a.a.a.a.a.a.a.a.a.a.a.a.a.a.a.a.a.a.a.a.a.a.a.a.a.a.a.a.a.a.a.a.a.a.a.a.a.a.a.a.a.a.a.a.a.a.a.a.a.a.a.a.a.a.a.a.a.a.a.a.a.a.a.a.a.a.a.a.a.a.a.a.a.a.a.a.a.a.a.a.a.a.a.a.a.a.a.a.a.a.a.a.a.a.a.a.a.a.a.a.a.a.a.a.a.a.a.a.a.a.a.a.a.a.a.a.a.a.a.a.a.a.a.a.a.a.a.a.a.a.a.a.a.a.a.a.a.a.a.a.a.a.a.a.a.a.a.a.a.a.a.a.a.a.a.a.a.a.a.a.a.a.a.a.a.a.a.a.a.a.a.a.a.a.a.a.a.a.a.a.a.a.a.a.a.a.a.a.a.a.a.a.a.a.a.a.a.a.a.a.a.e < 6 9 p s l m B C Z S F F F G U T T T T E E E ^ / / / / / / _ / ` _ _ ` ] ] } ` } } } } } } } }  . .+.+. .+.+.+.+.@.@.@.@.@.@.@.#.#.#.@.@.#.&.&.&.&.*.-.-.-.-.-.-.-.-.-.-.-.-.4.-.e.t.t.t.t.t.t.t.t.t.t.y.y.y.y.d.s.f.s.d.d.d.d.f.k.g.d.k.k.d.d.f.f.g.j.j.j.j.j.f.g.k.k.k.j.V.V.Z.V.V.B.j.Z.V.Z.Z.H.H.H.H.H.H.K.H.H.K.H.K.U.W.W.Q.!.~.R.R.R.R.R.R.R.W.W.R.W.W.W.R.W.W.R.R.K.R.W.W.R.R.K.K.K.K.H.C.Z.C.H.Z.D.H.V.k.k.k.k.k.k.f.g.d.f.d.f.f.f.f.s.t.t.t.t.e.t.t.t.t.t.t.t.t.t.t.t.t.t.t.t.t.t.y.y.s.s.f.f.f.f.f.f.f.f.d.d.f.f.d.f.f.f.s.f.t.y.s.f.s.s.y.t.y.y.t.t.t.t.t.t.t.t.t.t.6.6.6.-.-.-.-.&.&.@.@. .} } ] ` / W a.a.a.a.a.a.a.a.a.a.a.a.a.a.a.a.a.a.a.a.a.a.a.a.a.a.a.",
"a.a.a.a.a.a.a.a.a.a.a.a.a.a.a.a.a.a.a.a.a.a.a.a.a.a.a.a.a.a.a.a.a.a.a.a.a.a.a.a.a.a.a.a.a.a.a.a.a.a.a.a.a.a.a.a.a.a.a.a.a.a.a.a.a.a.a.a.a.a.a.a.a.a.a.a.a.a.a.a.a.a.a.a.a.a.a.a.a.a.a.a.a.a.a.a.a.a.a.a.a.a.a.a.a.a.a.a.a.a.a.a.a.a.a.a.a.a.a.a.a.a.a.a.a.a.a.a.a.a.a.a.a.a.a.a.a.a.a.a.a.a.a.a.a.a.a.a.a.a.a.a.a.a.a.a.a.a.a.a.a.a.a.a.a.a.a.a.a.a.a.a.a.a.a.a.a.a.a.a.a.a.a.a.a.a.a.a.a.a.a.a.a.a.a.a.a.a.a.a.a.a.a.a.a.a.a.a.a.a.a.a.a.a.a.a.a.a.a.a.a.a.a.a.a.a.a.a.a.a.a.a.a.a.a.a.a.a.a.a.a.a.a.a.a.a.a.a.a.a.a.a.a.a.a.a.a.a.a.a.a.a.a.a.a.a.a.a.a.a.a.a.a.a.e , 5 8 9 s d n B C C C S F F F U T T T T E E E ^ / / / / / / _ / / _ ` _ _ ` ] ` } } ` } } } } } }  . . .+. .+.+.+.@.+.+.@.@.@.@.#.#.#.#.#.#.&.&.*.-.&.-.-.*.*.-.-.-.-.-.-.-.4.1.-.t.;.t.t.;.-.;.t.t.t.t.t.y.y.y.d.d.f.f.y.s.y.s.s.g.d.f.k.g.f.d.f.f.d.j.j.j.j.j.f.f.k.g.g.j.j.k.V.k.Z.V.Z.V.V.H.Z.H.H.H.U.U.U.H.H.H.W.H.K.W.W.W.!.!.W.Y.R.R.W.W.W.~.~.~.~.R.R.W.W.~.~.~.W.W.W.W.W.R.R.R.R.R.R.R.H.H.H.H.H.Z.D.U.Z.V.V.V.k.k.k.g.d.d.f.f.f.f.f.s.s.t.t.t.t.e.e.t.t.t.t.t.t.t.t.t.t.t.t.t.t.t.t.y.s.f.f.s.f.f.f.f.d.f.g.d.d.d.d.f.f.f.f.s.y.s.f.s.f.s.s.t.t.t.t.t.t.t.t.t.t.t.t.t.t.t.6.6.4.-.-.&.#.#.@.@.} } } ` / / a.a.a.a.a.a.a.a.a.a.a.a.a.a.a.a.a.a.a.a.a.a.a.a.a.a.a.",
"a.a.a.a.a.a.a.a.a.a.a.a.a.a.a.a.a.a.a.a.a.a.a.a.a.a.a.a.a.a.a.a.a.a.a.a.a.a.a.a.a.a.a.a.a.a.a.a.a.a.a.a.a.a.a.a.a.a.a.a.a.a.a.a.a.a.a.a.a.a.a.a.a.a.a.a.a.a.a.a.a.a.a.a.a.a.a.a.a.a.a.a.a.a.a.a.a.a.a.a.a.a.a.a.a.a.a.a.a.a.a.a.a.a.a.a.a.a.a.a.a.a.a.a.a.a.a.a.a.a.a.a.a.a.a.a.a.a.a.a.a.a.a.a.a.a.a.a.a.a.a.a.a.a.a.a.a.a.a.a.a.a.a.a.a.a.a.a.a.a.a.a.a.a.a.a.a.a.a.a.a.a.a.a.a.a.a.a.a.a.a.a.a.a.a.a.a.a.a.a.a.a.a.a.a.a.a.a.a.a.a.a.a.a.a.a.a.a.a.a.a.a.a.a.a.a.a.a.a.a.a.a.a.a.a.a.a.a.a.a.a.a.a.a.a.a.a.a.a.a.a.a.a.a.a.a.a.a.a.a.a.a.a.a.a.a.a.a.a.a.a.a.a.a.a.5 3 8 9 s h l B B C A S S F F G U T T T T E E E / / / / / / / _ _ _ _ _ _ ` ] ] } } ` } } } } } }  . . . . . . .+.+.+.@.@.+.@.@.#.#.#.#.#.#.#.&.-.-.&.&.-.-.*.-.-.-.-.-.-.4.4.6.;.-.;.t.t.t.t.e.e.e.t.t.t.t.t.t.d.g.s.s.s.f.f.f.f.d.f.d.d.d.f.f.f.f.d.k.j.j.j.d.f.f.g.k.B.V.V.V.V.Z.D.D.Z.V.k.V.D.Z.D.H.U.U.H.H.K.H.H.H.W.W.W.!.!.!.!.W.W.R.R.~.~.~.W.W.~.W.W.W.W.~.!.~.!.W.W.W.W.R.W.R.R.K.R.R.R.R.R.W.U.H.D.D.V.V.V.V.k.k.k.h.f.d.f.f.f.f.f.s.f.y.t.t.t.e.e.t.t.t.t.t.t.t.t.6.t.t.t.t.t.t.t.y.s.s.f.s.f.f.f.f.d.f.d.f.d.d.d.f.f.f.f.f.f.y.y.s.f.s.s.y.y.y.t.t.t.t.t.t.t.6.6.t.6.t.6.6.4.4.-.-.&.#.#.@. .} } ] _ / a.a.a.a.a.a.a.a.a.a.a.a.a.a.a.a.a.a.a.a.a.a.a.a.a.a.a.",
"a.a.a.a.a.a.a.a.a.a.a.a.a.a.a.a.a.a.a.a.a.a.a.a.a.a.a.a.a.a.a.a.a.a.a.a.a.a.a.a.a.a.a.a.a.a.a.a.a.a.a.a.a.a.a.a.a.a.a.a.a.a.a.a.a.a.a.a.a.a.a.a.a.a.a.a.a.a.a.a.a.a.a.a.a.a.a.a.a.a.a.a.a.a.a.a.a.a.a.a.a.a.a.a.a.a.a.a.a.a.a.a.a.a.a.a.a.a.a.a.a.a.a.a.a.a.a.a.a.a.a.a.a.a.a.a.a.a.a.a.a.a.a.a.a.a.a.a.a.a.a.a.a.a.a.a.a.a.a.a.a.a.a.a.a.a.a.a.a.a.a.a.a.a.a.a.a.a.a.a.a.a.a.a.a.a.a.a.a.a.a.a.a.a.a.a.a.a.a.a.a.a.a.a.a.a.a.a.a.a.a.a.a.a.a.a.a.a.a.a.a.a.a.a.a.a.a.a.a.a.a.a.a.a.a.a.a.a.a.a.a.a.a.a.a.a.a.a.a.a.a.a.a.a.a.a.a.a.a.a.a.a.a.a.a.a.a.a.a.a.a.a.a.a.a.6 , 6 9 p h l B B C C S S F F G U T T T T E E E ^ ^ / / / / / / / _ _ _ _ ` ] ] ` } ` } } } } } }  . .} }  . . . . .+.@.@.+.@.@.#.#.#.#.#.#.#.&.&.&.&.&.-.-.*.-.-.-.-.-.4.4.6.6.t.t.t.t.t.e.e.t.e.;.;.e.t.t.t.t.d.f.s.f.t.s.d.y.f.k.f.f.g.d.f.f.f.d.f.k.k.j.k.k.g.f.g.B.j.j.k.j.V.V.V.Z.Z.V.Z.D.H.H.U.U.H.H.H.H.H.K.H.W.W.W.Y.W.!.Q.Q.W.W.R.W.~.~.~.~.W.W.~.~.W.!.~.~.!.!.W.W.K.W.W.W.R.W.W.W.W.W.W.W.W.W.H.H.D.Z.V.V.k.k.k.k.g.f.d.f.f.f.f.f.s.t.t.t.y.t.e.e.e.t.t.t.t.t.6.6.t.t.t.t.t.t.t.t.y.t.u.f.s.f.f.f.f.f.f.f.f.f.f.f.s.d.f.f.f.d.s.y.s.s.s.s.y.s.y.y.t.y.s.t.t.t.t.t.t.t.t.6.6.6.6.-.-.*.&.#.#.@. .} ] ` _ ) a.a.a.a.a.a.a.a.a.a.a.a.a.a.a.a.a.a.a.a.a.a.a.a.a.a.",
"a.a.a.a.a.a.a.a.a.a.a.a.a.a.a.a.a.a.a.a.a.a.a.a.a.a.a.a.a.a.a.a.a.a.a.a.a.a.a.a.a.a.a.a.a.a.a.a.a.a.a.a.a.a.a.a.a.a.a.a.a.a.a.a.a.a.a.a.a.a.a.a.a.a.a.a.a.a.a.a.a.a.a.a.a.a.a.a.a.a.a.a.a.a.a.a.a.a.a.a.a.a.a.a.a.a.a.a.a.a.a.a.a.a.a.a.a.a.a.a.a.a.a.a.a.a.a.a.a.a.a.a.a.a.a.a.a.a.a.a.a.a.a.a.a.a.a.a.a.a.a.a.a.a.a.a.a.a.a.a.a.a.a.a.a.a.a.a.a.a.a.a.a.a.a.a.a.a.a.a.a.a.a.a.a.a.a.a.a.a.a.a.a.a.a.a.a.a.a.a.a.a.a.a.a.a.a.a.a.a.a.a.a.a.a.a.a.a.a.a.a.a.a.a.a.a.a.a.a.a.a.a.a.a.a.a.a.a.a.a.a.a.a.a.a.a.a.a.a.a.a.a.a.a.a.a.a.a.a.a.a.a.a.a.a.a.a.a.a.a.a.a.a.a.a.r < 6 8 p s l N B C C A S F F G G U T T T T E E ^ ^ ^ / / / / / / _ _ _ ` ` ] ] ` ` } } ` } } } ' } } } } }  . . . .+.+.@.@.@.@.#.#.#.#.#.#.&.&.&.&.&.&.-.*.-.-.-.-.-.-.4.-.6.4.-.t.t.;.4.t.t.t.t.t.-.t.t.t.y.y.d.d.f.f.d.g.f.y.f.d.s.f.d.f.f.f.f.d.g.k.j.k.j.d.k.f.g.k.k.k.j.V.k.V.V.D.Z.D.H.D.H.H.H.D.H.H.H.H.K.K.K.W.W.W.W.W.W.W.W.W.W.W.~.W.W.W.W.~.W.~.~.~.~.W.W.~.W.~.W.~.W.W.W.W.W.R.R.R.W.W.R.W.U.U.H.H.D.Z.V.k.k.k.k.k.f.d.f.f.f.f.s.d.y.t.t.t.t.t.t.e.t.t.t.t.6.6.6.6.t.t.t.t.t.t.t.y.t.y.s.s.s.s.s.s.f.f.f.d.f.f.f.s.d.g.f.f.s.s.f.s.f.s.s.y.s.s.y.y.y.y.t.t.t.t.t.6.t.t.6.6.6.t.4.-.-.&.#.#.@. .} } ` _ / a.a.a.a.a.a.a.a.a.a.a.a.a.a.a.a.a.a.a.a.a.a.a.a.a.a.",
"a.a.a.a.a.a.a.a.a.a.a.a.a.a.a.a.a.a.a.a.a.a.a.a.a.a.a.a.a.a.a.a.a.a.a.a.a.a.a.a.a.a.a.a.a.a.a.a.a.a.a.a.a.a.a.a.a.a.a.a.a.a.a.a.a.a.a.a.a.a.a.a.a.a.a.a.a.a.a.a.a.a.a.a.a.a.a.a.a.a.a.a.a.a.a.a.a.a.a.a.a.a.a.a.a.a.a.a.a.a.a.a.a.a.a.a.a.a.a.a.a.a.a.a.a.a.a.a.a.a.a.a.a.a.a.a.a.a.a.a.a.a.a.a.a.a.a.a.a.a.a.a.a.a.a.a.a.a.a.a.a.a.a.a.a.a.a.a.a.a.a.a.a.a.a.a.a.a.a.a.a.a.a.a.a.a.a.a.a.a.a.a.a.a.a.a.a.a.a.a.a.a.a.a.a.a.a.a.a.a.a.a.a.a.a.a.a.a.a.a.a.a.a.a.a.a.a.a.a.a.a.a.a.a.a.a.a.a.a.a.a.a.a.a.a.a.a.a.a.a.a.a.a.a.a.a.a.a.a.a.a.a.a.a.a.a.a.a.a.a.a.a.a.a.a.r < 6 9 p s h l B B C Z S F F F F G U T T T T E E E E / W / / _ _ _ _ _ _ _ ` ` _ ` } ` } } } } } } } } } }  . . .@.+.+.@.@.@.+.@.#.#.#.#.#.&.&.#.#.&.-.&.&.-.-.-.-.-.-.-.-.4.6.6.4.6.t.t.6.6.6.t.t.t.y.t.t.t.d.d.d.g.f.d.f.f.y.f.f.f.f.g.g.j.g.d.d.g.k.m.V.k.d.k.j.j.j.j.k.j.V.j.j.A.D.V.H.H.H.U.H.U.W.H.H.U.U.U.W.W.U.Q.Q.Q.Q.W.R.R.W.W.R.W.W.W.W.W.W.W.~.!.W.W.W.W.W.W.~.~.~.W.~.~.~.~.W.R.R.R.R.W.U.H.H.D.D.H.D.V.V.V.V.k.k.f.d.f.f.f.s.s.y.y.s.y.t.t.t.t.t.6.6.t.t.t.;.;.;.6.t.t.t.t.t.t.t.t.y.y.d.s.f.f.f.f.f.f.d.f.f.f.f.f.f.f.d.f.f.f.f.s.s.d.s.y.s.s.t.t.t.t.t.t.t.t.t.t.t.6.6.6.;.-.-.-.*.#.#.@.@.} } } _ / _ a.a.a.a.a.a.a.a.a.a.a.a.a.a.a.a.a.a.a.a.a.a.a.a.a.",
"a.a.a.a.a.a.a.a.a.a.a.a.a.a.a.a.a.a.a.a.a.a.a.a.a.a.a.a.a.a.a.a.a.a.a.a.a.a.a.a.a.a.a.a.a.a.a.a.a.a.a.a.a.a.a.a.a.a.a.a.a.a.a.a.a.a.a.a.a.a.a.a.a.a.a.a.a.a.a.a.a.a.a.a.a.a.a.a.a.a.a.a.a.a.a.a.a.a.a.a.a.a.a.a.a.a.a.a.a.a.a.a.a.a.a.a.a.a.a.a.a.a.a.a.a.a.a.a.a.a.a.a.a.a.a.a.a.a.a.a.a.a.a.a.a.a.a.a.a.a.a.a.a.a.a.a.a.a.a.a.a.a.a.a.a.a.a.a.a.a.a.a.a.a.a.a.a.a.a.a.a.a.a.a.a.a.a.a.a.a.a.a.a.a.a.a.a.a.a.a.a.a.a.a.a.a.a.a.a.a.a.a.a.a.a.a.a.a.a.a.a.a.a.a.a.a.a.a.a.a.a.a.a.a.a.a.a.a.a.a.a.a.a.a.a.a.a.a.a.a.a.a.a.a.a.a.a.a.a.a.a.a.a.a.a.a.a.a.a.a.a.a.a.a.a.y < 5 8 t s h l m m C C A F F F F G G U T T T E E E E W / / / _ _ _ _ ` _ ` ` ` ` ` } } } } } } ` } } } } }  . . .+.+.+.+.@.@.@.@.#.#.#.#.#.&.&.#.#.&.*.&.*.-.*.-.-.-.-.-.-.6.6.6.6.6.t.t.4.6.6.t.t.t.y.y.t.t.s.t.d.f.f.f.d.s.t.u.f.d.f.j.g.g.d.d.g.k.m.v.j.k.k.j.k.k.k.j.V.V.k.k.A.D.V.Z.C.H.U.H.H.H.U.H.H.H.U.U.U.W.W.W.W.W.W.R.R.H.R.R.R.R.W.W.W.W.W.~.~.W.W.W.W.W.~.~.~.~.~.W.W.W.W.W.R.W.R.R.W.R.R.R.H.H.H.C.H.V.V.k.k.k.k.k.g.d.f.f.f.s.s.y.s.y.t.t.t.t.t.t.t.t.e.t.;.;.t.;.t.t.t.t.t.t.t.t.t.t.s.t.f.f.f.d.f.f.d.d.f.f.f.f.f.g.f.f.f.f.f.y.s.s.s.y.s.y.t.t.t.t.t.t.t.t.e.t.6.6.6.6.;.-.-.-.&.&.#.#.@.} } } ] _ / a.a.a.a.a.a.a.a.a.a.a.a.a.a.a.a.a.a.a.a.a.a.a.a.a.",
"a.a.a.a.a.a.a.a.a.a.a.a.a.a.a.a.a.a.a.a.a.a.a.a.a.a.a.a.a.a.a.a.a.a.a.a.a.a.a.a.a.a.a.a.a.a.a.a.a.a.a.a.a.a.a.a.a.a.a.a.a.a.a.a.a.a.a.a.a.a.a.a.a.a.a.a.a.a.a.a.a.a.a.a.a.a.a.a.a.a.a.a.a.a.a.a.a.a.a.a.a.a.a.a.a.a.a.a.a.a.a.a.a.a.a.a.a.a.a.a.a.a.a.a.a.a.a.a.a.a.a.a.a.a.a.a.a.a.a.a.a.a.a.a.a.a.a.a.a.a.a.a.a.a.a.a.a.a.a.a.a.a.a.a.a.a.a.a.a.a.a.a.a.a.a.a.a.a.a.a.a.a.a.a.a.a.a.a.a.a.a.a.a.a.a.a.a.a.a.a.a.a.a.a.a.a.a.a.a.a.a.a.a.a.a.a.a.a.a.a.a.a.a.a.a.a.a.a.a.a.a.a.a.a.a.a.a.a.a.a.a.a.a.a.a.a.a.a.a.a.a.a.a.a.a.a.a.a.a.a.a.a.a.a.a.a.a.a.a.a.a.a.a.a.a.a.4 3 8 9 p s l m B C C A F S F F G G G U U T T E E E W / / / _ _ _ _ ` _ ` ` ` _ ` } ` ` } } } } } } } } }  . . .+.+.+.+.+.+.@.@.#.#.#.#.#.&.#.#.&.&.&.*.-.-.*.-.-.-.-.-.-.4.-.6.-.6.6.6.4.6.6.t.t.t.t.t.s.y.t.s.s.s.t.f.s.y.y.s.f.s.s.g.k.g.f.d.d.k.k.k.g.k.k.j.k.k.k.V.A.V.k.A.H.A.V.Z.C.H.W.W.H.C.C.H.H.H.U.H.H.W.W.W.W.W.Y.H.R.W.R.R.R.W.W.W.W.W.W.W.W.W.W.~.~.W.W./.!.~.W.W.W.R.R.!.~.W.R.R.W.W.R.W.W.H.H.H.H.Z.Z.V.V.k.k.k.k.g.f.f.f.f.f.y.s.y.t.t.t.t.t.t.t.t.e.t.;.-.t.;.-.t.t.t.e.t.t.t.t.t.y.y.f.f.f.f.f.f.d.d.d.d.f.f.d.g.d.f.f.f.f.s.s.s.s.t.s.s.t.t.t.t.t.t.t.t.t.t.t.6.6.6.t.;.-.-.-.*.&.#.@.} } } } ` / W a.a.a.a.a.a.a.a.a.a.a.a.a.a.a.a.a.a.a.a.a.a.a.a.",
"a.a.a.a.a.a.a.a.a.a.a.a.a.a.a.a.a.a.a.a.a.a.a.a.a.a.a.a.a.a.a.a.a.a.a.a.a.a.a.a.a.a.a.a.a.a.a.a.a.a.a.a.a.a.a.a.a.a.a.a.a.a.a.a.a.a.a.a.a.a.a.a.a.a.a.a.a.a.a.a.a.a.a.a.a.a.a.a.a.a.a.a.a.a.a.a.a.a.a.a.a.a.a.a.a.a.a.a.a.a.a.a.a.a.a.a.a.a.a.a.a.a.a.a.a.a.a.a.a.a.a.a.a.a.a.a.a.a.a.a.a.a.a.a.a.a.a.a.a.a.a.a.a.a.a.a.a.a.a.a.a.a.a.a.a.a.a.a.a.a.a.a.a.a.a.a.a.a.a.a.a.a.a.a.a.a.a.a.a.a.a.a.a.a.a.a.a.a.a.a.a.a.a.a.a.a.a.a.a.a.a.a.a.a.a.a.a.a.a.a.a.a.a.a.a.a.a.a.a.a.a.a.a.a.a.a.a.a.a.a.a.a.a.a.a.a.a.a.a.a.a.a.a.a.a.a.a.a.a.a.a.a.a.a.a.a.a.a.a.a.a.a.a.a.a.a.w 3 8 9 p s d l m C C Z S S F F F G G U T T T E E E W W / / _ _ _ ` _ _ ` ` ` ` ` } } ` } } } } } } } } } }  .+.+.+. . .+.+.@.@.#.#.#.#.#.#.#.#.&.&.&.*.-.*.-.-.*.-.-.-.-.4.-.-.6.6.6.4.6.6.t.t.t.t.y.s.t.d.d.t.y.f.s.s.y.y.f.f.y.s.f.d.k.g.f.f.k.k.k.d.k.V.V.k.k.j.V.V.D.V.V.H.H.V.A.Z.H.H.H.H.H.H.H.H.U.U.U.H.H.Y.W.W.W.W.Y.R.W.W.W.W.W.W.W.W.W.W.W.W.W.W.W.W.~.~.~./.~.~.~.W.W.W.R.~.~.~.W.W.R.W.W.W.R.R.K.H.H.H.Z.Z.V.k.k.k.k.k.d.f.f.f.f.s.s.t.t.t.t.t.t.t.t.e.t.t.;.;.t.;.-.-.t.t.t.t.t.t.t.y.t.y.f.f.f.f.f.d.d.g.d.d.d.d.d.d.d.f.f.f.d.s.s.s.s.y.s.s.t.t.t.t.t.t.t.t.t.t.t.t.t.t.t.e.-.-.-.-.&.#.#.@.} } _ _ / / a.a.a.a.a.a.a.a.a.a.a.a.a.a.a.a.a.a.a.a.a.a.a.a.",
"a.a.a.a.a.a.a.a.a.a.a.a.a.a.a.a.a.a.a.a.a.a.a.a.a.a.a.a.a.a.a.a.a.a.a.a.a.a.a.a.a.a.a.a.a.a.a.a.a.a.a.a.a.a.a.a.a.a.a.a.a.a.a.a.a.a.a.a.a.a.a.a.a.a.a.a.a.a.a.a.a.a.a.a.a.a.a.a.a.a.a.a.a.a.a.a.a.a.a.a.a.a.a.a.a.a.a.a.a.a.a.a.a.a.a.a.a.a.a.a.a.a.a.a.a.a.a.a.a.a.a.a.a.a.a.a.a.a.a.a.a.a.a.a.a.a.a.a.a.a.a.a.a.a.a.a.a.a.a.a.a.a.a.a.a.a.a.a.a.a.a.a.a.a.a.a.a.a.a.a.a.a.a.a.a.a.a.a.a.a.a.a.a.a.a.a.a.a.a.a.a.a.a.a.a.a.a.a.a.a.a.a.a.a.a.a.a.a.a.a.a.a.a.a.a.a.a.a.a.a.a.a.a.a.a.a.a.a.a.a.a.a.a.a.a.a.a.a.a.a.a.a.a.a.a.a.a.a.a.a.a.a.a.a.a.a.a.a.a.a.a.a.a.a.a.a.r < 5 8 t s d l m B C C A F F F F G U U T T T E E E W W / / _ _ _ _ _ / ` _ _ ` ` ` } } } } ` } ` ` ` } } } }  .+.+.+.+.+.@.@.@.@.@.#.#.#.#.#.#.&.&.&.*.&.&.&.-.*.-.*.-.-.-.-.-.6.t.6.6.6.t.t.t.t.t.y.t.t.y.t.t.t.y.f.f.s.f.g.f.s.f.f.f.f.s.d.f.k.k.g.k.j.A.V.k.j.j.j.V.V.V.V.A.H.A.V.C.H.H.H.Z.C.H.H.H.W.U.H.U.W.W.Y.W.Y.Y.W.W.W.R.H.W.W.W.~.W.W.!.~.~.W.W.W.W./.!.~.~.!.~.W.~.W.W.W.W.~.~.W.W.W.W.W.W.R.H.C.H.H.H.V.Z.Z.k.k.k.k.k.d.f.f.f.d.s.y.t.t.t.t.t.y.t.t.t.t.;.;.;.;.t.-.-.t.t.t.t.t.t.t.t.y.t.y.s.f.f.f.f.f.d.d.d.d.d.d.f.f.f.f.f.f.s.s.s.y.s.s.y.y.t.t.t.t.t.t.t.t.t.t.t.t.t.6.;.;.-.-.-.*.#.#.@. . .} ` _ / a.a.a.a.a.a.a.a.a.a.a.a.a.a.a.a.a.a.a.a.a.a.a.a.",
"a.a.a.a.a.a.a.a.a.a.a.a.a.a.a.a.a.a.a.a.a.a.a.a.a.a.a.a.a.a.a.a.a.a.a.a.a.a.a.a.a.a.a.a.a.a.a.a.a.a.a.a.a.a.a.a.a.a.a.a.a.a.a.a.a.a.a.a.a.a.a.a.a.a.a.a.a.a.a.a.a.a.a.a.a.a.a.a.a.a.a.a.a.a.a.a.a.a.a.a.a.a.a.a.a.a.a.a.a.a.a.a.a.a.a.a.a.a.a.a.a.a.a.a.a.a.a.a.a.a.a.a.a.a.a.a.a.a.a.a.a.a.a.a.a.a.a.a.a.a.a.a.a.a.a.a.a.a.a.a.a.a.a.a.a.a.a.a.a.a.a.a.a.a.a.a.a.a.a.a.a.a.a.a.a.a.a.a.a.a.a.a.a.a.a.a.a.a.a.a.a.a.a.a.a.a.a.a.a.a.a.a.a.a.a.a.a.a.a.a.a.a.a.a.a.a.a.a.a.a.a.a.a.a.a.a.a.a.a.a.a.a.a.a.a.a.a.a.a.a.a.a.a.a.a.a.a.a.a.a.a.a.a.a.a.a.a.a.a.a.a.a.a.a.a.a.y < 5 8 t s h k n B B C A A S F F F G U U T T E E E E / / / _ _ _ _ _ / _ _ _ ` ` ` ` } ` ` ` } } } ` ` } } }  . .+.+.+.@.+.+.@.@.@.#.#.#.#.#.#.&.&.&.&.&.&.&.-.-.-.-.-.-.-.4.6.6.t.6.6.t.t.t.t.t.t.t.t.t.y.t.;.t.t.t.f.g.g.d.s.f.f.f.f.g.f.d.j.j.k.k.g.g.k.k.j.k.k.k.k.A.A.A.H.A.V.D.H.U.U.Y.H.H.H.H.U.U.U.W.Y.W.W.W.W.U.W.Q.W.W.W.W.W.W.~.~.~.~.W.~.~.~.!.!.!.!.~.~././.!.~.~.~.W.W.W.~.~.W.W.W.W.W.W.K.K.H.H.H.H.Z.V.V.V.k.k.k.k.g.d.f.f.f.s.s.t.t.t.t.t.t.t.t.t.t.;.;.;.-.e.e.e.-.e.t.t.t.t.t.t.t.y.y.s.s.s.f.f.d.g.f.f.f.d.d.f.f.f.d.d.d.d.f.f.f.s.s.y.y.t.t.t.t.t.t.t.t.t.t.t.t.t.6.;.;.4.-.-.*.*.#.@. . .} ] / / / a.a.a.a.a.a.a.a.a.a.a.a.a.a.a.a.a.a.a.a.a.a.a.",
"a.a.a.a.a.a.a.a.a.a.a.a.a.a.a.a.a.a.a.a.a.a.a.a.a.a.a.a.a.a.a.a.a.a.a.a.a.a.a.a.a.a.a.a.a.a.a.a.a.a.a.a.a.a.a.a.a.a.a.a.a.a.a.a.a.a.a.a.a.a.a.a.a.a.a.a.a.a.a.a.a.a.a.a.a.a.a.a.a.a.a.a.a.a.a.a.a.a.a.a.a.a.a.a.a.a.a.a.a.a.a.a.a.a.a.a.a.a.a.a.a.a.a.a.a.a.a.a.a.a.a.a.a.a.a.a.a.a.a.a.a.a.a.a.a.a.a.a.a.a.a.a.a.a.a.a.a.a.a.a.a.a.a.a.a.a.a.a.a.a.a.a.a.a.a.a.a.a.a.a.a.a.a.a.a.a.a.a.a.a.a.a.a.a.a.a.a.a.a.a.a.a.a.a.a.a.a.a.a.a.a.a.a.a.a.a.a.a.a.a.a.a.a.a.a.a.a.a.a.a.a.a.a.a.a.a.a.a.a.a.a.a.a.a.a.a.a.a.a.a.a.a.a.a.a.a.a.a.a.a.a.a.a.a.a.a.a.a.a.a.a.a.a.a.a.a.a.5 1 8 9 p s d l B B C C A S F F F G G U U T E E E E E W / / _ _ _ _ / / _ _ _ ` ` ` ` ` ` ` } } } } ' } } }  . . .+.+.@.+.+.+.@.@.@.#.#.#.#.#.&.&.&.&.&.*.-.-.-.-.-.-.-.-.-.4.4.6.t.6.t.t.t.t.t.t.t.t.t.t.t.;.t.s.y.d.g.s.s.d.d.f.d.f.d.u.d.j.j.j.k.f.k.k.V.j.k.j.k.V.V.V.V.D.H.V.H.U.W.H.H.H.H.V.Z.U.H.Y.W.W.Y.Y.W.W.W.W.W.W.W.R.W.W.W.W.W.~.W.W.~.!.!.!.!.!.!./.~././.!.W.~.~.~.W.W.!./.~.W.W.R.K.W.R.K.K.H.H.H.Z.C.V.V.k.k.k.k.d.d.d.f.f.d.s.y.t.t.t.t.t.t.t.t.t.;.;.;.e.e.-.-.-.-.t.t.t.t.t.t.t.t.t.y.y.s.f.f.f.f.f.f.f.d.f.f.f.d.d.d.d.f.f.d.f.s.s.y.y.y.t.t.t.t.t.t.t.t.t.t.t.t.t.e.;.-.-.-.*.&.*.#.@.@. .] _ _ / a.a.a.a.a.a.a.a.a.a.a.a.a.a.a.a.a.a.a.a.a.a.a.",
"a.a.a.a.a.a.a.a.a.a.a.a.a.a.a.a.a.a.a.a.a.a.a.a.a.a.a.a.a.a.a.a.a.a.a.a.a.a.a.a.a.a.a.a.a.a.a.a.a.a.a.a.a.a.a.a.a.a.a.a.a.a.a.a.a.a.a.a.a.a.a.a.a.a.a.a.a.a.a.a.a.a.a.a.a.a.a.a.a.a.a.a.a.a.a.a.a.a.a.a.a.a.a.a.a.a.a.a.a.a.a.a.a.a.a.a.a.a.a.a.a.a.a.a.a.a.a.a.a.a.a.a.a.a.a.a.a.a.a.a.a.a.a.a.a.a.a.a.a.a.a.a.a.a.a.a.a.a.a.a.a.a.a.a.a.a.a.a.a.a.a.a.a.a.a.a.a.a.a.a.a.a.a.a.a.a.a.a.a.a.a.a.a.a.a.a.a.a.a.a.a.a.a.a.a.a.a.a.a.a.a.a.a.a.a.a.a.a.a.a.a.a.a.a.a.a.a.a.a.a.a.a.a.a.a.a.a.a.a.a.a.a.a.a.a.a.a.a.a.a.a.a.a.a.a.a.a.a.a.a.a.a.a.a.a.a.a.a.a.a.a.a.a.a.a.a.a.w 3 8 9 9 s h l m B C C C S F F F G G U U T R E E E W W W / / _ _ _ / _ _ _ _ _ ` ` ` ` ` ` } } } } ` } } }  . . . .+.@.@.+.+.+.@.@.#.#.#.#.#.&.&.&.&.&.-.-.-.-.&.-.-.-.-.-.4.6.t.t.4.6.t.t.t.t.t.t.t.t.t.t.t.t.t.f.d.d.d.d.d.g.k.d.d.d.s.j.j.k.k.g.f.k.k.V.j.k.k.k.k.A.A.V.V.H.H.H.H.W.W.H.Z.D.H.H.H.H.U.Y.W.Y.U.W.!.W.Y.W.W.W.H.K.W.W.W.W.W.W.!.!.!.!.W.~.~././.W.~.!.W.W.~.~.W.W./.~.~.W.W.W.W.R.R.R.R.K.H.H.C.C.H.A.V.V.k.k.k.k.d.g.f.s.d.d.s.t.y.t.t.6.t.6.t.6.4.;.;.e.t.;.;.;.;.6.t.6.t.t.t.t.t.t.y.s.f.f.s.f.f.f.f.f.f.f.f.f.f.f.f.f.f.f.f.s.s.s.y.y.t.t.t.t.t.t.t.t.t.t.t.t.t.t.t.;.-.-.-.&.-.*.#.#.@. .} _ _ _ / a.a.a.a.a.a.a.a.a.a.a.a.a.a.a.a.a.a.a.a.a.a.",
"a.a.a.a.a.a.a.a.a.a.a.a.a.a.a.a.a.a.a.a.a.a.a.a.a.a.a.a.a.a.a.a.a.a.a.a.a.a.a.a.a.a.a.a.a.a.a.a.a.a.a.a.a.a.a.a.a.a.a.a.a.a.a.a.a.a.a.a.a.a.a.a.a.a.a.a.a.a.a.a.a.a.a.a.a.a.a.a.a.a.a.a.a.a.a.a.a.a.a.a.a.a.a.a.a.a.a.a.a.a.a.a.a.a.a.a.a.a.a.a.a.a.a.a.a.a.a.a.a.a.a.a.a.a.a.a.a.a.a.a.a.a.a.a.a.a.a.a.a.a.a.a.a.a.a.a.a.a.a.a.a.a.a.a.a.a.a.a.a.a.a.a.a.a.a.a.a.a.a.a.a.a.a.a.a.a.a.a.a.a.a.a.a.a.a.a.a.a.a.a.a.a.a.a.a.a.a.a.a.a.a.a.a.a.a.a.a.a.a.a.a.a.a.a.a.a.a.a.a.a.a.a.a.a.a.a.a.a.a.a.a.a.a.a.a.a.a.a.a.a.a.a.a.a.a.a.a.a.a.a.a.a.a.a.a.a.a.a.a.a.a.a.a.a.a.a.a.r < 5 9 t s d k l m B B C A F F F G G U T T T T R E R E E E / / / / _ _ _ _ / _ _ ` ` } } } } } } } } ` } }  . . . .+.@.+.+.@.@.#.#.#.#.&.&.#.&.#.#.&.&.&.-.-.*.*.-.-.-.-.4.6.6.6.6.-.-.t.t.t.t.t.t.6.6.t.t.y.y.y.f.s.s.s.y.s.f.g.d.k.j.j.j.j.j.j.d.f.g.g.j.j.j.j.k.V.V.V.D.Z.H.U.H.H.H.H.H.Z.Z.H.D.H.H.U.Y.Y.Q.!.W.Y.Y.U.W.W.H.H.W.W.W.W.W.W.W.W.!.!.~.W.W.~.W.~.W.!.W.~.!.!.!.!.!.~.~.W.!.W.~.W.W.~.W.R.R.U.U.H.Z.H.D.Z.B.k.k.k.k.f.f.f.s.d.s.y.t.t.t.t.;.t.t.6.4.4.4.4.-.4.4.4.4.6.6.6.t.t.t.t.y.y.y.s.d.s.y.y.f.f.f.f.f.f.f.f.f.f.f.s.s.f.f.f.f.d.s.s.y.s.y.t.t.t.t.t.t.t.t.t.t.t.t.t.6.6.6.;.-.-.*.&.@.@.} } ` ` _ / a.a.a.a.a.a.a.a.a.a.a.a.a.a.a.a.a.a.a.a.a.a.",
"a.a.a.a.a.a.a.a.a.a.a.a.a.a.a.a.a.a.a.a.a.a.a.a.a.a.a.a.a.a.a.a.a.a.a.a.a.a.a.a.a.a.a.a.a.a.a.a.a.a.a.a.a.a.a.a.a.a.a.a.a.a.a.a.a.a.a.a.a.a.a.a.a.a.a.a.a.a.a.a.a.a.a.a.a.a.a.a.a.a.a.a.a.a.a.a.a.a.a.a.a.a.a.a.a.a.a.a.a.a.a.a.a.a.a.a.a.a.a.a.a.a.a.a.a.a.a.a.a.a.a.a.a.a.a.a.a.a.a.a.a.a.a.a.a.a.a.a.a.a.a.a.a.a.a.a.a.a.a.a.a.a.a.a.a.a.a.a.a.a.a.a.a.a.a.a.a.a.a.a.a.a.a.a.a.a.a.a.a.a.a.a.a.a.a.a.a.a.a.a.a.a.a.a.a.a.a.a.a.a.a.a.a.a.a.a.a.a.a.a.a.a.a.a.a.a.a.a.a.a.a.a.a.a.a.a.a.a.a.a.a.a.a.a.a.a.a.a.a.a.a.a.a.a.a.a.a.a.a.a.a.a.a.a.a.a.a.a.a.a.a.a.a.a.a.a.a.a < 5 8 9 p s d l n B B C A F F F G G T U U U T T R E E E ^ / / / / _ _ _ / / _ _ _ ` } } ` ` } } } } } } }  .'  . .+.+.+.+.+.@.&.#.@.#.#.#.&.#.#.&.&.#.*.*.-.*.*.-.-.-.-.-.6.6.6.6.-.-.t.t.6.t.t.t.e.t.t.6.y.u.f.y.y.s.y.t.t.f.g.f.g.k.k.g.d.k.k.g.k.d.k.V.k.k.k.k.V.V.V.A.D.D.V.H.H.H.H.H.H.V.H.H.H.U.H.H.H.Q.!.Y.U.W.H.H.H.W.W.W.W.W.~.~.!.W.W.W.W.~.!.~.~.W.W.W.W.~.~.!.!.!.!.!.W.W.W.~.~.W.W.W.~.W.R.R.H.H.D.V.H.D.Z.V.V.k.k.k.g.d.f.y.s.s.y.s.y.t.t.t.6.t.t.4.4.4.4.4.4.4.4.4.6.6.6.6.t.t.t.y.y.s.t.y.y.s.f.s.f.d.f.f.f.f.f.f.f.f.s.s.s.f.f.f.s.s.t.y.s.y.t.t.t.t.t.t.t.t.t.t.t.t.6.6.6.6.6.-.-.*.#.@.@.@. . .} ] ) a.a.a.a.a.a.a.a.a.a.a.a.a.a.a.a.a.a.a.a.a.a.",
"a.a.a.a.a.a.a.a.a.a.a.a.a.a.a.a.a.a.a.a.a.a.a.a.a.a.a.a.a.a.a.a.a.a.a.a.a.a.a.a.a.a.a.a.a.a.a.a.a.a.a.a.a.a.a.a.a.a.a.a.a.a.a.a.a.a.a.a.a.a.a.a.a.a.a.a.a.a.a.a.a.a.a.a.a.a.a.a.a.a.a.a.a.a.a.a.a.a.a.a.a.a.a.a.a.a.a.a.a.a.a.a.a.a.a.a.a.a.a.a.a.a.a.a.a.a.a.a.a.a.a.a.a.a.a.a.a.a.a.a.a.a.a.a.a.a.a.a.a.a.a.a.a.a.a.a.a.a.a.a.a.a.a.a.a.a.a.a.a.a.a.a.a.a.a.a.a.a.a.a.a.a.a.a.a.a.a.a.a.a.a.a.a.a.a.a.a.a.a.a.a.a.a.a.a.a.a.a.a.a.a.a.a.a.a.a.a.a.a.a.a.a.a.a.a.a.a.a.a.a.a.a.a.a.a.a.a.a.a.a.a.a.a.a.a.a.a.a.a.a.a.a.a.a.a.a.a.a.a.a.a.a.a.a.a.a.a.a.a.a.a.a.a.a.a.a.a.a.< 3 7 9 p s d l m B B B C A F F F G U U U U T T R R R E ^ / / / / _ _ _ / / / _ ` _ ` } ` ` ` ` } ` ` } }  . . . .+.+.+.+.+.@.#.@.@.@.#.#.#.&.#.#.&.&.*.*.*.&.&.-.-.-.-.-.-.6.4.4.-.r.r.4.6.t.t.t.t.t.t.t.y.f.y.y.y.y.y.y.f.k.g.g.k.k.k.d.d.d.k.k.d.f.k.k.k.j.V.V.V.A.A.A.D.Z.V.Z.H.H.H.H.H.Z.Z.Z.U.U.U.H.H.U.W.W.W.U.W.R.R.R.R.W.~.~.~.W.W.W.W.!.~.W.!./././.!.!.W.~.~.~.!.~.!.~.W.~.~.~.~.~.W.W.~.W.R.R.U.H.H.V.H.D.Z.V.V.V.k.k.g.d.f.f.d.d.d.d.y.t.t.t.6.t.6.4.4.4.4.6.4.4.4.4.4.4.6.6.t.t.t.t.s.y.s.s.t.f.f.s.f.d.f.f.f.f.f.f.f.s.s.s.s.f.f.s.s.s.y.y.y.y.t.t.t.t.t.t.t.t.t.t.t.t.t.t.6.6.6.-.-.*.&.#.#.@. .} } / ) W a.a.a.a.a.a.a.a.a.a.a.a.a.a.a.a.a.a.a.a.a.",
"a.a.a.a.a.a.a.a.a.a.a.a.a.a.a.a.a.a.a.a.a.a.a.a.a.a.a.a.a.a.a.a.a.a.a.a.a.a.a.a.a.a.a.a.a.a.a.a.a.a.a.a.a.a.a.a.a.a.a.a.a.a.a.a.a.a.a.a.a.a.a.a.a.a.a.a.a.a.a.a.a.a.a.a.a.a.a.a.a.a.a.a.a.a.a.a.a.a.a.a.a.a.a.a.a.a.a.a.a.a.a.a.a.a.a.a.a.a.a.a.a.a.a.a.a.a.a.a.a.a.a.a.a.a.a.a.a.a.a.a.a.a.a.a.a.a.a.a.a.a.a.a.a.a.a.a.a.a.a.a.a.a.a.a.a.a.a.a.a.a.a.a.a.a.a.a.a.a.a.a.a.a.a.a.a.a.a.a.a.a.a.a.a.a.a.a.a.a.a.a.a.a.a.a.a.a.a.a.a.a.a.a.a.a.a.a.a.a.a.a.a.a.a.a.a.a.a.a.a.a.a.a.a.a.a.a.a.a.a.a.a.a.a.a.a.a.a.a.a.a.a.a.a.a.a.a.a.a.a.a.a.a.a.a.a.a.a.a.a.a.a.a.a.a.a.a.a.a.w < 8 9 p s h k m B B C C A S F F G U U U U T T T R R T E ^ ^ / / / _ _ / / / _ _ _ ` } ` ` ` ` ` ` ` ` }  . . . .+.+.+.+.+.@.@.@.@.@.@.@.#.&.*.&.&.&.&.&.-.*.&.-.-.-.-.-.-.6.6.4.-.-.-.-.4.t.t.t.t.t.t.t.y.y.y.s.y.t.y.f.f.f.f.d.g.g.k.d.d.d.d.d.d.k.k.V.V.V.V.V.V.A.A.V.V.V.Z.k.Z.H.H.H.Z.C.H.C.H.W.U.H.H.H.Y.Y.Y.W.W.H.H.R.R.W.~.W.W.W.W.W.W.W.W.~.!.!./.!.!.!.!.!./.!.!.!.!.!.~.~.!./.W.W.W.~.~.W.W.R.U.W.H.D.H.D.Z.k.V.k.k.k.k.d.f.f.d.d.s.y.t.y.y.t.t.t.6.4.4.4.4.4.4.6.4.-.4.4.6.4.6.t.t.t.t.y.s.d.s.s.f.s.f.f.f.f.f.f.f.s.f.f.s.s.s.s.f.s.s.y.y.s.d.y.t.t.t.t.t.t.t.t.t.t.t.t.t.t.6.t.6.;.-.-.&.#.&.#. .} } _ / E a.a.a.a.a.a.a.a.a.a.a.a.a.a.a.a.a.a.a.a.a.",
"a.a.a.a.a.a.a.a.a.a.a.a.a.a.a.a.a.a.a.a.a.a.a.a.a.a.a.a.a.a.a.a.a.a.a.a.a.a.a.a.a.a.a.a.a.a.a.a.a.a.a.a.a.a.a.a.a.a.a.a.a.a.a.a.a.a.a.a.a.a.a.a.a.a.a.a.a.a.a.a.a.a.a.a.a.a.a.a.a.a.a.a.a.a.a.a.a.a.a.a.a.a.a.a.a.a.a.a.a.a.a.a.a.a.a.a.a.a.a.a.a.a.a.a.a.a.a.a.a.a.a.a.a.a.a.a.a.a.a.a.a.a.a.a.a.a.a.a.a.a.a.a.a.a.a.a.a.a.a.a.a.a.a.a.a.a.a.a.a.a.a.a.a.a.a.a.a.a.a.a.a.a.a.a.a.a.a.a.a.a.a.a.a.a.a.a.a.a.a.a.a.a.a.a.a.a.a.a.a.a.a.a.a.a.a.a.a.a.a.a.a.a.a.a.a.a.a.a.a.a.a.a.a.a.a.a.a.a.a.a.a.a.a.a.a.a.a.a.a.a.a.a.a.a.a.a.a.a.a.a.a.a.a.a.a.a.a.a.a.a.a.a.a.a.a.a.a.a.e < 5 8 9 p h h l m B B C C A S F F G U U U T T T R R E ^ ^ / / / / / / / / / _ _ _ ` ` ` ` ` ` ` ` ` ` }  .' }  .+. .+.+.@.@.@.@.@.#.#.#.#.&.&.&.&.&.&.&.*.*.*.*.-.-.-.-.6.6.-.4.4.4.*.-.6.6.t.t.;.t.t.t.y.y.t.y.y.y.y.f.s.f.d.f.f.g.k.k.j.k.d.d.d.k.k.V.V.V.j.j.A.V.A.k.V.V.V.Z.D.U.R.H.Z.Z.H.H.R.H.H.H.H.H.H.U.Y.W.W.R.H.R.R.W.W.~.W.W.W.W.W.K.W.~.~.!.!.!.!.~.~.!.~.!.~.~.!.!.!.~.~.~.!.!.!.!.W.W.W.R.W.W.U.H.H.H.D.Z.Z.V.k.k.k.d.f.f.d.y.y.t.t.t.t.t.t.t.6.t.-.-.-.-.-.4.4.-.4.4.6.6.6.t.t.t.t.t.y.s.s.s.t.t.f.f.f.f.s.f.f.s.f.f.s.s.f.f.f.s.s.s.s.s.y.y.t.t.t.t.t.t.t.t.t.t.t.t.t.t.6.t.6.;.-.*.&.#.#.@.@. .} / / / W a.a.a.a.a.a.a.a.a.a.a.a.a.a.a.a.a.a.a.a.",
"a.a.a.a.a.a.a.a.a.a.a.a.a.a.a.a.a.a.a.a.a.a.a.a.a.a.a.a.a.a.a.a.a.a.a.a.a.a.a.a.a.a.a.a.a.a.a.a.a.a.a.a.a.a.a.a.a.a.a.a.a.a.a.a.a.a.a.a.a.a.a.a.a.a.a.a.a.a.a.a.a.a.a.a.a.a.a.a.a.a.a.a.a.a.a.a.a.a.a.a.a.a.a.a.a.a.a.a.a.a.a.a.a.a.a.a.a.a.a.a.a.a.a.a.a.a.a.a.a.a.a.a.a.a.a.a.a.a.a.a.a.a.a.a.a.a.a.a.a.a.a.a.a.a.a.a.a.a.a.a.a.a.a.a.a.a.a.a.a.a.a.a.a.a.a.a.a.a.a.a.a.a.a.a.a.a.a.a.a.a.a.a.a.a.a.a.a.a.a.a.a.a.a.a.a.a.a.a.a.a.a.a.a.a.a.a.a.a.a.a.a.a.a.a.a.a.a.a.a.a.a.a.a.a.a.a.a.a.a.a.a.a.a.a.a.a.a.a.a.a.a.a.a.a.a.a.a.a.a.a.a.a.a.a.a.a.a.a.a.a.a.a.a.a.a.a.a.a.y < 6 8 9 p s h k n m m B C A S F F G G G U U T T T R T E ^ ^ / / / / / / / / _ _ _ ` ` ` ` ` ` ` ` ` ` } } }  . .+. .+.@.@.@.@.@.@.@.@.#.#.&.#.&.&.&.&.&.*.-.*.*.&.-.-.-.6.6.-.4.-.-.-.4.6.t.y.t.t.t.t.t.y.y.y.y.y.y.y.y.s.f.f.f.f.d.f.f.d.f.f.d.f.f.k.k.V.j.V.j.V.k.V.V.Z.Z.H.D.U.H.U.H.H.H.H.H.H.H.Z.H.H.H.H.U.U.U.Y.W.R.R.W.W.W.W.W.W.W.W.~.~.~.W.~.!.W.~.~.!.~.W.~.!.W.~.~.~.!.!.!.~.!.~.!.W.~.~.!.W.W.W.Y.U.H.H.D.Z.D.Z.k.V.k.k.g.f.d.y.s.y.t.t.t.t.t.6.6.6.4.-.-.-.-.-.4.-.-.4.6.6.;.t.t.t.t.t.y.y.t.y.s.s.f.f.f.f.s.f.f.y.f.f.y.y.f.f.f.s.s.s.s.s.s.y.y.t.t.t.t.t.t.t.t.t.t.t.t.t.t.t.t.6.-.-.&.&.&.&.@.} } ` _ _ / a.a.a.a.a.a.a.a.a.a.a.a.a.a.a.a.a.a.a.a.",
"a.a.a.a.a.a.a.a.a.a.a.a.a.a.a.a.a.a.a.a.a.a.a.a.a.a.a.a.a.a.a.a.a.a.a.a.a.a.a.a.a.a.a.a.a.a.a.a.a.a.a.a.a.a.a.a.a.a.a.a.a.a.a.a.a.a.a.a.a.a.a.a.a.a.a.a.a.a.a.a.a.a.a.a.a.a.a.a.a.a.a.a.a.a.a.a.a.a.a.a.a.a.a.a.a.a.a.a.a.a.a.a.a.a.a.a.a.a.a.a.a.a.a.a.a.a.a.a.a.a.a.a.a.a.a.a.a.a.a.a.a.a.a.a.a.a.a.a.a.a.a.a.a.a.a.a.a.a.a.a.a.a.a.a.a.a.a.a.a.a.a.a.a.a.a.a.a.a.a.a.a.a.a.a.a.a.a.a.a.a.a.a.a.a.a.a.a.a.a.a.a.a.a.a.a.a.a.a.a.a.a.a.a.a.a.a.a.a.a.a.a.a.a.a.a.a.a.a.a.a.a.a.a.a.a.a.a.a.a.a.a.a.a.a.a.a.a.a.a.a.a.a.a.a.a.a.a.a.a.a.a.a.a.a.a.a.a.a.a.a.a.a.a.a.a.a.a.a.a.< 3 8 9 t s h h n m B C C A A F F G G G G U U T T R R ^ ^ ^ ^ / / / / / / / / _ _ ` ` ` ` ` ` ` ` ` ` ` ' } }  . . . .+.@.@.@.@.@.@.@.#.#.&.&.&.&.&.&.&.*.*.-.*.*.-.-.-.6.6.-.4.-.-.-.6.6.6.t.t.t.t.t.t.y.y.y.y.y.y.y.y.f.f.f.f.d.d.f.f.f.f.f.f.h.f.h.k.k.j.j.j.A.V.V.k.H.D.H.Z.D.H.H.U.H.H.C.C.U.H.H.U.U.U.W.W.W.U.H.W.W.W.W.W.W.K.W.W.!.~.W.W.!.~.~.~./.!.~.~.!.~.~.!.W.W.~.~.!.!.~.~.W.~.!.!.~.!.!.W.W.W.U.U.H.H.H.D.D.V.k.k.k.k.k.f.d.d.d.y.t.t.t.t.6.6.4.4.6.-.-.-.-.-.-.-.6.4.6.6.6.6.t.t.t.t.y.y.t.y.y.s.f.f.f.f.s.f.f.y.f.f.y.s.f.f.f.s.s.s.s.s.s.s.s.y.t.t.t.t.t.t.t.t.t.t.t.t.6.t.t.4.-.-.*.&.&.&.#.} ] ` ` _ / W a.a.a.a.a.a.a.a.a.a.a.a.a.a.a.a.a.a.a.",
"a.a.a.a.a.a.a.a.a.a.a.a.a.a.a.a.a.a.a.a.a.a.a.a.a.a.a.a.a.a.a.a.a.a.a.a.a.a.a.a.a.a.a.a.a.a.a.a.a.a.a.a.a.a.a.a.a.a.a.a.a.a.a.a.a.a.a.a.a.a.a.a.a.a.a.a.a.a.a.a.a.a.a.a.a.a.a.a.a.a.a.a.a.a.a.a.a.a.a.a.a.a.a.a.a.a.a.a.a.a.a.a.a.a.a.a.a.a.a.a.a.a.a.a.a.a.a.a.a.a.a.a.a.a.a.a.a.a.a.a.a.a.a.a.a.a.a.a.a.a.a.a.a.a.a.a.a.a.a.a.a.a.a.a.a.a.a.a.a.a.a.a.a.a.a.a.a.a.a.a.a.a.a.a.a.a.a.a.a.a.a.a.a.a.a.a.a.a.a.a.a.a.a.a.a.a.a.a.a.a.a.a.a.a.a.a.a.a.a.a.a.a.a.a.a.a.a.a.a.a.a.a.a.a.a.a.a.a.a.a.a.a.a.a.a.a.a.a.a.a.a.a.a.a.a.a.a.a.a.a.a.a.a.a.a.a.a.a.a.a.a.a.a.a.a.a.a.a.a.6 3 5 8 9 s h d n n B B C A A F F F G G G U U T T R R E E ^ / / / / / / / / / _ _ _ ` ` ` ` ` ` ` ` ` ` ' ' }  . . . .+.@.@.@.@.@.@.@.@.#.&.&.&.&.&.&.&.&.-.-.-.-.-.-.-.6.6.-.-.-.-.-.t.t.t.t.t.w.t.t.t.y.y.t.t.y.t.t.s.f.f.f.g.k.k.f.f.f.f.d.f.f.d.k.j.k.k.j.j.A.H.H.V.H.D.H.V.H.H.H.Z.V.Z.V.V.H.C.C.H.H.W.U.H.Q.!.W.W.W.W.W.W.R.H.H.W.W.W.W.~.!.!.!.~.W.!.~.!.!.!.~.!.!.~.^././.!.!.~.!.!.!.~.!.~.W.W.W.W.W.U.U.H.H.Z.H.Z.V.V.k.k.g.g.g.d.g.s.y.t.6.t.6.4.6.4.6.4.4.-.-.-.-.-.-.4.6.6.6.4.6.t.t.t.t.t.y.y.y.t.f.f.f.f.f.f.f.y.f.f.y.s.f.f.f.s.s.s.s.s.f.f.s.s.t.t.t.t.t.t.t.t.y.t.t.t.t.t.t.6.4.-.-.-.&.*.#. .} ] ` _ / W a.a.a.a.a.a.a.a.a.a.a.a.a.a.a.a.a.a.a.",
"a.a.a.a.a.a.a.a.a.a.a.a.a.a.a.a.a.a.a.a.a.a.a.a.a.a.a.a.a.a.a.a.a.a.a.a.a.a.a.a.a.a.a.a.a.a.a.a.a.a.a.a.a.a.a.a.a.a.a.a.a.a.a.a.a.a.a.a.a.a.a.a.a.a.a.a.a.a.a.a.a.a.a.a.a.a.a.a.a.a.a.a.a.a.a.a.a.a.a.a.a.a.a.a.a.a.a.a.a.a.a.a.a.a.a.a.a.a.a.a.a.a.a.a.a.a.a.a.a.a.a.a.a.a.a.a.a.a.a.a.a.a.a.a.a.a.a.a.a.a.a.a.a.a.a.a.a.a.a.a.a.a.a.a.a.a.a.a.a.a.a.a.a.a.a.a.a.a.a.a.a.a.a.a.a.a.a.a.a.a.a.a.a.a.a.a.a.a.a.a.a.a.a.a.a.a.a.a.a.a.a.a.a.a.a.a.a.a.a.a.a.a.a.a.a.a.a.a.a.a.a.a.a.a.a.a.a.a.a.a.a.a.a.a.a.a.a.a.a.a.a.a.a.a.a.a.a.a.a.a.a.a.a.a.a.a.a.a.a.a.a.a.a.a.a.a.a.a.a.r , 5 6 8 p s d l n N B C C S F F G T G U T T T E W W T T T ^ / / / / / / / / ` ` _ ` ` ` ` ` ` ` ` ` ] } } } } } } }  .@.@.@.@.#.#.#.#.*.#.#.*.*.-.-.#.-.-.-.-.-.-.-.-.6.-.4.4.-.-.-.4.6.t.6.-.6.t.t.t.e.t.t.f.f.t.y.f.f.f.f.f.k.f.d.s.f.d.d.k.d.k.k.k.V.j.j.A.A.V.D.V.H.H.H.H.D.H.Z.Z.Z.Z.C.D.H.C.H.C.R.W.U.W.W.W.W.W.K.W.W.W.W.W.R.R.W.W.W.~.W.W.!.!.W.W.W././.(.^.^.!.^.^././././.~.~.!.!.!.!.W.W.W.W.!.!.W.W.U.H.D.D.Z.Z.k.V.k.k.k.k.k.s.s.t.t.t.y.t.t.6.6.4.4.4.-.-.-.-.-.-.-.-.4.4.4.4.t.6.t.t.t.t.t.y.s.t.y.f.s.f.f.f.f.f.f.f.f.f.f.f.s.f.s.y.s.s.y.y.y.s.s.t.t.t.t.t.t.t.t.t.t.t.t.t.6.6.;.-.-.*.&.#.@. .} ` _ _ } a.a.a.a.a.a.a.a.a.a.a.a.a.a.a.a.a.a.a.",
"a.a.a.a.a.a.a.a.a.a.a.a.a.a.a.a.a.a.a.a.a.a.a.a.a.a.a.a.a.a.a.a.a.a.a.a.a.a.a.a.a.a.a.a.a.a.a.a.a.a.a.a.a.a.a.a.a.a.a.a.a.a.a.a.a.a.a.a.a.a.a.a.a.a.a.a.a.a.a.a.a.a.a.a.a.a.a.a.a.a.a.a.a.a.a.a.a.a.a.a.a.a.a.a.a.a.a.a.a.a.a.a.a.a.a.a.a.a.a.a.a.a.a.a.a.a.a.a.a.a.a.a.a.a.a.a.a.a.a.a.a.a.a.a.a.a.a.a.a.a.a.a.a.a.a.a.a.a.a.a.a.a.a.a.a.a.a.a.a.a.a.a.a.a.a.a.a.a.a.a.a.a.a.a.a.a.a.a.a.a.a.a.a.a.a.a.a.a.a.a.a.a.a.a.a.a.a.a.a.a.a.a.a.a.a.a.a.a.a.a.a.a.a.a.a.a.a.a.a.a.a.a.a.a.a.a.a.a.a.a.a.a.a.a.a.a.a.a.a.a.a.a.a.a.a.a.a.a.a.a.a.a.a.a.a.a.a.a.a.a.a.a.a.a.a.a.a.a.a.a.3 3 6 8 t s h l n n B B C S S F P U G U U T T T E E E T T ^ ^ ^ ^ ^ / / / / _ _ ` ` ` ` _ ` ` ` ` ` ` } } } } } } }  .@.@.@.@.@.#.#.#.&.#.#.&.*.*.*.*.-.-.-.-.-.-.-.-.6.-.-.-.-.-.-.r.6.4.4.6.t.t.t.y.t.t.t.t.f.s.s.f.f.f.f.f.f.f.f.f.f.k.k.k.k.d.k.j.k.d.j.V.V.A.A.A.D.H.U.U.H.V.Z.H.H.V.Z.H.H.D.H.Z.H.Y.Y.!.Y.Y.W.W.K.R.R.W.~.R.R.~.W.W.W.W.W.W.!./.W.~.!./.!.!.!.!./.!.!././././.~.~.!.!.~.~.!.~.W.Q.W.W.W.W.W.U.U.Z.D.D.V.V.k.k.k.h.h.s.y.d.t.t.t.y.t.4.-.6.4.-.-.-.-.-.-.-.-.-.-.4.4.4.t.t.e.t.t.t.t.t.t.t.y.f.s.f.f.f.f.f.f.f.f.f.f.f.s.f.s.t.s.f.s.y.t.y.t.t.y.t.t.t.t.t.t.t.e.t.t.6.;.6.;.-.-.*.#.#.@.@. .} _ ` / ] a.a.a.a.a.a.a.a.a.a.a.a.a.a.a.a.a.a.",
"a.a.a.a.a.a.a.a.a.a.a.a.a.a.a.a.a.a.a.a.a.a.a.a.a.a.a.a.a.a.a.a.a.a.a.a.a.a.a.a.a.a.a.a.a.a.a.a.a.a.a.a.a.a.a.a.a.a.a.a.a.a.a.a.a.a.a.a.a.a.a.a.a.a.a.a.a.a.a.a.a.a.a.a.a.a.a.a.a.a.a.a.a.a.a.a.a.a.a.a.a.a.a.a.a.a.a.a.a.a.a.a.a.a.a.a.a.a.a.a.a.a.a.a.a.a.a.a.a.a.a.a.a.a.a.a.a.a.a.a.a.a.a.a.a.a.a.a.a.a.a.a.a.a.a.a.a.a.a.a.a.a.a.a.a.a.a.a.a.a.a.a.a.a.a.a.a.a.a.a.a.a.a.a.a.a.a.a.a.a.a.a.a.a.a.a.a.a.a.a.a.a.a.a.a.a.a.a.a.a.a.a.a.a.a.a.a.a.a.a.a.a.a.a.a.a.a.a.a.a.a.a.a.a.a.a.a.a.a.a.a.a.a.a.a.a.a.a.a.a.a.a.a.a.a.a.a.a.a.a.a.a.a.a.a.a.a.a.a.a.a.a.a.a.a.a.a.a.a.a.3 3 6 8 9 s s h l n B B B Z Z S F U G G U T T T T E T T T T T ^ E ^ / / / / / _ ` ` ` ` _ _ / ` ` ` ` } ` } } } }  . . . .@.@.@.@.#.#.&.#.#.&.*.*.*.*.-.-.-.-.-.-.-.-.6.4.-.-.-.-.-.-.t.4.4.t.t.t.t.t.t.t.t.t.s.f.f.f.f.s.s.f.s.f.f.d.k.k.d.d.k.d.k.V.d.d.k.j.V.A.V.V.V.Z.D.Z.Z.H.U.H.H.Z.D.H.Z.D.H.H.W.W.Y.!.Q.W.Y.H.H.R.R.R.R.W.W.~.R.W.~.!.~.~.W.~.W.W.W.!.!.^.^.^.!.!././././././.!.!.!.~.!.!.W.W.Q.W.W.Y.W.W.W.U.H.H.D.V.V.k.k.k.k.g.f.f.s.y.y.t.t.t.6.6.6.4.-.-.-.-.-.-.-.-.-.-.4.-.4.t.e.e.t.t.t.t.t.t.t.s.f.y.f.f.f.f.f.f.f.f.f.s.f.d.f.s.y.s.f.f.s.y.s.s.s.t.t.t.t.t.t.t.t.e.t.t.t.6.6.6.-.-.-.&.#.@.@.@.} ] ` ] W a.a.a.a.a.a.a.a.a.a.a.a.a.a.a.a.a.a.",
"a.a.a.a.a.a.a.a.a.a.a.a.a.a.a.a.a.a.a.a.a.a.a.a.a.a.a.a.a.a.a.a.a.a.a.a.a.a.a.a.a.a.a.a.a.a.a.a.a.a.a.a.a.a.a.a.a.a.a.a.a.a.a.a.a.a.a.a.a.a.a.a.a.a.a.a.a.a.a.a.a.a.a.a.a.a.a.a.a.a.a.a.a.a.a.a.a.a.a.a.a.a.a.a.a.a.a.a.a.a.a.a.a.a.a.a.a.a.a.a.a.a.a.a.a.a.a.a.a.a.a.a.a.a.a.a.a.a.a.a.a.a.a.a.a.a.a.a.a.a.a.a.a.a.a.a.a.a.a.a.a.a.a.a.a.a.a.a.a.a.a.a.a.a.a.a.a.a.a.a.a.a.a.a.a.a.a.a.a.a.a.a.a.a.a.a.a.a.a.a.a.a.a.a.a.a.a.a.a.a.a.a.a.a.a.a.a.a.a.a.a.a.a.a.a.a.a.a.a.a.a.a.a.a.a.a.a.a.a.a.a.a.a.a.a.a.a.a.a.a.a.a.a.a.a.a.a.a.a.a.a.a.a.a.a.a.a.a.a.a.a.a.a.a.a.a.a.a.a.a.6 , 3 8 r p s h l n m m B S Z S S P G G U U T R T T T T T T T T E E ^ / / / / / _ _ _ / / / / ` ` ` ` } ` } } } } } }  . . .@.@.@.@.#.&.#.#.#.*.*.*.-.&.*.-.-.-.-.-.-.-.-.-.-.-.-.-.4.6.6.4.t.t.y.t.t.t.t.t.t.s.s.f.f.f.y.s.f.f.f.t.s.f.g.k.k.g.j.j.j.k.j.k.k.V.D.V.V.H.H.D.D.D.V.V.D.D.H.H.H.Z.D.U.H.U.Q.W.!.Q.W.W.U.H.K.R.R.~.R.R.W.W.W.W.W.W.~.!.!.~.!.!.!.!.(.(.(.~.!././.~./././././.!.~.!.!.W.W.W.Q.W.H.W.Y.Y.U.H.H.H.Z.V.V.k.k.k.h.f.f.y.y.d.y.t.t.6.4.4.4.-.-.-.-.-.-.-.-.-.-.-.-.-.;.-.;.e.t.t.t.y.s.y.s.f.y.f.f.f.f.f.f.f.f.f.f.f.s.f.s.y.y.f.f.f.f.s.f.s.f.t.t.t.t.t.t.t.e.t.t.t.6.6.6.;.-.-.&.#.#.#.@.+.} ` _ / R a.a.a.a.a.a.a.a.a.a.a.a.a.a.a.a.a.",
"a.a.a.a.a.a.a.a.a.a.a.a.a.a.a.a.a.a.a.a.a.a.a.a.a.a.a.a.a.a.a.a.a.a.a.a.a.a.a.a.a.a.a.a.a.a.a.a.a.a.a.a.a.a.a.a.a.a.a.a.a.a.a.a.a.a.a.a.a.a.a.a.a.a.a.a.a.a.a.a.a.a.a.a.a.a.a.a.a.a.a.a.a.a.a.a.a.a.a.a.a.a.a.a.a.a.a.a.a.a.a.a.a.a.a.a.a.a.a.a.a.a.a.a.a.a.a.a.a.a.a.a.a.a.a.a.a.a.a.a.a.a.a.a.a.a.a.a.a.a.a.a.a.a.a.a.a.a.a.a.a.a.a.a.a.a.a.a.a.a.a.a.a.a.a.a.a.a.a.a.a.a.a.a.a.a.a.a.a.a.a.a.a.a.a.a.a.a.a.a.a.a.a.a.a.a.a.a.a.a.a.a.a.a.a.a.a.a.a.a.a.a.a.a.a.a.a.a.a.a.a.a.a.a.a.a.a.a.a.a.a.a.a.a.a.a.a.a.a.a.a.a.a.a.a.a.a.a.a.a.a.a.a.a.a.a.a.a.a.a.a.a.a.a.a.a.a.a.a.a.r , 3 6 8 t p h h l n B B C Z S S F F G G T T T R T T T T T T T E E ^ / / / / / _ / / ` _ / / ( ` ` ` ` ` } } } } } } @.@.@.@.@.@.#.#.#.#.&.#.#.*.*.#.-.-.-.*.-.-.-.-.6.-.-.-.-.-.-.-.-.4.6.6.t.t.t.y.t.t.t.y.t.s.f.f.s.y.t.y.t.s.y.f.f.f.k.k.k.j.j.j.j.j.k.j.V.k.V.V.D.D.V.H.Z.Z.H.D.Z.V.H.H.H.H.H.H.Z.Z.W.W.Y.W.W.U.H.R.R.R.R.R.R.W.W.~.W.W.W.W.~.W.W.!.!.!.(.(.(.(.~././.(./.~.~././.(././.!.W.W.W.W.Q.W.W.W.U.U.U.U.H.D.Z.V.k.k.k.k.k.d.f.s.s.d.d.t.6.t.6.4.4.-.-.-.-.-.-.-.-.-.-.-.-.-.;.t.e.e.t.t.t.t.t.s.y.s.s.s.s.f.f.f.f.y.y.f.f.d.d.f.d.f.s.d.s.s.y.y.t.y.y.y.t.t.t.t.t.t.e.t.6.t.6.6.6.;.-.-.&.&.#.#.#.@.} } ( W W a.a.a.a.a.a.a.a.a.a.a.a.a.a.a.a.a.",
"a.a.a.a.a.a.a.a.a.a.a.a.a.a.a.a.a.a.a.a.a.a.a.a.a.a.a.a.a.a.a.a.a.a.a.a.a.a.a.a.a.a.a.a.a.a.a.a.a.a.a.a.a.a.a.a.a.a.a.a.a.a.a.a.a.a.a.a.a.a.a.a.a.a.a.a.a.a.a.a.a.a.a.a.a.a.a.a.a.a.a.a.a.a.a.a.a.a.a.a.a.a.a.a.a.a.a.a.a.a.a.a.a.a.a.a.a.a.a.a.a.a.a.a.a.a.a.a.a.a.a.a.a.a.a.a.a.a.a.a.a.a.a.a.a.a.a.a.a.a.a.a.a.a.a.a.a.a.a.a.a.a.a.a.a.a.a.a.a.a.a.a.a.a.a.a.a.a.a.a.a.a.a.a.a.a.a.a.a.a.a.a.a.a.a.a.a.a.a.a.a.a.a.a.a.a.a.a.a.a.a.a.a.a.a.a.a.a.a.a.a.a.a.a.a.a.a.a.a.a.a.a.a.a.a.a.a.a.a.a.a.a.a.a.a.a.a.a.a.a.a.a.a.a.a.a.a.a.a.a.a.a.a.a.a.a.a.a.a.a.a.a.a.a.a.a.a.a.a.a.a.< < 6 8 t p s h l n m B C Z S S S F F G U T T T R T T T T T T T E E / / / / / / / / / _ / / _ ` ` ` ` ` } } } } } }  .@.@.@.@.@.#.#.#.#.#.#.&.&.#.#.&.-.-.*.-.-.-.-.6.-.-.-.6.-.t.-.-.4.6.6.6.6.t.t.t.t.t.y.t.t.s.y.y.t.t.f.f.f.f.f.d.j.j.k.k.k.j.j.k.k.k.V.V.k.V.k.Z.H.Z.V.Z.H.Z.H.Z.V.V.H.W.H.H.H.C.H.W.W.W.Y.W.W.H.H.W.W.R.R.R.W.W.!.~.!.W.W.W.~.W.!.~.~.!.^.^.^./././.~./././.~./.~.!.!.!.!.~.W.Q.W.W.Q.W.Y.Y.W.H.U.H.H.V.k.k.k.k.k.d.f.f.s.d.d.y.t.t.6.t.4.-.-.-.-.-.-.-.-.-.-.-.-.-.-.-.-.e.t.t.t.t.t.t.y.y.f.s.t.f.f.s.t.y.f.f.f.f.f.f.f.f.s.s.f.f.y.t.y.t.y.t.t.t.t.t.t.t.t.t.t.t.t.t.6.;.-.-.&.&.#.#.#.@.} ` ` / / a.a.a.a.a.a.a.a.a.a.a.a.a.a.a.a.a.",
"a.a.a.a.a.a.a.a.a.a.a.a.a.a.a.a.a.a.a.a.a.a.a.a.a.a.a.a.a.a.a.a.a.a.a.a.a.a.a.a.a.a.a.a.a.a.a.a.a.a.a.a.a.a.a.a.a.a.a.a.a.a.a.a.a.a.a.a.a.a.a.a.a.a.a.a.a.a.a.a.a.a.a.a.a.a.a.a.a.a.a.a.a.a.a.a.a.a.a.a.a.a.a.a.a.a.a.a.a.a.a.a.a.a.a.a.a.a.a.a.a.a.a.a.a.a.a.a.a.a.a.a.a.a.a.a.a.a.a.a.a.a.a.a.a.a.a.a.a.a.a.a.a.a.a.a.a.a.a.a.a.a.a.a.a.a.a.a.a.a.a.a.a.a.a.a.a.a.a.a.a.a.a.a.a.a.a.a.a.a.a.a.a.a.a.a.a.a.a.a.a.a.a.a.a.a.a.a.a.a.a.a.a.a.a.a.a.a.a.a.a.a.a.a.a.a.a.a.a.a.a.a.a.a.a.a.a.a.a.a.a.a.a.a.a.a.a.a.a.a.a.a.a.a.a.a.a.a.a.a.a.a.a.a.a.a.a.a.a.a.a.a.a.a.a.a.a.a.a.a.a.6 , 5 6 9 t s h d l n B C C Z S S F F G U U U T T T T T T T T T T E ^ / / / / / / / / / / / _ ` ` ` ` ` } } } } } }  . .@.@.@.@.#.#.#.#.#.#.*.*.&.#.&.-.-.*.-.-.-.-.6.-.-.-.6.-.t.-.4.6.4.6.t.t.t.t.t.t.t.t.t.t.y.y.s.y.s.f.f.f.f.f.g.j.k.k.k.k.k.k.j.k.k.V.V.A.k.V.V.H.U.V.V.V.V.H.U.Z.V.H.H.C.H.H.H.U.U.W.Q.!.!.Q.W.W.H.K.R.K.R.~.W.W.W.!.W.!.!.!.W.W.~././.^.!.Q./././.!./././././.~.~.!.!.!.~.W.Q.Q.Q.!.Q.!.Q.W.H.U.U.D.V.k.k.V.V.k.f.f.f.s.d.d.y.t.t.t.t.4.-.-.-.-.-.-.-.-.-.-.-.-.-.-.-.-.e.t.t.t.t.t.t.t.y.t.t.s.f.f.y.y.y.s.f.f.f.f.f.f.f.s.s.f.f.t.s.y.s.y.y.t.t.t.t.t.t.t.t.t.t.t.6.6.6.;.-.*.&.#.#.#.@. .} _ ` _ [ a.a.a.a.a.a.a.a.a.a.a.a.a.a.a.a.",
"a.a.a.a.a.a.a.a.a.a.a.a.a.a.a.a.a.a.a.a.a.a.a.a.a.a.a.a.a.a.a.a.a.a.a.a.a.a.a.a.a.a.a.a.a.a.a.a.a.a.a.a.a.a.a.a.a.a.a.a.a.a.a.a.a.a.a.a.a.a.a.a.a.a.a.a.a.a.a.a.a.a.a.a.a.a.a.a.a.a.a.a.a.a.a.a.a.a.a.a.a.a.a.a.a.a.a.a.a.a.a.a.a.a.a.a.a.a.a.a.a.a.a.a.a.a.a.a.a.a.a.a.a.a.a.a.a.a.a.a.a.a.a.a.a.a.a.a.a.a.a.a.a.a.a.a.a.a.a.a.a.a.a.a.a.a.a.a.a.a.a.a.a.a.a.a.a.a.a.a.a.a.a.a.a.a.a.a.a.a.a.a.a.a.a.a.a.a.a.a.a.a.a.a.a.a.a.a.a.a.a.a.a.a.a.a.a.a.a.a.a.a.a.a.a.a.a.a.a.a.a.a.a.a.a.a.a.a.a.a.a.a.a.a.a.a.a.a.a.a.a.a.a.a.a.a.a.a.a.a.a.a.a.a.a.a.a.a.a.a.a.a.a.a.a.a.a.a.a.a.a.w < 5 8 9 t s s h l n m C C Z S S S F G G U U T T R T T T T T T T E ^ / / / / / / / / / / / _ ` ` } ` ` } } } } } }  . . .@.@.#.@.#.#.#.#.#.&.&.&.*.&.-.-.*.-.-.-.-.6.-.-.-.-.-.-.4.6.4.-.4.6.6.6.t.t.t.t.t.t.y.s.t.y.t.t.f.f.f.f.d.g.d.d.k.g.k.k.k.j.j.k.k.V.V.k.V.V.H.W.H.Z.k.Z.H.U.Z.Z.R.U.R.H.C.U.W.Y.W.W.W.W.W.W.R.R.R.R.R.R.~.~.W.W.W.W.~.!.!.~.W.~./././.^.!.^././.!./.~.!././././.~.~.!.~.W.Q.!.!.Q.W.W.W.H.H.U.Z.V.Z.V.k.k.k.k.k.g.f.f.s.s.y.t.t.t.6.4.-.-.-.-.-.-.-.*.*.-.-.-.-.-.-.-.4.t.t.e.e.t.t.t.t.y.t.s.f.f.f.y.t.t.f.f.d.f.f.f.f.s.f.d.s.s.y.t.t.t.t.y.t.t.t.t.t.t.t.6.t.t.t.t.6.;.-.-.-.&.#.#.@. . ._ ` / W a.a.a.a.a.a.a.a.a.a.a.a.a.a.a.a.",
"a.a.a.a.a.a.a.a.a.a.a.a.a.a.a.a.a.a.a.a.a.a.a.a.a.a.a.a.a.a.a.a.a.a.a.a.a.a.a.a.a.a.a.a.a.a.a.a.a.a.a.a.a.a.a.a.a.a.a.a.a.a.a.a.a.a.a.a.a.a.a.a.a.a.a.a.a.a.a.a.a.a.a.a.a.a.a.a.a.a.a.a.a.a.a.a.a.a.a.a.a.a.a.a.a.a.a.a.a.a.a.a.a.a.a.a.a.a.a.a.a.a.a.a.a.a.a.a.a.a.a.a.a.a.a.a.a.a.a.a.a.a.a.a.a.a.a.a.a.a.a.a.a.a.a.a.a.a.a.a.a.a.a.a.a.a.a.a.a.a.a.a.a.a.a.a.a.a.a.a.a.a.a.a.a.a.a.a.a.a.a.a.a.a.a.a.a.a.a.a.a.a.a.a.a.a.a.a.a.a.a.a.a.a.a.a.a.a.a.a.a.a.a.a.a.a.a.a.a.a.a.a.a.a.a.a.a.a.a.a.a.a.a.a.a.a.a.a.a.a.a.a.a.a.a.a.a.a.a.a.a.a.a.a.a.a.a.a.a.a.a.a.a.a.a.a.a.a.a.a.a.w , < 6 8 0 s h k k l m B B C C C S F F F G G U T U T T R R R R E W W ^ / / / / _ _ _ _ _ _ _ ` ` ` ` ` ` } } } }  . . .@.@.@.@.@.@.@.#.#.#.#.#.#.#.*.*.*.*.*.-.-.1.1.4.-.-.-.4.6.6.-.-.6.4.6.6.6.t.t.t.t.t.t.s.s.d.s.d.d.g.d.d.g.g.g.f.d.B.k.k.k.V.V.k.k.k.k.k.k.H.A.A.H.H.D.V.Z.H.H.Z.Z.H.H.W.H.H.Z.U.W.W.W.Q.W.W.W.H.H.H.H.K.R.R.R.W./.!.W.~.!./.!.!.~.~./.!.!.!.!.~.~./.!.!.!.~.!.!.!./.~.~.~.~.W.W.W.W.W.W.R.K.R.H.H.Z.C.V.k.V.V.k.k.k.k.f.s.t.t.y.t.t.t.6.6.-.-.-.-.-.*.*.*.*.-.-.-.-.4.-.4.4.t.t.6.t.s.s.s.d.y.s.f.y.f.f.f.f.f.s.s.f.s.s.s.s.f.f.f.d.y.s.s.t.t.s.t.t.t.t.t.t.t.t.t.6.6.6.6.;.-.-.-.*.&.#.#.@.@. ._ / _ W a.a.a.a.a.a.a.a.a.a.a.a.a.a.a.",
"a.a.a.a.a.a.a.a.a.a.a.a.a.a.a.a.a.a.a.a.a.a.a.a.a.a.a.a.a.a.a.a.a.a.a.a.a.a.a.a.a.a.a.a.a.a.a.a.a.a.a.a.a.a.a.a.a.a.a.a.a.a.a.a.a.a.a.a.a.a.a.a.a.a.a.a.a.a.a.a.a.a.a.a.a.a.a.a.a.a.a.a.a.a.a.a.a.a.a.a.a.a.a.a.a.a.a.a.a.a.a.a.a.a.a.a.a.a.a.a.a.a.a.a.a.a.a.a.a.a.a.a.a.a.a.a.a.a.a.a.a.a.a.a.a.a.a.a.a.a.a.a.a.a.a.a.a.a.a.a.a.a.a.a.a.a.a.a.a.a.a.a.a.a.a.a.a.a.a.a.a.a.a.a.a.a.a.a.a.a.a.a.a.a.a.a.a.a.a.a.a.a.a.a.a.a.a.a.a.a.a.a.a.a.a.a.a.a.a.a.a.a.a.a.a.a.a.a.a.a.a.a.a.a.a.a.a.a.a.a.a.a.a.a.a.a.a.a.a.a.a.a.a.a.a.a.a.a.a.a.a.a.a.a.a.a.a.a.a.a.a.a.a.a.a.a.a.a.a.a.a.a., < 5 6 9 p s h k l m B B C C C S S F F G G U U U T T T T T T R E / ^ / / / / / / _ _ _ _ _ ` ` ` ` ` ` ` } } } }  . . .@.@.@.@.@.@.#.#.#.#.#.@.#.*.*.-.#.#.-.-.-.-.-.-.-.-.4.6.4.4.-.-.-.t.6.6.t.t.y.y.y.t.y.s.d.d.d.d.d.g.d.d.d.g.d.d.j.m.k.k.k.k.k.k.k.V.V.k.V.H.A.D.Z.V.V.Z.U.H.Z.V.D.U.Y.H.H.Y.W.W.W.W.Q.R.R.R.H.H.H.H.K.H.R.R.R.W.W.W.~.!./.!.!.!.!.!./.!.~./.!.!.~.!.~.!./.~.~.~./.W.~.!.~.~.W.W.W.R.H.H.H.U.H.H.H.D.V.V.V.V.V.k.k.k.d.d.y.t.t.t.t.t.e.6.4.-.-.-.-.-.*.*.*.*.-.-.-.-.-.-.6.6.;.t.t.y.y.s.s.y.y.f.f.f.f.f.f.s.f.f.s.s.s.s.y.f.f.f.s.y.y.s.t.t.s.t.y.t.t.t.t.t.t.t.6.t.6.6.;.-.-.-.-.&.#.#.@.@. .` / ^ / a.a.a.a.a.a.a.a.a.a.a.a.a.a.a.",
"a.a.a.a.a.a.a.a.a.a.a.a.a.a.a.a.a.a.a.a.a.a.a.a.a.a.a.a.a.a.a.a.a.a.a.a.a.a.a.a.a.a.a.a.a.a.a.a.a.a.a.a.a.a.a.a.a.a.a.a.a.a.a.a.a.a.a.a.a.a.a.a.a.a.a.a.a.a.a.a.a.a.a.a.a.a.a.a.a.a.a.a.a.a.a.a.a.a.a.a.a.a.a.a.a.a.a.a.a.a.a.a.a.a.a.a.a.a.a.a.a.a.a.a.a.a.a.a.a.a.a.a.a.a.a.a.a.a.a.a.a.a.a.a.a.a.a.a.a.a.a.a.a.a.a.a.a.a.a.a.a.a.a.a.a.a.a.a.a.a.a.a.a.a.a.a.a.a.a.a.a.a.a.a.a.a.a.a.a.a.a.a.a.a.a.a.a.a.a.a.a.a.a.a.a.a.a.a.a.a.a.a.a.a.a.a.a.a.a.a.a.a.a.a.a.a.a.a.a.a.a.a.a.a.a.a.a.a.a.a.a.a.a.a.a.a.a.a.a.a.a.a.a.a.a.a.a.a.a.a.a.a.a.a.a.a.a.a.a.a.a.a.a.a.a.a.a.a.a.a.a.a.4 , 5 8 9 t s s k l n B B B C C A S F F G G G G U U T T T T T T E ^ ^ / / ^ / / _ / / _ _ _ ` _ ` ` ` ` ` } } } }  . . . . . .@.@.@.#.#.#.#.#.#.#.#.*.-.-.-.-.-.-.-.-.4.-.-.-.4.-.4.4.-.4.6.6.6.t.t.t.y.y.t.y.s.d.d.d.d.d.g.s.d.s.f.f.f.k.k.k.k.k.h.k.V.V.k.k.k.k.D.V.V.V.V.k.V.H.D.D.H.Y.W.W.H.U.H.H.H.H.W.Y.R.U.R.H.H.H.H.R.H.K.H.R.W.~.~.~.Q.~.!.!.!.!.!.!.~.~.~./././.!.!.!./.~.~.~.!.~.~.!.~.~.W.W.W.K.H.H.H.U.U.H.H.Z.Z.Z.V.V.V.j.k.k.g.d.d.t.t.t.t.t.6.6.6.-.-.-.-.-.-.*.&.*.*.-.-.-.-.4.4.4.;.;.t.t.y.y.s.t.s.f.s.f.f.f.f.s.f.f.s.f.s.s.y.f.f.f.s.s.y.y.y.y.s.s.y.t.t.t.t.t.t.t.t.6.6.6.;.-.-.-.-.-.#.#.@.@.@.} / / _ K a.a.a.a.a.a.a.a.a.a.a.a.a.a.",
"a.a.a.a.a.a.a.a.a.a.a.a.a.a.a.a.a.a.a.a.a.a.a.a.a.a.a.a.a.a.a.a.a.a.a.a.a.a.a.a.a.a.a.a.a.a.a.a.a.a.a.a.a.a.a.a.a.a.a.a.a.a.a.a.a.a.a.a.a.a.a.a.a.a.a.a.a.a.a.a.a.a.a.a.a.a.a.a.a.a.a.a.a.a.a.a.a.a.a.a.a.a.a.a.a.a.a.a.a.a.a.a.a.a.a.a.a.a.a.a.a.a.a.a.a.a.a.a.a.a.a.a.a.a.a.a.a.a.a.a.a.a.a.a.a.a.a.a.a.a.a.a.a.a.a.a.a.a.a.a.a.a.a.a.a.a.a.a.a.a.a.a.a.a.a.a.a.a.a.a.a.a.a.a.a.a.a.a.a.a.a.a.a.a.a.a.a.a.a.a.a.a.a.a.a.a.a.a.a.a.a.a.a.a.a.a.a.a.a.a.a.a.a.a.a.a.a.a.a.a.a.a.a.a.a.a.a.a.a.a.a.a.a.a.a.a.a.a.a.a.a.a.a.a.a.a.a.a.a.a.a.a.a.a.a.a.a.a.a.a.a.a.a.a.a.a.a.a.a.a.a.a.r , 3 6 8 t s h d d l B B C C C S A F F F G G G U U T T T T T T E ^ E / / / / / / / / / _ _ ` ` ` ` ` ` } } } } }  . . . . . . .@.@.#.#.@.@.#.#.#.*.*.-.-.-.-.-.-.-.-.4.-.-.4.4.-.-.-.-.6.6.t.6.t.t.y.t.t.t.y.s.d.d.d.d.d.d.d.d.d.f.d.f.g.k.g.k.k.k.k.k.k.V.H.V.k.D.V.V.V.V.Z.V.V.V.V.V.D.Y.H.Z.H.H.U.U.U.U.W.U.R.R.K.K.R.W.W.W.R.K.K.W.W.~.~.~.!.!.!.!.!./.W.W.!././.!.~.!././.!.!.~.~./.~.~.~.~.W.W.W.W.R.R.W.W.Q.W.H.V.Z.D.D.V.V.V.j.j.V.k.d.h.f.y.t.y.t.6.t.6.-.-.-.-.-.-.-.&.&.*.*.-.-.-.-.-.6.t.t.t.t.t.y.y.y.s.f.t.f.f.f.f.f.s.y.f.s.s.s.y.f.f.d.s.s.t.t.s.s.y.y.t.t.t.y.t.t.t.t.t.t.6.6.;.-.-.-.w.-.&.#.&.&.@.} / ` / W a.a.a.a.a.a.a.a.a.a.a.a.a.a.",
"a.a.a.a.a.a.a.a.a.a.a.a.a.a.a.a.a.a.a.a.a.a.a.a.a.a.a.a.a.a.a.a.a.a.a.a.a.a.a.a.a.a.a.a.a.a.a.a.a.a.a.a.a.a.a.a.a.a.a.a.a.a.a.a.a.a.a.a.a.a.a.a.a.a.a.a.a.a.a.a.a.a.a.a.a.a.a.a.a.a.a.a.a.a.a.a.a.a.a.a.a.a.a.a.a.a.a.a.a.a.a.a.a.a.a.a.a.a.a.a.a.a.a.a.a.a.a.a.a.a.a.a.a.a.a.a.a.a.a.a.a.a.a.a.a.a.a.a.a.a.a.a.a.a.a.a.a.a.a.a.a.a.a.a.a.a.a.a.a.a.a.a.a.a.a.a.a.a.a.a.a.a.a.a.a.a.a.a.a.a.a.a.a.a.a.a.a.a.a.a.a.a.a.a.a.a.a.a.a.a.a.a.a.a.a.a.a.a.a.a.a.a.a.a.a.a.a.a.a.a.a.a.a.a.a.a.a.a.a.a.a.a.a.a.a.a.a.a.a.a.a.a.a.a.a.a.a.a.a.a.a.a.a.a.a.a.a.a.a.a.a.a.a.a.a.a.a.a.a.a.a.a.a.> < 6 8 9 p s s j l m B C B B S S S F F F G G G U T R T T T R E E E / / / / / / / _ _ _ _ ` ` ` ` ` } ` ` ` } } }  . . . .@.@.@.@.@.#.#.@.#.#.#.#.#.#.*.-.-.1.-.-.-.4.-.-.6.4.-.4.6.4.6.6.6.-.t.s.t.t.t.t.y.s.d.d.d.d.d.d.d.d.d.f.f.f.g.g.d.k.V.k.k.k.k.V.V.V.V.H.H.D.Z.D.V.k.V.V.V.Z.H.Y.W.H.U.H.U.R.H.W.H.U.R.R.R.R.R.R.W.W.W.W.W.W.~.W.~.!.!.!./././.!././././././.!././.!.!.~.!./.!./.!.!./.~.!.W.W.W.W.W.W.W.W.H.U.H.H.D.H.H.V.V.k.k.j.g.k.d.f.s.y.t.t.6.6.4.-.-.*.-.-.-.*.*.*.*.*.-.-.-.-.6.t.t.t.t.t.y.s.y.t.s.s.f.s.y.f.f.s.f.f.f.f.s.s.f.s.s.y.s.y.t.y.y.f.t.t.y.t.t.t.t.t.t.t.t.t.6.6.;.-.-.-.-.-.&.&.&.@.} ` _ _ ] a.a.a.a.a.a.a.a.a.a.a.a.a.a.",
"a.a.a.a.a.a.a.a.a.a.a.a.a.a.a.a.a.a.a.a.a.a.a.a.a.a.a.a.a.a.a.a.a.a.a.a.a.a.a.a.a.a.a.a.a.a.a.a.a.a.a.a.a.a.a.a.a.a.a.a.a.a.a.a.a.a.a.a.a.a.a.a.a.a.a.a.a.a.a.a.a.a.a.a.a.a.a.a.a.a.a.a.a.a.a.a.a.a.a.a.a.a.a.a.a.a.a.a.a.a.a.a.a.a.a.a.a.a.a.a.a.a.a.a.a.a.a.a.a.a.a.a.a.a.a.a.a.a.a.a.a.a.a.a.a.a.a.a.a.a.a.a.a.a.a.a.a.a.a.a.a.a.a.a.a.a.a.a.a.a.a.a.a.a.a.a.a.a.a.a.a.a.a.a.a.a.a.a.a.a.a.a.a.a.a.a.a.a.a.a.a.a.a.a.a.a.a.a.a.a.a.a.a.a.a.a.a.a.a.a.a.a.a.a.a.a.a.a.a.a.a.a.a.a.a.a.a.a.a.a.a.a.a.a.a.a.a.a.a.a.a.a.a.a.a.a.a.a.a.a.a.a.a.a.a.a.a.a.a.a.a.a.a.a.a.a.a.a.a.a.a.a.a.4 3 5 8 9 p s s d l m m B N C Z A A S F F F F G U U T U T T R R E ^ ^ ^ ^ / / / / / / _ _ _ ` ` ` ` ` ` ` ` } ` }  . . . .@.@.@.@.@.@.#.#.#.#.-.-.#.#.#.-.-.-.1.4.4.4.-.-.-.-.-.-.4.4.t.t.4.4.y.t.t.t.y.s.d.t.s.g.d.d.d.d.d.d.d.f.f.f.g.k.k.k.k.k.k.k.k.k.V.V.Z.A.V.V.V.V.V.V.V.Z.V.Z.H.D.H.Z.H.U.U.W.H.H.R.W.W.U.U.Y.W.Q.~.Q.W.R.W.W.~.~.~.!.!.!.~.~.!././././.!.!././.~.!.~.!./.!.!./.~.!.~.~.~.~.W.W.W.W.W.W.R.W.W.W.H.H.D.D.Z.H.V.V.k.j.j.d.d.f.y.t.t.t.6.6.-.-.-.-.-.-.-.-.-.&.&.&.-.-.-.-.-.;.t.t.t.y.t.s.y.t.t.f.f.y.s.f.f.f.f.s.f.f.s.s.f.f.s.y.s.s.s.u.y.s.t.t.t.t.t.t.t.t.t.t.t.t.6.6.-.-.;.-.-.-.*.&.&.@. .] ` ] E Z a.a.a.a.a.a.a.a.a.a.a.a.a.",
"a.a.a.a.a.a.a.a.a.a.a.a.a.a.a.a.a.a.a.a.a.a.a.a.a.a.a.a.a.a.a.a.a.a.a.a.a.a.a.a.a.a.a.a.a.a.a.a.a.a.a.a.a.a.a.a.a.a.a.a.a.a.a.a.a.a.a.a.a.a.a.a.a.a.a.a.a.a.a.a.a.a.a.a.a.a.a.a.a.a.a.a.a.a.a.a.a.a.a.a.a.a.a.a.a.a.a.a.a.a.a.a.a.a.a.a.a.a.a.a.a.a.a.a.a.a.a.a.a.a.a.a.a.a.a.a.a.a.a.a.a.a.a.a.a.a.a.a.a.a.a.a.a.a.a.a.a.a.a.a.a.a.a.a.a.a.a.a.a.a.a.a.a.a.a.a.a.a.a.a.a.a.a.a.a.a.a.a.a.a.a.a.a.a.a.a.a.a.a.a.a.a.a.a.a.a.a.a.a.a.a.a.a.a.a.a.a.a.a.a.a.a.a.a.a.a.a.a.a.a.a.a.a.a.a.a.a.a.a.a.a.a.a.a.a.a.a.a.a.a.a.a.a.a.a.a.a.a.a.a.a.a.a.a.a.a.a.a.a.a.a.a.a.a.a.a.a.a.a.a.a.a.a.4 , 3 5 9 9 s s d k l n B B C C C A S F F F F G G G U U T T T T T E E ^ ^ / / / / / / _ _ _ _ _ _ ` ` ` ` ` } } }  . . . .@.@.@.@.@.@.@.@.#.#.#.#.#.#.*.*.-.-.-.-.-.6.-.-.-.-.6.-.4.6.t.6.-.4.t.t.t.t.t.t.t.y.d.d.d.d.d.d.d.d.d.k.d.d.g.k.k.k.k.f.g.k.k.k.k.V.V.V.V.V.V.V.V.V.V.H.Z.H.H.H.H.V.Z.H.U.Y.H.U.W.W.U.U.U.W.W.!.!.~.~.~.W.W.W.~./.~.!.~.~.~.!.!.~.!.!.!.!.!.!.~.~.~./.~.~.~.~.~.!.~.~.~.W.W.W.W.W.W.R.W.W.W.W.H.H.D.D.H.H.V.V.V.j.j.d.d.d.f.y.t.t.t.4.-.-.-.-.-.-.-.-.&.&.&.&.-.-.*.-.-.-.;.t.t.t.t.t.s.y.s.f.f.y.s.f.y.f.f.f.f.f.s.s.f.f.f.f.s.s.s.t.y.y.y.y.t.t.t.t.t.y.t.t.t.t.t.6.;.-.-.-.-.-.-.&.&.#. .} } ` / W a.a.a.a.a.a.a.a.a.a.a.a.a.",
"a.a.a.a.a.a.a.a.a.a.a.a.a.a.a.a.a.a.a.a.a.a.a.a.a.a.a.a.a.a.a.a.a.a.a.a.a.a.a.a.a.a.a.a.a.a.a.a.a.a.a.a.a.a.a.a.a.a.a.a.a.a.a.a.a.a.a.a.a.a.a.a.a.a.a.a.a.a.a.a.a.a.a.a.a.a.a.a.a.a.a.a.a.a.a.a.a.a.a.a.a.a.a.a.a.a.a.a.a.a.a.a.a.a.a.a.a.a.a.a.a.a.a.a.a.a.a.a.a.a.a.a.a.a.a.a.a.a.a.a.a.a.a.a.a.a.a.a.a.a.a.a.a.a.a.a.a.a.a.a.a.a.a.a.a.a.a.a.a.a.a.a.a.a.a.a.a.a.a.a.a.a.a.a.a.a.a.a.a.a.a.a.a.a.a.a.a.a.a.a.a.a.a.a.a.a.a.a.a.a.a.a.a.a.a.a.a.a.a.a.a.a.a.a.a.a.a.a.a.a.a.a.a.a.a.a.a.a.a.a.a.a.a.a.a.a.a.a.a.a.a.a.a.a.a.a.a.a.a.a.a.a.a.a.a.a.a.a.a.a.a.a.a.a.a.a.a.a.a.a.a.a.a.r , 5 6 9 9 9 s s d k l B C B C C A A F F F F F F G G U T T T T T T E ^ ^ ^ / ^ / / / / _ _ ` _ _ ` ` } ` ` } }  . .} }  . .@.@.#.@.@.@.@.#.#.#.#.#.*.#.#.*.*.-.-.-.-.-.-.-.-.4.-.4.6.6.6.-.-.t.t.t.t.t.t.t.t.d.d.d.s.d.d.d.d.g.g.g.d.g.k.j.j.k.k.f.k.k.k.k.k.k.V.D.D.V.Z.Z.V.k.Z.H.H.Z.D.H.H.H.W.U.R.H.H.H.U.U.W.W.W.U.W.W.W.W.W.W.W.!././.!.!.!.!.~.W.W.~./.(.!.!.~.~.~.~.~.!.!././.~./.!.!./.~.~.~.W.W.W.Y.W.!.Q.R.H.H.H.Z.D.H.H.A.V.V.j.j.d.d.g.f.y.y.y.t.4.6.-.-.-.-.-.&.-.&.&.&.&.&.*.-.-.-.-.-.6.t.t.t.t.y.t.y.y.f.f.s.f.t.f.f.s.s.f.s.s.f.f.f.f.y.s.s.t.y.t.t.t.t.t.t.t.y.s.s.t.t.t.6.t.;.;.;.-.-.-.-.*.&.#.@.} }  ./ / a.a.a.a.a.a.a.a.a.a.a.a.a.",
"a.a.a.a.a.a.a.a.a.a.a.a.a.a.a.a.a.a.a.a.a.a.a.a.a.a.a.a.a.a.a.a.a.a.a.a.a.a.a.a.a.a.a.a.a.a.a.a.a.a.a.a.a.a.a.a.a.a.a.a.a.a.a.a.a.a.a.a.a.a.a.a.a.a.a.a.a.a.a.a.a.a.a.a.a.a.a.a.a.a.a.a.a.a.a.a.a.a.a.a.a.a.a.a.a.a.a.a.a.a.a.a.a.a.a.a.a.a.a.a.a.a.a.a.a.a.a.a.a.a.a.a.a.a.a.a.a.a.a.a.a.a.a.a.a.a.a.a.a.a.a.a.a.a.a.a.a.a.a.a.a.a.a.a.a.a.a.a.a.a.a.a.a.a.a.a.a.a.a.a.a.a.a.a.a.a.a.a.a.a.a.a.a.a.a.a.a.a.a.a.a.a.a.a.a.a.a.a.a.a.a.a.a.a.a.a.a.a.a.a.a.a.a.a.a.a.a.a.a.a.a.a.a.a.a.a.a.a.a.a.a.a.a.a.a.a.a.a.a.a.a.a.a.a.a.a.a.a.a.a.a.a.a.a.a.a.a.a.a.a.a.a.a.a.a.a.a.a.a.a.a.a.a.a., < 5 8 8 9 p s d l l m m B C C C S A F F F F F G G U U U T T T T T T T E E ^ / / / / / _ _ _ ` ` ` } } } } } } } } }  . . .@.@.@.@.@.@.#.#.#.#.#.#.#.#.#.*.*.-.-.1.1.-.-.-.6.-.-.4.t.6.t.6.t.6.t.w.t.t.t.t.y.s.d.d.d.d.d.d.d.g.d.g.g.g.k.k.k.f.y.k.k.k.j.j.k.k.V.V.V.H.U.Z.Z.Z.H.H.U.U.W.W.U.H.R.H.H.K.K.W.R.R.R.W.R.R.H.W.W.R.W.W.W.!./.!.!./.!.~.~.~.!././.(.^.!.!.~.!.!.(.^.^.!.^.^.!.!.!.!.!.~.W.W.W.W.W.Y.W.W.W.U.H.R.H.H.H.H.H.V.V.j.k.k.k.f.f.f.t.t.t.t.-.;.-.-.-.-.-.-.&.#.#.#.&.&.&.-.6.4.6.6.t.6.t.t.t.y.s.t.t.s.s.f.f.f.f.f.d.g.f.f.f.f.s.f.f.f.f.s.y.y.s.y.t.t.t.t.t.t.t.t.t.t.t.6.6.;.;.-.-.-.-.&.#.@.@.} } _ / W a.a.a.a.a.a.a.a.a.a.a.a.",
"a.a.a.a.a.a.a.a.a.a.a.a.a.a.a.a.a.a.a.a.a.a.a.a.a.a.a.a.a.a.a.a.a.a.a.a.a.a.a.a.a.a.a.a.a.a.a.a.a.a.a.a.a.a.a.a.a.a.a.a.a.a.a.a.a.a.a.a.a.a.a.a.a.a.a.a.a.a.a.a.a.a.a.a.a.a.a.a.a.a.a.a.a.a.a.a.a.a.a.a.a.a.a.a.a.a.a.a.a.a.a.a.a.a.a.a.a.a.a.a.a.a.a.a.a.a.a.a.a.a.a.a.a.a.a.a.a.a.a.a.a.a.a.a.a.a.a.a.a.a.a.a.a.a.a.a.a.a.a.a.a.a.a.a.a.a.a.a.a.a.a.a.a.a.a.a.a.a.a.a.a.a.a.a.a.a.a.a.a.a.a.a.a.a.a.a.a.a.a.a.a.a.a.a.a.a.a.a.a.a.a.a.a.a.a.a.a.a.a.a.a.a.a.a.a.a.a.a.a.a.a.a.a.a.a.a.a.a.a.a.a.a.a.a.a.a.a.a.a.a.a.a.a.a.a.a.a.a.a.a.a.a.a.a.a.a.a.a.a.a.a.a.a.a.a.a.a.a.a.a.a.a.a.a.> , 5 6 8 t p s d d l n B B B C C Z S S F F F F F G U U U T T T T T T T T ^ ^ / / / / / / _ _ _ ` ` ` } } } } } } } }  . . .@.@.@.@.@.@.#.#.#.#.#.#.#.#.#.#.-.4.1.1.-.*.-.*.6.6.-.-.-.-.4.t.t.-.t.;.t.t.t.t.y.s.s.s.d.d.d.g.g.g.d.j.g.g.j.k.k.f.f.k.k.k.k.k.k.k.k.k.V.H.U.V.V.H.H.H.D.U.W.H.K.H.C.C.K.R.H.H.H.K.R.R.K.H.W.W.R.W.W.W.~.W.!.~.!.!.!.!.~.!./././.^.!.!.^.!.^.!.^.^.^.^.!.^.^.!.!.!.!.!.!.Q.Q.Q.Q.W.W.W.W.W.H.U.H.C.V.V.Z.V.V.j.g.j.k.k.f.f.y.t.t.t.;.;.-.*.*.*.-.*.&.&.&.&.&.&.&.-.-.-.6.-.6.e.t.t.t.t.y.y.y.y.f.f.f.f.f.f.d.g.d.f.f.f.s.f.s.s.s.d.y.y.s.s.y.t.t.t.t.t.e.e.e.t.t.6.6.;.-.-.-.-.-.&.#.#.@.+.} ` / W a.a.a.a.a.a.a.a.a.a.a.a.",
"a.a.a.a.a.a.a.a.a.a.a.a.a.a.a.a.a.a.a.a.a.a.a.a.a.a.a.a.a.a.a.a.a.a.a.a.a.a.a.a.a.a.a.a.a.a.a.a.a.a.a.a.a.a.a.a.a.a.a.a.a.a.a.a.a.a.a.a.a.a.a.a.a.a.a.a.a.a.a.a.a.a.a.a.a.a.a.a.a.a.a.a.a.a.a.a.a.a.a.a.a.a.a.a.a.a.a.a.a.a.a.a.a.a.a.a.a.a.a.a.a.a.a.a.a.a.a.a.a.a.a.a.a.a.a.a.a.a.a.a.a.a.a.a.a.a.a.a.a.a.a.a.a.a.a.a.a.a.a.a.a.a.a.a.a.a.a.a.a.a.a.a.a.a.a.a.a.a.a.a.a.a.a.a.a.a.a.a.a.a.a.a.a.a.a.a.a.a.a.a.a.a.a.a.a.a.a.a.a.a.a.a.a.a.a.a.a.a.a.a.a.a.a.a.a.a.a.a.a.a.a.a.a.a.a.a.a.a.a.a.a.a.a.a.a.a.a.a.a.a.a.a.a.a.a.a.a.a.a.a.a.a.a.a.a.a.a.a.a.a.a.a.a.a.a.a.a.a.a.a.a.a.a.a.6 , 3 5 8 9 t p s d l l m B B B B C Z S S F F F F G G G U U T T T T T T T T ^ / / / / / / / _ _ _ _ ` ` ` } } ` ` }  . . . .@.@.@.@.@.@.#.#.#.#.#.#.#.#.#.#.-.1.1.4.4.-.-.#.-.-.-.6.6.6.6.6.t.-.t.;.t.t.t.y.s.g.s.y.s.d.d.d.d.k.f.k.k.g.f.k.k.d.k.k.k.k.k.k.k.k.k.k.k.V.H.Z.V.V.H.H.H.U.U.U.H.H.V.C.H.H.H.H.C.K.K.R.K.R.W.R.W.W.W.~.~.~.!.~.!.~.!.!.!.!././.!.^.!.!.^.!.^.!.^.^.^.(.!.^./.!.!.^.!.Q.!.Q.Q.Q.Q.W.W.W.W.Q.Y.W.H.V.V.V.H.Z.V.j.j.j.V.g.g.d.f.y.t.t.e.e.-.-.-.*.*.*.&.&.&.&.&.&.&.-.-.-.4.-.;.e.e.t.t.t.t.t.t.y.y.f.f.f.f.f.d.g.d.f.s.s.s.y.t.y.y.s.t.t.s.s.y.y.t.t.t.t.t.e.t.e.e.t.t.6.6.6.;.-.-.-.&.#.@. .} ` _ / V a.a.a.a.a.a.a.a.a.a.a.",
"a.a.a.a.a.a.a.a.a.a.a.a.a.a.a.a.a.a.a.a.a.a.a.a.a.a.a.a.a.a.a.a.a.a.a.a.a.a.a.a.a.a.a.a.a.a.a.a.a.a.a.a.a.a.a.a.a.a.a.a.a.a.a.a.a.a.a.a.a.a.a.a.a.a.a.a.a.a.a.a.a.a.a.a.a.a.a.a.a.a.a.a.a.a.a.a.a.a.a.a.a.a.a.a.a.a.a.a.a.a.a.a.a.a.a.a.a.a.a.a.a.a.a.a.a.a.a.a.a.a.a.a.a.a.a.a.a.a.a.a.a.a.a.a.a.a.a.a.a.a.a.a.a.a.a.a.a.a.a.a.a.a.a.a.a.a.a.a.a.a.a.a.a.a.a.a.a.a.a.a.a.a.a.a.a.a.a.a.a.a.a.a.a.a.a.a.a.a.a.a.a.a.a.a.a.a.a.a.a.a.a.a.a.a.a.a.a.a.a.a.a.a.a.a.a.a.a.a.a.a.a.a.a.a.a.a.a.a.a.a.a.a.a.a.a.a.a.a.a.a.a.a.a.a.a.a.a.a.a.a.a.a.a.a.a.a.a.a.a.a.a.a.a.a.a.a.a.a.a.a.a.a.a.a.a., 3 5 8 9 t p s d d l n B B B B C Z S S S F F F F G G U U U U T T T T T T E ^ / / / / / / _ _ _ _ ` ` ` } } } ` }  . . . .} } @.@.@.@.#.#.#.#.#.#.#.#.#.#.-.-.-.1.4.-.-.&.-.4.-.6.t.6.6.6.t.-.t.e.t.t.t.t.y.s.d.d.d.d.d.d.d.d.f.g.g.g.k.k.k.k.j.k.d.k.k.k.k.k.k.k.k.k.Z.H.V.V.V.Z.D.D.H.H.C.Z.C.C.Z.R.R.W.R.H.K.K.K.K.R.H.W.W.~.~.~.!./.W.~.~.!.!./.!.~.~.~.(.^.!.!.^./.!././.^.^./.^.^.!.!.^.!.Q.!.!.!.!.!.W.W.W.W.W.W.W.W.H.H.C.H.H.V.j.k.k.j.k.g.g.f.y.t.y.t.t.4.-.-.-.-.-.&.&.&.&.&.&.&.-.-.-.-.-.6.e.e.t.t.t.t.t.t.t.t.f.f.f.f.f.d.k.f.f.s.y.y.y.t.y.y.s.y.t.s.s.s.y.s.t.t.t.t.t.t.e.e.t.t.6.6.6.;.-.-.-.&.&.@.@. .} _ _ ) a.a.a.a.a.a.a.a.a.a.a.",
"a.a.a.a.a.a.a.a.a.a.a.a.a.a.a.a.a.a.a.a.a.a.a.a.a.a.a.a.a.a.a.a.a.a.a.a.a.a.a.a.a.a.a.a.a.a.a.a.a.a.a.a.a.a.a.a.a.a.a.a.a.a.a.a.a.a.a.a.a.a.a.a.a.a.a.a.a.a.a.a.a.a.a.a.a.a.a.a.a.a.a.a.a.a.a.a.a.a.a.a.a.a.a.a.a.a.a.a.a.a.a.a.a.a.a.a.a.a.a.a.a.a.a.a.a.a.a.a.a.a.a.a.a.a.a.a.a.a.a.a.a.a.a.a.a.a.a.a.a.a.a.a.a.a.a.a.a.a.a.a.a.a.a.a.a.a.a.a.a.a.a.a.a.a.a.a.a.a.a.a.a.a.a.a.a.a.a.a.a.a.a.a.a.a.a.a.a.a.a.a.a.a.a.a.a.a.a.a.a.a.a.a.a.a.a.a.a.a.a.a.a.a.a.a.a.a.a.a.a.a.a.a.a.a.a.a.a.a.a.a.a.a.a.a.a.a.a.a.a.a.a.a.a.a.a.a.a.a.a.a.a.a.a.a.a.a.a.a.a.a.a.a.a.a.a.a.a.a.a.a.a.a.a.a.a., , 5 6 9 t p s d k l l B B B B C C Z S S F F F F G G G G U U U T T T T E E ^ ^ / / / / / / _ _ _ _ ` ` } } } } } } } }  . .@. . .@.@.@.@.@.#.-.#.#.#.#.#.-.1.-.-.-.-.-.-.-.6.4.-.6.6.t.t.4.e.e.t.y.t.t.y.y.y.d.d.d.d.d.d.d.f.s.f.d.g.k.k.k.k.k.k.k.k.V.B.k.k.k.h.k.k.H.H.V.V.V.Z.D.D.H.R.K.H.H.H.C.K.K.H.C.C.H.R.R.K.K.R.R.W.W.W.W.W.W.W.~.W.~.~.~.!.~.!./.!.^.^.!.!.!.!./.!.!.!.^.^.!.!.!.^.!.~.!.!.!.Q.!.Y.Q.Q.W.W.W.W.U.H.H.C.Z.H.A.A.k.j.k.k.d.f.d.s.t.t.t.t.-.-.-.-.-.-.&.&.&.#.&.&.&.&.-.-.-.-.-.-.e.e.t.t.t.t.t.t.y.f.f.f.f.f.d.g.f.f.f.s.s.s.f.s.y.s.s.s.s.y.y.t.t.t.t.t.t.t.t.e.e.t.t.6.6.6.-.-.-.*.&.&.@.@.@.} _ / / a.a.a.a.a.a.a.a.a.a.a.",
"a.a.a.a.a.a.a.a.a.a.a.a.a.a.a.a.a.a.a.a.a.a.a.a.a.a.a.a.a.a.a.a.a.a.a.a.a.a.a.a.a.a.a.a.a.a.a.a.a.a.a.a.a.a.a.a.a.a.a.a.a.a.a.a.a.a.a.a.a.a.a.a.a.a.a.a.a.a.a.a.a.a.a.a.a.a.a.a.a.a.a.a.a.a.a.a.a.a.a.a.a.a.a.a.a.a.a.a.a.a.a.a.a.a.a.a.a.a.a.a.a.a.a.a.a.a.a.a.a.a.a.a.a.a.a.a.a.a.a.a.a.a.a.a.a.a.a.a.a.a.a.a.a.a.a.a.a.a.a.a.a.a.a.a.a.a.a.a.a.a.a.a.a.a.a.a.a.a.a.a.a.a.a.a.a.a.a.a.a.a.a.a.a.a.a.a.a.a.a.a.a.a.a.a.a.a.a.a.a.a.a.a.a.a.a.a.a.a.a.a.a.a.a.a.a.a.a.a.a.a.a.a.a.a.a.a.a.a.a.a.a.a.a.a.a.a.a.a.a.a.a.a.a.a.a.a.a.a.a.a.a.a.a.a.a.a.a.a.a.a.a.a.a.a.a.a.a.a.a.a.a.a.a.a.a., , 3 5 8 9 9 p d d l l n B B B C C C A S S F F F F F G G U U U U T T T T E ^ E ^ / / / / / _ _ _ _ ` ` } } } } } } }  . . .@. . .@.@.@.@.@.#.#.#.#.#.*.#.#.*.-.1.-.-.-.*.-.4.-.-.4.-.6.t.6.t.t.t.t.t.y.t.t.y.d.d.d.d.d.d.y.y.y.f.f.f.d.d.d.k.k.k.k.k.k.k.k.k.k.k.k.k.V.Z.Z.Z.V.Z.V.H.K.C.C.C.H.H.C.H.H.H.C.H.K.K.R.K.K.R.W.W.W.W.W.W.W.W.!././.!.!.~.~.~.!.!.Q.!.^./.(.^.^.!.!.^.^.!.^.^.!.^.!.!.!.Q.W.W.W.W.W.W.Q.Y.W.W.W.R.H.C.Z.H.A.A.A.A.V.g.d.g.d.f.t.t.t.t.;.4.4.1.1.-.&.&.&.&.#.#.&.-.-.*.-.-.-.-.e.e.e.t.t.t.t.t.t.s.s.t.y.f.d.d.f.f.y.s.f.f.f.s.s.s.s.s.s.s.t.t.t.t.t.t.t.t.t.t.e.6.t.t.6.6.;.;.-.-.&.&.&.@.@. .} _ W a.a.a.a.a.a.a.a.a.a.a."
};
