/* XPM */
static char *c5a5a6e770eb45afd346e43b9b2d2b1eRBJrvScYeliXybf3[] = {
/* columns rows colors chars-per-pixel */
"600 509 194 2 ",
"   c #020403",
".  c #030806",
"X  c #030708",
"o  c #040B0B",
"O  c #090D0D",
"+  c #080A07",
"@  c #07100F",
"#  c #0B100F",
"$  c #10120F",
"%  c #060F11",
"&  c #090E11",
"*  c #061011",
"=  c #0B1314",
"-  c #0F1817",
";  c #0E1719",
":  c #0E191A",
">  c #111616",
",  c #111619",
"<  c #131B1C",
"1  c #191D1D",
"2  c #17201F",
"3  c #1A211E",
"4  c #161E20",
"5  c #191D21",
"6  c #162122",
"7  c #1A2325",
"8  c #1E2827",
"9  c #1D2629",
"0  c #1E292B",
"q  c #1E2C31",
"w  c #1F3234",
"e  c #222626",
"r  c #252826",
"t  c #232629",
"y  c #212C2D",
"u  c #2B2D2E",
"i  c #26302F",
"p  c #2C302F",
"a  c #232E31",
"s  c #2C2F32",
"d  c #253234",
"f  c #293436",
"g  c #243837",
"h  c #2C3837",
"j  c #273538",
"k  c #2A3639",
"l  c #26393A",
"z  c #2C3A3C",
"x  c #313334",
"c  c #323639",
"v  c #313C3E",
"b  c #3A3D3D",
"n  c #31403F",
"m  c #2E3D41",
"M  c #313E42",
"N  c #393D40",
"B  c #2E4143",
"V  c #344245",
"C  c #394446",
"Z  c #364549",
"A  c #39474A",
"S  c #37494C",
"D  c #3B4A4D",
"F  c #3D4D51",
"G  c #3E5154",
"H  c #3E5558",
"J  c #414C4E",
"K  c #454B4C",
"L  c #40504F",
"P  c #414F52",
"I  c #494E51",
"U  c #425255",
"Y  c #495456",
"T  c #44555A",
"R  c #49575A",
"E  c #46595D",
"W  c #4A5B5D",
"Q  c #485857",
"!  c #515D5E",
"~  c #4D605F",
"^  c #50605F",
"/  c #475A61",
"(  c #4B5D63",
")  c #4C5F68",
"_  c #505F62",
"`  c #4D6165",
"'  c #4E6369",
"]  c #4D686C",
"[  c #526366",
"{  c #596667",
"}  c #536867",
"|  c #52656B",
" . c #58676A",
".. c #54696E",
"X. c #5A6B6E",
"o. c #5F6867",
"O. c #59716F",
"+. c #4F6C70",
"@. c #536770",
"#. c #566C72",
"$. c #596E74",
"%. c #566E78",
"&. c #5B6F79",
"*. c #577076",
"=. c #5B7176",
"-. c #567279",
";. c #5D747A",
":. c #5E787E",
">. c #5E7877",
",. c #616E6F",
"<. c #60706F",
"1. c #606F72",
"2. c #617375",
"3. c #687575",
"4. c #637876",
"5. c #61767C",
"6. c #697779",
"7. c #62797E",
"8. c #6A7C7C",
"9. c #727C7C",
"0. c #65807F",
"q. c #6A807E",
"w. c #70807F",
"e. c #5E7780",
"r. c #5F7A81",
"t. c #627780",
"y. c #637D83",
"u. c #697E84",
"i. c #647F88",
"p. c #727F82",
"a. c #FE00DF",
"s. c #FF00E2",
"d. c #658086",
"f. c #698186",
"g. c #668289",
"h. c #6A858B",
"j. c #66888B",
"k. c #6D898D",
"l. c #6C888E",
"z. c #6E8885",
"x. c #728384",
"c. c #798587",
"v. c #70878D",
"b. c #71878C",
"n. c #7B8688",
"m. c #71898E",
"M. c #71898E",
"N. c #7A8C8D",
"B. c #7C918F",
"V. c #6C8790",
"C. c #6D8A91",
"Z. c #6F8D92",
"A. c #6E8B91",
"S. c #728B90",
"D. c #718D90",
"F. c #728F93",
"G. c #728D91",
"H. c #758E92",
"J. c #738D93",
"K. c #788F95",
"L. c #748F98",
"P. c #6E9194",
"I. c #749093",
"U. c #739194",
"Y. c #759194",
"T. c #769295",
"R. c #759196",
"E. c #799196",
"W. c #75939A",
"Q. c #7A9699",
"!. c #7B959B",
"~. c #76989C",
"^. c #7D999E",
"/. c #7C96A1",
"(. c #7E9AA1",
"). c #7EA0A2",
"_. c #808C8C",
"`. c #82918E",
"'. c #808E91",
"]. c #839192",
"[. c #80979C",
"{. c #81999E",
"}. c #829CA2",
"|. c #889FA4",
" X c #84A0A5",
".X c #89A2A6",
"XX c #86A2A8",
"oX c #8CA5AA",
"OX c #8DA9AC",
"+X c #91A9AE",
"@X c #8DABB1",
"#X c #92ADB2",
"$X c #95B2B5",
"%X c #9AB8BA",
/* pixels */
"s.s.s.s.s.s.s.s.s.s.s.s.s.s.s.s.s.s.s.s.s.s.s.s.s.s.s.s.s.s.s.s.s.s.s.s.s.s.s.s.s.s.s.s.s.s.s.s.s.s.s.s.s.s.s.s.s.s.s.s.s.s.s.s.s.s.s.s.s.s.s.s.s.s.s.s.s.s.s.s.s.s.s.s.s.s.s.s.s.s.s.s.s.s.s.s.s.s.s.s.s.s.s.s.s.s.s.s.s.s.s.s.s.s.s.s.s.s.s.s.s.s.s.s.s.s.s.s.s.s.s.s.s.s.s.s.s.s.s.s.s.s.s.s.s.s.s.s.s.s.s.s.s.s.s.s.s.s.s.s.s.s.s.s.s.s.s.s.s.s.s.s.s.s.s.s.s.s.s.s.s.s.s.s.s.s.s.s.s.s.s.s.s.s.s.s.s.s.s.s.s.s.s.s.s.s.s.s.s.s.s.s.s.s.s.s.s.s.s.s.s.s.s.s.s.s.s.s.s.s.s.s.s.s.s.s.s.s.s.s.s.s.s.s.s.s.s.s.s.s.s.s.s.s.s.s.s.s.s.s.s.s.s.s.s.s.s.s.s.s.s.s.s.s.s.s.s.s.s.s.s.s.s.s.s.s.s.s.s.s.s.s.s.s.s.s.s.s.s.s.s.s.s.s.s.s.s.s.s.s.s.s.s.s.s.s.s.s.s.s.s.s.s.s.s.s.s.s.s.s.s.s.s.s.s.s.s.s.s.s.s.s.s.s.s.s.s.s.s.s.s.s.s.s.s.s.s.s.s.s.s.s.s.s.s.s.s.s.s.s.s.s.s.s.s.s.s.s.s.s.s.s.s.s.s.s.s.s.s.s.s.s.s.s.s.s.s.s.s.s.s.s.s.s.s.s.s.s.s.s.s.s.s.s.s.s.s.s.s.s.s.s.s.s.s.s.s.s.s.s.s.s.s.s.s.s.s.s.s.s.s.s.s.s.s.s.s.s.s.s.s.s.s.s.s.s.s.s.s.s.s.s.s.s.s.s.s.s.s.s.s.s.s.s.s.s.s.s.s.s.s.s.s.s.s.s.s.s.s.s.s.s.s.s.s.s.s.s.s.s.s.s.s.s.s.s.s.s.s.s.s.s.s.s.s.s.s.s.s.s.s.s.s.s.s.s.s.s.s.s.s.s.s.s.s.s.s.s.s.s.s.s.s.s.s.s.s.s.s.s.s.s.s.s.s.s.s.s.s.s.s.s.s.s.s.s.s.s.s.s.s.s.s.s.s.s.s.s.s.s.s.s.s.s.s.s.s.s.s.s.s.s.s.s.s.s.s.s.s.s.",
"s.s.s.s.s.s.s.s.s.s.s.s.s.s.s.s.s.s.s.s.s.s.s.s.s.s.s.s.s.s.s.s.s.s.s.s.s.s.s.s.s.s.s.s.s.s.s.s.s.s.s.s.s.s.s.s.s.s.s.s.s.s.s.s.s.s.s.s.s.s.s.s.s.s.s.s.s.s.s.s.s.s.s.s.s.s.s.s.s.s.s.s.s.s.s.s.s.s.s.s.s.s.s.s.s.s.s.s.s.s.s.s.s.s.s.s.s.s.s.s.s.s.s.s.s.s.s.s.s.s.s.s.s.s.s.s.s.s.s.s.s.s.s.s.s.s.s.s.s.s.s.s.s.s.s.s.s.s.s.s.s.s.s.s.s.s.s.s.s.s.s.s.s.s.s.s.s.s.s.s.s.s.s.s.s.s.s.s.s.s.s.s.s.s.s.s.s.s.s.s.s.s.s.s.s.s.s.s.s.s.s.s.s.s.s.s.s.s.s.s.s.s.s.s.s.s.s.s.s.s.s.s.s.s.s.s.s.s.s.s.s.s.s.s.s.s.s.s.s.s.s.s.s.s.s.s.s.s.s.s.s.s.s.s.s.s.s.s.s.s.s.s.s.s.s.s.s.s.s.s.s.s.s.s.s.s.s.s.s.s.s.s.s.s.s.s.s.s.s.s.s.s.s.s.s.s.s.s.s.s.s.s.s.s.s.s.s.s.s.s.s.s.s.s.s.s.s.s.s.s.s.s.s.s.s.s.s.s.s.s.s.s.s.s.s.s.s.s.s.s.s.s.s.s.s.s.s.s.s.s.s.s.s.s.s.s.s.s.s.s.s.s.s.s.s.s.s.s.s.s.s.s.s.s.s.s.s.s.s.s.s.s.s.s.s.s.s.s.s.s.s.s.s.s.s.s.s.s.s.s.s.s.s.s.s.s.s.s.s.s.s.s.s.s.s.s.s.s.s.s.s.s.s.s.s.s.s.s.s.s.s.s.s.s.s.s.s.s.s.s.s.s.s.s.s.s.s.s.s.s.s.s.s.s.s.s.s.s.s.s.s.s.s.s.s.s.s.s.s.s.s.s.s.s.s.s.s.s.s.s.s.s.s.s.s.s.s.s.s.s.s.s.s.s.s.s.s.s.s.s.s.s.s.s.s.s.s.s.s.s.s.s.s.s.s.s.s.s.s.s.s.s.s.s.s.s.s.s.s.s.s.s.s.s.s.s.s.s.s.s.s.s.s.s.s.s.s.s.s.s.s.s.s.s.s.s.s.s.s.s.s.s.s.s.s.s.s.s.s.s.s.s.s.s.s.s.s.s.s.s.s.s.s.s.s.s.s.s.s.s.",
"s.s.s.s.s.s.s.s.s.s.s.s.s.s.s.s.s.s.s.s.s.s.s.s.s.s.s.s.s.s.s.s.s.s.s.s.s.s.s.s.s.s.s.s.s.s.s.s.s.s.s.s.s.s.s.s.s.s.s.s.s.s.s.s.s.s.s.s.s.s.s.s.s.s.s.s.s.s.s.s.s.s.s.s.s.s.s.s.s.s.s.s.s.s.s.s.s.s.s.s.s.s.s.s.s.s.s.s.s.s.s.s.s.s.s.s.s.s.s.s.s.s.s.s.s.s.s.s.s.s.s.s.s.s.s.s.s.s.s.s.s.s.s.s.s.s.s.s.s.s.s.s.s.s.s.s.s.s.s.s.s.s.s.s.s.s.s.s.s.s.s.s.s.s.s.s.s.s.s.s.s.s.s.s.s.s.s.s.s.s.s.s.s.s.s.s.s.s.s.s.s.s.s.s.s.s.s.s.s.s.s.s.s.s.s.s.s.s.s.s.s.s.s.s.s.s.s.s.s.s.s.s.s.s.s.s.s.s.s.s.s.s.s.s.s.s.s.s.s.s.s.s.s.s.s.s.s.s.s.s.s.s.s.s.s.s.s.s.s.s.s.s.s.s.s.s.s.s.s.s.s.s.s.s.s.s.s.s.s.s.s.s.s.s.s.s.s.s.s.s.s.s.s.s.s.s.s.s.s.s.s.s.s.s.s.s.s.s.s.s.s.s.s.s.s.s.s.s.s.s.s.s.s.s.s.s.s.s.s.s.s.s.s.s.s.s.s.s.s.s.s.s.s.s.s.s.s.s.s.s.s.s.s.s.s.s.s.s.s.s.s.s.s.s.s.s.s.s.s.s.s.s.s.s.s.s.s.s.s.s.s.s.s.s.s.s.s.s.s.s.s.s.s.s.s.s.s.s.s.s.s.s.s.s.s.s.s.s.s.s.s.s.s.s.s.s.s.s.s.s.s.s.s.s.s.s.s.s.s.s.s.s.s.s.s.s.s.s.s.s.s.s.s.s.s.s.s.s.s.s.s.s.s.s.s.s.s.s.s.s.s.s.s.s.s.s.s.s.s.s.s.s.s.s.s.s.s.s.s.s.s.s.s.s.s.s.s.s.s.s.s.s.s.s.s.s.s.s.s.s.s.s.s.s.s.s.s.s.s.s.s.s.s.s.s.s.s.s.s.s.s.s.s.s.s.s.s.s.s.s.s.s.s.s.s.s.s.s.s.s.s.s.s.s.s.s.s.s.s.s.s.s.s.s.s.s.s.s.s.s.s.s.s.s.s.s.s.s.s.s.s.s.s.s.s.s.s.s.s.s.s.s.s.s.s.s.s.s.s.s.",
"s.s.s.s.s.s.s.s.s.s.s.s.s.s.s.s.s.s.s.s.s.s.s.s.s.s.s.s.s.s.s.s.s.s.s.s.s.s.s.s.s.s.s.s.s.s.s.s.s.s.s.s.s.s.s.s.s.s.s.s.s.s.s.s.s.s.s.s.s.s.s.s.s.s.s.s.s.s.s.s.s.s.s.s.s.s.s.s.s.s.s.s.s.s.s.s.s.s.s.s.s.s.s.s.s.s.s.s.s.s.s.s.s.s.s.s.s.s.s.s.s.s.s.s.s.s.s.s.s.s.s.s.s.s.s.s.s.s.s.s.s.s.s.s.s.s.s.s.s.s.s.s.s.s.s.s.s.s.s.s.s.s.s.s.s.s.s.s.s.s.s.s.s.s.s.s.s.s.s.s.s.s.s.s.s.s.s.s.s.s.s.s.s.s.s.s.s.s.s.s.s.s.s.s.s.s.s.s.s.s.s.s.s.s.s.s.s.s.s.s.s.s.s.s.s.s.s.s.s.s.s.s.s.s.s.s.s.s.s.s.s.s.s.s.s.s.s.s.s.s.s.s.s.s.s.s.s.s.s.s.s.s.s.s.s.s.s.s.s.s.s.s.s.s.s.s.s.s.s.s.s.s.s.s.s.s.s.s.s.s.s.s.s.s.s.s.s.s.s.s.s.s.s.s.s.s.s.s.s.s.s.s.s.s.s.s.s.s.s.s.s.s.s.s.s.s.s.s.s.s.s.s.s.s.s.s.s.s.s.s.s.s.s.s.s.s.s.s.s.s.s.s.s.s.s.s.s.s.s.s.s.s.s.s.s.s.s.s.s.s.s.s.s.s.s.s.s.s.s.s.s.s.s.s.s.s.s.s.s.s.s.s.s.s.s.s.s.s.s.s.s.s.s.s.s.s.s.s.s.s.s.s.s.s.s.s.s.s.s.s.s.s.s.s.s.s.s.s.s.s.s.s.s.s.s.s.s.s.s.s.s.s.s.s.s.s.s.s.s.s.s.s.s.s.s.s.s.s.s.s.s.s.s.s.s.s.s.s.s.s.s.s.s.s.s.s.s.s.s.s.s.s.s.s.s.s.s.s.s.s.s.s.s.s.s.s.s.s.s.s.s.s.s.s.s.s.s.s.s.s.s.s.s.s.s.s.s.s.s.s.s.s.s.s.s.s.s.s.s.s.s.s.s.s.s.s.s.s.s.s.s.s.s.s.s.s.s.s.s.s.s.s.s.s.s.s.s.s.s.s.s.s.s.s.s.s.s.s.s.s.s.s.s.s.s.s.s.s.s.s.s.s.s.s.s.s.s.s.s.s.s.s.s.s.s.s.s.s.s.s.",
"s.s.s.s.s.s.s.s.s.s.s.s.s.s.s.s.s.s.s.s.s.s.s.s.s.s.s.s.s.s.s.s.s.s.s.s.s.s.s.s.s.s.s.s.s.s.s.s.s.s.s.s.s.s.s.s.s.s.s.s.s.s.s.s.s.s.s.s.s.s.s.s.s.s.s.s.s.s.s.s.s.s.s.s.s.s.s.s.s.s.s.s.s.s.s.s.s.s.s.s.s.s.s.s.s.s.s.s.s.s.s.s.s.s.s.s.s.s.s.s.s.s.s.s.s.s.s.s.s.s.s.s.s.s.s.s.s.s.s.s.s.s.s.s.s.s.s.s.s.s.s.s.s.s.s.s.s.s.s.s.s.s.s.s.s.s.s.s.s.s.s.s.s.s.s.s.s.s.s.s.s.s.s.s.s.s.s.s.s.s.s.s.s.s.s.s.s.s.s.s.s.s.s.s.s.s.s.s.s.s.s.s.s.s.s.s.s.s.s.s.s.s.s.s.s.s.s.s.s.s.s.s.s.s.s.s.s.s.s.s.s.s.s.s.s.s.s.s.s.s.s.s.s.s.s.s.s.s.s.s.s.s.s.s.s.s.s.s.s.s.s.s.s.s.s.s.s.s.s.s.s.s.s.s.s.s.s.s.s.s.s.s.s.s.s.s.s.s.s.s.s.s.s.s.s.s.s.s.s.s.s.s.s.s.s.s.s.s.s.s.s.s.s.s.s.s.s.s.s.s.s.s.s.s.s.s.s.s.s.s.s.s.s.s.s.s.s.s.s.s.s.s.s.s.s.s.s.s.s.s.s.s.s.s.s.s.s.s.s.s.s.s.s.s.s.s.s.s.s.s.s.s.s.s.s.s.s.s.s.s.s.s.s.s.s.s.s.s.s.s.s.s.s.s.s.s.s.s.s.s.s.s.s.s.s.s.s.s.s.s.s.s.s.s.s.s.s.s.s.s.s.s.s.s.s.s.s.s.s.s.s.s.s.s.s.s.s.s.s.s.s.s.s.s.s.s.s.s.s.s.s.s.s.s.s.s.s.s.s.s.s.s.s.s.s.s.s.s.s.s.s.s.s.s.s.s.s.s.s.s.s.s.s.s.s.s.s.s.s.s.s.s.s.s.s.s.s.s.s.s.s.s.s.s.s.s.s.s.s.s.s.s.s.s.s.s.s.s.s.s.s.s.s.s.s.s.s.s.s.s.s.s.s.s.s.s.s.s.s.s.s.s.s.s.s.s.s.s.s.s.s.s.s.s.s.s.s.s.s.s.s.s.s.s.s.s.s.s.s.s.s.s.s.s.s.s.s.s.s.s.s.s.s.s.s.s.s.s.s.s.",
"s.s.s.s.s.s.s.s.s.s.s.s.s.s.s.s.s.s.s.s.s.s.s.s.s.s.s.s.s.s.s.s.s.s.s.s.s.s.s.s.s.s.s.s.s.s.s.s.s.s.s.s.s.s.s.s.s.s.s.s.s.s.s.s.s.s.s.s.s.s.s.s.s.s.s.s.s.s.s.s.s.s.s.s.s.s.s.s.s.s.s.s.s.s.s.s.s.s.s.s.s.s.s.s.s.s.s.s.s.s.s.s.s.s.s.s.s.s.s.s.s.s.s.s.s.s.s.s.s.s.s.s.s.s.s.s.s.s.s.s.s.s.s.s.s.s.s.s.s.s.s.s.s.s.s.s.s.s.s.s.s.s.s.s.s.s.s.s.s.s.s.s.s.s.s.s.s.s.s.s.s.s.s.s.s.s.s.s.s.s.s.s.s.s.s.s.s.s.s.s.s.s.s.s.s.s.s.s.s.s.s.s.s.s.s.s.s.s.s.s.s.s.s.s.s.s.s.s.s.s.s.s.s.s.s.s.s.s.s.s.s.s.s.s.s.s.s.s.s.s.s.s.s.s.s.s.s.s.s.s.s.s.s.s.s.s.s.s.s.s.s.s.s.s.s.s.s.s.s.s.s.s.s.s.s.s.s.s.s.s.s.s.s.s.s.s.s.s.s.s.s.s.s.s.s.s.s.s.s.s.s.s.s.s.s.s.s.s.X.b.f.h.J.m.l.l.f.y.s.s.s.s.s.s.s.s.s.s.s.s.s.s.s.s.s.s.s.s.s.s.s.s.s.s.s.s.s.s.s.s.s.s.s.s.s.s.s.s.s.s.s.s.s.s.s.s.s.s.s.s.s.s.s.s.s.s.s.s.s.s.s.s.s.s.s.s.s.s.s.s.s.s.s.s.s.s.s.s.s.s.s.s.s.s.s.s.s.s.s.s.s.s.s.s.s.s.s.s.s.s.s.s.s.s.s.s.s.s.s.s.s.s.s.s.s.s.s.s.s.s.s.s.s.s.s.s.s.s.s.s.s.s.s.s.s.s.s.s.s.s.s.s.s.s.s.s.s.s.s.s.s.s.s.s.s.s.s.s.s.s.s.s.s.s.s.s.s.s.s.s.s.s.s.s.s.s.s.s.s.s.s.s.s.s.s.s.s.s.s.s.s.s.s.s.s.s.s.s.s.s.s.s.s.s.s.s.s.s.s.s.s.s.s.s.s.s.s.s.s.s.s.s.s.s.s.s.s.s.s.s.s.s.s.s.s.s.s.s.s.s.s.s.s.s.s.s.s.s.s.s.s.s.s.s.s.s.s.s.s.s.s.s.s.s.s.s.s.s.s.s.",
"s.s.s.s.s.s.s.s.s.s.s.s.s.s.s.s.s.s.s.s.s.s.s.s.s.s.s.s.s.s.s.s.s.s.s.s.s.s.s.s.s.s.s.s.s.s.s.s.s.s.s.s.s.s.s.s.s.s.s.s.s.s.s.s.s.s.s.s.s.s.s.s.s.s.s.s.s.s.s.s.s.s.s.s.s.s.s.s.s.s.s.s.s.s.s.s.s.s.s.s.s.s.s.s.s.s.s.s.s.s.s.s.s.s.s.s.s.s.s.s.s.s.s.s.s.s.s.s.s.s.s.s.s.s.s.s.s.s.s.s.s.s.s.s.s.s.s.s.s.s.s.s.s.s.s.s.s.s.s.s.s.s.s.s.s.s.s.s.s.s.s.s.s.s.s.s.s.s.s.s.s.s.s.s.s.s.s.s.s.s.s.s.s.s.s.s.s.s.s.s.s.s.s.s.s.s.s.s.s.s.s.s.s.s.s.s.s.s.s.s.s.s.s.s.s.s.s.s.s.s.s.s.s.s.s.s.s.s.s.s.s.s.s.s.s.s.s.s.s.s.s.s.s.s.s.s.s.s.s.s.s.s.s.s.s.s.s.s.s.s.s.s.s.s.s.s.s.s.s.s.s.s.s.s.s.s.s.s.s.s.s.s.s.s.s.s.s.s.s.s.s.s.s.s.s.s.s.s.s.s.s.s.s.s.Y 7.f.H.T.J.T.T.l.l.h.d.y.y.d.f.h.h.h.f.s.s.s.s.s.s.s.s.s.s.s.s.s.s.s.s.s.s.s.s.s.s.s.s.s.s.s.s.s.s.s.s.s.s.s.s.s.s.s.s.s.s.s.s.s.s.s.s.s.s.s.s.s.s.s.s.s.s.s.s.s.s.s.s.s.s.s.s.s.s.s.s.s.s.s.s.s.s.s.s.s.s.s.s.s.s.s.s.s.s.s.s.s.s.s.s.s.s.s.s.s.s.s.s.s.s.s.s.s.s.s.s.s.s.s.s.s.s.s.s.s.s.s.s.s.s.s.s.s.s.s.s.s.s.s.s.s.s.s.s.s.s.s.s.s.s.s.s.s.s.s.s.s.s.s.s.s.s.s.s.s.s.s.s.s.s.s.s.s.s.s.s.s.s.s.s.s.s.s.s.s.s.s.s.s.s.s.s.s.s.s.s.s.s.s.s.s.s.s.s.s.s.s.s.s.s.s.s.s.s.s.s.s.s.s.s.s.s.s.s.s.s.s.s.s.s.s.s.s.s.s.s.s.s.s.s.s.s.s.s.s.s.s.s.s.s.s.s.s.s.s.s.s.s.s.s.s.s.s.s.s.s.s.s.s.s.",
"s.s.s.s.s.s.s.s.s.s.s.s.s.s.s.s.s.s.s.s.s.s.s.s.s.s.s.s.s.s.s.s.s.s.s.s.s.s.s.s.s.s.s.s.s.s.s.s.s.s.s.s.s.s.s.s.s.s.s.s.s.s.s.s.s.s.s.s.s.s.s.s.s.s.s.s.s.s.s.s.s.s.s.s.s.s.s.s.s.s.s.s.s.s.s.s.s.s.s.s.s.s.s.s.s.s.s.s.s.s.s.s.s.s.s.s.s.s.s.s.s.s.s.s.s.s.s.s.s.s.s.s.s.s.s.s.s.s.s.s.s.s.s.s.s.s.s.s.s.s.s.s.s.s.s.s.s.s.s.s.s.s.s.s.s.s.s.s.s.s.s.s.s.s.s.s.s.s.s.s.s.s.s.s.s.s.s.s.s.s.s.s.s.s.s.s.s.s.s.s.s.s.s.s.s.s.s.s.s.s.s.s.s.s.s.s.s.s.s.s.s.s.s.s.s.s.s.s.s.s.s.s.s.s.s.s.s.s.s.s.s.s.s.s.s.s.s.s.s.s.s.s.s.s.s.s.s.s.s.s.s.s.s.s.s.s.s.s.s.s.s.s.s.s.s.s.s.s.s.s.s.s.s.s.s.s.s.s.s.s.s.s.s.s.s.s.s.s.s.s.s.s.s.s.s.s.s.s.s.s.s.S  .f.h.M.k.g.l.l.h.h.l.A.l.l.h.C.l.h.h.M.h.M.h.k.b.u.s.s.s.s.s.s.s.s.s.s.s.s.s.s.s.s.s.s.s.s.s.s.s.s.s.s.s.s.s.s.s.s.s.s.s.s.s.s.s.s.s.s.s.s.s.s.s.s.s.s.s.s.s.s.s.s.s.s.s.s.s.s.s.s.s.s.s.s.s.s.s.s.s.s.s.s.s.s.s.s.s.s.s.s.s.s.s.s.s.s.s.s.s.s.s.s.s.s.s.s.s.s.s.s.s.s.s.s.s.s.s.s.s.s.s.s.s.s.s.s.s.s.s.s.s.s.s.s.s.s.s.s.s.s.s.s.s.s.s.s.s.s.s.s.s.s.s.s.s.s.s.s.s.s.s.s.s.s.s.s.s.s.s.s.s.s.s.s.s.s.s.s.s.s.s.s.s.s.s.s.s.s.s.s.s.s.s.s.s.s.s.s.s.s.s.s.s.s.s.s.s.s.s.s.s.s.s.s.s.s.s.s.s.s.s.s.s.s.s.s.s.s.s.s.s.s.s.s.s.s.s.s.s.s.s.s.s.s.s.s.s.s.s.s.s.s.s.s.s.s.s.s.s.s.s.s.s.s.s.s.s.s.",
"s.s.s.s.s.s.s.s.s.s.s.s.s.s.s.s.s.s.s.s.s.s.s.s.s.s.s.s.s.s.s.s.s.s.s.s.s.s.s.s.s.s.s.s.s.s.s.s.s.s.s.s.s.s.s.s.s.s.s.s.s.s.s.s.s.s.s.s.s.s.s.s.s.s.s.s.s.s.s.s.s.s.s.s.s.s.s.s.s.s.s.s.s.s.s.s.s.s.s.s.s.s.s.s.s.s.s.s.s.s.s.s.s.s.s.s.s.s.s.s.s.s.s.s.s.s.s.s.s.s.s.s.s.s.s.s.s.s.s.s.s.s.s.s.s.s.s.s.s.s.s.s.s.s.s.s.s.s.s.s.s.s.s.s.s.s.s.s.s.s.s.s.s.s.s.s.s.s.s.s.s.s.s.s.s.s.s.s.s.s.s.s.s.s.s.s.s.s.s.s.s.s.s.s.s.s.s.s.s.s.s.s.s.s.s.s.s.s.s.s.s.s.s.s.s.s.s.s.s.s.s.s.s.s.s.s.s.s.s.s.s.s.s.s.s.s.s.s.s.s.s.s.s.s.s.s.s.s.s.s.s.s.s.s.s.s.s.s.s.s.s.s.s.s.s.s.s.s.s.s.s.s.s.s.s.s.s.s.s.s.s.s.s.s.s.s.s.s.s.s.s.s.s.s.s.s.s.s.s.s.$.u.5.d.d.l.A.A.J.T.T.!.U.T.U.l.l.C.A.l.l.l.J.l.P.A.J.f.u.5.s.s.s.s.s.s.s.s.s.s.s.s.s.s.s.s.s.s.s.s.s.s.s.s.s.s.s.s.s.s.s.s.s.s.s.s.s.s.s.s.s.s.s.s.s.s.s.s.s.s.s.s.s.s.s.s.s.s.s.s.s.s.s.s.s.s.s.s.s.s.s.s.s.s.s.s.s.s.s.s.s.s.s.s.s.s.s.s.s.s.s.s.s.s.s.s.s.s.s.s.s.s.s.s.s.s.s.s.s.s.s.s.s.s.s.s.s.s.s.s.s.s.s.s.s.s.s.s.s.s.s.s.s.s.s.s.s.s.s.s.s.s.s.s.s.s.s.s.s.s.s.s.s.s.s.s.s.s.s.s.s.s.s.s.s.s.s.s.s.s.s.s.s.s.s.s.s.s.s.s.s.s.s.s.s.s.s.s.s.s.s.s.s.s.s.s.s.s.s.s.s.s.s.s.s.s.s.s.s.s.s.s.s.s.s.s.s.s.s.s.s.s.s.s.s.s.s.s.s.s.s.s.s.s.s.s.s.s.s.s.s.s.s.s.s.s.s.s.s.s.s.s.s.s.s.s.s.s.s.s.",
"s.s.s.s.s.s.s.s.s.s.s.s.s.s.s.s.s.s.s.s.s.s.s.s.s.s.s.s.s.s.s.s.s.s.s.s.s.s.s.s.s.s.s.s.s.s.s.s.s.s.s.s.s.s.s.s.s.s.s.s.s.s.s.s.s.s.s.s.s.s.s.s.s.s.s.s.s.s.s.s.s.s.s.s.s.s.s.s.s.s.s.s.s.s.s.s.s.s.s.s.s.s.s.s.s.s.s.s.s.s.s.s.s.s.s.s.s.s.s.s.s.s.s.s.s.s.s.s.s.s.s.s.s.s.s.s.s.s.s.s.s.s.s.s.s.s.s.s.s.s.s.s.s.s.s.s.s.s.s.s.s.s.s.s.s.s.s.s.s.s.s.s.s.s.s.s.s.s.s.s.s.s.s.s.s.s.s.s.s.s.s.s.s.s.s.s.s.s.s.s.s.s.s.s.s.s.s.s.s.s.s.s.s.s.s.s.s.s.s.s.s.s.s.s.s.s.s.s.s.s.s.s.s.s.s.s.s.s.s.s.s.s.s.s.s.s.s.s.s.s.s.s.s.s.s.s.s.s.s.s.s.s.s.s.s.s.s.s.s.s.s.s.s.s.s.s.s.s.s.s.s.s.s.s.s.s.s.s.s.s.s.s.s.s.s.s.s.s.s.s.s.s.s.s.s.s.s.s.C [ ;.7.f.J.J.Z.C.C.g.g.h.g.g.l.h.h.y.r.r.d.g.g.l.l.g.d.d.h.h.f.6.s.s.s.s.s.s.s.s.s.s.s.s.s.s.s.s.s.s.s.s.s.s.s.s.s.s.s.s.s.s.s.s.s.s.s.s.s.s.s.s.s.s.s.s.s.s.s.s.s.s.s.s.s.s.s.s.s.s.s.s.s.s.s.s.s.s.s.s.s.s.s.s.s.s.s.s.s.s.s.s.s.s.s.s.s.s.s.s.s.s.s.s.s.s.s.s.s.s.s.s.s.s.s.s.s.s.s.s.s.s.s.s.s.s.s.s.s.s.s.s.s.s.s.s.s.s.s.s.s.s.s.s.s.s.s.s.s.s.s.s.s.s.s.s.s.s.s.s.s.s.s.s.s.s.s.s.s.s.s.s.s.s.s.s.s.s.s.s.s.s.s.s.s.s.s.s.s.s.s.s.s.s.s.s.s.s.s.s.s.s.s.s.s.s.s.s.s.s.s.s.s.s.s.s.s.s.s.s.s.s.s.s.s.s.s.s.s.s.s.s.s.s.s.s.s.s.s.s.s.s.s.s.s.s.s.s.s.s.s.s.s.s.s.s.s.s.s.s.s.s.s.s.s.s.s.s.s.s.s.",
"s.s.s.s.s.s.s.s.s.s.s.s.s.s.s.s.s.s.s.s.s.s.s.s.s.s.s.s.s.s.s.s.s.s.s.s.s.s.s.s.s.s.s.s.s.s.s.s.s.s.s.s.s.s.s.s.s.s.s.s.s.s.s.s.s.s.s.s.s.s.s.s.s.s.s.s.s.s.s.s.s.s.s.s.s.s.s.s.s.s.s.s.s.s.s.s.s.s.s.s.s.s.s.s.s.s.s.s.s.s.s.s.s.s.s.s.s.s.s.s.s.s.s.s.s.s.s.s.s.s.s.s.s.s.s.s.s.s.s.s.s.s.s.s.s.s.s.s.s.s.s.s.s.s.s.s.s.s.s.s.s.s.s.s.s.s.s.s.s.s.s.s.s.s.s.s.s.s.s.s.s.s.s.s.s.s.s.s.s.s.s.s.s.s.s.s.s.s.s.s.s.s.s.s.s.s.s.s.s.s.s.s.s.s.s.s.s.s.s.s.s.s.s.s.s.s.s.s.s.s.s.s.s.s.s.s.s.s.s.s.s.s.s.s.s.s.s.s.s.s.s.s.s.s.s.s.s.s.s.s.s.s.s.s.s.s.s.s.s.s.s.s.s.s.s.s.s.s.s.s.s.s.s.s.s.s.s.s.s.s.s.s.s.s.s.s.s.s.s.s.s.s.s.s.s.s.s.J  .X.y.l.S.l.l.S.J.W.W.U.U.l.h.l.h.l.g.g.g.g.C.h.h.h.y.f.l.h.d.d.h...s.s.s.s.s.s.s.s.s.s.s.s.s.s.s.s.s.s.s.s.s.s.s.s.s.s.s.s.s.s.s.s.s.s.s.s.s.s.s.s.s.s.s.s.s.s.s.s.s.s.s.s.s.s.s.s.s.s.s.s.s.s.s.s.s.s.s.s.s.s.s.s.s.s.s.s.s.s.s.s.s.s.s.s.s.s.s.s.s.s.s.s.s.s.s.s.s.s.s.s.s.s.s.s.s.s.s.s.s.s.s.s.s.s.s.s.s.s.s.s.s.s.s.s.s.s.s.s.s.s.s.s.s.s.s.s.s.s.s.s.s.s.s.s.s.s.s.s.s.s.s.s.s.s.s.s.s.s.s.s.s.s.s.s.s.s.s.s.s.s.s.s.s.s.s.s.s.s.s.s.s.s.s.s.s.s.s.s.s.s.s.s.s.s.s.s.s.s.s.s.s.s.s.s.s.s.s.s.s.s.s.s.s.s.s.s.s.s.s.s.s.s.s.s.s.s.s.s.s.s.s.s.s.s.s.s.s.s.s.s.s.s.s.s.s.s.s.s.s.s.s.s.s.s.s.s.s.s.",
"s.s.s.s.s.s.s.s.s.s.s.s.s.s.s.s.s.s.s.s.s.s.s.s.s.s.s.s.s.s.s.s.s.s.s.s.s.s.s.s.s.s.s.s.s.s.s.s.s.s.s.s.s.s.s.s.s.s.s.s.s.s.s.s.s.s.s.s.s.s.s.s.s.s.s.s.s.s.s.s.s.s.s.s.s.s.s.s.s.s.s.s.s.s.s.s.s.s.s.s.s.s.s.s.s.s.s.s.s.s.s.s.s.s.s.s.s.s.s.s.s.s.s.s.s.s.s.s.s.s.s.s.s.s.s.s.s.s.s.s.s.s.s.s.s.s.s.s.s.s.s.s.s.s.s.s.s.s.s.s.s.s.s.s.s.s.s.s.s.s.s.s.s.s.s.s.s.s.s.s.s.s.s.s.s.s.s.s.s.s.s.s.s.s.s.s.s.s.s.s.s.s.s.s.s.s.s.s.s.s.s.s.s.s.s.s.s.s.s.s.s.s.s.s.s.s.s.s.s.s.s.s.s.s.s.s.s.s.s.s.s.s.s.s.s.s.s.s.s.s.s.s.s.s.s.s.s.s.s.s.s.s.s.s.s.s.s.s.s.s.s.s.s.s.s.s.s.s.s.s.s.s.s.s.s.s.s.s.s.s.s.s.s.s.s.s.s.s.s.s.s.s.s.s.s.s.s.W ..y.d.h.f.h.f.M.M.S.J.U.J.l.I.T.T.J.J.A.J.T.T.J.J.l.d.7.d.f.l.f.7.;.[ s.s.s.s.s.s.s.s.s.s.s.s.s.s.s.s.s.s.s.s.s.s.s.s.s.s.s.s.s.s.s.s.s.s.s.s.s.s.s.s.s.s.s.s.s.s.s.s.s.s.s.s.s.s.s.s.s.s.s.s.s.s.s.s.s.s.s.s.s.s.s.s.s.s.s.s.s.s.s.s.s.s.s.s.s.s.s.s.s.s.s.s.s.s.s.s.s.s.s.s.s.s.s.s.s.s.s.s.s.s.s.s.s.s.s.s.s.s.s.s.s.s.s.s.s.s.s.s.s.s.s.s.s.s.s.s.s.s.s.s.s.s.s.s.s.s.s.s.s.s.s.s.s.s.s.s.s.s.s.s.s.s.s.s.s.s.s.s.s.s.s.s.s.s.s.s.s.s.s.s.s.s.s.s.s.s.s.s.s.s.s.s.s.s.s.s.s.s.s.s.s.s.s.s.s.s.s.s.s.s.s.s.s.s.s.s.s.s.s.s.s.s.s.s.s.s.s.s.s.s.s.s.s.s.s.s.s.s.s.s.s.s.s.s.s.s.s.s.s.s.s.s.s.s.s.s.s.",
"s.s.s.s.s.s.s.s.s.s.s.s.s.s.s.s.s.s.s.s.s.s.s.s.s.s.s.s.s.s.s.s.s.s.s.s.s.s.s.s.s.s.s.s.s.s.s.s.s.s.s.s.s.s.s.s.s.s.s.s.s.s.s.s.s.s.s.s.s.s.s.s.s.s.s.s.s.s.s.s.s.s.s.s.s.s.s.s.s.s.s.s.s.s.s.s.s.s.s.s.s.s.s.s.s.s.s.s.s.s.s.s.s.s.s.s.s.s.s.s.s.s.s.s.s.s.s.s.s.s.s.s.s.s.s.s.s.s.s.s.s.s.s.s.s.s.s.s.s.s.s.s.s.s.s.s.s.s.s.s.s.s.s.s.s.s.s.s.s.s.s.s.s.s.s.s.s.s.s.s.s.s.s.s.s.s.s.s.s.s.s.s.s.s.s.s.s.s.s.s.s.s.s.s.s.s.s.s.s.s.s.s.s.s.s.s.s.s.s.s.s.s.s.s.s.s.s.s.s.s.s.s.s.s.s.s.s.s.s.s.s.s.s.s.s.s.s.s.s.s.s.s.s.s.s.s.s.s.s.s.s.s.s.s.s.s.s.s.s.s.s.s.s.s.s.s.s.s.s.s.s.s.s.s.s.s.s.s.s.s.s.s.s.s.s.s.s.s.s.s.s.s.s.s.s.s.W #.-.r.y.d.h.J.!.!.I.J.I.J.T.T.T.T.T.!.!.!.J.J.h.h.S.J.T.H.M.y.7.7.5.#.X.s.s.s.s.s.s.s.s.s.s.s.s.s.s.s.s.s.s.s.s.s.s.s.s.s.s.s.s.s.s.s.s.s.s.s.s.s.s.s.s.s.s.s.s.s.s.s.s.s.s.s.s.s.s.s.s.s.s.s.s.s.s.s.s.s.s.s.s.s.s.s.s.s.s.s.s.s.s.s.s.s.s.s.s.s.s.s.s.s.s.s.s.s.s.s.s.s.s.s.s.s.s.s.s.s.s.s.s.s.s.s.s.s.s.s.s.s.s.s.s.s.s.s.s.s.s.s.s.s.s.s.s.s.s.s.s.s.s.s.s.s.s.s.s.s.s.s.s.s.s.s.s.s.s.s.s.s.s.s.s.s.s.s.s.s.s.s.s.s.s.s.s.s.s.s.s.s.s.s.s.s.s.s.s.s.s.s.s.s.s.s.s.s.s.s.s.s.s.s.s.s.s.s.s.s.s.s.s.s.s.s.s.s.s.s.s.s.s.s.s.s.s.s.s.s.s.s.s.s.s.s.s.s.s.s.s.s.s.s.s.s.s.s.s.s.s.s.s.s.s.s.s.s.s.s.s.s.",
"s.s.s.s.s.s.s.s.s.s.s.s.s.s.s.s.s.s.s.s.s.s.s.s.s.s.s.s.s.s.s.s.s.s.s.s.s.s.s.s.s.s.s.s.s.s.s.s.s.s.s.s.s.s.s.s.s.s.s.s.s.s.s.s.s.s.s.s.s.s.s.s.s.s.s.s.s.s.s.s.s.s.s.s.s.s.s.s.s.s.s.s.s.s.s.s.s.s.s.s.s.s.s.s.s.s.s.s.s.s.s.s.s.s.s.s.s.s.s.s.s.s.s.s.s.s.s.s.s.s.s.s.s.s.s.s.s.s.s.s.s.s.s.s.s.s.s.s.s.s.s.s.s.s.s.s.s.s.s.s.s.s.s.s.s.s.s.s.s.s.s.s.s.s.s.s.s.s.s.s.s.s.s.s.s.s.s.s.s.s.s.s.s.s.s.s.s.s.s.s.s.s.s.s.s.s.s.s.s.s.s.s.s.s.s.s.s.s.s.s.s.s.s.s.s.s.s.s.s.s.s.s.s.s.s.s.s.s.s.s.s.s.s.s.s.s.s.s.s.s.s.s.s.s.s.s.s.s.s.s.s.s.s.s.s.s.s.s.s.s.s.s.s.s.s.s.s.s.s.s.s.s.s.s.s.s.s.s.s.s.s.s.s.s.s.s.s.s.s.s.s.s.s.s.s.! | #...#.y.H.H.H.T.M.l.J.T.T.T.T.E.H.H.Y.J.J.J.J.M.S.l.M.h.H.H.v.f.;.*.-...X.s.s.s.s.s.s.s.s.s.s.s.s.s.s.s.s.s.s.s.s.s.s.s.s.s.s.s.s.s.s.s.s.s.s.s.s.s.s.s.s.s.s.s.s.s.s.s.s.s.s.s.s.s.s.s.s.s.s.U T 4.d.s.s.s.s.s.s.s.s.s.s.s.s.s.s.s.s.s.s.s.s.s.s.s.s.s.s.s.s.s.s.s.s.s.s.s.s.s.s.s.s.s.s.s.s.s.s.s.s.s.s.s.s.s.s.s.s.s.s.s.s.s.s.s.s.s.s.s.s.s.s.s.s.s.s.s.s.s.s.s.s.s.s.s.s.s.s.s.s.s.s.s.s.s.s.s.s.s.s.s.s.s.s.s.s.s.s.s.s.s.s.s.s.s.s.s.s.s.s.s.s.s.s.s.s.s.s.s.s.s.s.s.s.s.s.s.s.s.s.s.s.s.s.s.s.s.s.s.s.s.s.s.s.s.s.s.s.s.s.s.s.s.s.s.s.s.s.s.s.s.s.s.s.s.s.s.s.s.s.s.s.s.s.s.s.s.s.s.s.s.s.s.s.s.s.",
"s.s.s.s.s.s.s.s.s.s.s.s.s.s.s.s.s.s.s.s.s.s.s.s.s.s.s.s.s.s.s.s.s.s.s.s.s.s.s.s.s.s.s.s.s.s.s.s.s.s.s.s.s.s.s.s.s.s.s.s.s.s.s.s.s.s.s.s.s.s.s.s.s.s.s.s.s.s.s.s.s.s.s.s.s.s.s.s.s.s.s.s.s.s.s.s.s.s.s.s.s.s.s.s.s.s.s.s.s.s.s.s.s.s.s.s.s.s.s.s.s.s.s.s.s.s.s.s.s.s.s.s.s.s.s.s.s.s.s.s.s.s.s.s.s.s.s.s.s.s.s.s.s.s.s.s.s.s.s.s.s.s.s.s.s.s.s.s.s.s.s.s.s.s.s.s.s.s.s.s.s.s.s.s.s.s.s.s.s.s.s.s.s.s.s.s.s.s.s.s.s.s.s.s.s.s.s.s.s.s.s.s.s.s.s.s.s.s.s.s.s.s.s.s.s.s.s.s.s.s.s.s.s.s.s.s.s.s.s.s.s.s.s.s.s.s.s.s.s.s.s.s.s.s.s.s.s.s.s.s.s.s.s.s.s.s.s.s.s.s.s.s.s.s.s.s.s.s.s.s.s.s.s.s.s.s.s.s.s.s.s.s.s.s.s.s.s.s.s.s.s.s.s.s.s.X.$.| ..:.h.v.h.v.h.v.M.l.J.J.Y.H.H.J.T.T.J.J.M.M.h.l.M.l.M.l.h.f.f.y.5.#.#...W s.s.s.s.s.s.s.s.s.s.s.s.s.s.s.s.s.s.s.s.s.s.s.s.s.s.s.s.s.s.s.s.s.s.s.s.s.s.s.s.s.s.s.s.s.s.s.s.s.s.s.s.s.[ 8.8.f.h.k.J.A.I.l.h.f.f.$. .s.s.s.s.s.s.s.s.s.s.s.s.s.s.s.s.s.s.s.s.s.s.s.s.s.s.s.s.s.s.s.s.s.s.s.s.s.s.s.s.s.s.s.s.s.s.s.s.s.s.s.s.s.s.s.s.s.s.s.s.s.s.s.s.s.s.s.s.s.s.s.s.s.s.s.s.s.s.s.s.s.s.s.s.s.s.s.s.s.s.s.s.s.s.s.s.s.s.s.s.s.s.s.s.s.s.s.s.s.s.s.s.s.s.s.s.s.s.s.s.s.s.s.s.s.s.s.s.s.s.s.s.s.s.s.s.s.s.s.s.s.s.s.s.s.s.s.s.s.s.s.s.s.s.s.s.s.s.s.s.s.s.s.s.s.s.s.s.s.s.s.s.s.s.s.s.s.s.s.s.s.s.s.s.s.s.s.",
"s.s.s.s.s.s.s.s.s.s.s.s.s.s.s.s.s.s.s.s.s.s.s.s.s.s.s.s.s.s.s.s.s.s.s.s.s.s.s.s.s.s.s.s.s.s.s.s.s.s.s.s.s.s.s.s.s.s.s.s.s.s.s.s.s.s.s.s.s.s.s.s.s.s.s.s.s.s.s.s.s.s.s.s.s.s.s.s.s.s.s.s.s.s.s.s.s.s.s.s.s.s.s.s.s.s.s.s.s.s.s.s.s.s.s.s.s.s.s.s.s.s.s.s.s.s.s.s.s.s.s.s.s.s.s.s.s.s.s.s.s.s.s.s.s.s.s.s.s.s.s.s.s.s.s.s.s.s.s.s.s.s.s.s.s.s.s.s.s.s.s.s.s.s.s.s.s.s.s.s.s.s.s.s.s.s.s.s.s.s.s.s.s.s.s.s.s.s.s.s.s.s.s.s.s.s.s.s.s.s.s.s.s.s.s.s.s.s.s.s.s.s.s.s.s.s.s.s.s.s.s.s.s.s.s.s.s.s.s.s.s.s.s.s.s.s.s.s.s.s.s.s.s.s.s.s.s.s.s.s.s.s.s.s.s.s.s.s.s.s.s.s.s.s.s.s.s.s.s.s.s.s.s.s.s.s.s.s.s.s.s.s.s.s.s.s.s.s.s.s.s.s.s.s.{  .| ' 5.u.f.h.h.h.v.h.h.l.l.J.T.Y.I.T.T.T.T.Y.J.J.S.h.h.h.h.h.l.h.f.f.y.*.#.#.$.s.s.s.s.s.s.s.s.s.s.s.s.s.s.s.s.s.s.s.s.s.s.s.s.s.s.s.s.s.s.s.s.s.s.s.s.s.s.s.s.s.s.s.s.s.s.s.s.s.s.s.s.f.J.U.U.W.I.C.J.J.W.^.^.Q.!.!.U.J.k.h.2.X.s.s.a.s.s.s.s.s.s.s.s.s.s.s.s.s.s.s.s.s.s.s.s.s.s.s.s.s.s.s.s.s.s.s.s.s.s.s.s.s.s.s.s.s.s.s.s.s.s.s.s.s.s.s.s.s.s.s.s.s.s.s.s.s.s.s.s.s.s.s.s.s.s.s.s.s.s.s.s.s.s.s.s.s.s.s.s.s.s.s.s.s.s.s.s.s.s.s.s.s.s.s.s.s.s.s.s.s.s.s.s.s.s.s.s.s.s.s.s.s.s.s.s.s.s.s.s.s.s.s.s.s.s.s.s.s.s.s.s.s.s.s.s.s.s.s.s.s.s.s.s.s.s.s.s.s.s.s.s.s.s.s.s.s.s.s.s.s.s.s.s.s.s.s.s.s.s.s.s.s.s.s.",
"s.s.s.s.s.s.s.s.s.s.s.s.s.s.s.s.s.s.s.s.s.s.s.s.s.s.s.s.s.s.s.s.s.s.s.s.s.s.s.s.s.s.s.s.s.s.s.s.s.s.s.s.s.s.s.s.s.s.s.s.s.s.s.s.s.s.s.s.s.s.s.s.s.s.s.s.s.s.s.s.s.s.s.s.s.s.s.s.s.s.s.s.s.s.s.s.s.s.s.s.s.s.s.s.s.s.s.s.s.s.s.s.s.s.s.s.s.s.s.s.s.s.s.s.s.s.s.s.s.s.s.s.s.s.s.s.s.s.s.s.s.s.s.s.s.s.s.s.s.s.s.s.s.s.s.s.s.s.s.s.s.s.s.s.s.s.s.s.s.s.s.s.s.s.s.s.s.s.s.s.s.s.s.s.s.s.s.s.s.s.s.s.s.s.s.s.s.s.s.s.s.s.s.s.s.s.s.s.s.s.s.s.s.s.s.s.s.s.s.s.s.s.s.s.s.s.s.s.s.s.s.s.s.s.s.s.s.s.s.s.s.s.s.s.s.s.s.s.s.s.s.s.s.s.s.s.s.s.s.s.s.s.s.s.s.s.s.s.s.s.s.s.s.s.s.s.s.s.s.s.s.s.s.s.s.s.s.s.s.s.s.s.s.s.s.s.s.s.s.s.s.s.s.s.X.X.| $.5.u.f.f.h.h.h.b.k.h.k.k.J.J.k.J.I.J.T.T.J.J.S.l.h.h.h.h.h.h.f.f.y.y.#.#.$.$.s.s.s.s.s.s.s.s.s.s.s.s.s.s.s.s.s.s.s.s.s.s.s.s.s.s.s.s.s.s.s.s.s.s.s.s.s.s.s.s.s.s.s.s.s.s.s.s.s.s.Y.Q.W.W.W.W.W.Z.C.l.P.W.W.W.~.W.U.W.^.^.T.h.f.f.=.X.s.s.s.s.s.s.s.s.s.s.s.s.s.s.s.s.s.s.s.s.s.s.s.s.s.s.s.s.s.s.s.s.s.s.s.s.s.s.s.s.s.s.s.s.s.s.s.s.s.s.s.s.s.s.s.s.s.s.s.s.s.s.s.s.s.s.s.s.s.s.s.s.s.s.s.s.s.s.s.s.s.s.s.s.s.s.s.s.s.s.s.s.s.s.s.s.s.s.s.s.s.s.s.s.s.s.s.s.s.s.s.s.s.s.s.s.s.s.s.s.s.s.s.s.s.s.s.s.s.s.s.s.s.s.s.s.s.s.s.s.s.s.s.s.s.s.s.s.s.s.s.s.s.s.s.s.s.s.s.s.s.s.s.s.s.s.s.s.s.s.s.s.s.s.s.s.s.s.",
"s.s.s.s.s.s.s.s.s.s.s.s.s.s.s.s.s.s.s.s.s.s.s.s.s.s.s.s.s.s.s.s.s.s.s.s.s.s.s.s.s.s.s.s.s.s.s.s.s.s.s.s.s.s.s.s.s.s.s.s.s.s.s.s.s.s.s.s.s.s.s.s.s.s.s.s.s.s.s.s.s.s.s.s.s.s.s.s.s.s.s.s.s.s.s.s.s.s.s.s.s.s.s.s.s.s.s.s.s.s.s.s.s.s.s.s.s.s.s.s.s.s.s.s.s.s.s.s.s.s.s.s.s.s.s.s.s.s.s.s.s.s.s.s.s.s.s.s.s.s.s.s.s.s.s.s.s.s.s.s.s.s.s.s.s.s.s.s.s.s.s.s.s.s.s.s.s.s.s.s.s.s.s.s.s.s.s.s.s.s.s.s.s.s.s.s.s.s.s.s.s.s.s.s.s.s.s.s.s.s.s.s.s.s.s.s.s.s.s.s.s.s.s.s.s.s.s.s.s.s.s.s.s.s.s.s.s.s.s.s.s.s.s.s.s.s.s.s.s.s.s.s.s.s.s.s.s.s.s.s.s.s.s.s.s.s.s.s.s.s.s.s.s.s.s.s.s.s.s.s.s.s.s.s.s.s.s.s.s.s.s.s.s.s.s.s.s.s.s.s.s.s.s.[ | [ $.=.7.y.f.b.h.f.f.h.h.M.h.J.H.J.!.W.J.T.U.T.T.l.h.l.h.h.f.f.y.h.f.f.f.7.;...*.$.s.s.s.s.s.s.s.s.s.s.s.s.s.s.s.s.s.s.s.s.s.s.s.s.s.s.s.s.s.s.s.s.s.s.s.s.s.s.s.s.s.s.s.s.s.s.s.s.x.H.^.^.}.}.!.!.A.U.P.I.U.W.A.Z.P.U.C.P.W.I.A.I.A.U.U.h.d.:.=.s.s.s.s.s.s.s.s.s.s.s.s.s.s.s.s.s.s.s.s.s.s.s.s.s.s.s.s.s.s.s.s.s.s.s.s.s.s.s.s.s.s.s.s.s.s.s.s.s.s.s.s.s.s.s.s.s.s.s.s.s.s.s.s.s.s.s.s.s.s.s.s.s.s.s.s.s.s.s.s.s.s.s.s.s.s.s.s.s.s.s.s.s.s.s.s.s.s.s.s.s.s.s.s.s.s.s.s.s.s.s.s.s.s.s.s.s.s.s.s.s.s.s.s.s.s.s.s.s.s.s.s.s.s.s.s.s.s.s.s.s.s.s.s.s.s.s.s.s.s.s.s.s.s.s.s.s.s.s.s.s.s.s.s.s.s.s.s.s.s.s.s.s.s.s.",
"s.s.s.s.s.s.s.s.s.s.s.s.s.s.s.s.s.s.s.s.s.s.s.s.s.s.s.s.s.s.s.s.s.s.s.s.s.s.s.s.s.s.s.s.s.s.s.s.s.s.s.s.s.s.s.s.s.s.s.s.s.s.s.s.s.s.s.s.s.s.s.s.s.s.s.s.s.s.s.s.s.s.s.s.s.s.s.s.s.s.s.s.s.s.s.s.s.s.s.s.s.s.s.s.s.s.s.s.s.s.s.s.s.s.s.s.s.s.s.s.s.s.s.s.s.s.s.s.s.s.s.s.s.s.s.s.s.s.s.s.s.s.s.s.s.s.s.s.s.s.s.s.s.s.s.s.s.s.s.s.s.s.s.s.s.s.s.s.s.s.s.s.s.s.s.s.s.s.s.s.s.s.s.s.s.s.s.s.s.s.s.s.s.s.s.s.s.s.s.s.s.s.s.s.s.s.s.s.s.s.s.s.s.s.s.s.s.s.s.s.s.s.s.s.s.s.s.s.s.s.s.s.s.s.s.s.s.s.s.s.s.s.s.s.s.s.s.s.s.s.s.s.s.s.s.s.s.s.s.s.s.s.s.s.s.s.s.s.s.s.s.s.s.s.s.s.s.s.s.s.s.s.s.s.s.s.s.s.s.s.s.s.s.s.s.s.s.s.s.s.s.s.s. .W ..$.;.7.y.f.y.f.f.f.h.h.M.J.M.J.J.J.T.W.T.T.!.T.J.l.l.h.h.f.f.d.y.y.f.f.y.7.=.#.$.| s.s.s.s.s.s.s.s.s.s.s.s.s.s.s.s.s.s.s.s.s.s.s.s.s.s.s.s.s.s.s.s.s.s.s.s.s.s.s.s.s.s.s.s.s.s.8.m.!.(.(.}.}.}. XXX X).^.l.l.l.h.k.I.T.W.W.l.U.A.g.d.g.C.P.l.d.7.{ s.s.s.s.s.s.s.s.s.s.s.s.s.s.s.s.s.s.s.s.s.s.s.s.s.s.s.s.s.s.s.s.s.s.s.s.s.s.s.s.s.s.s.s.s.s.s.s.s.s.s.s.s.s.s.s.s.s.s.s.s.s.s.s.s.s.s.s.s.s.s.s.s.s.s.s.s.s.s.s.s.s.s.s.s.s.s.s.s.s.s.s.s.s.s.s.s.s.s.s.s.s.s.s.s.s.s.s.s.s.s.s.s.s.s.s.s.s.s.s.s.s.s.s.s.s.s.s.s.s.s.s.s.s.s.s.s.s.s.s.s.s.s.s.s.s.s.s.s.s.s.s.s.s.s.s.s.s.s.s.s.s.s.s.s.s.s.s.s.s.s.s.s.",
"s.s.s.s.s.s.s.s.s.s.s.s.s.s.s.s.s.s.s.s.s.s.s.s.s.s.s.s.s.s.s.s.s.s.s.s.s.s.s.s.s.s.s.s.s.s.s.s.s.s.s.s.s.s.s.s.s.s.s.s.s.s.s.s.s.s.s.s.s.s.s.s.s.s.s.s.s.s.s.s.s.s.s.s.s.s.s.s.s.s.s.s.s.s.s.s.s.s.s.s.s.s.s.s.s.s.s.s.s.s.s.s.s.s.s.s.s.s.s.s.s.s.s.s.s.s.s.s.s.s.s.s.s.s.s.s.s.s.s.s.s.s.s.s.s.s.s.s.s.s.s.s.s.s.s.s.s.s.s.s.s.s.s.s.s.s.s.s.s.s.s.s.s.s.s.s.s.s.s.s.s.s.s.s.s.s.s.s.s.s.s.s.s.s.s.s.s.s.s.s.s.s.s.s.s.s.s.s.s.s.s.s.s.s.s.s.s.s.s.s.s.s.s.s.s.s.s.s.s.s.s.s.s.s.s.s.s.s.s.s.s.s.s.s.s.s.s.s.s.s.s.s.s.s.s.s.s.s.s.s.s.s.s.s.s.s.s.s.s.s.s.s.s.s.s.s.s.s.s.s.s.s.s.s.s.s.s.s.s.s.s.s.s.s.s.s.s.s.s.s.s.s.| { ` #.$.;.7.y.7.u.u.y.f.l.l.m.M.S.S.C.J.l.J.T.!.!.J.J.J.J.h.y.d.d.y.y.7.y.f.u.u.5.#.#.$.s.s.s.s.s.s.s.s.s.s.s.s.s.s.s.s.s.s.s.s.s.s.s.s.s.s.s.s.s.s.s.s.s.s.s.s.s.s.s.s.s.s.s.s.s.6.b.h.d.T.T.J.M.U.U.T.W.J.^.T.!.^.T.h.l.k.l.A.Q.Q. X}. X(.J.k.d.g.d.7.| s.s.s.s.s.s.s.s.s.s.s.s.s.s.s.s.s.s.s.s.s.s.s.s.s.s.s.s.s.s.s.s.s.s.s.s.s.s.s.s.s.s.s.s.s.s.s.s.s.s.s.s.s.s.s.s.s.s.s.s.s.s.s.s.s.s.s.s.s.s.s.s.s.s.s.s.s.s.s.s.s.s.s.s.s.s.s.s.s.s.s.s.s.s.s.s.s.s.s.s.s.s.s.s.s.s.s.s.s.s.s.s.s.s.s.s.s.s.s.s.s.s.s.s.s.s.s.s.s.s.s.s.s.s.s.s.s.s.s.s.s.s.s.s.s.s.s.s.s.s.s.s.s.s.s.s.s.s.s.s.s.s.s.s.s.s.s.s.s.s.s.s.",
"s.s.s.s.s.s.s.s.s.s.s.s.s.s.s.s.s.s.s.s.s.s.s.s.s.s.s.s.s.s.s.s.s.s.s.s.s.s.s.s.s.s.s.s.s.s.s.s.s.s.s.s.s.s.s.s.s.s.s.s.s.s.s.s.s.s.s.s.s.s.s.s.s.s.s.s.s.s.s.s.s.s.s.s.s.s.s.s.s.s.s.s.s.s.s.s.s.s.s.s.s.s.s.s.s.s.s.s.s.s.s.s.s.s.s.s.s.s.s.s.s.s.s.s.s.s.s.s.s.s.s.s.s.s.s.s.s.s.s.s.s.s.s.s.s.s.s.s.s.s.s.s.s.s.s.s.s.s.s.s.s.s.s.s.s.s.s.s.s.s.s.s.s.s.s.s.s.s.s.s.s.s.s.s.s.s.s.s.s.s.s.s.s.s.s.s.s.s.s.s.s.s.s.s.s.s.s.s.s.s.s.s.s.s.s.s.s.s.s.s.s.s.s.s.s.s.s.s.s.s.s.s.s.s.s.s.s.s.s.s.s.s.s.s.s.s.s.s.s.s.s.s.s.s.s.s.s.s.s.s.s.s.s.s.s.s.s.s.s.s.s.s.s.s.s.s.s.s.s.s.s.s.s.s.s.s.s.s.s.s.s.s.s.s.s.s.s.s.s.s.s.s.X.( ..#.$.;.7.y.7.7.u.f.f.M.m.m.J.S.H.W.!.T.T.I.J.I.J.U.J.l.h.h.h.d.y.7.5.7.y.y.u.5.-.#.$.` s.s.s.s.s.s.s.s.s.s.s.s.s.s.s.s.s.s.s.s.s.s.s.s.s.s.s.s.s.s.s.s.s.s.s.s.s.s.s.s.s.s.s. .7.y.h.T.E.E.^.W.W.W.!.^.^./.^.^.(.^.U.W.~.(.^.U.J.T.^.}.}.^.^.T.g.r.l.7.[ s.s.s.s.s.s.s.s.s.s.s.s.s.s.s.s.s.s.s.s.s.s.s.s.s.s.s.s.s.s.s.s.s.s.s.s.s.s.s.s.s.s.s.s.s.s.s.s.s.s.s.s.s.s.s.s.s.s.s.s.s.s.s.s.s.s.s.s.s.s.s.s.s.s.s.s.s.s.s.s.s.s.s.s.s.s.s.s.s.s.s.s.s.s.s.s.s.s.s.s.s.s.s.s.s.s.s.s.s.s.s.s.s.s.s.s.s.s.s.s.s.s.s.s.s.s.s.s.s.s.s.s.s.s.s.s.s.s.s.s.s.s.s.s.s.s.s.s.s.s.s.s.s.s.s.s.s.s.s.s.s.s.s.s.s.s.s.s.s.s.s.",
"s.s.s.s.s.s.s.s.s.s.s.s.s.s.s.s.s.s.s.s.s.s.s.s.s.s.s.s.s.s.s.s.s.s.s.s.s.s.s.s.s.s.s.s.s.s.s.s.s.s.s.s.s.s.s.s.s.s.s.s.s.s.s.s.s.s.s.s.s.s.s.s.s.s.s.s.s.s.s.s.s.s.s.s.s.s.s.s.s.s.s.s.s.s.s.s.s.s.s.s.s.s.s.s.s.s.s.s.s.s.s.s.s.s.s.s.s.s.s.s.s.s.s.s.s.s.s.s.s.s.s.s.s.s.s.s.s.s.s.s.s.s.s.s.s.s.s.s.s.s.s.s.s.s.s.s.s.s.s.s.s.s.s.s.s.s.s.s.s.s.s.s.s.s.s.s.s.s.s.s.s.s.s.s.s.s.s.s.s.s.s.s.s.s.s.s.s.s.s.s.s.s.s.s.s.s.s.s.s.s.s.s.s.s.s.s.s.s.s.s.s.s.s.s.s.s.s.s.s.s.s.s.s.s.s.s.s.s.s.s.s.s.s.s.s.s.s.s.s.s.s.s.s.s.s.s.s.s.s.s.s.s.s.s.s.s.s.s.s.s.s.s.s.s.s.s.s.s.s.s.s.s.s.s.s.s.s.s.s.s.s.s.s.s.s.s.s.s.s.s.s.[ [ ( ..#.$.*.;.7.7.7.y.f.h.h.M.J.T.T.J.J.W.!.W.T.T.T.U.J.J.l.h.h.d.y.y.7.5.;.7.y.5.5.-.#.#...s.s.s.s.s.s.s.s.s.s.s.s.s.s.s.s.s.s.s.s.s.s.s.s.s.s.s.s.s.s.s.s.s.s.s.s.s.s.s.s.s.s.` $.f.M.E.E.E.!.!.Q.Q.T.^.^.J.J.W.T.U.!.(. X X^.(.^.Q.W.T.!.^.}. X^.E.l.7.y.| s.s.s.s.s.s.s.s.s.s.s.s.s.s.s.s.s.s.s.s.s.s.s.s.s.s.s.s.s.s.s.s.s.s.s.s.s.s.s.s.s.s.s.s.s.s.s.s.s.s.s.s.s.s.s.s.s.s.s.s.s.s.s.s.s.s.s.s.s.s.s.s.s.s.s.s.s.s.s.s.s.s.s.s.s.s.s.s.s.s.s.s.s.s.s.s.s.s.s.s.s.s.s.s.s.s.s.s.s.s.s.s.s.s.s.s.s.s.s.s.s.s.s.s.s.s.s.s.s.s.s.s.s.s.s.s.s.s.s.s.s.s.s.s.s.s.s.s.s.s.s.s.s.s.s.s.s.s.s.s.s.s.s.s.s.s.s.s.s.s.s.",
"s.s.s.s.s.s.s.s.s.s.s.s.s.s.s.s.s.s.s.s.s.s.s.s.s.s.s.s.s.s.s.s.s.s.s.s.s.s.s.s.s.s.s.s.s.s.s.s.s.s.s.s.s.s.s.s.s.s.s.s.s.s.s.s.s.s.s.s.s.s.s.s.s.s.s.s.s.s.s.s.s.s.s.s.s.s.s.s.s.s.s.s.s.s.s.s.s.s.s.s.s.s.s.s.s.s.s.s.s.s.s.s.s.s.s.s.s.s.s.s.s.s.s.s.s.s.s.s.s.s.s.s.s.s.s.s.s.s.s.s.s.s.s.s.s.s.s.s.s.s.s.s.s.s.s.s.s.s.s.s.s.s.s.s.s.s.s.s.s.s.s.s.s.s.s.s.s.s.s.s.s.s.s.s.s.s.s.s.s.s.s.s.s.s.s.s.s.s.s.s.s.s.s.s.s.s.s.s.s.s.s.s.s.s.s.s.s.s.s.s.s.s.s.s.s.s.s.s.s.s.s.s.s.s.s.s.s.s.s.s.s.s.s.s.s.s.s.s.s.s.s.s.s.s.s.s.s.s.s.s.s.s.s.s.s.s.s.s.s.s.s.s.s.s.s.s.s.s.s.s.s.s.s.s.s.s.s.s.s.s.s.s.s.s.s.s.s.s.s.s.s.[ R | ....$.*.*.;.7.5.y.h.l.h.l.J.E.T.U.U.J.W.W.W.!.!.!.U.J.l.l.h.d.y.y.7.7.;.;.7.5.5.*.$.#.| Y s.s.s.s.s.s.s.s.s.s.s.s.s.s.s.s.s.s.s.s.s.s.s.s.s.s.s.s.s.s.s.s.s.s.s.s.s.s.s.s.[ =.h.v.M.M.T.E.!.}.{.^.^.!.T.T.T.^.T.I.T.l.h.T.!.!.}.}.^.^.T.T.W.W.T.^.E.h.=.5.( s.s.s.s.s.s.s.s.s.s.s.s.s.s.s.s.s.s.s.s.s.s.s.s.s.s.s.s.s.s.s.s.s.s.s.s.s.s.s.s.s.s.s.s.s.s.s.s.s.s.s.s.s.s.s.s.s.s.s.s.s.s.s.s.s.s.s.s.s.s.s.s.s.s.s.s.s.s.s.s.s.s.s.s.s.s.s.s.s.s.s.s.s.s.s.s.s.s.s.s.s.s.s.s.s.s.s.s.s.s.s.s.s.s.s.s.s.s.s.s.s.s.s.s.s.s.s.s.s.s.s.s.s.s.s.s.s.s.s.s.s.s.s.s.s.s.s.s.s.s.s.s.s.s.s.s.s.s.s.s.s.s.s.s.s.s.s.s.s.s.",
"s.s.s.s.s.s.s.s.s.s.s.s.s.s.s.s.s.s.s.s.s.s.s.s.s.s.s.s.s.s.s.s.s.s.s.s.s.s.s.s.s.s.s.s.s.s.s.s.s.s.s.s.s.s.s.s.s.s.s.s.s.s.s.s.s.s.s.s.s.s.s.s.s.s.s.s.s.s.s.s.s.s.s.s.s.s.s.s.s.s.s.s.s.s.s.s.s.s.s.s.s.s.s.s.s.s.s.s.s.s.s.s.s.s.s.s.s.s.s.s.s.s.s.s.s.s.s.s.s.s.s.s.s.s.s.s.s.s.s.s.s.s.s.s.s.s.s.s.s.s.s.s.s.s.s.s.s.s.s.s.s.s.s.s.s.s.s.s.s.s.s.s.s.s.s.s.s.s.s.s.s.s.s.s.s.s.s.s.s.s.s.s.s.s.s.s.s.s.s.s.s.s.s.s.s.s.s.s.s.s.s.s.s.s.s.s.s.s.s.s.s.s.s.s.s.s.s.s.s.s.s.s.s.s.s.s.s.s.s.s.s.s.s.s.s.s.s.s.s.s.s.s.s.s.s.s.s.s.s.s.s.s.s.s.s.s.s.s.s.s.s.s.s.s.s.s.s.s.s.s.s.s.s.s.s.s.s.s.s.s.s.s.s.s.s.s.s.s.s.s.R [ R [ | ..#.$.;.7.7.y.f.h.l.J.H.H.T.T.T.!.W.!.^.^.^.^.T.A.J.A.A.l.d.d.y.7.>.;.;.;.;.5.-.$.$.| [ s.s.s.s.s.s.s.s.s.s.s.s.s.s.s.s.s.s.s.s.s.s.s.s.s.s.s.s.s.s.s.s.s.s.s.s.s.s.s.[ 5.y.f.h.v.M.H.H.H.M.J.T.H.E.E.!.[.^.{.^.!.E.!.I.J.l.J.J.!.^.}.^.!.T.l.J.E.H.y.=.[ s.s.s.s.s.s.s.s.s.s.s.s.s.s.s.s.s.s.s.s.s.s.s.s.s.s.s.s.s.s.s.s.s.s.s.s.s.s.s.s.s.s.s.s.s.s.s.s.s.s.s.s.s.s.s.s.s.s.s.s.s.s.s.s.s.s.s.s.s.s.s.s.s.s.s.s.s.s.s.s.s.s.s.s.s.s.s.s.s.s.s.s.s.s.s.s.s.s.s.s.s.s.s.s.s.s.s.s.s.s.s.s.s.s.s.s.s.s.s.s.s.s.s.s.s.s.s.s.s.s.s.s.s.s.s.s.s.s.s.s.s.s.s.s.s.s.s.s.s.s.s.s.s.s.s.s.s.s.s.s.s.s.s.s.s.s.s.s.s.s.",
"s.s.s.s.s.s.s.s.s.s.s.s.s.s.s.s.s.s.s.s.s.s.s.s.s.s.s.s.s.s.s.s.s.s.s.s.s.s.s.s.s.s.s.s.s.s.s.s.s.s.s.s.s.s.s.s.s.s.s.s.s.s.s.s.s.s.s.s.s.s.s.s.s.s.s.s.s.s.s.s.s.s.s.s.s.s.s.s.s.s.s.s.s.s.s.s.s.s.s.s.s.s.s.s.s.s.s.s.s.s.s.s.s.s.s.s.s.s.s.s.s.s.s.s.s.s.s.s.s.s.s.s.s.s.s.s.s.s.s.s.s.s.s.s.s.s.s.s.s.s.s.s.s.s.s.s.s.s.s.s.s.s.s.s.s.s.s.s.s.s.s.s.s.s.s.s.s.s.s.s.s.s.s.s.s.s.s.s.s.s.s.s.s.s.s.s.s.s.s.s.s.s.s.s.s.s.s.s.s.s.s.s.s.s.s.s.s.s.s.s.s.s.s.s.s.s.s.s.s.s.s.s.s.s.s.s.s.s.s.s.s.s.s.s.s.s.s.s.s.s.s.s.s.s.s.s.s.s.s.s.s.s.s.s.s.s.s.s.s.s.s.s.s.s.s.s.s.s.s.s.s.s.s.s.s.s.s.s.s.s.s.s.s.s.s.s.s.s.s.s.{ R ( | ....$.*.;.7.y.u.h.M.M.J.T.E.T.E.!.!.(.!.!.W.Q.Q.!.T.T.A.l.h.d.y.y.:.;.;.*.*.=.;.-.*.$.| [ s.s.s.s.s.s.s.s.s.s.s.s.s.s.s.s.s.s.s.s.s.s.s.s.s.s.s.s.s.s.s.s.s.s.s.s.s.s. .2.7.y.f.f.h.h.M.m.J.v.h.v.M.M.S.M.S.J.H.E.J.!.E.!.!.T.T.J.l.l.J.!.^.^.J.h.h.h.b.=.#.Q s.s.s.s.s.s.s.s.s.s.s.s.s.s.s.s.s.s.s.s.s.s.s.s.s.s.s.s.s.s.s.s.s.s.s.s.s.s.s.s.s.s.s.s.s.s.s.s.s.s.s.s.s.s.s.s.s.s.s.s.s.s.s.s.s.s.s.s.s.s.s.s.s.s.s.s.s.s.s.s.s.s.s.s.s.s.s.s.s.s.s.s.s.s.s.s.s.s.s.s.s.s.s.s.s.s.s.s.s.s.s.s.s.s.s.s.s.s.s.s.s.s.s.s.s.s.s.s.s.s.s.s.s.s.s.s.s.s.s.s.s.s.s.s.s.s.s.s.s.s.s.s.s.s.s.s.s.s.s.s.s.s.s.s.s.s.s.s.s.",
"s.s.s.s.s.s.s.s.s.s.s.s.s.s.s.s.s.s.s.s.s.s.s.s.s.s.s.s.s.s.s.s.s.s.s.s.s.s.s.s.s.s.s.s.s.s.s.s.s.s.s.s.s.s.s.s.s.s.s.s.s.s.s.s.s.s.s.s.s.s.s.s.s.s.s.s.s.s.s.s.s.s.s.s.s.s.s.s.s.s.s.s.s.s.s.s.s.s.s.s.s.s.s.s.s.s.s.s.s.s.s.s.s.s.s.s.s.s.s.s.s.s.s.s.s.s.s.s.s.s.s.s.s.s.s.s.s.s.s.s.s.s.s.s.s.s.s.s.s.s.s.s.s.s.s.s.s.s.s.s.s.s.s.s.s.s.s.s.s.s.s.s.s.s.s.s.s.s.s.s.s.s.s.s.s.s.s.s.s.s.s.s.s.s.s.s.s.s.s.s.s.s.s.s.s.s.s.s.s.s.s.s.s.s.s.s.s.s.s.s.s.s.s.s.s.s.s.s.s.s.s.s.s.s.s.s.s.s.s.s.s.s.s.s.s.s.s.s.s.s.s.s.s.s.s.s.s.s.s.s.s.s.s.s.s.s.s.s.s.s.s.s.s.s.s.s.s.s.s.s.s.s.s.s.s.s.s.s.s.s.s.s.s.s.s.s.s.s.s.K ( ( ( | ..#.$.*.;.7.y.f.h.M.H.T.K.T.!.!.^.!.^.(.^.}.}.}.^.!.T.J.C.h.d.d.y.;.7.>.=.*.;.*.*.#.#...| W s.s.s.s.s.s.s.s.s.s.s.s.s.s.s.s.s.s.s.s.s.s.s.s.s.s.s.s.s.s.s.s.s.s.s.s.{ =.>.y.f.u.f.k.h.M.l.l.H.H.M.h.v.v.M.M.M.m.m.J.Y.E.Y.E.T.^.E.H.L.M.h.J.T.!.M.h.f.h.7..._ s.s.s.s.s.s.s.s.s.s.s.s.s.s.s.s.s.s.s.s.s.s.s.s.s.s.s.s.s.s.s.s.s.s.s.s.s.s.s.s.s.s.s.s.s.s.s.s.s.s.s.s.s.s.s.s.s.s.s.s.s.s.s.s.s.s.s.s.s.s.s.s.s.s.s.s.s.s.s.s.s.s.s.s.s.s.s.s.s.s.s.s.s.s.s.s.s.s.s.s.s.s.s.s.s.s.s.s.s.s.s.s.s.s.s.s.s.s.s.s.s.s.s.s.s.s.s.s.s.s.s.s.s.s.s.s.s.s.s.s.s.s.s.s.s.s.s.s.s.s.s.s.s.s.s.s.s.s.s.s.s.s.s.s.s.s.s.s.s.",
"s.s.s.s.s.s.s.s.s.s.s.s.s.s.s.s.s.s.s.s.s.s.s.s.s.s.s.s.s.s.s.s.s.s.s.s.s.s.s.s.s.s.s.s.s.s.s.s.s.s.s.s.s.s.s.s.s.s.s.s.s.s.s.s.s.s.s.s.s.s.s.s.s.s.s.s.s.s.s.s.s.s.s.s.s.s.s.s.s.s.s.s.s.s.s.s.s.s.s.s.s.s.s.s.s.s.s.s.s.s.s.s.s.s.s.s.s.s.s.s.s.s.s.s.s.s.s.s.s.s.s.s.s.s.s.s.s.s.s.s.s.s.s.s.s.s.s.s.s.s.s.s.s.s.s.s.s.s.s.s.s.s.s.s.s.s.s.s.s.s.s.s.s.s.s.s.s.s.s.s.s.s.s.s.s.s.s.s.s.s.s.s.s.s.s.s.s.s.s.s.s.s.s.s.s.s.s.s.s.s.s.s.s.s.s.s.s.s.s.s.s.s.s.s.s.s.s.s.s.s.s.s.s.s.s.s.s.s.s.s.s.s.s.s.s.s.s.s.s.s.s.s.s.s.s.s.s.s.s.s.s.s.s.s.s.s.s.s.s.s.s.s.s.s.s.s.s.s.s.s.s.s.s.s.s.s.s.s.s.s.s.s.s.s.s.s.s.s.s.Y R E ` | ..$.$.=.5.y.f.h.h.M.H.T.E.!.^.^.^.^.(.(.^.}. X}.^.!.!.J.J.h.h.g.r.;.:.;.;.=.*.*.*.*.$...| [ s.s.s.s.s.s.s.s.s.s.s.s.s.s.s.s.s.s.s.s.s.s.s.s.s.s.s.s.s.s.s.s.s.s.s.s.$.5.7.y.y.h.h.M.H.J.T.T.E.T.T.L.H.H.Y.H.T.m.M.k.h.M.H.H.J.H.E.H.E.M.l.f.l.H.M.l.y.y.7...( M s.s.s.s.s.s.s.s.s.s.s.s.s.s.s.s.s.s.s.s.s.s.s.s.s.s.s.s.s.s.s.s.s.s.s.s.s.s.s.s.s.s.s.s.s.s.s.s.s.s.s.s.s.s.s.s.s.s.s.s.s.s.s.s.s.s.s.s.s.s.s.s.s.s.s.s.s.s.s.s.s.s.s.s.s.s.s.s.s.s.s.s.s.s.s.s.s.s.s.s.s.s.s.s.s.s.s.s.s.s.s.s.s.s.s.s.s.s.s.s.s.s.s.s.s.s.s.s.s.s.s.s.s.s.s.s.s.s.s.s.s.s.s.s.s.s.s.s.s.s.s.s.s.s.s.s.s.s.s.s.s.s.s.s.s.s.s.s.",
"s.s.s.s.s.s.s.s.s.s.s.s.s.s.s.s.s.s.s.s.s.s.s.s.s.s.s.s.s.s.s.s.s.s.s.s.s.s.s.s.s.s.s.s.s.s.s.s.s.s.s.s.s.s.s.s.s.s.s.s.s.s.s.s.s.s.s.s.s.s.s.s.s.s.s.s.s.s.s.s.s.s.s.s.s.s.s.s.s.s.s.s.s.s.s.s.s.s.s.s.s.s.s.s.s.s.s.s.s.s.s.s.s.s.s.s.s.s.s.s.s.s.s.s.s.s.s.s.s.s.s.s.s.s.s.s.s.s.s.s.s.s.s.s.s.s.s.s.s.s.s.s.s.s.s.s.s.s.s.s.s.s.s.s.s.s.s.s.s.s.s.s.s.s.s.s.s.s.s.s.s.s.s.s.s.s.s.s.s.s.s.s.s.s.s.s.s.s.s.s.s.s.s.s.s.s.s.s.s.s.s.s.s.s.s.s.s.s.s.s.s.s.s.s.s.s.s.s.s.s.s.s.s.s.s.s.s.s.s.s.s.s.s.s.s.s.s.s.s.s.s.s.s.s.s.s.s.s.s.s.s.s.s.s.s.s.s.s.s.s.s.s.s.s.s.s.s.s.s.s.s.s.s.s.s.s.s.s.s.s.s.s.s.s.s.s.s.s.s.[ E ( ( .. .#.*.;.7.y.f.h.M.J.L.E.E.!.^.!.^.^.(.(.^.}.^.{.^.!.!.T.S.l.l.h.y.:.:.;.-.=.*.*.*.$.$...| ` s.s.s.s.s.s.s.s.s.s.s.s.s.s.s.s.s.s.s.s.s.s.s.s.s.s.s.s.s.s.s.s.s.s.s.X.=.7.y.f.h.l.H.M.T.!.T.!.!.T.!.!.!.T.T.E.E.H.H.M.M.h.l.M.l.h.J.L.J.J.h.h.f.h.l.h.y.5.7.#.( D s.s.s.s.s.s.s.s.s.s.s.s.s.s.s.s.s.s.s.s.s.s.s.s.s.s.s.s.s.s.s.s.s.s.s.s.s.s.s.s.s.s.s.s.s.s.s.s.s.s.s.s.s.s.s.s.s.s.s.s.s.s.s.s.s.s.s.s.s.s.s.s.s.s.s.s.s.s.s.s.s.s.s.s.s.s.s.s.s.s.s.s.s.s.s.s.s.s.s.s.s.s.s.s.s.s.s.s.s.s.s.s.s.s.s.s.s.s.s.s.s.s.s.s.s.s.s.s.s.s.s.s.s.s.s.s.s.s.s.s.s.s.s.s.s.s.s.s.s.s.s.s.s.s.s.s.s.s.s.s.s.s.s.s.s.s.s.s.",
"s.s.s.s.s.s.s.s.s.s.s.s.s.s.s.s.s.s.s.s.s.s.s.s.s.s.s.s.s.s.s.s.s.s.s.s.s.s.s.s.s.s.s.s.s.s.s.s.s.s.s.s.s.s.s.s.s.s.s.s.s.s.s.s.s.s.s.s.s.s.s.s.s.s.s.s.s.s.s.s.s.s.s.s.s.s.s.s.s.s.s.s.s.s.s.s.s.s.s.s.s.s.s.s.s.s.s.s.s.s.s.s.s.s.s.s.s.s.s.s.s.s.s.s.s.s.s.s.s.s.s.s.s.s.s.s.s.s.s.s.s.s.s.s.s.s.s.s.s.s.s.s.s.s.s.s.s.s.s.s.s.s.s.s.s.s.s.s.s.s.s.s.s.s.s.s.s.s.s.s.s.s.s.s.s.s.s.s.s.s.s.s.s.s.s.s.s.s.s.s.s.s.s.s.s.s.s.s.s.s.s.s.s.s.s.s.s.s.s.s.s.s.s.s.s.s.s.s.s.s.s.s.s.s.s.s.s.s.s.s.s.s.s.s.s.s.s.s.s.s.s.s.s.s.s.s.s.s.s.s.s.s.s.s.s.s.s.s.s.s.s.s.s.s.s.s.s.s.s.s.s.s.s.s.s.s.s.s.s.s.s.s.s.s.s.s.s.s.s.Y T ( | | ..#.$.5.7.f.h.h.M.k.M.H.E.!.!.!.!.^.!.!.^.!.^.^.!.!.!.W.W.J.l.h.d.y.:.:.;.*.=.*.#.#.#.X.| ` Y s.s.s.s.s.s.s.s.s.s.s.s.s.s.s.s.s.s.s.s.s.s.s.s.s.s.s.s.s.s.s.s.s.X.=.7.y.h.b.M.J.H.T.!.!.Q.Q.^.!.!.^.^.^.Q.!.T.T.T.Y.Y.l.M.l.l.f.h.M.M.l.h.h.h.f.y.f.h.;.-.#.` D s.s.s.s.s.s.s.s.s.s.s.s.s.s.s.s.s.s.s.s.s.s.s.s.s.s.s.s.s.s.s.s.s.s.s.s.s.s.s.s.s.s.s.s.s.s.s.s.s.s.s.s.s.s.s.s.s.s.s.s.s.s.s.s.s.s.s.s.s.s.s.s.s.s.s.s.s.s.s.s.s.s.s.s.s.s.s.s.s.s.s.s.s.s.s.s.s.s.s.s.s.s.s.s.s.s.s.s.s.s.s.s.s.s.s.s.s.s.s.s.s.s.s.s.s.s.s.s.s.s.s.s.s.s.s.s.s.s.s.s.s.s.s.s.s.s.s.s.s.s.s.s.s.s.s.s.s.s.s.s.s.s.s.s.s.s.s.s.",
"s.s.s.s.s.s.s.s.s.s.s.s.s.s.s.s.s.s.s.s.s.s.s.s.s.s.s.s.s.s.s.s.s.s.s.s.s.s.s.s.s.s.s.s.s.s.s.s.s.s.s.s.s.s.s.s.s.s.s.s.s.s.s.s.s.s.s.s.s.s.s.s.s.s.s.s.s.s.s.s.s.s.s.s.s.s.s.s.s.s.s.s.s.s.s.s.s.s.s.s.s.s.s.s.s.s.s.s.s.s.s.s.s.s.s.s.s.s.s.s.s.s.s.s.s.s.s.s.s.s.s.s.s.s.s.s.s.s.s.s.s.s.s.s.s.s.s.s.s.s.s.s.s.s.s.s.s.s.s.s.s.s.s.s.s.s.s.s.s.s.s.s.s.s.s.s.s.s.s.s.s.s.s.s.s.s.s.s.s.s.s.s.s.s.s.s.s.s.s.s.s.s.s.s.s.s.s.s.s.s.s.s.s.s.s.s.s.s.s.s.s.s.s.s.s.s.s.s.s.s.s.s.s.s.s.s.s.s.s.s.s.s.s.s.s.s.R $...=.X. .P s.s.s.s.s.s.s.s.s.s.s.s.s.s.s.s.s.s.s.s.s.s.s.s.s.s.s.s.s.s.s.s.s.s.s.s.s.s.s.s.s.s.s.s.s.Y T T ( | | ..#.*.;.7.u.f.h.M.J.J.H.T.!.!.!.^.W.!.^.!.W.^.Q.!.^.!.T.T.J.l.h.d.y.:.;.#.*.*.#.#.#.....[ ` R s.s.s.s.s.s.s.s.s.s.s.s.s.s.s.s.s.s.s.s.s.s.s.s.s.s.s.s.s.s.s.s.$.$.y.y.f.h.M.M.T.T.T.E.!.!.^.^.^.^.^.^.^.W.!.^.^.!.T.H.l.l.l.l.f.f.h.h.M.M.h.y.f.y.7.f.=.#.#.` F V s.s.s.s.s.s.s.s.s.s.s.s.s.s.s.s.s.s.s.s.s.s.s.s.s.s.s.s.s.s.s.s.s.s.s.s.s.s.s.s.s.s.s.s.s.s.s.s.s.s.s.s.s.s.s.s.s.s.s.s.s.s.s.s.s.s.s.s.s.s.s.s.s.s.s.s.s.s.s.s.s.s.s.s.s.s.s.s.s.s.s.s.s.s.s.s.s.s.s.s.s.s.s.s.s.s.s.s.s.s.s.s.s.s.s.s.s.s.s.s.s.s.s.s.s.s.s.s.s.s.s.s.s.s.s.s.s.s.s.s.s.s.s.s.s.s.s.s.s.s.s.s.s.s.s.s.s.s.s.s.s.s.s.s.s.s.s.",
"s.s.s.s.s.s.s.s.s.s.s.s.s.s.s.s.s.s.s.s.s.s.s.s.s.s.s.s.s.s.s.s.s.s.s.s.s.s.s.s.s.s.s.s.s.s.s.s.s.s.s.s.s.s.s.s.s.s.s.s.s.s.s.s.s.s.s.s.s.s.s.s.s.s.s.s.s.s.s.s.s.s.s.s.s.s.s.s.s.s.s.s.s.s.s.s.s.s.s.s.s.s.s.s.s.s.s.s.s.s.s.s.s.s.s.s.s.s.s.s.s.s.s.s.s.s.s.s.s.s.s.s.s.s.s.s.s.s.s.s.s.s.s.s.s.s.s.s.s.s.s.s.s.s.s.s.s.s.s.s.s.s.s.s.s.s.s.s.s.s.s.s.s.s.s.s.s.s.s.s.s.s.s.s.s.s.s.s.s.s.s.s.s.s.s.s.s.s.s.s.s.s.s.s.s.s.s.s.s.s.s.s.s.s.s.s.s.s.s.s.s.s.s.s.s.s.s.s.s.s.s.s.s.s.s.s.s.s.s.s.s.s.s.R _ 8.*.f.h.h.d.7.7.X.U s.s.s.s.s.s.s.s.s.s.s.s.s.s.s.s.s.s.s.s.s.s.s.s.s.s.s.s.s.s.s.s.s.s.s.s.s.s.s.s.s.s.s.J G R | | | ..#.=.5.y.f.f.f.h.J.S.T.L.T.T.!.!.!.W.!.!.!.T.T.T.W.T.T.T.U.J.l.f.y.y.7.*.*.#.#.#.....| | ( R s.s.s.s.s.s.s.s.s.s.s.s.s.s.s.s.s.s.s.s.s.s.s.s.s.s.s.s.s.s.s...$.5.u.f.M.b.M.J.T.!.!.!.^.^.!.^.^.^.^.!.^.^.^.^.^.Q.T.T.m.m.l.h.f.y.f.d.h.h.h.u.y.7.7.7.7.*...` G Z s.s.s.s.s.s.s.s.s.s.s.s.s.s.s.s.s.s.s.s.s.s.s.s.s.s.s.s.s.s.s.s.s.s.s.s.s.s.s.s.s.s.s.s.s.s.s.s.s.s.s.s.s.s.s.s.s.s.s.s.s.s.s.s.s.s.s.s.s.s.s.s.s.s.s.s.s.s.s.s.s.s.s.s.s.s.s.s.s.s.s.s.s.s.s.s.s.s.s.s.s.s.s.s.s.s.s.s.s.s.s.s.s.s.s.s.s.s.s.s.s.s.s.s.s.s.s.s.s.s.s.s.s.s.s.s.s.s.s.s.s.s.s.s.s.s.s.s.s.s.s.s.s.s.s.s.s.s.s.s.s.s.s.s.s.s.s.",
"s.s.s.s.s.s.s.s.s.s.s.s.s.s.s.s.s.s.s.s.s.s.s.s.s.s.s.s.s.s.s.s.s.s.s.s.s.s.s.s.s.s.s.s.s.s.s.s.s.s.s.s.s.s.s.s.s.s.s.s.s.s.s.s.s.s.s.s.s.s.s.s.s.s.s.s.s.s.s.s.s.s.s.s.s.s.s.s.s.s.s.s.s.s.s.s.s.s.s.s.s.s.s.s.s.s.s.s.s.s.s.s.s.s.s.s.s.s.s.s.s.s.s.s.s.s.s.s.s.s.s.s.s.s.s.s.s.s.s.s.s.s.s.s.s.s.s.s.s.s.s.s.s.s.s.s.s.s.s.s.s.s.s.s.s.s.s.s.s.s.s.s.s.s.s.s.s.s.s.s.s.s.s.s.s.s.s.s.s.s.s.s.s.s.s.s.s.s.s.s.s.s.s.s.s.s.s.s.s.s.s.s.s.s.s.s.s.s.s.s.s.s.s.s.s.s.s.s.s.s.s.s.s.s.s.s.s.s.s.s.Y { 5.7.M.H.H.T.W.J.T.H.H.b.7. .s.s.s.s.s.s.s.s.s.s.s.s.s.s.s.s.s.s.s.s.s.s.s.s.s.s.s.s.s.s.s.s.s.s.s.s.s.s.s.s.s.s.J U ( ( [ | ..#.5.7.y.f.f.f.h.M.H.L.L.T.T.T.!.!.T.T.T.T.!.W.W.T.T.U.J.A.l.h.h.f.y.7.;.*.#.#.#.....| [ ( E s.s.s.s.s.s.s.s.s.s.s.s.s.s.s.s.s.s.s.s.s.s.s.s.s.s.s.s.s.s.( $.7.7.u.f.h.M.H.E.T.!.!.^.!.^.^.(.(.^.^.^.(.(.!.Q.^.^.!.T.J.J.m.h.f.u.y.7.y.y.y.y.7.5.7.7.;.=...( U S s.s.s.s.s.s.s.s.s.s.s.s.s.s.s.s.s.s.s.s.s.s.s.s.s.s.s.s.s.s.s.s.s.s.s.s.s.s.s.s.s.s.s.s.s.s.s.s.s.s.s.s.s.s.s.s.s.s.s.s.s.s.s.s.s.s.s.s.s.s.s.s.s.s.s.s.s.s.s.s.s.s.s.s.s.s.s.s.s.s.s.s.s.s.s.s.s.s.s.s.s.s.s.s.s.s.s.s.s.s.s.s.s.s.s.s.s.s.s.s.s.s.s.s.s.s.s.s.s.s.s.s.s.s.s.s.s.s.s.s.s.s.s.s.s.s.s.s.s.s.s.s.s.s.s.s.s.s.s.s.s.s.s.s.s.s.s.",
"s.s.s.s.s.s.s.s.s.s.s.s.s.s.s.s.s.s.s.s.s.s.s.s.s.s.s.s.s.s.s.s.s.s.s.s.s.s.s.s.s.s.s.s.s.s.s.s.s.s.s.s.s.s.s.s.s.s.s.s.s.s.s.s.s.s.s.s.s.s.s.s.s.s.s.s.s.s.s.s.s.s.s.s.s.s.s.s.s.s.s.s.s.s.s.s.s.s.s.s.s.s.s.s.s.s.s.s.s.s.s.s.s.s.s.s.s.s.s.s.s.s.s.s.s.s.s.s.s.s.s.s.s.s.s.s.s.s.s.s.s.s.s.s.s.s.s.s.s.s.s.s.s.s.s.s.s.s.s.s.s.s.s.s.s.s.s.s.s.s.s.s.s.s.s.s.s.s.s.s.s.s.s.s.s.s.s.s.s.s.s.s.s.s.s.s.s.s.s.s.s.s.s.s.s.s.s.s.s.s.s.s.s.s.s.s.s.s.s.s.s.s.s.s.s.s.s.s.s.s.s.s.s.s.s.s.s.s. .u.5.7.f.T.T.T.J.S.J.J.!.J.H.M.M.u.X.s.s.s.s.s.s.s.s.s.s.s.s.s.s.s.s.s.s.s.s.s.s.s.s.s.s.s.s.s.s.s.s.s.s.s.s.s.s.s.s.s.J T [ ( | | ..$.5.7.7.f.f.h.l.h.v.S.H.H.T.T.J.T.T.W.T.U.W.W.W.T.U.J.J.l.h.h.h.f.y.7.:.*.#.X.X...| | | ` Y s.s.s.s.s.s.s.s.s.s.s.s.s.s.s.s.s.s.s.s.s.s.s.s.s.s.s.s.s.s.=.2.5.u.f.h.M.H.L.T.!.^.^.^.^.}.}.}.^.^.^.^.^.^.^.^.^.}.!.T.T.m.J.k.h.d.f.y.7.;.7.7.7.5.=.;.;.*...` H F A s.s.s.s.s.s.s.s.s.s.s.s.s.s.s.s.s.s.s.s.s.s.s.s.s.s.s.s.s.s.s.s.s.s.s.s.s.s.s.s.s.s.s.s.s.s.s.s.s.s.s.s.s.s.s.s.s.s.s.s.s.s.s.s.s.s.s.s.s.s.s.s.s.s.s.s.s.s.s.s.s.s.s.s.s.s.s.s.s.s.s.s.s.s.s.s.s.s.s.s.s.s.s.s.s.s.s.s.s.s.s.s.s.s.s.s.s.s.s.s.s.s.s.s.s.s.s.s.s.s.s.s.s.s.s.s.s.s.s.s.s.s.s.s.s.s.s.s.s.s.s.s.s.s.s.s.s.s.s.s.s.s.s.s.s.s.",
"s.s.s.s.s.s.s.s.s.s.s.s.s.s.s.s.s.s.s.s.s.s.s.s.s.s.s.s.s.s.s.s.s.s.s.s.s.s.s.s.s.s.s.s.s.s.s.s.s.s.s.s.s.s.s.s.s.s.s.s.s.s.s.s.s.s.s.s.s.s.s.s.s.s.s.s.s.s.s.s.s.s.s.s.s.s.s.s.s.s.s.s.s.s.s.s.s.s.s.s.s.s.s.s.s.s.s.s.s.s.s.s.s.s.s.s.s.s.s.s.s.s.s.s.s.s.s.s.s.s.s.s.s.s.s.s.s.s.s.s.s.s.s.s.s.s.s.s.s.s.s.s.s.s.s.s.s.s.s.s.s.s.s.s.s.s.s.s.s.s.s.s.s.s.s.s.s.s.s.s.s.s.s.s.s.s.s.s.s.s.s.s.s.s.s.s.s.s.s.s.s.s.s.s.s.s.s.s.s.s.s.s.s.s.s.s.s.s.s.s.s.s.s.s.s.s.s.s.s.s.s.s.s.s.s.s.s.y.h.d.h.k.h.m.h.d.d.l.l.h.l.h.M.J.J.J.h.X.s.s.s.s.s.s.s.s.s.s.s.s.s.s.s.s.s.s.s.s.s.s.s.s.s.s.s.s.s.s.s.s.s.s.s.s.s.s.s.s.D ( [ ( | | #.=.5.y.y.u.f.h.v.h.h.M.M.J.H.H.L.T.T.J.J.T.T.!.!.T.H.J.l.l.l.h.h.f.d.y.y.;.=.X.X...| [ [ ( E U s.s.s.s.s.s.s.s.s.s.s.s.s.s.s.s.s.s.s.s.s.s.s.s.s.s.s.s.=.;.=.7.f.h.h.M.H.T.!.!.^.^.^.^.}.}.}.^.^.^.}.}.^.^.^.^.!.!.!.T.J.J.m.h.h.f.y.7.;.;.;.7.7.;.;.;.*...` E G F s.s.s.s.s.s.s.s.s.s.s.s.s.s.s.s.s.s.s.s.s.s.s.s.s.s.s.s.s.s.s.s.s.s.s.s.s.s.s.s.s.s.s.s.s.s.s.s.s.s.s.s.s.s.s.s.s.s.s.s.s.s.s.s.s.s.s.s.s.s.s.s.s.s.s.s.s.s.s.s.s.s.s.s.s.s.s.s.s.s.s.s.s.s.s.s.s.s.s.s.s.s.s.s.s.s.s.s.s.s.s.s.s.s.s.s.s.s.s.s.s.s.s.s.s.s.s.s.s.s.s.s.s.s.s.s.s.s.s.s.s.s.s.s.s.s.s.s.s.s.s.s.s.s.s.s.s.s.s.s.s.s.s.s.s.s.",
"s.s.s.s.s.s.s.s.s.s.s.s.s.s.s.s.s.s.s.s.s.s.s.s.s.s.s.s.s.s.s.s.s.s.s.s.s.s.s.s.s.s.s.s.s.s.s.s.s.s.s.s.s.s.s.s.s.s.s.s.s.s.s.s.s.s.s.s.s.s.s.s.s.s.s.s.s.s.s.s.s.s.s.s.s.s.s.s.s.s.s.s.s.s.s.s.s.s.s.s.s.s.s.s.s.s.s.s.s.s.s.s.s.s.s.s.s.s.s.s.s.s.s.s.s.s.s.s.s.s.s.s.s.s.s.s.s.s.s.s.s.s.s.s.s.s.s.s.s.s.s.s.s.s.s.s.s.s.s.s.s.s.s.s.s.s.s.s.s.s.s.s.s.s.s.s.s.s.s.s.s.s.s.s.s.s.s.s.s.s.s.s.s.s.s.s.s.s.s.s.s.s.s.s.s.s.s.s.s.s.s.s.s.s.s.s.s.s.s.s.s.s.s.s.s.s.s.s.s.s.s.s.s.s.s.2.y.y.j.g.l.d.y.y.f.h.l.J.Y.Y.m.M.M.M.S.J.M.f.$.s.s.s.s.s.s.s.s.s.s.s.s.s.s.s.s.s.s.s.s.s.s.s.s.s.s.s.s.s.s.s.s.s.s.s.s.s.s.s.D ` | ( ` | $.=.5.7.y.y.f.f.f.h.v.v.J.H.H.H.T.E.T.T.T.!.!.T.T.T.J.J.l.l.l.h.f.d.d.y.7.:.*.#.X...| | [ ( E U s.s.s.s.s.s.s.s.s.s.s.s.s.s.s.s.s.s.s.s.s.s.s.s.s.s.s.2.=.*.5.7.f.h.M.H.T.E.T.!.!.^.!.^.^.}.}.^.^.^.^.^.^.!.!.^.^.!.T.T.T.J.J.J.h.d.y.y.7.;.;.;.;.;.*.*.*.$.` E T G F s.s.s.s.s.s.s.s.s.s.s.s.s.s.s.s.s.s.s.s.s.s.s.s.s.s.s.s.s.s.s.s.s.s.s.s.s.s.s.s.s.s.s.s.s.s.s.s.s.s.s.s.s.s.s.s.s.s.s.s.s.s.s.s.s.s.s.s.s.s.s.s.s.s.s.s.s.s.s.s.s.s.s.s.s.s.s.s.s.s.s.s.s.s.s.s.s.s.s.s.s.s.s.s.s.s.s.s.s.s.s.s.s.s.s.s.s.s.s.s.s.s.s.s.s.s.s.s.s.s.s.s.s.s.s.s.s.s.s.s.s.s.s.s.s.s.s.s.s.s.s.s.s.s.s.s.s.s.s.s.s.s.s.s.s.",
"s.s.s.s.s.s.s.s.s.s.s.s.s.s.s.s.s.s.s.s.s.s.s.s.s.s.s.s.s.s.s.s.s.s.s.s.s.s.s.s.s.s.s.s.s.s.s.s.s.s.s.s.s.s.s.s.s.s.s.s.s.s.s.s.s.s.s.s.s.s.s.s.s.s.s.s.s.s.s.s.s.s.s.s.s.s.s.s.s.s.s.s.s.s.s.s.s.s.s.s.s.s.s.s.s.s.s.s.s.s.s.s.s.s.s.s.s.s.s.s.s.s.s.s.s.s.s.s.s.s.s.s.s.s.s.s.s.s.s.s.s.s.s.s.s.s.s.s.s.s.s.s.s.s.s.s.s.s.s.s.s.s.s.s.s.s.s.s.s.s.s.s.s.s.s.s.s.s.s.s.s.s.s.s.s.s.s.s.s.s.s.s.s.s.s.s.s.s.s.s.s.s.s.s.s.s.s.s.s.s.s.s.s.s.s.s.s.s.s.s.s.s.s.s.s.s.s.s.s.s.s.s.s.s.f.7.y.d.y.y.d.y.d.h.k.k.M.m.m.Y.J.M.M.h.M.l.h.h.f.X.s.s.s.s.s.s.s.s.s.s.s.s.s.s.s.s.s.s.s.s.s.s.s.s.s.s.s.s.s.s.s.s.s.s.s.s.s.s.D ` [ ` ` ..$.;.5.7.y.u.y.f.f.h.x.h.v.M.H.T.E.!.T.!.W.!.!.!.E.T.H.M.l.h.h.h.f.d.y.y.y.;.-.#.#...| | ` ( T P s.s.s.s.s.s.s.s.s.s.s.s.s.s.s.s.s.s.s.s.s.s.s.s.s.s.2.=.$.;.y.f.b.b.v.H.L.E.T.!.!.^.^.^.^.^.!.^.^.^.^.^.^.W.!.!.^.!.T.T.J.M.M.m.h.f.y.7.7.;.;.*.*.;.#.*.*.*.| ( / T F Y s.s.s.s.s.s.s.s.s.s.s.s.s.s.s.s.s.s.s.s.s.s.s.s.s.s.s.s.s.s.s.s.s.s.s.s.s.s.s.s.s.s.s.s.s.s.s.s.s.s.s.s.s.s.s.s.s.s.s.s.s.s.s.s.s.s.s.s.s.s.s.s.s.s.s.s.s.s.s.s.s.s.s.s.s.s.s.s.s.s.s.s.s.s.s.s.s.s.s.s.s.s.s.s.s.s.s.s.s.s.s.s.s.s.s.s.s.s.s.s.s.s.s.s.s.s.s.s.s.s.s.s.s.s.s.s.s.s.s.s.s.s.s.s.s.s.s.s.s.s.s.s.s.s.s.s.s.s.s.s.s.s.s.s.",
"s.s.s.s.s.s.s.s.s.s.s.s.s.s.s.s.s.s.s.s.s.s.s.s.s.s.s.s.s.s.s.s.s.s.s.s.s.s.s.s.s.s.s.s.s.s.s.s.s.s.s.s.s.s.s.s.s.s.s.s.s.s.s.s.s.s.s.s.s.s.s.s.s.s.s.s.s.s.s.s.s.s.s.s.s.s.s.s.s.s.s.s.s.s.s.s.s.s.s.s.s.s.s.s.s.s.s.s.s.s.s.s.s.s.s.s.s.s.s.s.s.s.s.s.s.s.s.s.s.s.s.s.s.s.s.s.s.s.s.s.s.s.s.s.s.s.s.s.s.s.s.s.s.s.s.s.s.s.s.s.s.s.s.s.s.s.s.s.s.s.s.s.s.s.s.s.s.s.s.s.s.s.s.s.s.s.s.s.s.s.s.s.s.s.s.s.s.s.s.s.s.s.s.s.s.s.s.s.s.s.s.s.s.s.s.s.s.s.s.s.s.s.s.s.s.s.s.s.s.s.s.s.X.7.:.y.r.=.$.5.d.d.l.M.J.k.m.H.Y.E.H.H.M.b.b.h.h.h.h.u.X.s.s.s.s.s.s.s.s.s.s.s.s.s.s.s.s.s.s.s.s.s.s.s.s.s.s.s.s.s.s.s.s.s.s.s.s.s.Y [ ` ` ( ..=.5.5.7.y.y.u.h.f.h.f.h.h.M.H.T.E.!.E.^.E.!.!.!.!.E.E.J.M.l.h.h.y.y.y.7.7.:.:.*.*.$.| | ` ( U D s.s.s.s.s.s.s.s.s.s.s.s.s.s.s.s.s.s.s.s.s.s.s.s.s.X.=.*.*.5.f.f.M.b.J.T.E.^.!.!.^.^.!.!.^.^.!.^.^.^.^.^.!.!.Q.Q.!.W.!.T.M.l.l.h.h.d.y.;.5.=.=.=.*.=.$.*.*.$...( / E T U R s.s.s.s.s.s.s.s.s.s.s.s.s.s.s.s.s.s.s.s.s.s.s.s.s.s.s.s.s.s.s.s.s.s.s.s.s.s.s.s.s.s.s.s.s.s.s.s.s.s.s.s.s.s.s.s.s.s.s.s.s.s.s.s.s.s.s.s.s.s.s.s.s.s.s.s.s.s.s.s.s.s.s.s.s.s.s.s.s.s.s.s.s.s.s.s.s.s.s.s.s.s.s.s.s.s.s.s.s.s.s.s.s.s.s.s.s.s.s.s.s.s.s.s.s.s.s.s.s.s.s.s.s.s.s.s.s.s.s.s.s.s.s.s.s.s.s.s.s.s.s.s.s.s.s.s.s.s.s.s.s.s.s.",
"s.s.s.s.s.s.s.s.s.s.s.s.s.s.s.s.s.s.s.s.s.s.s.s.s.s.s.s.s.s.s.s.s.s.s.s.s.s.s.s.s.s.s.s.s.s.s.s.s.s.s.s.s.s.s.s.s.s.s.s.s.s.s.s.s.s.s.s.s.s.s.s.s.s.s.s.s.s.s.s.s.s.s.s.s.s.s.s.s.s.s.s.s.s.s.s.s.s.s.s.s.s.s.s.s.s.s.s.s.s.s.s.s.s.s.s.s.s.s.s.s.s.s.s.s.s.s.s.s.s.s.s.s.s.s.s.s.s.s.s.s.s.s.s.s.s.s.s.s.s.s.s.s.s.s.s.s.s.s.s.s.s.s.s.s.s.s.s.s.s.s.s.s.s.s.s.s.s.s.s.s.s.s.s.s.s.s.s.s.s.s.s.s.s.s.s.s.s.s.s.s.s.s.s.s.s.s.s.s.s.s.s.s.s.s.s.s.s.s.s.s.s.s.s.s.s.s.s.s.s.s. .=.7.:.*.7.>.;.y.y.h.l.J.Y.J.T.T.H.!.E.E.T.S.M.v.h.h.h.u.7...s.s.s.s.s.s.s.s.s.s.s.s.s.s.s.s.s.s.s.s.s.s.s.s.s.s.s.s.s.s.s.s.s.s.s.s.T ( ( ( ` ..=.5.5.y.u.f.h.h.f.f.h.h.h.M.L.J.T.W.U.E.W.E.E.!.!.E.T.U.J.k.h.h.f.y.y.y.7.;.;.*.$.#...| ` ( U D s.s.s.s.s.s.s.s.s.s.s.s.s.s.s.s.s.s.s.s.s.s.s.s.s.X.$.*.7.y.h.M.H.H.T.T.T.!.T.!.T.T.!.!.!.!.!.!.!.!.!.!.^.^.^.^.!.!.!.T.E.J.l.h.h.d.y.7.;.=.;.;.*.#.#.#.*.*.$.| ` ( E U W J s.s.s.s.s.s.s.s.s.s.s.s.s.s.s.s.s.s.s.s.s.s.s.s.s.s.s.s.s.s.s.s.s.s.s.s.s.s.s.s.s.s.s.s.s.s.s.s.s.s.s.s.s.s.s.s.s.s.s.s.s.s.s.s.s.s.s.s.s.s.s.s.s.s.s.s.s.s.s.s.s.s.s.s.s.s.s.s.s.s.s.s.s.s.s.s.s.s.s.s.s.s.s.s.s.s.s.s.s.s.s.s.s.s.s.s.s.s.s.s.s.s.s.s.s.s.s.s.s.s.s.s.s.s.s.s.s.s.s.s.s.s.s.s.s.s.s.s.s.s.s.s.s.s.s.s.s.s.s.s.s.s.",
"s.s.s.s.s.s.s.s.s.s.s.s.s.s.s.s.s.s.s.s.s.s.s.s.s.s.s.s.s.s.s.s.s.s.s.s.s.s.s.s.s.s.s.s.s.s.s.s.s.s.s.s.s.s.s.s.s.s.s.s.s.s.s.s.s.s.s.s.s.s.s.s.s.s.s.s.s.s.s.s.s.s.s.s.s.s.s.s.s.s.s.s.s.s.s.s.s.s.s.s.s.s.s.s.s.s.s.s.s.s.s.s.s.s.s.s.s.s.s.s.s.s.s.s.s.s.s.s.s.s.s.s.s.s.s.s.s.s.s.s.s.s.s.s.s.s.s.s.s.s.s.s.s.s.s.s.s.s.s.s.s.s.s.s.s.s.s.s.s.s.s.s.s.s.s.s.s.s.s.s.s.s.s.s.s.s.s.s.s.s.s.s.s.s.s.s.s.s.s.s.s.s.s.s.s.s.s.s.s.s.s.s.s.s.s.s.s.s.s.s.s.s.s.s.s.s.s.s.s.s._ =.;.=.*.#.;.7.y.d.h.h.m.Y.E.!.^.^.!.^.^.!.!.E.H.H.M.h.f.u.y.7.X.s.s.s.s.s.s.s.s.s.s.s.s.s.s.s.s.s.s.s.s.s.s.s.s.s.s.s.s.s.s.s.s.s.s.s.U ( ( ( | #.$.;.5.7.y.u.f.h.f.f.h.h.h.v.S.J.J.T.M.M.E.W.W.T.W.T.T.T.I.l.h.f.f.f.f.y.7.:.*.$.*.#.....[ ( T D s.s.s.s.s.s.s.s.s.s.s.s.s.s.s.s.s.s.s.s.s.s.s.s.[ ..#.;.y.h.h.M.J.H.H.T.!.!.E.T.T.T.T.!.^.T.T.T.!.!.^.!.^.!.!.T.T.E.!.L.T.J.l.l.h.y.y.y.5.;.=.=.$.$...#.$.$.$...[ ( R P Y Q s.s.s.s.s.s.s.s.s.s.s.s.s.s.s.s.s.s.s.s.s.s.s.s.s.s.s.s.s.s.s.s.s.s.s.s.s.s.s.s.s.s.s.s.s.s.s.s.s.s.s.s.s.s.s.s.s.s.s.s.s.s.s.s.s.s.s.s.s.s.s.s.s.s.s.s.s.s.s.s.s.s.s.s.s.s.s.s.s.s.s.s.s.s.s.s.s.s.s.s.s.s.s.s.s.s.s.s.s.s.s.s.s.s.s.s.s.s.s.s.s.s.s.s.s.s.s.s.s.s.s.s.s.s.s.s.s.s.s.s.s.s.s.s.s.s.s.s.s.s.s.s.s.s.s.s.s.s.s.s.s.s.",
"s.s.s.s.s.s.s.s.s.s.s.s.s.s.s.s.s.s.s.s.s.s.s.s.s.s.s.s.s.s.s.s.s.s.s.s.s.s.s.s.s.s.s.s.s.s.s.s.s.s.s.s.s.s.s.s.s.s.s.s.s.s.s.s.s.s.s.s.s.s.s.s.s.s.s.s.s.s.s.s.s.s.s.s.s.s.s.s.s.s.s.s.s.s.s.s.s.s.s.s.s.s.s.s.s.s.s.s.s.s.s.s.s.s.s.s.s.s.s.s.s.s.s.s.s.s.s.s.s.s.s.s.s.s.s.s.s.s.s.s.s.s.s.s.s.s.s.s.s.s.s.s.s.s.s.s.s.s.s.s.s.s.s.s.s.s.s.s.s.s.s.s.s.s.s.s.s.s.s.s.s.s.s.s.s.s.s.s.s.s.s.s.s.s.s.s.s.s.s.s.s.s.s.s.s.s.s.s.s.s.s.s.s.s.s.s.s.s.s.s.s.s.s.s.s.s.s.s.s.I X.$.*.#.*.;.;.7.d.h.l.Y.T.!.!.^.}.^.^.^.^.!.!.!.H.H.H.v.h.f.y.7.5. .s.s.s.s.s.s.s.s.s.s.s.s.s.s.s.s.s.s.s.s.s.s.s.s.s.s.s.s.s.s.s.s.s.s.Q E ` ( | #.=.5.7.7.y.y.f.f.f.h.h.h.h.h.M.M.H.H.S.J.H.H.J.R.T.M.L.J.J.J.k.f.f.f.d.7.:.:.*.*.*.$.....[ ` U D s.s.s.s.s.s.s.s.s.s.s.s.s.s.s.s.s.s.s.s.s.s.s.Y X.| *.7.y.h.h.M.M.M.M.H.L.H.T.T.J.T.T.T.!.J.J.E.!.!.!.!.^.!.!.E.T.E.E.J.S.M.l.l.h.y.y.7.;.=.*.$.$.#.......$.$...[ ( R U F W C s.s.s.s.s.s.s.s.s.s.s.s.s.s.s.s.s.s.s.s.s.s.s.s.s.s.s.s.s.s.s.s.s.s.s.s.s.s.s.s.s.s.s.s.s.s.s.s.s.s.s.s.s.s.s.s.s.s.s.s.s.s.s.s.s.s.s.s.s.s.s.s.s.s.s.s.s.s.s.s.s.s.s.s.s.s.s.s.s.s.s.s.s.s.s.s.s.s.s.s.s.s.s.s.s.s.s.s.s.s.s.s.s.s.s.s.s.s.s.s.s.s.s.s.s.s.s.s.s.s.s.s.s.s.s.s.s.s.s.s.s.s.s.s.s.s.s.s.s.s.s.s.s.s.s.s.s.s.s.s.s.",
"s.s.s.s.s.s.s.s.s.s.s.s.s.s.s.s.s.s.s.s.s.s.s.s.s.s.s.s.s.s.s.s.s.s.s.s.s.s.s.s.s.s.s.s.s.s.s.s.s.s.s.s.s.s.s.s.s.s.s.s.s.s.s.s.s.s.s.s.s.s.s.s.s.s.s.s.s.s.s.s.s.s.s.s.s.s.s.s.s.s.s.s.s.s.s.s.s.s.s.s.s.s.s.s.s.s.s.s.s.s.s.s.s.s.s.s.s.s.s.s.s.s.s.s.s.s.s.s.s.s.s.s.s.s.s.s.s.s.s.s.s.s.s.s.s.s.s.s.s.s.s.s.s.s.s.s.s.s.s.s.s.s.s.s.s.s.s.s.s.s.s.s.s.s.s.s.s.s.s.s.s.s.s.s.s.s.s.s.s.s.s.s.s.s.s.s.s.s.s.s.s.s.s.s.s.s.s.s.s.s.s.s.s.s.s.s.s.s.s.s.s.s.s.s.s.s.s.s.b ! ..*...=.;.7.5.f.h.J.T.T.!.^.^.^.}.(.}.}.^.^.^.^.T.T.H.M.l.h.f.y.y.=.{ s.s.s.s.s.s.s.s.s.s.s.s.s.s.s.s.s.s.s.s.s.s.s.s.s.s.s.s.s.s.s.s.s.( E ( ` ..$.2.5.5.7.y.y.u.u.f.h.h.f.f.h.v.H.L.H.H.H.H.M.J.S.M.l.M.v.M.v.h.h.h.d.d.y.y.:.-.$.*.$.X...| ' U D s.s.s.s.s.s.s.s.s.s.s.s.s.s.s.s.s.s.s.s.s.s.s.X. .=.;.y.y.h.h.h.h.l.l.l.M.l.l.l.l.J.l.J.T.H.J.H.E.E.E.T.!.!.E.T.E.H.E.E.J.S.l.h.h.d.7.;.;.*.#.#.$.$.#.....X...| ` ( R F D U Y c s.s.s.s.s.s.s.s.s.s.s.s.s.s.s.s.s.s.s.s.s.s.s.s.s.s.s.s.s.s.s.s.s.s.s.s.s.s.s.s.s.s.s.s.s.s.s.s.s.s.s.s.s.s.s.s.s.s.s.s.s.s.s.s.s.s.s.s.s.s.s.s.s.s.s.s.s.s.s.s.s.s.s.s.s.s.s.s.s.s.s.s.s.s.s.s.s.s.s.s.s.s.s.s.s.s.s.s.s.s.s.s.s.s.s.s.s.s.s.s.s.s.s.s.s.s.s.s.s.s.s.s.s.s.s.s.s.s.s.s.s.s.s.s.s.s.s.s.s.s.s.s.s.s.s.s.s.s.s.s.",
"s.s.s.s.s.s.s.s.s.s.s.s.s.s.s.s.s.s.s.s.s.s.s.s.s.s.s.s.s.s.s.s.s.s.s.s.s.s.s.s.s.s.s.s.s.s.s.s.s.s.s.s.s.s.s.s.s.s.s.s.s.s.s.s.s.s.s.s.s.s.s.s.s.s.s.s.s.s.s.s.s.s.s.s.s.s.s.s.s.s.s.s.s.s.s.s.s.s.s.s.s.s.s.s.s.s.s.s.s.s.s.s.s.s.s.s.s.s.s.s.s.s.s.s.s.s.s.s.s.s.s.s.s.s.s.s.s.s.s.s.s.s.s.s.s.s.s.s.s.s.s.s.s.s.s.s.s.s.s.s.s.s.s.s.s.s.s.s.s.s.s.s.s.s.s.s.s.s.s.s.s.s.s.s.s.s.s.s.s.s.s.s.s.s.s.s.s.s.s.s.s.s.s.s.s.s.s.s.s.s.s.s.s.s.s.s.s.s.s.s.s.s.s.s.s.s.s.f ! [ X.' =.7.;.7.y.h.m.T.Q.T.^.^.(.^.}. X}.}.(.}.^.Q.T.T.H.M.M.h.f.f.d.7.=.[ s.s.s.s.s.s.s.s.s.s.s.s.s.s.s.s.s.s.s.s.s.s.s.s.s.s.s.s.s.s.s.s.T / ( | #.$.=.5.5.7.y.7.y.u.f.f.f.f.f.M.M.H.J.Y.K.H.S.J.l.h.h.l.h.v.b.h.h.h.h.h.d.y.y.y.;.$.$.$... .| ` R D s.s.s.s.s.s.s.s.s.s.s.s.s.s.s.s.s.s.s.s.s.s.W  .X.;.7.y.f.f.h.f.h.h.h.d.h.f.h.l.l.l.M.S.l.M.S.J.H.L.T.T.E.T.T.E.E.E.T.L.S.l.h.d.g.y.:.;.-.$.$.#.........' | | | ` R T P Z D Y v s.s.s.s.s.s.s.s.s.s.s.s.s.s.s.s.s.s.s.s.s.s.s.s.s.s.s.s.s.s.s.s.s.s.s.s.s.s.s.s.s.s.s.s.s.s.s.s.s.s.s.s.s.s.s.s.s.s.s.s.s.s.s.s.s.s.s.s.s.s.s.s.s.s.s.s.s.s.s.s.s.s.s.s.s.s.s.s.s.s.s.s.s.s.s.s.s.s.s.s.s.s.s.s.s.s.s.s.s.s.s.s.s.s.s.s.s.s.s.s.s.s.s.s.s.s.s.s.s.s.s.s.s.s.s.s.s.s.s.s.s.s.s.s.s.s.s.s.s.s.s.s.s.s.s.s.s.s.s.s.",
"s.s.s.s.s.s.s.s.s.s.s.s.s.s.s.s.s.s.s.s.s.s.s.s.s.s.s.s.s.s.s.s.s.s.s.s.s.s.s.s.s.s.s.s.s.s.s.s.s.s.s.s.s.s.s.s.s.s.s.s.s.s.s.s.s.s.s.s.s.s.s.s.s.s.s.s.s.s.s.s.s.s.s.s.s.s.s.s.s.s.s.s.s.s.s.s.s.s.s.s.s.s.s.s.s.s.s.s.s.s.s.s.s.s.s.s.s.s.s.s.s.s.s.s.s.s.s.s.s.s.s.s.s.s.s.s.s.s.s.s.s.s.s.s.s.s.s.s.s.s.s.s.s.s.s.s.s.s.s.s.s.s.s.s.s.s.s.s.s.s.s.s.s.s.s.s.s.s.s.s.s.s.s.s.s.s.s.s.s.s.s.s.s.s.s.s.s.s.s.s.s.s.s.s.s.s.s.s.s.s.s.s.s.s.s.s.s.s.s.s.s.s.s.s.s.s.s.D _ [ ] =.;.>.5.d.f.h.m.I.!.!.^.Q.^.^.}.^.^.^.Q.!.!.Q.!.L.Y.Y.S.b.f.f.f.y.7.$.U s.s.s.s.s.s.s.s.s.s.s.s.s.s.s.s.s.s.s.s.s.s.s.s.s.s.s.s.s.s.s.T E ( ..#.$.=.5.;.5.5.5.7.7.u.y.u.f.h.J.J.J.J.J.L.T.H.J.S.l.h.h.h.h.h.f.f.f.f.f.y.y.7.5.:.*.$.#.....| ' R D s.s.s.s.s.s.s.s.s.s.s.s.s.s.s.s.s.s.s.s.s.s.....=.;.y.y.h.f.f.u.f.f.f.g.l.h.A.k.J.J.M.M.J.M.J.l.l.H.J.H.L.L.T.H.H.J.Y.J.l.h.h.d.y.y.5.*.#.$.$...| ..| | ` ` ` [ ( ( U P A Z P J f s.s.s.s.s.s.s.s.s.s.s.s.s.s.s.s.s.s.s.s.s.s.s.s.s.s.s.s.s.s.s.s.s.s.s.s.s.s.s.s.s.s.s.s.s.s.s.s.s.s.s.s.s.s.s.s.s.s.s.s.s.s.s.s.s.s.s.s.s.s.s.s.s.s.s.s.s.s.s.s.s.s.s.s.s.s.s.s.s.s.s.s.s.s.s.s.s.s.s.s.s.s.s.s.s.s.s.s.s.s.s.s.s.s.s.s.s.s.s.s.s.s.s.s.s.s.s.s.s.s.s.s.s.s.s.s.s.s.s.s.s.s.s.s.s.s.s.s.s.s.s.s.s.s.s.s.s.s.s.",
"s.s.s.s.s.s.s.s.s.s.s.s.s.s.s.s.s.s.s.s.s.s.s.s.s.s.s.s.s.s.s.s.s.s.s.s.s.s.s.s.s.s.s.s.s.s.s.s.s.s.s.s.s.s.s.s.s.s.s.s.s.s.s.s.s.s.s.s.s.s.s.s.s.s.s.s.s.s.s.s.s.s.s.s.s.s.s.s.s.s.s.s.s.s.s.s.s.s.s.s.s.s.s.s.s.s.s.s.s.s.s.s.s.s.s.s.s.s.s.s.s.s.s.s.s.s.s.s.s.s.s.s.s.s.s.s.s.s.s.s.s.s.s.s.s.s.s.s.s.s.s.s.s.s.s.s.s.s.s.s.s.s.s.s.s.s.s.s.s.s.s.s.s.s.s.s.s.s.s.s.s.s.s.s.s.s.s.s.s.s.s.s.s.s.s.s.s.s.s.s.s.s.s.s.s.s.s.s.s.s.s.s.s.s.s.s.s.s.s.s.s.s.s.s.s.s.h [ W / =.=.=.5.d.h.l.I.T.T.Q.Q.^.^.^.^.^.!.!.!.T.U.Y.J.J.k.l.h.h.h.f.f.d.h.y.;. .s.s.s.s.s.s.s.s.s.s.s.s.s.s.s.s.s.s.s.s.s.s.s.s.s.s.s.s.s.s.s.T T ` ..$.*.=.=.=.5.=.;.5.7.u.y.f.h.l.S.J.l.J.T.T.T.J.T.J.A.l.d.f.y.f.f.y.f.f.f.y.y.y.:.7.;.*.#.....| | R D s.s.s.s.s.s.s.s.s.s.s.s.s.s.s.s.s.s.s.s.s.K ` #.$.y.u.f.y.f.h.y.l.l.l.l.l.C.k.I.J.l.h.M.M.S.L.S.M.M.M.l.M.J.H.J.H.J.l.J.S.h.h.d.y.5.;.*.$.#...| ' | | | ` ( ( ( ( E U D V V D J v s.s.s.s.s.s.s.s.s.s.s.s.s.s.s.s.s.s.s.s.s.s.s.s.s.s.s.s.s.s.s.s.s.s.s.s.s.s.s.s.s.s.s.s.s.s.s.s.s.s.s.s.s.s.s.s.s.s.s.s.s.s.s.s.s.s.s.s.s.s.s.s.s.s.s.s.s.s.s.s.s.s.s.s.s.s.s.s.s.s.s.s.s.s.s.s.s.s.s.s.s.s.s.s.s.s.s.s.s.s.s.s.s.s.s.s.s.s.s.s.s.s.s.s.s.s.s.s.s.s.s.s.s.s.s.s.s.s.s.s.s.s.s.s.s.s.s.s.s.s.s.s.s.s.s.s.s.s.s.",
"s.s.s.s.s.s.s.s.s.s.s.s.s.s.s.s.s.s.s.s.s.s.s.s.s.s.s.s.s.s.s.s.s.s.s.s.s.s.s.s.s.s.s.s.s.s.s.s.s.s.s.s.s.s.s.s.s.s.s.s.s.s.s.s.s.s.s.s.s.s.s.s.s.s.s.s.s.s.s.s.s.s.s.s.s.s.s.s.s.s.s.s.s.s.s.s.s.s.s.s.s.s.s.s.s.s.s.s.s.s.s.s.s.s.s.s.s.s.s.s.s.s.s.s.s.s.s.s.s.s.s.s.s.s.s.s.s.s.s.s.s.s.s.s.s.s.s.s.s.s.s.s.s.s.s.s.s.s.s.s.s.s.s.s.s.s.s.s.s.s.s.s.s.s.s.s.s.s.s.s.s.s.s.s.s.s.s.s.s.s.s.s.s.s.s.s.s.s.s.s.s.s.s.s.s.s.s.s.s.s.s.s.s.s.s.s.s.s.s.s.s.s.s.s.s.s.Y R ` | =.$.*.u.d.l.k.J.T.T.!.T.Q.^.!.!.!.T.J.I.l.l.l.h.l.k.h.h.l.J.H.E.T.T.T.J.h.$.s.s.s.s.s.s.s.s.s.s.s.s.s.s.s.s.s.s.s.s.s.s.s.s.s.s.s.s.s.s.T T | ..$.$.*.=.=.*.$.=.5.y.u.h.h.M.S.J.A.J.J.W.!.!.W.!.U.A.J.h.h.y.y.y.f.y.y.f.f.u.y.7.;.:.*.#.#...| [ ( D s.s.s.s.s.s.s.s.s.s.s.s.s.s.s.s.s.s.s.s.s.! | #.u.f.5.f.f.M.J.J.T.J.W.!.W.T.I.U.T.J.l.l.h.h.J.M.S.M.l.h.h.h.M.H.M.l.h.l.l.h.f.f.y.;.=.*.$...| | [ ` [ ` ` ( ( ( E E G D z z Z D c s.s.s.s.s.s.s.s.s.s.s.s.s.s.s.s.s.s.s.s.s.s.s.s.s.s.s.s.s.s.s.s.s.s.s.s.s.s.s.s.s.s.s.s.s.s.s.s.s.s.s.s.s.s.s.s.s.s.s.s.s.s.s.s.s.s.s.s.s.s.s.s.s.s.s.s.s.s.s.s.s.s.s.s.s.s.s.s.s.s.s.s.s.s.s.s.s.s.s.s.s.s.s.s.s.s.s.s.s.s.s.s.s.s.s.s.s.s.s.s.s.s.s.s.s.s.s.s.s.s.s.s.s.s.s.s.s.s.s.s.s.s.s.s.s.s.s.s.s.s.s.s.s.s.s.s.s.s.s.",
"s.s.s.s.s.s.s.s.s.s.s.s.s.s.s.s.s.s.s.s.s.s.s.s.s.s.s.s.s.s.s.s.s.s.s.s.s.s.s.s.s.s.s.s.s.s.s.s.s.s.s.s.s.s.s.s.s.s.s.s.s.s.s.s.s.s.s.s.s.s.s.s.s.s.s.s.s.s.s.s.s.s.s.s.s.s.s.s.s.s.s.s.s.s.s.s.s.s.s.s.s.s.s.s.s.s.s.s.s.s.s.s.s.s.s.s.s.s.s.s.s.s.s.s.s.s.s.s.s.s.s.s.s.s.s.s.s.s.s.s.s.s.s.s.s.s.s.s.s.s.s.s.s.s.s.s.s.s.s.s.s.s.s.s.s.s.s.s.s.s.s.s.s.s.s.s.s.s.s.s.s.s.s.s.s.s.s.s.s.s.s.s.s.s.s.s.s.s.s.s.s.s.s.s.s.s.s.s.s.s.s.s.s.s.s.s.s.s.s.s.s.s.s.s.s.[ R ( E =.$.=.;.7.f.h.h.I.I.T.T.T.!.!.T.J.J.l.h.h.h.l.l.h.k.l.J.J.T.T.!.T.^.^.^.^.^.E.H.u.| s.s.s.s.s.s.s.s.s.s.s.s.s.s.s.s.s.s.s.s.s.s.s.s.s.s.s.P T | ..=.=.=.=.=.#.$.5.d.f.h.l.S.J.J.J.J.U.W.W.W.^.^.^.^.W.J.C.l.h.y.y.y.7.7.y.u.u.u.7.;.;.-.$.#.....' ( F s.s.s.s.s.s.s.s.s.s.s.s.s.s.s.s.s.s.s.s.D  .7.f.M.J.J.!.T.W.W.Q.^.^.^.!.^.(.~.W.W.T.J.C.A.h.h.h.f.l.h.h.h.h.h.h.h.h.h.h.f.f.f.d.7.*.=.$.#...| | [ ` ` ` ( R E E E E P A z f z S C s.s.s.s.s.s.s.s.s.s.s.s.s.s.s.s.s.s.s.s.s.s.s.s.s.s.s.s.s.s.s.s.s.s.s.s.s.s.s.s.s.s.s.s.s.s.s.s.s.s.s.s.s.s.s.s.s.s.s.s.s.s.s.s.s.s.s.s.s.s.s.s.s.s.s.s.s.s.s.s.s.s.s.s.s.s.s.s.s.s.s.s.s.s.s.s.s.s.s.s.s.s.s.s.s.s.s.s.s.s.s.s.s.s.s.s.s.s.s.s.s.s.s.s.s.s.s.s.s.s.s.s.s.s.s.s.s.s.s.s.s.s.s.s.s.s.s.s.s.s.s.s.s.s.s.s.s.s.s.",
"s.s.s.s.s.s.s.s.s.s.s.s.s.s.s.s.s.s.s.s.s.s.s.s.s.s.s.s.s.s.s.s.s.s.s.s.s.s.s.s.s.s.s.s.s.s.s.s.s.s.s.s.s.s.s.s.s.s.s.s.s.s.s.s.s.s.s.s.s.s.s.s.s.s.s.s.s.s.s.s.s.s.s.s.s.s.s.s.s.s.s.s.s.s.s.s.s.s.s.s.s.s.s.s.s.s.s.s.s.s.s.s.s.s.s.s.s.s.s.s.s.s.s.s.s.s.s.s.s.s.s.s.s.s.s.s.s.s.s.s.s.s.s.s.s.s.s.s.s.s.s.s.s.s.s.s.s.s.s.s.s.s.s.s.s.s.s.s.s.s.s.s.s.s.s.s.s.s.s.s.s.s.s.s.s.s.s.s.s.s.s.s.s.s.s.s.s.s.s.s.s.s.s.s.s.s.s.s.s.s.s.s.s.s.s.s.s.s.s.s.s.s.s.s.W W E E  .X.X.=.;.7.y.h.k.k.J.T.T.I.T.T.J.l.h.h.d.f.d.f.h.h.l.A.T.T.!.W.!.!.^.(.^.^.^.^.^.^.E.K.x.5.s.s.s.s.s.s.s.s.s.s.s.s.s.s.s.s.s.s.s.s.s.s.s.C F ( | #.$.*.=.$...=.y.u.h.S.l.H.J.J.J.U.T.W.W.^.!.(.(.(.^.!.U.U.C.h.l.g.y.y.7.5.u.u.u.u.7.;.*.*.#.....` ( U s.s.s.s.s.s.s.s.s.s.s.s.s.s.s.s.s.s.[ 2.u.K.E.T.T.!.W.^.!.W.W.~.^.U.U.!.^.P.W.W.W.!.I.U.I.C.h.y.y.y.f.h.f.f.f.d.f.h.h.d.f.y.y.y.7.=.*.$...| | | ` ( ( ( ( E T T E T D Z j d k Z C M s.s.s.s.s.s.s.s.s.s.s.s.s.s.s.s.s.s.s.s.s.s.s.s.s.s.s.s.s.s.s.s.s.s.s.s.s.s.s.s.s.s.s.s.s.s.s.s.s.s.s.s.s.s.s.s.s.s.s.s.s.s.s.s.s.s.s.s.s.s.s.s.s.s.s.s.s.s.s.s.s.s.s.s.s.s.s.s.s.s.s.s.s.s.s.s.s.s.s.s.s.s.s.s.s.s.s.s.s.s.s.s.s.s.s.s.s.s.s.s.s.s.s.s.s.s.s.s.s.s.s.s.s.s.s.s.s.s.s.s.s.s.s.s.s.s.s.s.s.s.s.s.s.s.s.s.s.s.",
"s.s.s.s.s.s.s.s.s.s.s.s.s.s.s.s.s.s.s.s.s.s.s.s.s.s.s.s.s.s.s.s.s.s.s.s.s.s.s.s.s.s.s.s.s.s.s.s.s.s.s.s.s.s.s.s.s.s.s.s.s.s.s.s.s.s.s.s.s.s.s.s.s.s.s.s.s.s.s.s.s.s.s.s.s.s.s.s.s.s.s.s.s.s.s.s.s.s.s.s.s.s.s.s.s.s.s.s.s.s.s.s.s.s.s.s.s.s.s.s.s.s.s.s.s.s.s.s.s.s.s.s.s.s.s.s.s.s.s.s.s.s.s.s.s.s.s.s.s.s.s.s.s.s.s.s.s.s.s.s.s.s.s.s.s.s.s.s.s.s.s.s.s.s.s.s.s.s.s.s.s.s.s.s.s.s.s.s.s.s.s.s.s.s.s.s.s.s.s.s.s.s.s.s.s.s.s.s.s.s.s.s.s.s.s.s.s.s.s.s.s.s.s.[ [ T ` E  ...X.=.;.7.y.f.k.k.I.I.I.T.Y.J.k.d.y.d.d.f.f.h.h.l.U.T.!.U.^.!.^.^.^.^.^.^.^.^.(.!.^.!.!.T.E.M.s.s.s.s.s.s.s.s.s.s.s.s.s.s.s.s.s.s.s.s.s.D D | ..#.$...$...5.h.h.M.J.U.J.E.L.U.W.T.W.!.W.^.^.(.(.^.^.!.U.J.A.A.l.C.l.h.f.u.y.7.y.u.7.7.*.*.#...| ` ( Y s.s.s.s.s.s.s.s.s.s.s.s.s.s.s.5.8.S.H.H.!.!.!.!.^.!.Q.Q.!.W.W.~.T.W.!.W.^.^.!.^.Q.T.W.I.T.I.l.l.g.7.y.y.y.y.y.d.d.h.h.f.h.f.y.y.7.;.$...| | [ ` ( R R R E T U U U U D V d a d M V C s.s.s.s.s.s.s.s.s.s.s.s.s.s.s.s.s.s.s.s.s.s.s.s.s.s.s.s.s.s.s.s.s.s.s.s.s.s.s.s.s.s.s.s.s.s.s.s.s.s.s.s.s.s.s.s.s.s.s.s.s.s.s.s.s.s.s.s.s.s.s.s.s.s.s.s.s.s.s.s.s.s.s.s.s.s.s.s.s.s.s.s.s.s.s.s.s.s.s.s.s.s.s.s.s.s.s.s.s.s.s.s.s.s.s.s.s.s.s.s.s.s.s.s.s.s.s.s.s.s.s.s.s.s.s.s.s.s.s.s.s.s.s.s.s.s.s.s.s.s.s.s.s.s.s.s.s.s.",
"s.s.s.s.s.s.s.s.s.s.s.s.s.s.s.s.s.s.s.s.s.s.s.s.s.s.s.s.s.s.s.s.s.s.s.s.s.s.s.s.s.s.s.s.s.s.s.s.s.s.s.s.s.s.s.s.s.s.s.s.s.s.s.s.s.s.s.s.s.s.s.s.s.s.s.s.s.s.s.s.s.s.s.s.s.s.s.s.s.s.s.s.s.s.s.s.s.s.s.s.s.s.s.s.s.s.s.s.s.s.s.s.s.s.s.s.s.s.s.s.s.s.s.s.s.s.s.s.s.s.s.s.s.s.s.s.s.s.s.s.s.s.s.s.s.s.s.s.s.s.s.s.s.s.s.s.s.s.s.s.s.s.s.s.s.s.s.s.s.s.s.s.s.s.s.s.s.s.s.s.s.s.s.s.s.s.s.s.s.s.s.s.s.s.s.s.s.s.s.s.s.s.s.s.s.s.s.s.s.s.s.s.s.s.s.s.s.s.s.s.s.s.( ..R ( T W [  .X.=.;.7.y.f.h.k.m.k.m.I.k.h.h.d.y.d.f.f.h.M.H.T.T.T.!.!.^.!.Q.^.^.Q.Q.^.(.^.^.(.W.(.^.^.!.!.W.K.p.[ s.s.s.s.s.s.s.s.s.s.s.s.s.s.s.s.s.D D [ #.#.' #.u.b.v.M.J.E.!.W.!.!.T.!.W.W.!.!.^.^.(.(.(.^.^.!.!.W.J.J.J.J.M.l.l.v.f.u.y.7.y.7.;.$.X...| ` R U s.s.s.s.s.s.s.s.s.s.s.s.6.b.v.H.L.W.T.!.W.W.!.!.!.!.^.^.^.W.(.(.W.T.W.~.^.W.W.W.R.W.R.U.T.A.U.P.k.h.y.;.;.:.7.y.y.y.y.y.y.y.y.:.;.=.$...| [ ` ( E E E E T U U F G P D M y y a m z C s.s.s.s.s.s.s.s.s.s.s.s.s.s.s.s.s.s.s.s.s.s.s.s.s.s.s.s.s.s.s.s.s.s.s.s.s.s.s.s.s.s.s.s.s.s.s.s.s.s.s.s.s.s.s.s.s.s.s.s.s.s.s.s.s.s.s.s.s.s.s.s.s.s.s.s.s.s.s.s.s.s.s.s.s.s.s.s.s.s.s.s.s.s.s.s.s.s.s.s.s.s.s.s.s.s.s.s.s.s.s.s.s.s.s.s.s.s.s.s.s.s.s.s.s.s.s.s.s.s.s.s.s.s.s.s.s.s.s.s.s.s.s.s.s.s.s.s.s.s.s.s.s.s.s.s.s.s.",
"s.s.s.s.s.s.s.s.s.s.s.s.s.s.s.s.s.s.s.s.s.s.s.s.s.s.s.s.s.s.s.s.s.s.s.s.s.s.s.s.s.s.s.s.s.s.s.s.s.s.s.s.s.s.s.s.s.s.s.s.s.s.s.s.s.s.s.s.s.s.s.s.s.s.s.s.s.s.s.s.s.s.s.s.s.s.s.s.s.s.s.s.s.s.s.s.s.s.s.s.s.s.s.s.s.s.s.s.s.s.s.s.s.s.s.s.s.s.s.s.s.s.s.s.s.s.s.s.s.s.s.s.s.s.s.s.s.s.s.s.s.s.s.s.s.s.s.s.s.s.s.s.s.s.s.s.s.s.s.s.s.s.s.s.s.s.s.s.s.s.s.s.s.s.s.s.s.s.s.s.s.s.s.s.s.s.s.s.s.s.s.s.s.s.s.s.s.s.s.s.s.s.s.s.s.s.s.s.s.s.s.s.s.s.s.s.s.s.s.s.s.( ` ` W ( U ( [ | $.=.;.7.y.f.h.h.k.k.k.h.d.d.y.d.d.f.h.l.S.H.T.E.T.W.T.!.^.!.!.W.^.!.!.^.^.^.^.^.^.^.^.(.^.!.^.^.E.S.u.$.s.s.s.s.s.s.s.s.s.s.s.s.s.s.s.M U ( | 5.y.v.K.H.K.T.!.!.!.!.!.T.W.!.!.W.!.!.!.(.^.^.(.(.(.^.!.W.W.U.J.J.J.J.H.H.H.M.h.y.y.y.7.5.X...| [ R U A s.s.s.s.s.s.s.2.f.b.h.L.J.J.T.T.^.W.!.W.!.T.W.^.!.^.}.^.^.^.^.^.^.^.^.^.^.^.(.W.W.W.W.U.U.P.Z.A.C.h.y.y.*.;.;.7.7.y.y.y.7.5.*.*.$.#.| ` ` ( ( E T T T U G F D F F A z y 0 y h z z s.s.s.s.s.s.s.s.s.s.s.s.s.s.s.s.s.s.s.s.s.s.s.s.s.s.s.s.s.s.s.s.s.s.s.s.s.s.s.s.s.s.s.s.s.s.s.s.s.s.s.s.s.s.s.s.s.s.s.s.s.s.s.s.s.s.s.s.s.s.s.s.s.s.s.s.s.s.s.s.s.s.s.s.s.s.s.s.s.s.s.s.s.s.s.s.s.s.s.s.s.s.s.s.s.s.s.s.s.s.s.s.s.s.s.s.s.s.s.s.s.s.s.s.s.s.s.s.s.s.s.s.s.s.s.s.s.s.s.s.s.s.s.s.s.s.s.s.s.s.s.s.s.s.s.s.s.s.",
"s.s.s.s.s.s.s.s.s.s.s.s.s.s.s.s.s.s.s.s.s.s.s.s.s.s.s.s.s.s.s.s.s.s.s.s.s.s.s.s.s.s.s.s.s.s.s.s.s.s.s.s.s.s.s.s.s.s.s.s.s.s.s.s.s.s.s.s.s.s.s.s.s.s.s.s.s.s.s.s.s.s.s.s.s.s.s.s.s.s.s.s.s.s.s.s.s.s.s.s.s.s.s.s.s.s.s.s.s.s.s.s.s.s.s.s.s.s.s.s.s.s.s.s.s.s.s.s.s.s.s.s.s.s.s.s.s.s.s.s.s.s.s.s.s.s.s.s.s.s.s.s.s.s.s.s.s.s.s.s.s.s.s.s.s.s.s.s.s.s.s.s.s.s.s.s.s.s.s.s.s.s.s.s.s.s.s.s.s.s.s.s.s.s.s.s.s.s.s.s.s.s.s.s.s.s.s.s.s.s.s.s.s.s.s.s.s.s.s.s.[ R ` ( T E G ( [ | $.=.;.7.y.f.h.h.k.h.g.d.y.d.f.f.h.l.l.J.T.T.T.T.!.!.U.W.T.!.!.W.W.W.T.U.U.W.^.^.}.}.^.^.^.^.^.^.W.W.T.H.M.u.=.s.s.s.s.s.s.s.s.s.s.s.s J [ 5.f.b.S.K.K.!.E.E.!.T.!.!.^.!.!.W.W.!.!.!.T.^.!.!.^.^.Q.^.^.W.U.J.J.U.J.H.J.J.H.H.S.M.h.f.7.7.$...| ` W T Z s.s.s.,.1.u.h.M.H.J.T.U.W.E.!.!.^.T.T.!.!.W.W.!.^.^.^.^.(.^.^.^.^.(.^.^.^.~.~.~.P.A.P.W.W.W.W.P.C.l.h.h.y.;.*.*.;.7.7.7.7.;.*.#.#...| ' ( ( R T T U U G F F D D D Z k 0 7 0 j l z s.s.s.s.s.s.s.s.s.s.s.s.s.s.s.s.s.s.s.s.s.s.s.s.s.s.s.s.s.s.s.s.s.s.s.s.s.s.s.s.s.s.s.s.s.s.s.s.s.s.s.s.s.s.s.s.s.s.s.s.s.s.s.s.s.s.s.s.s.s.s.s.s.s.s.s.s.s.s.s.s.s.s.s.s.s.s.s.s.s.s.s.s.s.s.s.s.s.s.s.s.s.s.s.s.s.s.s.s.s.s.s.s.s.s.s.s.s.s.s.s.s.s.s.s.s.s.s.s.s.s.s.s.s.s.s.s.s.s.s.s.s.s.s.s.s.s.s.s.s.s.s.s.s.s.s.s.s.",
"s.s.s.s.s.s.s.s.s.s.s.s.s.s.s.s.s.s.s.s.s.s.s.s.s.s.s.s.s.s.s.s.s.s.s.s.s.s.s.s.s.s.s.s.s.s.s.s.s.s.s.s.s.s.s.s.s.s.s.s.s.s.s.s.s.s.s.s.s.s.s.s.s.s.s.s.s.s.s.s.s.s.s.s.s.s.s.s.s.s.s.s.s.s.s.s.s.s.s.s.s.s.s.s.s.s.s.s.s.s.s.s.s.s.s.s.s.s.s.s.s.s.s.s.s.s.s.s.s.s.s.s.s.s.s.s.s.s.s.s.s.s.s.s.s.s.s.s.s.s.s.s.s.s.s.s.s.s.s.s.s.s.s.s.s.s.s.s.s.s.s.s.s.s.s.s.s.s.s.s.s.s.s.s.s.s.s.s.s.s.s.s.s.s.s.s.s.s.s.s.s.s.s.s.s.s.s.s.s.s.s.s.s.s.s.s.s.s.s.s.[ E ` E E T U R ( | X.=.=.5.7.d.f.h.l.d.y.y.d.d.f.h.l.l.J.T.T.T.!.!.!.!.U.W.W.!.T.^.U.U.U.T.W.!.Q.^.^.(.}.}.}.^.Q.^.^.!.!.E.E.S.v.S.x.2.s.s.s.s.s.s.V [ 1.u.f.v.H.L.E.T.E.E.T.T.L.T.!.!.E.T.W.T.U.T.T.E.!.!.!.!.!.W.^.!.!.!.U.L.J.W.T.L.J.J.!.E.E.H.M.M.h.y.f.u.u.7.y.;.2.y.f.x.S.M.M.S.L.E.T.!.U.T.!.E.^.!.^.!.!.U.W.W.^.^.^.W.(.(.^.(.(.^.(.(.^.(.(.~.W.W.W.P.W.P.R.P.U.R.C.C.h.h.y.;.*.*.7.7.5.7.*.;.#...| [ ( R R E T U F F F F D A Z Z V d 7 7 9 d j z s.s.s.s.s.s.s.s.s.s.s.s.s.s.s.s.s.s.s.s.s.s.s.s.s.s.s.s.s.s.s.s.s.s.s.s.s.s.s.s.s.s.s.s.s.s.s.s.s.s.s.s.s.s.s.s.s.s.s.s.s.s.s.s.s.s.s.s.s.s.s.s.s.s.s.s.s.s.s.s.s.s.s.s.s.s.s.s.s.s.s.s.s.s.s.s.s.s.s.s.s.s.s.s.s.s.s.s.s.s.s.s.s.s.s.s.s.s.s.s.s.s.s.s.s.s.s.s.s.s.s.s.s.s.s.s.s.s.s.s.s.s.s.s.s.s.s.s.s.s.s.s.s.s.s.s.s.s.",
"s.s.s.s.s.s.s.s.s.s.s.s.s.s.s.s.s.s.s.s.s.s.s.s.s.s.s.s.s.s.s.s.s.s.s.s.s.s.s.s.s.s.s.s.s.s.s.s.s.s.s.s.s.s.s.s.s.s.s.s.s.s.s.s.s.s.s.s.s.s.s.s.s.s.s.s.s.s.s.s.s.s.s.s.s.s.s.s.s.s.s.s.s.s.s.s.s.s.s.s.s.s.s.s.s.s.s.s.s.s.s.s.s.s.s.s.s.s.s.s.s.s.s.s.s.s.s.s.s.s.s.s.s.s.s.s.s.s.s.s.s.s.s.s.s.s.s.s.s.s.s.s.s.s.s.s.s.s.s.s.s.s.s.s.s.s.s.s.s.s.s.s.s.s.s.s.s.s.s.s.s.s.s.s.s.s.s.s.s.s.s.s.s.s.s.s.s.s.s.s.s.s.s.s.s.s.s.s.s.s.s.s.s.s.s.s.s.s.s.[ E ` W U S U U R ( [ X.=.;.7.7.d.f.d.d.y.:.y.y.y.u.l.I.T.U.W.Q.W.!.^.!.^.T.W.!.T.!.I.J.U.T.!.T.T.W.^.^.^.^.^.^.(.^.}.^.^.^.^.!.S.M.J.T.H.T.J.M.v.S.M.M.H.K.E.E.J.W.T.E.!.!.!.W.E.E.W.E.E.^.E.E.W.T.W.W.J.E.T.E.!.^.!.!.!.W.W.U.J.J.J.U.W.W.E.T.E.!.!.E.L.T.L.H.S.S.M.l.l.l.h.l.H.E.H.!.!.!.!.E.^.E.E.T.!.!.T.W.W.R.W.W.W.W.R.^.Q.^.(.(.(.(.(.(.).W.^.~.W.W.W.U.P.P.Z.J.A.A.J.A.k.l.h.f.y.;.#.$.*.*.;.*.*.....` ` ( E E T T U F F D Z A Z Z Z z y 6 6 7 a d d s.s.s.s.s.s.s.s.s.s.s.s.s.s.s.s.s.s.s.s.s.s.s.s.s.s.s.s.s.s.s.s.s.s.s.s.s.s.s.s.s.s.s.s.s.s.s.s.s.s.s.s.s.s.s.s.s.s.s.s.s.s.s.s.s.s.s.s.s.s.s.s.s.s.s.s.s.s.s.s.s.s.s.s.s.s.s.s.s.s.s.s.s.s.s.s.s.s.s.s.s.s.s.s.s.s.s.s.s.s.s.s.s.s.s.s.s.s.s.s.s.s.s.s.s.s.s.s.s.s.s.s.s.s.s.s.s.s.s.s.s.s.s.s.s.s.s.s.s.s.s.s.s.s.s.s.s.s.",
"s.s.s.s.s.s.s.s.s.s.s.s.s.s.s.s.s.s.s.s.s.s.s.s.s.s.s.s.s.s.s.s.s.s.s.s.s.s.s.s.s.s.s.s.s.s.s.s.s.s.s.s.s.s.s.s.s.s.s.s.s.s.s.s.s.s.s.s.s.s.s.s.s.s.s.s.s.s.s.s.s.s.s.s.s.s.s.s.s.s.s.s.s.s.s.s.s.s.s.s.s.s.s.s.s.s.s.s.s.s.s.s.s.s.s.s.s.s.s.s.s.s.s.s.s.s.s.s.s.s.s.s.s.s.s.s.s.s.s.s.s.s.s.s.s.s.s.s.s.s.s.s.s.s.s.s.s.s.s.s.s.s.s.s.s.s.s.s.s.s.s.s.s.s.s.s.s.s.s.s.s.s.s.s.s.s.s.s.s.s.s.s.s.s.s.s.s.s.s.s.s.s.s.s.s.s.s.s.s.s.s.s.s.s.s.s.s.s.Q [ E T Q D F D U R ( | X.=.*.;.7.7.y.u.y.5.7.7.y.f.k.m.J.T.T.!.^.Q.^.^.^.!.!.W.!.T.T.U.U.A.I.T.W.^.^.!.(.(.^.}.^. X^.}.^.!.}.^.!.!.!.T.!.W.E.T.T.H.H.S.K.E.E.E.E.E.!.T.E.E.!.}.T.E.E.H.E.T.E.E.T.L.T.E.!.T.T.W.!.^.^.!.W.!.W.W.T.U.U.L.J.J.L.E.E.!.!.^.!.!.!.!.E.E.H.H.S.J.M.S.L.L.!.T.!.!.!.!.!.!.!.^.T.!.W.W.W.!.^.^.!.!.W.W.!.Q.^.^.(.(. X X(.!.W.~.^.W.W.W.W.U.W.W.W.R.Z.A.J.J.h.l.h.u.7.*.#.$.$.$.$.$.#.| ` ( ( E E T T U F F S Z Z V V V z 8 < < 7 a y y s.s.s.s.s.s.s.s.s.s.s.s.s.s.s.s.s.s.s.s.s.s.s.s.s.s.s.s.s.s.s.s.s.s.s.s.s.s.s.s.s.s.s.s.s.s.s.s.s.s.s.s.s.s.s.s.s.s.s.s.s.s.s.s.s.s.s.s.s.s.s.s.s.s.s.s.s.s.s.s.s.s.s.s.s.s.s.s.s.s.s.s.s.s.s.s.s.s.s.s.s.s.s.s.s.s.s.s.s.s.s.s.s.s.s.s.s.s.s.s.s.s.s.s.s.s.s.s.s.s.s.s.s.s.s.s.s.s.s.s.s.s.s.s.s.s.s.s.s.s.s.s.s.s.s.s.s.s.",
"s.s.s.s.s.s.s.s.s.s.s.s.s.s.s.s.s.s.s.s.s.s.s.s.s.s.s.s.s.s.s.s.s.s.s.s.s.s.s.s.s.s.s.s.s.s.s.s.s.s.s.s.s.s.s.s.s.s.s.s.s.s.s.s.s.s.s.s.s.s.s.s.s.s.s.s.s.s.s.s.s.s.s.s.s.s.s.s.s.s.s.s.s.s.s.s.s.s.s.s.s.s.s.s.s.s.s.s.s.s.s.s.s.s.s.s.s.s.s.s.s.s.s.s.s.s.s.s.s.s.s.s.s.s.s.s.s.s.s.s.s.s.s.s.s.s.s.s.s.s.s.s.s.s.s.s.s.s.s.s.s.s.s.s.s.s.s.s.s.s.s.s.s.s.s.s.s.s.s.s.s.s.s.s.s.s.s.s.s.s.s.s.s.s.s.s.s.s.s.s.s.s.s.s.s.s.s.s.s.s.s.s.s.s.s.s.s.s.[ E F U P Z D D P T ( [ X.=.=.;.;.7.7.7.5.5.7.7.y.h.k.J.T.!.!.^.Q.Q.!.!.!.!.!.!.T.T.J.J.A.A.U.W.!.^.^.^.^.^.^.^.^.(.^.(.^.^.{.^.^.^.^.!.!.!.!.E.!.E.E.L.K.L.H.E.E.E.E.K.!.K.E.E.S.L.L.T.!.E.L.J.H.T.E.E.E.E.T.!.!.!.!.!.W.W.W.W.T.U.J.J.S.J.E.T.E.!.!.E.!.^.^.!.!.E.K.L.M.L.L.L.L.E.E.E.E.!.!.E.!.!.!.!.!.!.^.^.^.^.^.T.!.W.W.W.W.^.(.^.(.}.(. X}.(.^.T.U.Z.U.W.R.W.U.U.U.W.T.T.A.A.C.A.h.h.f.7.$...#.#.#...| ` ( E E E T T U G D D Z Z V m z z d < ; , 6 y 9 0 s.s.s.s.s.s.s.s.s.s.s.s.s.s.s.s.s.s.s.s.s.s.s.s.s.s.s.s.s.s.s.s.s.s.s.s.s.s.s.s.s.s.s.s.s.s.s.s.s.s.s.s.s.s.s.s.s.s.s.s.s.s.s.s.s.s.s.s.s.s.s.s.s.s.s.s.s.s.s.s.s.s.s.s.s.s.s.s.s.s.s.s.s.s.s.s.s.s.s.s.s.s.s.s.s.s.s.s.s.s.s.s.s.s.s.s.s.s.s.s.s.s.s.s.s.s.s.s.s.s.s.s.s.s.s.s.s.s.s.s.s.s.s.s.s.s.s.s.s.s.s.s.s.s.s.s.s.s.",
"s.s.s.s.s.s.s.s.s.s.s.s.s.s.s.s.s.s.s.s.s.s.s.s.s.s.s.s.s.s.s.s.s.s.s.s.s.s.s.s.s.s.s.s.s.s.s.s.s.s.s.s.s.s.s.s.s.s.s.s.s.s.s.s.s.s.s.s.s.s.s.s.s.s.s.s.s.s.s.s.s.s.s.s.s.s.s.s.s.s.s.s.s.s.s.s.s.s.s.s.s.s.s.s.s.s.s.s.s.s.s.s.s.s.s.s.s.s.s.s.s.s.s.s.s.s.s.s.s.s.s.s.s.s.s.s.s.s.s.s.s.s.s.s.s.s.s.s.s.s.s.s.s.s.s.s.s.s.s.s.s.s.s.s.s.s.s.s.s.s.s.s.s.s.s.s.s.s.s.s.s.s.s.s.s.s.s.s.s.s.s.s.s.s.s.s.s.s.s.s.s.s.s.s.s.s.s.s.s.s.s.s.s.s.s.s.s.Y [ U F F S V S D P E ( [ X.$.=.=.;.7.7.5.5.=.7.y.y.h.m.T.T.W.W.!.Q.!.!.W.!.!.T.W.I.J.h.l.l.U.T.T.T.Q.Q.^.^.}.^.^.^.^.^.^.^.^.{.^.^.^.!.^.}.^.E.!.!.E.E.E.L.E.K.E.E.E.E.H.E.E.K.L.S.E.E.K.T.E.E.L.T.E.E.L.T.!.T.!.!.!.!.W.T.T.T.J.T.T.J.J.M.M.H.H.L.E.E.!.E.T.E.E.!.T.H.H.H.T.T.E.L.E.E.E.!.E.E.E.!.!.!.!.!.W.!.!.!.T.^.!.!.W.!.W.!.^.^.^.^.^.^.^.^.!.^.!.~.U.P.A.A.R.W.U.U.W.W.W.W.J.l.C.k.h.f.y.5.#... .....| ` / E E T T U G G D A Z V M z z h y : ; , 6 0 7 8 s.s.s.s.s.s.s.s.s.s.s.s.s.s.s.s.s.s.s.s.s.s.s.s.s.s.s.s.s.s.s.s.s.s.s.s.s.s.s.s.s.s.s.s.s.s.s.s.s.s.s.s.s.s.s.s.s.s.s.s.s.s.s.s.s.s.s.s.s.s.s.s.s.s.s.s.s.s.s.s.s.s.s.s.s.s.s.s.s.s.s.s.s.s.s.s.s.s.s.s.s.s.s.s.s.s.s.s.s.s.s.s.s.s.s.s.s.s.s.s.s.s.s.s.s.s.s.s.s.s.s.s.s.s.s.s.s.s.s.s.s.s.s.s.s.s.s.s.s.s.s.s.s.s.s.s.s.s.",
"s.s.s.s.s.s.s.s.s.s.s.s.s.s.s.s.s.s.s.s.s.s.s.s.s.s.s.s.s.s.s.s.s.s.s.s.s.s.s.s.s.s.s.s.s.s.s.s.s.s.s.s.s.s.s.s.s.s.s.s.s.s.s.s.s.s.s.s.s.s.s.s.s.s.s.s.s.s.s.s.s.s.s.s.s.s.s.s.s.s.s.s.s.s.s.s.s.s.s.s.s.s.s.s.s.s.s.s.s.s.s.s.s.s.s.s.s.s.s.s.s.s.s.s.s.s.s.s.s.s.s.s.s.s.s.s.s.s.s.s.s.s.s.s.s.s.s.s.s.s.s.s.s.s.s.s.s.s.s.s.s.s.s.s.s.s.s.s.s.s.s.s.s.s.s.s.s.s.s.s.s.s.s.s.s.s.s.s.s.s.s.s.s.s.s.s.s.s.s.s.s.s.s.s.s.s.s.s.s.s.s.s.s.s.s.s.s.W W G S A Z z V Z F U W { X.$.$.=.=.>.7.5.=.*.7.f.f.h.m.Y.T.W.!.!.!.!.T.W.!.!.!.W.J.A.l.J.T.T.T.^.W.^.!.^.!.^.^.^.}.^.^.^.{.^.!.!.!.!.!.^.E.E.^.E.E.E.E.!.E.E.T.E.T.E.E.H.H.K.K.K.H.L.S.H.J.H.S.S.K.H.H.H.E.E.E.!.E.T.T.!.T.!.T.T.I.J.J.J.M.M.l.S.H.L.T.T.E.E.E.E.E.J.S.H.J.T.L.E.E.!.E.E.!.^.!.!.{.!.!.^.!.^.^.^.^.^.!.W.W.W.W.W.!.^.(. X(.}.(.(.(.!.^.U.W.U.W.U.J.J.U.W.^.^.^.U.R.W.U.U.J.J.h.d.y.;.$...| ....( E E E T U P U F S Z V M z z z f 1 - - - 7 7 4 7 s.s.s.s.s.s.s.s.s.s.s.s.s.s.s.s.s.s.s.s.s.s.s.s.s.s.s.s.s.s.s.s.s.a.s.s.s.s.s.s.s.s.s.s.s.s.s.s.s.s.s.s.s.s.s.s.s.s.s.s.s.s.s.s.s.s.s.s.s.s.s.s.s.s.s.s.s.s.s.s.s.s.s.s.s.s.s.s.s.s.s.s.s.s.s.s.s.s.s.s.s.s.s.s.s.s.s.s.s.s.s.s.s.s.s.s.s.s.s.s.s.s.s.s.s.s.s.s.s.s.s.s.s.s.s.s.s.s.s.s.s.s.s.s.s.s.s.s.s.s.s.s.s.s.s.s.s.s.",
"s.s.s.s.s.s.s.s.s.s.s.s.s.s.s.s.s.s.s.s.s.s.s.s.s.s.s.s.s.s.s.s.s.s.s.s.s.s.s.s.s.s.s.s.s.s.s.s.s.s.s.s.s.s.s.s.s.s.s.s.s.s.s.s.s.s.s.s.s.s.s.s.s.s.s.s.s.s.s.s.s.s.s.s.s.s.s.s.s.s.s.s.s.s.s.s.s.s.s.s.s.s.s.s.s.s.s.s.s.s.s.s.s.s.s.s.s.s.s.s.s.s.s.s.s.s.s.s.s.s.s.s.s.s.s.s.s.s.s.s.s.s.s.s.s.s.s.s.s.s.s.s.s.s.s.s.s.s.s.s.s.s.s.s.s.s.s.s.s.s.s.s.s.s.s.s.s.s.s.s.s.s.s.s.s.s.s.s.s.s.s.s.s.s.s.s.s.s.s.s.s.s.s.s.s.s.s.s.s.s.s.s.s.s.s.s.C U W F Z C M h z Z D Y ( [  .X.$.$.;.5.;.=.$.7.y.y.f.h.l.I.T.W.!.W.!.W.!.T.J.T.T.S.J.T.T.J.J.^.!.^.^.W.T.!.^.^.!.^.(.^.(.}.{.{.!.{.!.^.{.^.E.E.E.E.E.!.E.E.!.!.E.T.E.E.T.T.H.E.K.H.L.H.H.K.H.L.L.H.S.S.M.K.H.S.H.E.E.E.T.E.!.T.T.J.H.J.J.J.J.J.J.J.J.J.T.T.T.J.T.U.L.A.S.J.T.J.T.E.E.!.E.E.!.{.^.{.!.!.!.!.^.^.^.!.^.!.!.W.W.W.W.W.!.^.^.^.^.}.^.^.^.!.!.W.W.U.U.U.U.W.W.U.~.(.^.^.^.^.W.W.l.h.f.y.7.7.$.....| | ( E T T T U G F D Z V V m z f f y ; = = , 9 4 < s.s.s.s.s.s.s.s.s.s.s.s.s.s.s.s.s.s.s.s.s.s.s.s.s.s.s.s.s.s.s.s.s.s.s.s.s.s.s.s.s.U 1.=.6.f.f.[ s.s.s.s.s.s.s.s.s.s.s.s.s.s.s.s.s.s.s.s.s.s.s.s.s.s.s.s.s.s.s.s.s.s.s.s.s.s.s.s.s.s.s.s.s.s.s.s.s.s.s.s.s.s.s.s.s.s.s.s.s.s.s.s.s.s.s.s.s.s.s.s.s.s.s.s.s.s.s.s.s.s.s.s.s.s.s.s.s.s.s.s.s.s.s.s.s.s.s.s.s.s.s.s.s.s.s.s.s.s.s.",
"s.s.s.s.s.s.s.s.s.s.s.s.s.s.s.s.s.s.s.s.s.s.s.s.s.s.s.s.s.s.s.s.s.s.s.s.s.s.s.s.s.s.s.s.s.s.s.s.s.s.s.s.s.s.s.s.s.s.s.s.s.s.s.s.s.s.s.s.s.s.s.s.s.s.s.s.s.s.s.s.s.s.s.s.s.s.s.s.s.s.s.s.s.s.s.s.s.s.s.s.s.s.s.s.s.s.s.s.s.s.s.s.s.s.s.s.s.s.s.s.s.s.s.s.s.s.s.s.s.s.s.s.s.s.s.s.s.s.s.s.s.s.s.s.s.s.s.s.s.s.s.s.s.s.s.s.s.s.s.s.s.s.s.s.s.s.s.s.s.s.s.s.s.s.s.s.s.s.s.s.s.s.s.s.s.s.s.s.s.s.s.s.s.s.s.s.s.s.s.s.s.s.s.s.s.s.s.s.s.s.s.s.s.s.s.s.K D E S V M h f d V Z U ` [ ..X...X.*.=.$.*.=.7.y.f.f.h.J.I.U.T.T.T.W.T.T.T.T.T.T.T.J.J.T.!.!.!.!.^.!.!.^.^.!.!.E.!.E.!.!.!.!.{.!.!.!.^.^.!.K.K.K.!.K.E.E.!.E.T.T.E.L.T.T.E.H.H.S.M.M.H.E.H.K.S.H.H.H.S.H.L.L.L.H.K.E.E.T.T.T.E.T.H.L.L.J.J.J.T.T.J.J.T.T.T.L.J.J.J.J.J.L.L.T.T.T.!.E.!.!.^.^.E.!.^.^.!.^.!.!.!.!.!.^.!.!.W.W.W.W.W.W.(.^.^.!.(.(.(.!.W.W.W.J.J.W.J.U.W.W.T.^.^.(.(.(.(.!.(.!.T.J.h.y.5.;.$.| [ | ( T T T U G D F D V M m z z k a 6 % @ > 6 7 : ; s.s.s.s.s.s.s.s.s.s.s.s.s.s.s.s.s.s.s.s.s.s.s.s.s.s.s.s.s.s.s.s.s.s.s.s.s.s.s.7.N.M.T.^.!.T.H.M.h.y.5.#.s.s.s.s.s.s.s.s.s.s.s.s.s.s.s.s.s.s.s.s.s.s.s.s.s.s.s.s.s.s.s.s.s.s.s.s.s.s.s.s.s.s.s.s.s.s.s.s.s.s.s.s.s.s.s.s.s.s.s.s.s.s.s.s.s.s.s.s.s.s.s.s.s.s.s.s.s.s.s.s.s.s.s.s.s.s.s.s.s.s.s.s.s.s.s.s.s.s.s.s.s.s.s.s.s.s.s.",
"s.s.s.s.s.s.s.s.s.s.s.s.s.s.s.s.s.s.s.s.s.s.s.s.s.s.s.s.s.s.s.s.s.s.s.s.s.s.s.s.s.s.s.s.s.s.s.s.s.s.s.s.s.s.s.s.s.s.s.s.s.s.s.s.s.s.s.s.s.s.s.s.s.s.s.s.s.s.s.s.s.s.s.s.s.s.s.s.s.s.s.s.s.s.s.s.s.s.s.s.s.s.s.s.s.s.s.s.s.s.s.s.s.s.s.s.s.s.s.s.s.s.s.s.s.s.s.s.s.s.s.s.s.s.s.s.s.s.s.s.s.s.s.s.s.s.s.s.s.s.s.s.s.s.s.s.s.s.s.s.s.s.s.s.s.s.s.s.s.s.s.s.s.s.s.s.s.s.s.s.s.s.s.s.s.s.s.s.s.s.s.s.s.s.s.s.s.s.s.s.s.s.s.s.s.s.s.s.s.s.s.s.s.s.s.s.J D G V v v f a a V Z G ( [ | .. .$.$.*.$.$.=.7.y.y.f.k.l.J.T.!.!.T.T.T.W.!.T.E.J.T.L.^.!.E.T.!.!.!.!.!.E.E.!.E.E.!.!.!.!.^.^.{.{.}.^.E.^.!.!.E.E.!.E.K.E.E.!.E.L.E.T.L.E.T.S.H.H.K.L.K.H.K.H.S.E.H.L.S.H.L.L.E.L.S.T.E.E.L.J.J.Y.Y.Y.T.J.H.J.U.T.T.U.T.E.T.T.J.U.J.J.J.J.!.!.!.W.!.!.!.!.!.T.^.!.E.^.E.^.!.!.!.W.!.!.T.T.T.U.U.W.W.^.^.^.(.!.^.^.!.!.U.J.A.A.A.l.l.A.A.J.!.W.W.(.(.(.(.}.!.T.T.J.h.u.y.5.;...[ ` ( U U U G F D F S V z z k j d y , o = 1 8 1 = - s.s.s.s.s.s.s.s.s.s.s.s.s.s.s.s.s.s.s.s.s.s.s.s.s.s.s.s.s.s.s.s.s.s.s.s.s.=.h.M.J.!.W.^. X(.^.T.J.l.J.y.f.7.Y s.s.s.s.s.s.s.s.s.s.s.s.s.s.s.s.s.s.s.s.s.s.s.s.s.s.s.s.s.s.s.s.s.s.s.s.s.s.s.s.s.s.s.s.s.s.s.s.s.s.s.s.s.s.s.s.s.s.s.s.s.s.s.s.s.s.s.s.s.s.s.s.s.s.s.s.s.s.s.s.s.s.s.s.s.s.s.s.s.s.s.s.s.s.s.s.s.s.s.s.s.s.s.s.",
"s.s.s.s.s.s.s.s.s.s.s.s.s.s.s.s.s.s.s.s.s.s.s.s.s.s.s.s.s.s.s.s.s.s.s.s.s.s.s.s.s.s.s.s.s.s.s.s.s.s.s.s.s.s.s.s.s.s.s.s.s.s.s.s.s.s.s.s.s.s.s.s.s.s.s.s.s.s.s.s.s.s.s.s.s.s.s.s.s.s.s.s.s.s.s.s.s.s.s.s.s.s.s.s.s.s.s.s.s.s.s.s.s.s.s.s.s.s.s.s.s.s.s.s.s.s.s.s.s.s.s.s.s.s.s.s.s.s.s.s.s.s.s.s.s.s.s.s.s.s.s.s.s.s.s.s.s.s.s.s.s.s.s.s.s.s.s.s.s.s.s.s.s.s.s.s.s.s.s.s.s.s.s.s.s.s.s.s.s.s.s.s.s.s.s.s.s.s.s.s.s.s.s.s.s.s.s.s.s.s.s.s.s.s.s.h V Z F V h h d y y z V G W [ | | | ..#.....$.5.7.y.u.f.h.k.l.J.T.T.T.J.!.!.!.J.E.H.T.E.T.!.!.!.!.!.!.!.T.T.E.E.E.!.!.!.!.^.^.!.!.!.!.^.!.!.L.E.K.H.E.E.E.[.E.E.E.E.!.T.L.E.E.H.E.H.H.H.S.S.K.E.M.H.K.H.L.H.E.^.E.E.L.E.!.T.!.E.H.E.E.T.T.H.J.J.J.J.U.U.T.T.!.U.T.W.J.U.U.U.L.!.T.!.!.!.T.!.!.!.E.!.^.!.!.!.^.!.!.W.Q.T.U.T.T.W.T.W.W.^.^.(.(.!.(.(.T.W.W.J.l.C.k.l.l.A.U.W.W.^.!.(.(.(.}.}.(.}.^.!.L.h.f.y.;.2...` R U G G P D D D Z m z z f d y 7 o o - 6 2 = * s.s.s.s.s.s.s.s.s.s.s.s.s.s.s.s.s.s.s.s.s.s.s.s.s.s.s.s.s.s.s.s.s.s.s.s.Y 5.h.J.S.J.!.!.W.^.^.OX}.!.T.J.W.g.g.l.f.| s.s.s.s.s.s.s.s.s.s.s.s.s.s.s.s.s.s.s.s.s.s.s.s.s.s.s.s.s.s.s.s.s.s.s.s.s.s.s.s.s.s.s.s.s.s.s.s.s.s.s.s.s.s.s.s.s.s.s.s.s.s.s.s.s.s.s.s.s.s.s.s.s.s.s.s.s.s.s.s.s.s.s.s.s.s.s.s.s.s.s.s.s.s.s.s.s.s.s.s.s.s.",
"s.s.s.s.s.s.s.s.s.s.s.s.s.s.s.s.s.s.s.s.s.s.s.s.s.s.s.s.s.s.s.s.s.s.s.s.s.s.s.s.s.s.s.s.s.s.s.s.s.s.s.s.s.s.s.s.s.s.s.s.s.s.s.s.s.s.s.s.s.s.s.s.s.s.s.s.s.s.s.s.s.s.s.s.s.s.s.s.s.s.s.s.s.s.s.s.s.s.s.s.s.s.s.s.s.s.s.s.s.s.s.s.s.s.s.s.s.s.s.s.s.s.s.s.s.s.s.s.s.s.s.s.s.s.s.s.s.s.s.s.s.s.s.s.s.s.s.s.s.s.s.s.s.s.s.s.s.s.s.s.s.s.s.s.s.s.s.s.s.s.s.s.s.s.s.s.s.s.s.s.s.s.s.s.s.s.s.s.s.s.s.s.s.s.s.s.s.s.s.s.s.s.s.s.s.s.s.s.s.s.s.s.s.s.s.f v m S z f d y 9 0 d h S W [ | | | ..| ......2.7.y.y.f.d.k.m.J.J.J.J.J.T.L.J.T.!.T.!.!.!.!.!.!.T.E.!.^.!.!.!.!.!.!.!.^.{.!.^.^.{.!.!.!.E.J.E.E.E.K.E.K.K.E.E.E.T.!.!.!.T.E.E.E.L.H.T.T.M.H.M.S.H.L.K.K.!.E.E.!.E.E.T.!.!.E.!.T.E.E.T.T.L.H.J.J.J.J.T.T.T.J.T.T.!.T.!.T.T.W.T.T.T.!.!.T.!.!.!.E.E.^.!.!.!.!.T.!.T.T.T.J.W.W.!.W.Q.(.(.}.^.^. X^.^.^.^.T.U.J.A.l.l.l.l.l.J.T.T.Q.Q.(.(.(. X(.(. X(.!.T.H.M.h.h.u.$.` ( T U U G D D A Z z j j d d y 2   o > 1 = o @ s.s.s.s.s.s.s.s.s.s.s.s.s.s.s.s.s.s.s.s.s.s.s.s.s.s.s.s.s.s.s.s.s.s.s.2.b.f.!.^.}.}. X}.^.^.E.T.#XOX!.W.A.C.l.y.g.h.h.7.s.s.s.s.s.s.s.s.s.s.s.s.s.s.s.s.s.s.s.s.s.s.s.s.s.s.s.s.s.s.s.s.s.s.s.s.s.s.s.s.s.s.s.s.s.s.s.s.s.s.s.s.s.s.s.s.s.s.s.s.s.s.s.s.s.s.s.s.s.s.s.s.s.s.s.s.s.s.s.s.s.s.s.s.s.s.s.s.s.s.s.s.s.s.s.s.s.s.s.s.",
"s.s.s.s.s.s.s.s.s.s.s.s.s.s.s.s.s.s.s.s.s.s.s.s.s.s.s.s.s.s.s.s.s.s.s.s.s.s.s.s.s.s.s.s.s.s.s.s.s.s.s.s.s.s.s.s.s.s.s.s.s.s.s.s.s.s.s.s.s.s.s.s.s.s.s.s.s.s.s.s.s.s.s.s.s.s.s.s.s.s.s.s.s.s.s.s.s.s.s.s.s.s.s.s.s.s.s.s.s.s.s.s.s.s.s.s.s.s.s.s.s.s.s.s.s.s.s.s.s.s.s.s.s.s.s.s.s.s.s.s.s.s.s.s.s.s.s.s.s.s.s.s.s.s.s.s.s.s.s.s.s.s.s.s.s.s.s.s.s.s.s.s.s.s.s.s.s.s.s.s.s.s.s.s.s.s.s.s.s.s.s.s.s.s.s.s.s.s.s.s.s.s.s.s.s.s.s.s.s.s.s.s.s.s.s.h f z V f y y 0 e 8 8 f S E (  ...| | | | ..$.;.7.7.y.f.g.l.m.M.l.l.M.M.H.H.J.!.!.T.!.!.!.!.!.!.^.!.!.!.!.!.!.!.E.!.^.^.^.!.!.E.!.!.E.E.E.J.S.K.H.K.E.K.E.!.!.!.E.E.T.E.E.E.E.H.L.L.E.T.L.H.H.H.K.E.E.E.E.E.E.E.{.E.!.!.!.!.!.E.T.T.H.L.L.H.H.H.J.H.J.J.T.J.T.J.W.T.T.T.T.^.T.!.!.T.E.T.E.!.!.E.^.E.^.E.^.E.E.W.W.J.W.R.W.T.^.!.^.^.^.Q.^.^.(.(.^.^.!.T.U.J.A.l.l.l.l.l.A.T.W.!.^.(. XXX XXXoX X X}.^.^.T.J.M.u.u.$.` T F D F S D S V z d d y y 7 = o = > O   o s.s.s.s.s.s.s.s.s.s.s.s.s.s.s.s.s.s.s.s.s.s.s.s.s.s.s.s.s.s.s.s.s.s.Q 6.M.J.S.E.!.{.}. X X}.}.!.J.J. X+X X^.I.h.g.g.g.U.T.l.y.s.s.s.s.s.s.s.s.s.s.s.s.s.s.s.s.s.s.s.s.s.s.s.s.s.s.s.s.s.s.s.s.s.s.s.s.s.s.s.s.s.s.s.s.s.s.s.s.s.s.s.s.s.s.s.s.s.s.s.s.s.s.s.s.s.s.s.s.s.s.s.s.s.s.s.s.s.s.s.s.s.s.s.s.s.s.s.s.s.s.s.s.s.s.s.s.s.s.",
"s.s.s.s.s.s.s.s.s.s.s.s.s.s.s.s.s.s.s.s.s.s.s.s.s.s.s.s.s.s.s.s.s.s.s.s.s.s.s.s.s.s.s.s.s.s.s.s.s.s.s.s.s.s.s.s.s.s.s.s.s.s.s.s.s.s.s.s.s.s.s.s.s.s.s.s.s.s.s.s.s.s.s.s.s.s.s.s.s.s.s.s.s.s.s.s.s.s.s.s.s.s.s.s.s.s.s.s.s.s.s.s.s.s.s.s.s.s.s.s.s.s.s.s.s.s.s.s.s.s.s.s.s.s.s.s.s.s.s.s.s.s.s.s.s.s.s.s.s.s.s.s.s.s.s.s.s.s.s.s.s.s.s.s.s.s.s.s.s.s.s.s.s.s.s.s.s.s.s.s.s.s.s.s.s.s.s.s.s.s.s.s.s.s.s.s.s.s.s.s.s.s.s.s.s.s.s.s.s.s.s.s.s.s.s.v d d z f 0 0 7 8 7 7 f C T ( [ | | | | | | $.=.5.7.y.f.h.k.M.l.l.l.M.H.H.H.H.E.E.E.T.!.!.^.^.^.T.!.!.E.!.!.!.E.E.E.E.E.!.!.^.!.E.E.!.E.E.E.H.L.H.H.E.T.T.E.!.!.!.{.!.!.!.!.!.!.!.E.E.E.H.K.K.L.E.E.E.L.K.E.K.E.E.L.!.!.E.!.E.E.E.Y.H.H.H.J.J.J.J.J.J.S.H.H.T.U.T.L.T.T.!.T.!.!.!.W.E.E.!.T.E.E.L.E.!.T.!.L.T.W.J.T.J.L.!.!.W.!.(.^.^.^. X^.(.^.^.!.T.T.T.J.A.l.l.l.J.A.l.J.!.!.(.}.^.}.}.XXXX(.(.(.^.^.^.T.H.l.M.f.$.E D F D Z Z Z M j d a 0 0 6 o & = o     o s.s.s.s.s.s.s.s.s.s.s.s.s.s.s.s.s.s.s.s.s.s.s.s.s.s.s.s.s.s.s.s.s.3.f.h.J.W.J.!.}.^.^.^.^.!.(.^.!.T.l.}.oXXX^.^.T.l.h.h.h.d.m.h.d.s.s.s.s.s.s.s.s.s.s.s.s.s.s.s.s.s.s.s.s.s.s.s.s.s.s.s.s.s.s.s.s.s.s.s.s.s.s.s.s.s.s.s.s.s.s.s.s.s.s.s.s.s.s.s.s.s.s.s.s.s.s.s.s.s.s.s.s.s.s.s.s.s.s.s.s.s.s.s.s.s.s.s.s.s.s.s.s.s.s.s.s.s.s.s.s.",
"s.s.s.s.s.s.s.s.s.s.s.s.s.s.s.s.s.s.s.s.s.s.s.s.s.s.s.s.s.s.s.s.s.s.s.s.s.s.s.s.s.s.s.s.s.s.s.s.s.s.s.s.s.s.s.s.s.s.s.s.s.s.s.s.s.s.s.s.s.s.s.s.s.s.s.s.s.s.s.s.s.s.s.s.s.s.s.s.s.s.s.s.s.s.s.s.s.s.s.s.s.s.s.s.s.s.s.s.s.s.s.s.s.s.s.s.s.s.s.s.s.s.s.s.s.s.s.s.s.s.s.s.s.s.s.s.s.s.s.s.s.s.s.s.s.s.s.s.s.s.s.s.s.s.s.s.s.s.s.s.s.s.s.s.s.s.s.s.s.s.s.s.s.s.s.s.s.s.s.s.s.s.s.s.s.s.s.s.s.s.s.s.s.s.s.s.s.s.s.s.s.s.s.s.s.s.s.s.s.s.s.s.s.s.s.s.y 0 f d 9 7 7 6 6 4 y V Y W [ [ [ ` [ ' | $.=.;.7.y.y.f.h.h.f.h.h.l.l.S.H.E.E.E.!.!.!.!.!.!.!.!.!.!.!.!.!.!.E.!.!.E.!.E.!.!.E.E.^.E.!.E.E.L.E.K.K.E.E.E.T.T.!.!.!.T.!.!.{.^.!.T.!.!.!.E.K.E.E.E.E.E.E.E.E.H.E.!.!.!.!.!.!.!.!.^.T.T.L.E.H.L.H.J.H.H.S.H.H.J.E.E.T.T.T.!.!.H.T.T.!.E.T.H.T.L.L.L.E.E.E.T.J.H.L.L.T.L.W.W.!.!.W.^.^.^.^.(.^.^.^.^.W.T.I.J.J.A.l.l.l.l.l.U.T.W.^.}. X X(. XXXXXXXXX}.}.!.!.T.!.L.S.h.f.$.F D D Z V V z d y y 0 y =   O o     X s.s.s.s.s.s.s.s.s.s.s.s.s.s.s.s.s.s.s.s.s.s.s.s.s.s.s.s.s.s.s.s.W 7.f.Y.H.!.!.^.^. X}. X X X^.T.T.!.!.T.J.^.OX@XOXoX XW.l.h.d.y.h.C.g.:.s.s.s.s.s.s.s.s.s.s.s.s.s.s.s.s.s.s.s.s.s.s.s.s.s.s.s.s.s.s.s.s.s.s.s.s.s.s.s.s.s.s.s.s.s.s.s.s.s.s.s.s.s.s.s.s.s.s.s.s.s.s.s.s.s.s.s.s.s.s.s.s.s.s.s.s.s.s.s.s.s.s.s.s.s.s.s.s.s.s.s.s.s.s.",
"s.s.s.s.s.s.s.s.s.s.s.s.s.s.s.s.s.s.s.s.s.s.s.s.s.s.s.s.s.s.s.s.s.s.s.s.s.s.s.s.s.s.s.s.s.s.s.s.s.s.s.s.s.s.s.s.s.s.s.s.s.s.s.s.s.s.s.s.s.s.s.s.s.s.s.s.s.s.s.s.s.s.s.s.s.s.s.s.s.s.s.s.s.s.s.s.s.s.s.s.s.s.s.s.s.s.s.s.s.s.s.s.s.s.s.s.s.s.s.s.s.s.s.s.s.s.s.s.s.s.s.s.s.s.s.s.s.s.s.s.s.s.s.s.s.s.s.s.s.s.s.s.s.s.s.s.s.s.s.s.s.s.s.s.s.s.s.s.s.s.s.s.s.s.s.s.s.s.s.s.s.s.s.s.s.s.s.s.s.s.s.s.s.s.s.s.s.s.s.s.s.s.s.s.s.s.s.s.s.s.s.s.s.s.s.s.7 7 y 0 0 7 4 4 2 2 0 M F R _ ` W ( ` ( ..$.$.$.*.7.u.f.f.u.u.f.h.h.l.M.S.L.E.E.T.E.T.!.^.^.!.!.^.^.!.!.!.!.E.!.!.E.!.!.!.E.!.E.E.E.E.L.L.K.H.H.H.E.!.!.!.!.!.!.E.!.W.!.!.E.!.!.!.!.!.E.E.!.^.E.E.E.H.E.K.E.E.E.H.!.^.^.!.!.E.E.E.E.E.H.S.H.L.H.T.T.H.H.H.H.H.L.H.T.L.E.!.H.E.T.L.E.L.S.L.E.L.E.E.L.T.E.S.H.W.W.E.T.W.W.(.W.!.!.W.W.(.^.(.^.!.T.T.U.k.A.J.l.l.k.l.l.l.A.U.!.W.!.(.^.(. X}.}.|.}.(.(.^.{.E.!.E.J.S.l.h.5.E S Z Z V z 0 y y 7 6 o .         s.s.s.s.s.s.s.s.s.s.s.s.s.s.s.s.s.s.s.s.s.s.s.s.s.s.s.s.s.s.s.s.,.8.b.h.l.J.W.!.^.^.^.^.}.}. X}.}.^.T.T.T.T.l.l.!.$X%X$XOX X^.T.h.g.d.g.h.y.;.s.s.s.s.s.s.s.s.s.s.s.s.s.s.s.s.s.s.s.s.s.s.s.s.s.s.s.s.s.s.s.s.s.s.s.s.s.s.s.s.s.s.s.s.s.s.s.s.s.s.s.s.s.s.s.s.s.s.s.s.s.s.s.s.s.s.s.s.s.s.s.s.s.s.s.s.s.s.s.s.s.s.s.s.s.s.s.s.s.s.s.s.",
"s.s.s.s.s.s.s.s.s.s.s.s.s.s.s.s.s.s.s.s.s.s.s.s.s.s.s.s.s.s.s.s.s.s.s.s.s.s.s.s.s.s.s.s.s.s.s.s.s.s.s.s.s.s.s.s.s.s.s.s.s.s.s.s.s.s.s.s.s.s.s.s.s.s.s.s.s.s.s.s.s.s.s.s.s.s.s.s.s.s.s.s.s.s.s.s.s.s.s.s.s.s.s.s.s.s.s.s.s.s.s.s.s.s.s.s.s.s.s.s.s.s.s.s.s.s.s.s.s.s.s.s.s.s.s.s.s.s.s.s.s.s.s.s.s.s.s.s.s.s.s.s.s.s.s.s.s.s.s.s.s.s.s.s.s.s.s.s.s.s.s.s.s.s.s.s.s.s.s.s.s.s.s.s.s.s.s.s.s.s.s.s.s.s.s.s.s.s.s.s.s.s.s.s.s.s.s.s.s.s.s.s.s.s.s.s.s.5 7 0 7 6 1 < < 1 7 z P Q ( _ W W ( ( ..$.$.*.;.7.y.u.f.y.y.u.f.h.v.M.S.H.L.E.E.E.!.!.!.!.^.!.E.!.!.!.^.T.!.!.!.!.!.E.E.!.E.E.E.E.L.L.E.E.E.E.T.!.!.E.!.!.!.^.^.T.!.!.!.^.!.!.E.!.E.E.E.!.{.E.E.K.K.H.E.E.!.!.E.!.E.{.{.^.!.E.E.E.E.E.T.T.H.J.H.H.H.L.L.T.T.J.T.H.H.H.E.H.L.E.E.T.L.H.S.H.L.L.H.H.L.E.H.H.T.W.!.!.W.!.!.!.^.(.^.!.^.!.^.!.(.!.U.J.A.l.l.l.h.l.l.l.l.l.J.T.^.^.(.(.}. X}.}.(.(.}.|.|.!.}.!.^.!.!.H.S.u.7.E Z V m d 0 0 8 7 >           s.s.s.s.s.s.s.s.s.s.s.s.s.s.s.s.s.s.s.s.s.s.s.s.s.s.s.s.a.s.s.s.5.f.d.d.l.J.T.!.^.^.(.^.}.}.}.}. X X}.}.^.J.U.l.J.l.k.I.#XoX$X@X@X}.W.I.h.g.l.g.-.;.#.f.x.8.s.s.s.s.s.s.s.s.s.s.s.s.s.s.s.s.s.s.s.s.s.s.s.s.s.s.s.s.s.s.s.s.s.s.s.s.s.s.s.s.s.s.s.s.s.s.s.s.s.s.s.s.s.s.s.s.s.s.s.s.s.s.s.s.s.s.s.s.s.s.s.s.s.s.s.s.s.s.s.s.s.s.s.s.s.s.",
"s.s.s.s.s.s.s.s.s.s.s.s.s.s.s.s.s.s.s.s.s.s.s.s.s.s.s.s.s.s.s.s.s.s.s.s.s.s.s.s.s.s.s.s.s.s.s.s.s.s.s.s.s.s.s.s.s.s.s.s.s.s.s.s.s.s.s.s.s.s.s.s.s.s.s.s.s.s.s.s.s.s.s.s.s.s.s.s.s.s.s.s.s.s.s.s.s.s.s.s.s.s.s.s.s.s.s.s.s.s.s.s.s.s.s.s.s.s.s.s.s.s.s.s.s.s.s.s.s.s.s.s.s.s.s.s.s.s.s.s.s.s.s.s.s.s.s.s.s.s.s.s.s.s.s.s.s.s.s.s.s.s.s.s.s.s.s.s.s.s.s.s.s.s.s.s.s.s.s.s.s.s.s.s.s.s.s.s.s.s.s.s.s.s.s.s.s.s.s.s.s.s.s.s.s.s.s.s.s.s.s.s.s.s.s.s.s., < 9 6 2 < , > - 6 h D T W R Q E R W ....$.=.;.7.7.y.u.y.y.f.h.M.M.S.H.E.E.E.!.!.!.!.!.^.!.^.^.{.^.^.}.^.{.!.^.E.!.!.!.!.!.!.!.!.E.L.E.!.!.E.T.!.!.!.!.!.!.^.!.^.!.!.!.!.^.^.E.E.E.E.E.!.E.K.L.S.E.!.}.{.}.!.^.^.^.^.^.{.!.!.!.!.E.E.E.L.H.H.L.L.H.H.H.H.L.H.L.E.E.L.L.M.H.T.E.L.J.S.S.M.E.S.L.L.H.E.E.E.E.!.!.!.^.!.^.(.^.^.!.(.!.(.^.!.!.^.T.J.k.h.h.l.l.l.l.A.J.U.T.W.W.E.^.^.(.}.}.}.(.}.}.(.(.}.}.{.^.E.E.E.S.H.v.f.| Z l 0 0 7 7 6 o         s.s.s.s.s.s.s.s.s.s.s.s.s.s.s.s.s.s.s.s.s.s.s.s.s.s.s.s.s.s.s.s.8.7.f.d.h.M.T.E.!.!.^.^.}.^.}.}.}.}.}. X}. X}.!.J.l.l.J.U.l.l.U.W. XOXoX}.!.C.h.g.d.*.#...*.=.5.s.s.s.s.s.s.s.s.s.s.s.s.s.s.s.s.s.s.s.s.s.s.s.s.s.s.s.s.s.s.s.s.s.s.s.s.s.s.s.s.s.s.s.s.s.s.s.s.s.s.s.s.s.s.s.s.s.s.s.s.s.s.s.s.s.s.s.s.s.s.s.s.s.s.s.s.s.s.s.s.s.s.s.s.s.",
"s.s.s.s.s.s.s.s.s.s.s.s.s.s.s.s.s.s.s.s.s.s.s.s.s.s.s.s.s.s.s.s.s.s.s.s.s.s.s.s.s.s.s.s.s.s.s.s.s.s.s.s.s.s.s.s.s.s.s.s.s.s.s.s.s.s.s.s.s.s.s.s.s.s.s.s.s.s.s.s.s.s.s.s.s.s.s.s.s.s.s.s.s.s.s.s.s.s.s.s.s.s.s.s.s.s.s.s.s.s.s.s.s.s.s.s.s.s.s.s.s.s.s.s.s.s.s.s.s.s.s.s.s.s.s.s.s.s.s.s.s.s.s.s.s.s.s.s.s.s.s.s.s.s.s.s.s.s.s.s.s.s.s.s.s.s.s.s.s.s.s.s.s.s.s.s.s.s.s.s.s.s.s.s.s.s.s.s.s.s.s.s.s.s.s.s.s.s.s.s.s.s.s.s.s.s.s.s.s.s.s.s.s.s.s.s.s.s.= , 7 1 , - = = < y S U Q E T E T R  .| $.=.5.7.7.7.7.y.u.h.h.S.S.S.K.E.E.!.E.E.^.^.!.!.^.^.!.^.^.^.{.^.^.E.!.!.^.^.E.E.E.!.!.E.E.E.E.E.!.!.!.!.!.!.!.!.!.!.!.{.!.^.!.T.!.!.E.E.E.E.E.E.K.K.E.E.E.!.E.E.!.!.!.!.^.{.^.!.!.!.!.E.E.E.E.E.T.E.T.L.L.E.T.E.H.T.E.L.T.H.H.H.E.T.E.L.S.M.H.S.L.J.J.T.E.!.E.!.W.!.!.^.!.W.(.!.^.(.^.(.!.^.W.!.W.T.T.A.l.h.l.l.l.J.l.A.l.J.J.T.T.!.(.}.|.(.!.(.(.XX(.(.}.}.}.{.{.^.[.E.!.H.H.S.H.f.` z 9 7 6 -       X s.s.s.s.s.s.s.s.s.s.s.s.s.s.s.s.s.s.s.s.s.s.s.s.s.s.s.s.s.s.s.X.7.f.l.h.l.M.J.T.E.E.^.}.^.}.^.^.}.}.}.}.}.^.(.^.^.^.!.J.l.J.T.W.W.T.J.I.J.(.XX!.J.l.h.;...#.*.y.7.2.2.s.s.s.s.s.s.s.s.s.s.s.s.s.s.s.s.s.s.s.s.s.s.s.s.s.s.s.s.s.s.s.s.s.s.s.s.s.s.s.s.s.s.s.s.s.s.s.s.s.s.s.s.s.s.s.s.s.s.s.s.s.s.s.s.s.s.s.s.s.s.s.s.s.s.s.s.s.s.s.s.s.s.s.",
"s.s.s.s.s.s.s.s.s.s.s.s.s.s.s.s.s.s.s.s.s.s.s.s.s.s.s.s.s.s.s.s.s.s.s.s.s.s.s.s.s.s.s.s.s.s.s.s.s.s.s.s.s.s.s.s.s.s.s.s.s.s.s.s.s.s.s.s.s.s.s.s.s.s.s.s.s.s.s.s.s.s.s.s.s.s.s.s.s.s.s.s.s.s.s.s.s.s.s.s.s.s.s.s.s.s.s.s.s.s.s.s.s.s.s.s.s.s.s.s.s.s.s.s.s.s.s.s.s.s.s.s.s.s.s.s.s.s.s.s.s.s.s.s.s.s.s.s.s.s.s.s.s.s.s.s.s.s.s.s.s.s.s.s.s.s.s.s.s.s.s.s.s.s.s.s.s.s.s.s.s.s.s.s.s.s.s.s.s.s.s.s.s.s.s.s.s.s.s.s.s.s.s.s.s.s.s.s.s.s.s.s.s.s.s.s.s.s.s.= > < < - = % - 0 A D U Y U E G ` | | $.=.5.5.7.5.y.f.f.v.M.H.K.E.E.E.!.!.!.^.{.{.!.!.!.!.!.!.!.^.^.^.!.^.{.^.!.!.^.^.!.^.^.E.T.E.E.^.^.!.!.!.!.!.!.T.!.!.!.T.!.^.!.E.E.!.!.E.E.E.E.!.K.K.K.E.!.E.!.E.!.^.!.!.{.!.!.^.!.!.E.E.E.E.E.E.E.E.E.E.T.H.T.H.H.E.T.H.J.J.H.H.H.H.H.H.K.E.E.S.T.T.L.!.^.!.H.!.E.!.!.!.!.!.!.^.!.^.!.^.^.(.!.!.!.T.T.J.l.l.h.l.h.l.H.J.J.T.T.T.!.!.^.}.}. X}.}.}.}.}.}.}.^.(.(.}. X{.{.!.!.!.T.T.H.H.f.` j 7 o     + s.s.s.s.s.s.s.s.s.s.s.s.s.s.s.s.s.s.s.s.s.s.s.s.s.s.s.s.s.s.s.4.8.f.l.h.J.J.T.T.!.!.!.!.^.^.}.}.^.^.^.^.}.}.^.^.^.^.!.!.W.T.J.l.k.W.Q.^.!.J.l.C.L.T.J.l.y.*.....*.;.7.$. .s.s.s.s.s.s.s.s.s.s.s.s.s.s.s.s.s.s.s.s.s.s.s.s.s.s.s.s.s.s.s.s.s.s.s.s.s.s.s.s.s.s.s.s.s.s.s.s.s.s.s.s.s.s.s.s.s.s.s.s.s.s.s.s.s.s.s.s.s.s.s.s.s.s.s.s.s.s.s.s.s.s.",
"s.s.s.s.s.s.s.s.s.s.s.s.s.s.s.s.s.s.s.s.s.s.s.s.s.s.s.s.s.s.s.s.s.s.s.s.s.s.s.s.s.s.s.s.s.s.s.s.s.s.s.s.s.s.s.s.s.s.s.s.s.s.s.s.s.s.s.s.s.s.s.s.s.s.s.s.s.s.s.s.s.s.s.s.s.s.s.s.s.s.s.s.s.s.s.s.s.s.s.s.s.s.s.s.s.s.s.s.s.s.s.s.s.s.s.s.s.s.s.s.s.s.s.s.s.s.s.s.s.s.s.s.s.s.s.s.s.s.s.s.s.s.s.s.s.s.s.s.s.s.s.s.s.s.s.s.s.s.s.s.s.s.s.s.s.s.s.s.s.s.s.s.s.s.s.s.s.s.s.s.s.s.s.s.s.s.s.s.s.s.s.s.s.s.s.s.s.s.s.s.s.s.s.s.s.s.s.s.s.s.s.s.s.s.s.s.s.s.s.s.O O < - - o o < M S U U U U D ` | | X.=.2.5.;.7.f.h.M.M.S.H.E.E.E.E.!.!.!.!.^.{.^.^.!.^.!.{.}.{.^.}.{.!.!.!.!.!.!.!.^.{.^.E.!.E.T.E.E.^.^.!.!.E.L.!.!.!.!.E.T.E.E.E.T.!.L.H.E.E.E.E.E.E.K.E.E.E.E.E.E.^.{.^.^.!.E.E.!.E.E.!.E.!.E.T.E.E.E.E.E.E.J.J.S.H.H.T.L.L.L.L.L.H.S.S.K.H.H.L.T.T.H.E.E.!.!.^.^.W.E.!.(.!.^.W.(.^.W.W.^.!.!.W.T.T.T.J.l.l.l.l.l.l.J.J.J.I.T.!.W.!.!.^.(.}. X X}.}.XX|.}.}.}.}. X}.(.^.^.^.(.^.T.T.Q.T.M.M.2.a , s.s.s.s.s.s.s.s.s.s.s.s.s.s.s.s.s.s.s.s.s.s.s.s.s.s.s.s.s.s.s.s.2.6.h.h.M.l.T.T.!.!.^.!.^.^.^.^.^.}.^.^.^.^.^.^.^.^.^.^.!.J.J.W.W.T.J.h.J.!.Q.^.T.l.l.C.S.l.d.;...| ..#.;.7.#.| s.s.s.s.s.s.s.s.s.s.s.s.s.s.s.s.s.s.s.s.s.s.s.s.s.s.s.s.s.s.s.s.s.s.s.s.s.s.s.s.s.s.s.s.s.s.s.s.s.s.s.s.s.s.s.s.s.s.s.s.s.s.s.s.s.s.s.s.s.s.s.s.s.s.s.s.s.s.s.s.s.",
"s.s.s.s.s.s.s.s.s.s.s.s.s.s.s.s.s.s.s.s.s.s.s.s.s.s.s.s.s.s.s.s.s.s.s.s.s.s.s.s.s.s.s.s.s.s.s.s.s.s.s.s.s.s.s.s.s.s.s.s.s.s.s.s.s.s.s.s.s.s.s.s.s.s.s.s.s.s.s.s.s.s.s.s.s.s.s.s.s.s.s.s.s.s.s.s.s.s.s.s.s.s.s.s.s.s.s.s.s.s.s.s.s.s.s.s.s.s.s.s.s.s.s.s.s.s.s.s.s.s.s.s.s.s.s.s.s.s.s.s.s.s.s.s.s.s.s.s.s.s.s.s.s.s.s.s.s.s.s.s.s.s.s.s.s.s.s.s.s.s.s.s.s.s.s.s.s.s.s.s.s.s.s.s.s.s.s.s.s.s.s.s.s.s.s.s.s.s.s.s.s.s.s.s.s.s.s.s.s.s.s.s.s.s.s.s.s.s.s.s.s.o o - O O o = h S F F D G D ( | ..X.=.2.2.7.u.h.h.M.M.H.H.E.E.E.!.!.!.^.^.{.{.^.{.^.^.{.{.{.}.{.^.{.}.^.!.!.E.E.E.E.E.E.^.^.E.E.^.!.!.!.!.!.!.^.E.^.^.!.!.!.E.E.E.L.!.E.E.!.!.!.!.K.H.H.H.E.E.E.E.!.E.E.E.E.E.!.!.!.!.!.!.E.E.E.E.E.E.E.E.E.E.!.T.T.H.H.J.J.S.M.S.S.S.S.S.K.H.S.H.H.E.E.E.!.!.^.}.!.E.^.!.^.W.!.!.!.!.!.W.T.T.!.W.!.T.U.J.A.l.l.l.l.l.l.J.I.J.T.J.T.W.^.^.^.^. X}. X}.}.}.|.XX|.}.(.}.}.}.}.^.^.!.^.^.!.!.T.E.M.H.u.1.P s.s.s.s.s.s.s.s.s.s.s.s.s.s.s.s.s.s.s.s.s.s.s.s.s.s.s.s.s.6.5.f.h.m.m.J.H.T.!.T.T.E.!.!.!.^.^.^.^.^.^.^.^.!.^.^.^.^.!.W.W.J.J.!.!.J.k.l.!.^.T.J.l.h.h.d.y.7.#.` ` #...#.5.| [ s.s.s.s.s.s.s.s.s.s.s.s.s.s.s.s.s.s.s.s.s.s.s.s.s.s.s.s.s.s.s.s.s.s.s.s.s.s.s.s.s.s.s.s.s.s.s.s.s.s.s.s.s.s.s.s.s.s.s.s.s.s.s.s.s.s.s.s.s.s.s.s.s.s.s.s.s.s.s.s.",
"s.s.s.s.s.s.s.s.s.s.s.s.s.s.s.s.s.s.s.s.s.s.s.s.s.s.s.s.s.s.s.s.s.s.s.s.s.s.s.s.s.s.s.s.s.s.s.s.s.s.s.s.s.s.s.s.s.s.s.s.s.s.s.s.s.s.s.s.s.s.s.s.s.s.s.s.s.s.s.s.s.s.s.s.s.s.s.s.s.s.s.s.s.s.s.s.s.s.s.s.s.s.s.s.s.s.s.s.s.s.s.s.s.s.s.s.s.s.s.s.s.s.s.s.s.s.s.s.s.s.s.s.s.s.s.s.s.s.s.s.s.s.s.s.s.s.s.s.s.s.s.s.s.s.s.s.s.s.s.s.s.s.s.s.s.s.s.s.s.s.s.s.s.s.s.s.s.s.s.s.s.s.s.s.s.s.s.s.s.s.s.s.s.s.s.s.s.s.s.s.s.s.s.s.s.s.s.s.s.s.s.s.s.s.s.s.s.s.s.s.s.s.    O o X * d V S D S D G ( ` ..X.$.=.5.7.u.h.b.M.M.H.K.E.!.!.!.!.^.{.^.{.}.{.}.}.}.}.}.^.{.}.}.{.!.^.{.{.^.^.!.{.{.^.^.!.!.E.!.^.!.!.^.^.^.!.!.{.{.^.T.E.!.!.T.E.E.E.!.!.E.E.E.E.E.E.E.E.E.H.L.E.!.E.E.E.!.^.^.!.!.!.!.!.T.E.E.E.E.E.E.L.T.E.E.H.H.E.H.T.E.T.H.H.H.H.H.H.H.H.H.K.H.J.H.E.T.^.^.!.}.!.!.(.}.!.!.^.W.W.W.T.W.T.U.T.T.J.A.A.A.A.l.k.J.l.J.J.J.T.!.W.!.Q.^.^.^.(.}.}.XX X XXX}. X X}.(.}.}.}.^.^.^.^.^.}.!.!.^.E.E.E.S.b.b.8.2.[ s.s.s.s.s.s.s.s.s.s.s.s.s.s.s.s.s.s.s.s.s.s.s.Y 7.y.f.f.M.J.S.J.M.!.T.!.T.!.!.!.T.T.!.!.^.^.^.^.^.^.!.!.!.^.!.W.!.W.A.J.U.T.T.l.h.Y.!.T.M.h.h.d.y.;.#.` / ` ....#.*.' U s.s.s.s.s.s.s.s.s.s.s.s.s.s.s.s.s.s.s.s.s.s.s.s.s.s.s.s.s.s.s.s.s.s.s.s.s.s.s.s.s.s.s.s.s.s.s.s.s.s.s.s.s.s.s.s.s.s.s.s.s.s.s.s.s.s.s.s.s.s.s.s.s.s.s.s.s.s.s.",
"s.s.s.s.s.s.s.s.s.s.s.s.s.s.s.s.s.s.s.s.s.s.s.s.s.s.s.s.s.s.s.s.s.s.s.s.s.s.s.s.s.s.s.s.s.s.s.s.s.s.s.s.s.s.s.s.s.s.s.s.s.s.s.s.s.s.s.s.s.s.s.s.s.s.s.s.s.s.s.s.s.s.s.s.s.s.s.s.s.s.s.s.s.s.s.s.s.s.s.s.s.s.s.s.s.s.s.s.s.s.s.s.s.s.s.s.s.s.s.s.s.s.s.s.s.s.s.s.s.s.s.s.s.s.s.s.s.s.s.s.s.s.s.s.s.s.s.s.s.s.s.s.s.s.s.s.s.s.s.s.s.s.s.s.s.s.s.s.s.s.s.s.s.s.s.s.s.s.s.s.s.s.s.s.s.s.s.s.s.s.s.s.s.s.s.s.s.s.s.s.s.s.s.s.s.s.s.s.s.s.s.s.s.s.s.s.s.s.s.s.s.s.s.    o X = y z Z C Z S G ( | ....X.=.7.u.f.h.M.M.M.H.K.E.E.!.^.^.^.^.{.{.|.^.^.}.^.}.}.}.|.^.!.!.^.{.{.^.^.!.^.^.^.!.^.!.!.^.^.!.^.^.!.{.!.!.^.^.!.!.!.!.!.E.T.E.E.!.E.E.E.E.!.E.E.E.E.E.K.L.E.!.E.E.!.E.E.E.E.E.!.^.!.E.E.E.T.E.E.E.E.L.T.^.T.T.!.H.H.!.T.H.S.K.H.M.v.S.M.H.H.H.H.S.L.L.!.}.!.E.!.!.^.^.(.^.^.!.W.J.J.T.T.J.J.T.T.I.J.J.A.l.l.J.I.l.l.l.J.J.T.W.!.^.!.^.^.}.}.}.XX}.(. X(.}. X X^.}.(. X}. X}.^.!.!.^.!.!.!.!./.W.!.L.S.M.H.N.x.7.s.s.s.s.s.s.s.s.s.s.s.s.s.s.s.s.s.s.s.=.5.f.h.h.l.l.h.h.M.M.J.T.T.J.T.T.T.T.J.T.!.T.T.!.!.!.^.!.!.T.T.W.W.W.W.T.A.A.J.T.T.l.h.k.T.J.h.f.f.y.:.#.' ( T | ' $.=.#.[ I s.s.s.s.s.s.s.s.s.s.s.s.s.s.s.s.s.s.s.s.s.s.s.s.s.s.s.s.s.s.s.s.s.s.s.s.s.s.s.s.s.s.s.s.s.s.s.s.s.s.s.s.s.s.s.s.s.s.s.s.s.s.s.s.s.s.s.s.s.s.s.s.s.s.s.s.s.s.",
"s.s.s.s.s.s.s.s.s.s.s.s.s.s.s.s.s.s.s.s.s.s.s.s.s.s.s.s.s.s.s.s.s.s.s.s.s.s.s.s.s.s.s.s.s.s.s.s.s.s.s.s.s.s.s.s.s.s.s.s.s.s.s.s.s.s.s.s.s.s.s.s.s.s.s.s.s.s.s.s.s.s.s.s.s.s.s.s.s.s.s.s.s.s.s.s.s.s.s.s.s.s.s.s.s.s.s.s.s.s.s.s.s.s.s.s.s.s.s.s.s.s.s.s.s.s.s.s.s.s.s.s.s.s.s.s.s.s.s.s.s.s.s.s.s.s.s.s.s.s.s.s.s.s.s.s.s.s.s.s.s.s.s.s.s.s.s.s.s.s.s.s.s.s.s.s.s.s.s.s.s.s.s.s.s.s.s.s.s.s.s.s.s.s.s.s.s.s.s.s.s.s.s.s.s.s.s.s.s.s.s.s.s.s.s.s.s.s.s.s.s.s.s.s.1       1 d z v V Z S ` [ X...$.5.u.u.f.b.M.M.H.L.L.E.E.!.!.^.{.!.}.}.}.!.{.{.{.{.^.{.{.}.!.!.^.{.{.{.^.!.^.^.{.^.^.!.^.{.{.^.^.^.^.E.^.{.{.E.E.{.{.!.^.T.!.!.E.!.!.!.^.E.!.!.E.E.E.!.E.E.!.E.E.!.E.^.!.!.!.E.!.^.!.!.E.E.E.!.E.E.E.L.L.E.L.L.E.L.T.L.L.L.H.H.M.S.S.H.S.M.M.M.S.M.H.T.E.!.!.!.!.!.!.!.^.^.!.^.W.W.L.J.J.L.J.U.I.J.J.A.l.l.A.k.J.A.A.J.T.T.T.T.W.!.!.^.^.^.^.(.(.(.}.}.}.}.}.}.^.}.^.(.}.^.^.^.^.^.(.!.^.^.^.!.!.W.W.E.T.K.K.S.E.S.S.M.7.s.s.s.s.s.s.s.s.s.s.s.s.s.s.2.u.y.h.h.l.M.M.M.M.H.H.L.T.T.T.T.T.T.T.J.J.T.T.T.T.J.T.T.T.T.T.J.J.T.T.U.U.U.J.l.J.T.U.l.d.h.S.l.f.f.y.y.$.| E F E ` ` =.*.W ! s.s.s.s.s.s.s.s.s.s.s.s.s.s.s.s.s.s.s.s.s.s.s.s.s.s.s.s.s.s.s.s.s.s.s.s.s.s.s.s.s.s.s.s.s.s.s.s.s.s.s.s.s.s.s.s.s.s.s.s.s.s.s.s.s.s.s.s.s.s.s.s.s.s.s.s.s.s.",
"s.s.s.s.s.s.s.s.s.s.s.s.s.s.s.s.s.s.s.s.s.s.s.s.s.s.s.s.s.s.s.s.s.s.s.s.s.s.s.s.s.s.s.s.s.s.s.s.s.s.s.s.s.s.s.s.s.s.s.s.s.s.s.s.s.s.s.s.s.s.s.s.s.s.s.s.s.s.s.s.s.s.s.s.s.s.s.s.s.s.s.s.s.s.s.s.s.s.s.s.s.s.s.s.s.s.s.s.s.s.s.s.s.s.s.s.s.s.s.s.s.s.s.s.s.s.s.s.s.s.s.s.s.s.s.s.s.s.s.s.s.s.s.s.s.s.s.s.s.s.s.s.s.s.s.s.s.s.s.s.s.s.s.s.s.s.s.s.s.s.s.s.s.s.s.s.s.s.s.s.s.s.s.s.s.s.s.s.s.s.s.s.s.s.s.s.s.s.s.s.s.s.s.s.s.s.s.s.s.s.s.s.s.s.s.s.s.s.s.s.s.s.s.s.s.u > + , a f z z m Q ( ..| ..=.7.u.u.h.b.M.H.H.K.E.E.!.!.!.^.^.!.^.{.}.}.}.^.{.{.!.}.!.^.!.!.^.{.^.^.^.^.^.!.{.^.{.{.{.^.!.{.}.}.^.{.^.{.!.!.^.!.!.!.!.!.!.E.E.E.H.E.E.!.E.E.L.E.E.E.E.E.E.E.!.!.E.T.!.!.{.!.!.E.!.E.E.E.E.E.T.H.T.E.L.J.H.S.l.S.S.l.l.S.l.H.E.H.S.S.S.M.S.M.S.H.H.K.E.!.!.!.!.!.!.!.^.^.^.E.E.T.L.J.S.J.J.J.A.A.J.J.l.k.J.J.J.J.H.J.J.J.J.!.T.W.!.^.^.^.^.^.}.}.!.(.}.^.}.}.(. X^.(.^.^.^.^.^.^.{.^.{.}.^.!.!.(.^.W.W.^.^.W.^.T.U.T.J.M.M.f.s.s.s.s.s.s.s.s.s.R 5.y.f.h.h.S.M.M.M.v.H.H.H.T.T.!.T.T.T.T.J.T.T.T.J.J.T.J.J.J.J.J.T.U.J.J.J.J.J.J.J.A.l.l.J.J.h.d.h.M.f.u.y.7.;.| ( U T [ ` | ..E W A s.s.s.s.s.s.s.s.s.s.s.s.s.s.s.s.s.s.s.s.s.s.s.s.s.s.s.s.s.s.s.s.s.s.s.s.s.s.s.s.s.s.s.s.s.s.s.s.s.s.s.s.s.s.s.s.s.s.s.s.s.s.s.s.s.s.s.s.s.s.s.s.s.s.s.s.s.",
"s.s.s.s.s.s.s.s.s.s.s.s.s.s.s.s.s.s.s.s.s.s.s.s.s.s.s.s.s.s.s.s.s.s.s.s.s.s.s.s.s.s.s.s.s.s.s.s.s.s.s.s.s.s.s.s.s.s.s.s.s.s.s.s.s.s.s.s.s.s.s.s.s.s.s.s.s.s.s.s.s.s.s.s.s.s.s.s.s.s.s.s.s.s.s.s.s.s.s.s.s.s.s.s.s.s.s.s.s.s.s.s.s.s.s.s.s.s.s.s.s.s.s.s.s.s.s.s.s.s.s.s.s.s.s.s.s.s.s.s.s.s.s.s.s.s.s.s.s.s.s.s.s.s.s.s.s.s.s.s.s.s.s.s.s.s.s.s.s.s.s.s.s.s.s.s.s.s.s.s.s.s.s.s.s.s.s.s.s.s.s.s.s.s.s.s.s.s.s.s.s.s.s.s.s.s.s.s.s.s.s.s.s.s.s.s.s.s.s.s.s.s.s.s.s.s.s.x e 7 d f k j Y ` | | $.5.7.7.u.f.b.M.H.E.E.E.E.E.!.{.{.{.^.^.{.{.}.^.!.{.}.}.{.}.{.^.[.^.{.!.!.!.!.!.{.}.^.^.{.{.}.{.}.|.|.}.{.^.^.{.!.{.{.{.^.^.!.E.E.!.!.E.E.E.^.!.E.E.E.K.E.!.E.!.!.!.!.!.!.!.^.!.!.E.E.^.E.E.!.E.L.T.E.H.T.S.S.S.L.S.H.E.S.l.l.l.M.S.H.E.S.v.H.M.S.S.L.H.H.L.!.!.E.!.!.!.!.{.^.^.!.W.L.J.J.S.S.J.U.A.l.J.A.J.J.J.J.J.J.S.J.T.J.T.T.T.T.!.!.!.^.^.!.(.^.^.}.}.^.^.}.(.}.^.(.^.(.(.^.(.}.E.E.!.{.^.^.!.^.!.^.!.!.!.W.!.^.Q.^.^.!.T.I.J.M.b.$.s.s.s.s.2.2.f.h.M.h.x.M.H.M.S.v.S.L.T.J.E.T.T.!.T.^.T.!.T.L.T.J.J.T.T.J.J.J.J.T.T.J.J.A.J.J.J.l.l.h.l.J.J.h.y.f.h.u.y.7.;.| ( U S ( [ ( ` ( U v s.s.s.s.s.s.s.s.s.s.s.s.s.s.s.s.s.s.s.s.s.s.s.s.s.s.s.s.s.s.s.s.s.s.s.s.s.s.s.s.s.s.s.s.s.s.s.s.s.s.s.s.s.s.s.s.s.s.s.s.s.s.s.s.s.s.s.s.s.s.s.s.s.s.s.s.s.",
"s.s.s.s.s.s.s.s.s.s.s.s.s.s.s.s.s.s.s.s.s.s.s.s.s.s.s.s.s.s.s.s.s.s.s.s.s.s.s.s.s.s.s.s.s.s.s.s.s.s.s.s.s.s.s.s.s.s.s.s.s.s.s.s.s.s.s.s.s.s.s.s.s.s.s.s.s.s.s.s.s.s.s.s.s.s.s.s.s.s.s.s.s.s.s.s.s.s.s.s.s.s.s.s.s.s.s.s.s.s.s.s.s.s.s.s.s.s.s.s.s.s.s.s.s.s.s.s.s.s.s.s.s.s.s.s.s.s.s.s.s.s.s.s.s.s.s.s.s.s.s.s.s.s.s.s.s.s.s.s.s.s.s.s.s.s.s.s.s.s.s.s.s.s.s.s.s.s.s.s.s.s.s.s.s.s.s.s.s.s.s.s.s.s.s.s.s.s.s.s.s.s.s.s.s.s.s.s.s.s.s.s.s.s.s.s.s.s.s.s.s.s.s.s.s.s.s.s.s.7 y d f d Y [ [ #.2.7.7.u.f.f.v.M.H.K.E.E.E.E.!.!.!.!.^.{.!.^.{.}.{.^.}.(.^.}.^.^.{.^.^.^.^.!.{.^.^.{.{.}.}.}.}.{.{.{.{.}.{.^.^.^.{.{.!.!.!.E.!.{.!.E.!.!.!.!.E.E.E.E.K.H.E.!.E.!.!.!.E.E.E.!.!.E.E.!.!.!.E.E.!.E.L.L.K.H.S.H.M.M.S.S.v.S.M.M.M.H.L.H.S.S.H.S.H.H.M.S.K.H.H.K.E.K.E.E.E.!.!.^.^.^.!.W.!.E.L.J.J.J.U.A.k.J.l.l.J.J.J.J.J.S.J.U.J.J.J.J.T.L.W.!.!.!.W.^.}.^.}.(.^.(.}.}.}.^.^.}.^.(.^.^.{.{.^.[.{.}.^.!.!.^.^.^.}.(.(.!.Q.^.(.T.W.W.T.U.J.l.H.M.h.5.7.d.h.f.l.v.M.v.M.v.M.H.M.H.H.H.L.J.J.T.T.T.!.T.T.T.J.E.J.M.M.l.S.J.M.J.J.J.U.J.J.J.U.J.l.l.h.h.h.h.h.y.7.f.f.y.5.*.| ( R D R W ( ( ` G V s s.s.s.s.s.s.s.s.s.s.s.s.s.s.s.s.s.s.s.s.s.s.s.s.s.s.s.s.s.s.s.s.s.s.s.s.s.s.s.s.s.s.s.s.s.s.s.s.s.s.s.s.s.s.s.s.s.s.s.s.s.s.s.s.s.s.s.s.s.s.s.s.s.s.s.s.",
"s.s.s.s.s.s.s.s.s.s.s.s.s.s.s.s.s.s.s.s.s.s.s.s.s.s.s.s.s.s.s.s.s.s.s.s.s.s.s.s.s.s.s.s.s.s.s.s.s.s.s.s.s.s.s.s.s.s.s.s.s.s.s.s.s.s.s.s.s.s.s.s.s.s.s.s.s.s.s.s.s.s.s.s.s.s.s.s.s.s.s.s.s.s.s.s.s.s.s.s.s.s.s.s.s.s.s.s.s.s.s.s.s.s.s.s.s.s.s.s.s.s.s.s.s.s.s.s.s.s.s.s.s.s.s.s.s.s.s.s.s.s.s.s.s.s.s.s.s.s.s.s.s.s.s.s.s.s.s.s.s.s.s.s.s.s.s.s.s.s.s.s.s.s.s.s.s.s.s.s.s.s.s.s.s.s.s.s.s.s.s.s.s.s.s.s.s.s.s.s.s.s.s.s.s.s.s.s.s.s.s.s.s.s.s.s.s.s.s.s.s.s.s.s.s.s.s.s.s.s.8 y y V R _ { $.7.7.u.f.h.b.M.M.H.E.E.E.!.!.E.E.^.{.^.{.^.{.{.}.}.}.^.{.{.^.^.^.^.^.{.}.{.}.^.{.{.}.}.}.{.}.}.}.{.}.}.}.^.^.^.^.{.^.!.E.^.^.E.[.E.E.E.E.!.!.E.E.E.T.E.E.!.^.E.E.!.!.!.E.E.!.E.!.!.E.E.K.K.S.H.E.E.K.L.H.S.H.M.M.M.M.S.K.M.S.L.K.S.T.L.L.J.L.J.H.K.E.L.H.K.K.H.K.E.E.E.E.!.!.^.^.!.!.!.T.T.J.T.J.J.C.C.J.A.C.C.l.C.J.J.J.C.A.J.U.J.H.H.J.E.T.T.E.!.!.!.!.^.^.!.^.{.!.{.}.{.^.!.{.!.^.{.^.{.}.{.{.^.^.!.}.}.}.}.^.(.^.^.^.^.W.^.Q.~.!.!.W.J.J.J.J.k.h.d.h.l.l.H.J.H.M.J.H.J.E.E.H.H.L.H.T.H.H.E.E.E.!.T.!.T.H.M.l.S.J.S.M.S.l.J.S.J.A.l.l.A.h.g.h.y.y.f.y.5.7.u.y.5.$.| _ R D U T Q R ` T A f s.s.s.s.s.s.s.s.s.s.s.s.s.s.s.s.s.s.s.s.s.s.s.s.s.s.s.s.s.s.s.s.s.s.s.s.s.s.s.s.s.s.s.s.s.s.s.s.s.s.s.s.s.s.s.s.s.s.s.s.s.s.s.s.s.s.s.s.s.s.s.s.s.s.s.s.",
"s.s.s.s.s.s.s.s.s.s.s.s.s.s.s.s.s.s.s.s.s.s.s.s.s.s.s.s.s.s.s.s.s.s.s.s.s.s.s.s.s.s.s.s.s.s.s.s.s.s.s.s.s.s.s.s.s.s.s.s.s.s.s.s.s.s.s.s.s.s.s.s.s.s.s.s.s.s.s.s.s.s.s.s.s.s.s.s.s.s.s.s.s.s.s.s.s.s.s.s.s.s.s.s.s.s.s.s.s.s.s.s.s.s.s.s.s.s.s.s.s.s.s.s.s.s.s.s.s.s.s.s.s.s.s.s.s.s.s.s.s.s.s.s.s.s.s.s.s.s.s.s.s.s.s.s.s.s.s.s.s.s.s.s.s.s.s.s.s.s.s.s.s.s.s.s.s.s.s.s.s.s.s.s.s.s.s.s.s.s.s.s.s.s.s.s.s.s.s.s.s.s.s.s.s.s.s.s.s.s.s.s.s.s.s.s.s.s.s.s.s.s.s.s.s.s.s.s.s.s.5 0 y V R [ $.2.7.u.u.f.b.b.M.M.H.E.E.E.E.!.E.E.^.{.^.^.^.}.^.}.}.^.^.{.{.^.{.{.{.{.{.{.^.^.^.}.{.^.{.^.^.{.}.}.{.}.}.{.{.^.!.^.!.^.^.!.!.^.!.!.E.E.E.E.E.E.E.E.E.E.!.!.^.E.!.!.!.^.^.E.!.!.{.!.E.K.K.E.E.H.K.K.L.K.K.E.L.H.L.L.S.H.H.H.M.v.L.S.L.L.S.S.L.L.J.L.L.K.H.K.S.E.K.L.K.E.L.E.E.!.!.!.^.!.!.T.U.T.U.J.J.A.S.C.A.C.J.C.l.C.A.C.A.A.A.J.J.H.T.L.T.T.E.E.!.!.!.!.!.^.!.!.!.!.!.^.!.{.}.{.!.{.{.^.^.}.!.{.^.^.^.^.}.^.^.}.}.(.(.^.^.^.^.^.^.^.!.!.W.W.J.W.J.J.J.l.h.d.h.m.m.J.H.L.T.E.E.T.T.E.L.E.H.T.L.H.E.E.T.T.T.L.M.l.l.l.l.l.l.h.S.l.J.J.l.l.l.l.d.d.d.7.y.y.7.5.7.y.5.$.| ( T V A T T T E W D v s.s.s.s.s.s.s.s.s.s.s.s.s.s.s.s.s.s.s.s.s.s.s.s.s.s.s.s.s.s.s.s.s.s.s.s.s.s.s.s.s.s.s.s.s.s.s.s.s.s.s.s.s.s.s.s.s.s.s.s.s.s.s.s.s.s.s.s.s.s.s.s.s.s.s.s.",
"s.s.s.s.s.s.s.s.s.s.s.s.s.s.s.s.s.s.s.s.s.s.s.s.s.s.s.s.s.s.s.s.s.s.s.s.s.s.s.s.s.s.s.s.s.s.s.s.s.s.s.s.s.s.s.s.s.s.s.s.s.s.s.s.s.s.s.s.s.s.s.s.s.s.s.s.s.s.s.s.s.s.s.s.s.s.s.s.s.s.s.s.s.s.s.s.s.s.s.s.s.s.s.s.s.s.s.s.s.s.s.s.s.s.s.s.s.s.s.s.s.s.s.s.s.s.s.s.s.s.s.s.s.s.s.s.s.s.s.s.s.s.s.s.s.s.s.s.s.s.s.s.s.s.s.s.s.s.s.s.s.s.s.s.s.s.s.s.s.s.s.s.s.s.s.s.s.s.s.s.s.s.s.s.s.s.s.s.s.s.s.s.s.s.s.s.s.s.s.s.s.s.s.s.s.s.s.s.s.s.s.s.s.s.s.s.s.s.s.s.s.s.s.s.s.s.s.s.s.s.s.6 0 M (  .$.2.7.u.u.f.f.b.M.M.K.E.E.E.E.!.E.E.!.!.!.^.^.}.^.{.{.{.{.{.^.^.{.{.^.{.{.{.}.}.^.}.}.{.}.}.^.!.^.^.!.^.{.^.{.{.^.{.}.^.!.!.^.!.E.!.K.E.E.!.E.E.E.E.E.E.!.[.!.E.!.H.E.^.!.E.!.E.K.E.E.E.E.K.E.E.E.E.E.E.E.E.E.L.L.L.L.E.L.L.E.H.T.S.H.J.J.H.H.T.L.E.E.E.H.H.L.L.H.E.H.H.L.T.!.!.!.^.^.T.!.T.T.U.T.Y.J.S.J.C.J.C.J.S.C.l.l.C.S.C.A.J.J.H.L.L.H.L.E.E.!.!.!.!.!.^.^.^.^.!.^.^.!.!.{.!.^.{.{.!.{.{.!.{.^.!.^.^.}. X(.}.(.(.(.(.^.(.(.(.^.~.!.^.~.~.^.W.I.J.U.l.l.l.h.l.h.l.J.J.H.J.L.T.E.L.E.L.L.L.S.M.H.J.E.H.L.J.l.h.l.h.h.l.h.f.h.h.k.l.J.l.h.C.h.d.y.7.7.7.7.;.7.6.5.$.[ W U V Z U U U U T D A s.s.s.s.s.s.s.s.s.s.s.s.s.s.s.s.s.s.s.s.s.s.s.s.s.s.s.s.s.s.s.s.s.s.s.s.s.s.s.s.s.s.s.s.s.s.s.s.s.s.s.s.s.s.s.s.s.s.s.s.s.s.s.s.s.s.s.s.s.s.s.s.s.s.s.s.",
"s.s.s.s.s.s.s.s.s.s.s.s.s.s.s.s.s.s.s.s.s.s.s.s.s.s.s.s.s.s.s.s.s.s.s.s.s.s.s.s.s.s.s.s.s.s.s.s.s.s.s.s.s.s.s.s.s.s.s.s.s.s.s.s.s.s.s.s.s.s.s.s.s.s.s.s.s.s.s.s.s.s.s.s.s.s.s.s.s.s.s.s.s.s.s.s.s.s.s.s.s.s.s.s.s.s.s.s.s.s.s.s.s.s.s.s.s.s.s.s.s.s.s.s.s.s.s.s.s.s.s.s.s.s.s.s.s.s.s.s.s.s.s.s.s.s.s.s.s.s.s.s.s.s.s.s.s.s.s.s.s.s.s.s.s.s.s.s.s.s.s.s.s.s.s.s.s.s.s.s.s.s.s.s.s.s.s.s.s.s.s.s.s.s.s.s.s.s.s.s.s.s.s.s.s.s.s.s.s.s.s.s.s.s.s.s.s.s.s.s.s.s.s.s.s.s.s.s.s.s.s., 6 V ` $.2.5.y.y.7.f.h.M.v.M.K.E.E.E.E.E.E.E.!.!.!.{.!.^.^.{.{.{.^.{.^.^.{.{.{.^.{.}.^.}.}.}.{.{.}.}.{.^.{.{.^.{.}.^.}.}.^.^.{.^.^.{.^.!.!.!.!.K.K.E.K.E.E.E.E.E.E.!.E.[.[.E.E.E.E.E.E.E.E.E.K.E.E.E.E.E.E.E.E.E.^.E.E.E.E.E.T.E.T.!.!.L.J.L.!.E.E.E.H.!.E.E.E.E.E.K.E.H.S.L.H.J.K.S.T.T.E.!.!.T.!.T.J.J.H.T.J.J.J.J.C.C.C.S.A.C.l.C.C.C.A.J.J.J.J.U.U.T.W.!.!.!.!.!.!.!.!.^.!.!.!.E.!.E.E.!.!.^.{.{.{.!.^.^.^.^.^.!.!.(.}.^.!.(.}.^.^.(.^.(.(.^.^.(.(.^.W.^.W.J.U.Z.A.l.h.h.d.h.k.k.J.J.T.T.E.H.T.H.L.J.H.H.H.J.H.J.H.J.l.h.h.h.f.f.h.f.h.h.h.h.l.h.h.h.h.d.7.:.5.;.5.=.=.2.2...[ R U D D F U F P U U V v s.s.s.s.s.s.s.s.s.s.s.s.s.s.s.s.s.s.s.s.s.s.s.s.s.s.s.s.s.s.s.s.s.s.s.s.s.s.s.s.s.s.s.s.s.s.s.s.s.s.s.s.s.s.s.s.s.s.s.s.s.s.s.s.s.s.s.s.s.s.s.s.s.s.s.",
"s.s.s.s.s.s.s.s.s.s.s.s.s.s.s.s.s.s.s.s.s.s.s.s.s.s.s.s.s.s.s.s.s.s.s.s.s.s.s.s.s.s.s.s.s.s.s.s.s.s.s.s.s.s.s.s.s.s.s.s.s.s.s.s.s.s.s.s.s.s.s.s.s.s.s.s.s.s.s.s.s.s.s.s.s.s.s.s.s.s.s.s.s.s.s.s.s.s.s.s.s.s.s.s.s.s.s.s.s.s.s.s.s.s.s.s.s.s.s.s.s.s.s.s.s.s.s.s.s.s.s.s.s.s.s.s.s.s.s.s.s.s.s.s.s.s.s.s.s.s.s.s.s.s.s.s.s.s.s.s.s.s.s.s.s.s.s.s.s.s.s.s.s.s.s.s.s.s.s.s.s.s.s.s.s.s.s.s.s.s.s.s.s.s.s.s.s.s.s.s.s.s.s.s.s.s.s.s.s.s.s.s.s.s.s.s.s.s.s.s.s.s.s.s.s.s.s.s.s.s.s.s.4 V  .=.2.5.7.u.u.f.h.h.v.M.H.K.H.H.E.K.K.E.!.E.!.^.!.!.^.{.{.{.{.{.}.{.{.{.{.^.{.}.}.|.}.^.{.{.{.^.^.^.^.}.{.{.{.^.{.{.^.^.{.^.E.!.!.E.!.!.!.E.K.E.!.E.E.[.E.^.!.E.!.E.E.K.K.K.E.E.K.E.E.!.E.!.E.!.E.!.E.!.E.!.!.!.T.T.!.W.E.!.!.^.E.T.T.!.!.E.!.!.E.!.!.E.!.!.!.E.E.S.E.H.H.H.K.M.H.H.L.L.T.!.!.T.T.U.H.J.L.J.J.J.J.L.J.S.J.A.C.C.C.C.C.C.J.J.J.J.T.T.T.E.!.!.!.!.W.!.!.!.E.E.!.!.!.!.^.^.!.^.!.^.{.!.{.^.{.^.^.^.^.^.(.^.^.(.^.^.(. X^.(.^.^.(.(.(.^.!.^.W.R.U.U.C.l.h.h.d.d.h.h.h.J.T.T.T.H.H.H.H.H.H.H.J.J.H.S.l.M.k.l.h.f.f.f.d.d.d.f.h.h.k.h.h.h.d.d.7.;.;.=.=.=.$.=.$. .[ R U D Z D D D S F F D V s.s.s.s.s.s.s.s.s.s.s.s.s.s.s.s.s.s.s.s.s.s.s.s.s.s.s.s.s.s.s.s.s.s.s.s.s.s.s.s.s.s.s.s.s.s.s.s.s.s.s.s.s.s.s.s.s.s.s.s.s.s.s.s.s.s.s.s.s.s.s.s.s.s.s.",
"s.s.s.s.s.s.s.s.s.s.s.s.s.s.s.s.s.s.s.s.s.s.s.s.s.s.s.s.s.s.s.s.s.s.s.s.s.s.s.s.s.s.s.s.s.s.s.s.s.s.s.s.s.s.s.s.s.s.s.s.s.s.s.s.s.s.s.s.s.s.s.s.s.s.s.s.s.s.s.s.s.s.s.s.s.s.s.s.s.s.s.s.s.s.s.s.s.s.s.s.s.s.s.s.s.s.s.s.s.s.s.s.s.s.s.s.s.s.s.s.s.s.s.s.s.s.s.s.s.s.s.s.s.s.s.s.s.s.s.s.s.s.s.s.s.s.s.s.s.s.s.s.s.s.s.s.s.s.s.s.s.s.s.s.s.s.s.s.s.s.s.s.s.s.s.s.s.s.s.s.s.s.s.s.s.s.s.s.s.s.s.s.s.s.s.s.s.s.s.s.s.s.s.s.s.s.s.s.s.s.s.s.s.s.s.s.s.s.s.s.s.s.s.s.s.s.s.s.s.s.s.s.4 Y X.=.5.7.7.8.u.f.f.b.v.M.M.M.M.M.H.H.H.E.E.E.!.{.!.^.^.^.{.{.{.{.{.!.^.}.}.}.}.}.{.^.}.{.}.}.{.!.!.{.{.}.}.}.{.^.{.{.^.!.^.^.!.E.E.E.!.!.E.E.!.E.E.E.E.E.E.E.E.E.E.K.E.K.H.K.E.!.E.E.E.!.[.^.!.[.!.^.!.!.^.^.!.(.(.!.^.!.!.(.^.E.!.W.!.!.W.T.E.E.E.E.!.!.T.^.^.E.T.K.K.K.M.M.S.H.S.H.H.H.H.T.!.!.T.U.J.T.S.J.J.J.S.L.L.J.J.J.J.C.J.J.C.C.l.l.J.J.U.U.T.T.T.T.T.T.T.W.E.!.T.E.!.!.E.!.!.!.!.!.{.{.^.!.^.!.^.!.(.}.^.(.^.^.(.^.!.^.(.^.}.(.(.(.(.(.(.^.(.(.W.W.W.W.C.A.h.h.l.h.d.g.l.J.J.J.J.H.H.J.H.J.H.H.J.M.M.M.h.h.h.h.h.f.f.d.y.y.y.y.y.d.d.h.h.d.y.y.7.*.*.;.=.$.$.$.$. .[ W T J Z S D Z V D G V V s.s.s.s.s.s.s.s.s.s.s.s.s.s.s.s.s.s.s.s.s.s.s.s.s.s.s.s.s.s.s.s.s.s.s.s.s.s.s.s.s.s.s.s.s.s.s.s.s.s.s.s.s.s.s.s.s.s.s.s.s.s.s.s.s.s.s.s.s.s.s.s.s.s.s.",
"s.s.s.s.s.s.s.s.s.s.s.s.s.s.s.s.s.s.s.s.s.s.s.s.s.s.s.s.s.s.s.s.s.s.s.s.s.s.s.s.s.s.s.s.s.s.s.s.s.s.s.s.s.s.s.s.s.s.s.s.s.s.s.s.s.s.s.s.s.s.s.s.s.s.s.s.s.s.s.s.s.s.s.s.s.s.s.s.s.s.s.s.s.s.s.s.s.s.s.s.s.s.s.s.s.s.s.s.s.s.s.s.s.s.s.s.s.s.s.s.s.s.s.s.s.s.s.s.s.s.s.s.s.s.s.s.s.s.s.s.s.s.s.s.s.s.s.s.s.s.s.s.s.s.s.s.s.s.s.s.s.s.s.s.s.s.s.s.s.s.s.s.s.s.s.s.s.s.s.s.s.s.s.s.s.s.s.s.s.s.s.s.s.s.s.s.s.s.s.s.s.s.s.s.s.s.s.s.s.s.s.s.s.s.s.s.s.s.s.s.s.s.s.s.s.s.s.s.s.s.s.s.s.! $.=.5.7.7.u.u.f.h.h.b.M.M.M.H.H.H.H.H.E.!.E.!.{.!.!.{.^.}.{.{.^.}.^.{.{.}.^.}. X.X{.^.}.}.}.{.{.}.{.{.{.{.{.^.^.{.^.{.!.{.!.!.!.^.E.E.!.E.E.E.E.E.E.E.E.K.H.K.E.E.K.K.K.L.H.L.E.!.[.!.E.!.!.!.}.{.!.!.!.^.!.E.^.(.W.(.!.(.^.(.!.!.^.!.!.^.!.E.E.!.!.!.^.!.{.^.^.E.E.H.K.S.H.L.M.K.H.H.L.L.T.!.!.T.T.T.T.M.J.J.J.C.J.J.J.J.J.A.J.J.J.J.A.J.J.U.J.U.U.T.T.L.J.J.T.T.T.T.T.T.E.E.E.E.!.!.!.!.E.!.!.!.!.!.E.!.!.^.^.!.}.(.^.^.(.^.^.(.(. X^.(.^.^.^.(.^.^.^.W.~.~.U.U.A.A.l.h.h.h.g.d.h.h.l.l.M.M.k.M.l.M.M.l.l.h.h.k.h.h.f.f.f.d.y.y.y.d.y.y.f.y.f.f.d.7.7.;.*.*.*.=.$.X.$.X.[ [ W T U S S S V v Z F V v s.s.s.s.s.s.s.s.s.s.s.s.s.s.s.s.s.s.s.s.s.s.s.s.s.s.s.s.s.s.s.s.s.s.s.s.s.s.s.s.s.s.s.s.s.s.s.s.s.s.s.s.s.s.s.s.s.s.s.s.s.s.s.s.s.s.s.s.s.s.s.s.s.s.s.",
"s.s.s.s.s.s.s.s.s.s.s.s.s.s.s.s.s.s.s.s.s.s.s.s.s.s.s.s.s.s.s.s.s.s.s.s.s.s.s.s.s.s.s.s.s.s.s.s.s.s.s.s.s.s.s.s.s.s.s.s.s.s.s.s.s.s.s.s.s.s.s.s.s.s.s.s.s.s.s.s.s.s.s.s.s.s.s.s.s.s.s.s.s.s.s.s.s.s.s.s.s.s.s.s.s.s.s.s.s.s.s.s.s.s.s.s.s.s.s.s.s.s.s.s.s.s.s.s.s.s.s.s.s.s.s.s.s.s.s.s.s.s.s.s.s.s.s.s.s.s.s.s.s.s.s.s.s.s.s.s.s.s.s.s.s.s.s.s.s.s.s.s.s.s.s.s.s.s.s.s.s.s.s.s.s.s.s.s.s.s.s.s.s.s.s.s.s.s.s.s.s.s.s.s.s.s.s.s.s.s.s.s.s.s.s.s.s.s.s.s.s.s.s.s.s.s.s.s.s.s.s.s.s.$.=.5.7.7.7.u.u.u.f.f.f.h.b.M.M.H.K.H.H.E.E.E.!.!.!.^.^.{.}.}.}.{.{.{.{.{.!.^.{.}.{.{.}.}.^.{.^.^.^.^.^.{.^.^.{.^.!.!.!.!.!.E.!.!.E.!.!.E.E.E.!.!.E.E.E.E.E.K.K.E.!.E.K.!.}.^.E.!.[.[.[.!.!.^.{.}.{.{.^.^.^.(.!.^.!.!.^.!.(.W.!.(.^.(.^.!.^.^.^.!.!.^.!.^.^.!.{.!.^.E.T.T.E.L.E.S.S.H.S.L.E.H.L.L.L.E.!.L.L.J.L.J.J.J.L.J.L.J.J.J.C.A.J.C.J.l.J.J.J.J.J.J.U.J.J.J.U.T.J.E.E.E.!.E.T.!.!.T.!.E.E.!.!.!.!.!.E.!.!.!.!.Q.^.^.(.(.^.^.(.(.^.(. X(.^.^.(.(. X(.(.(.(.Q.W.U.I.l.h.g.g.g.d.g.h.h.k.J.l.l.h.h.h.h.h.h.d.f.l.h.f.d.d.f.y.y.y.y.d.y.y.y.y.d.f.d.y.7.;.;.*.$.$.$.X.X. .[ [ W T P Z V S V M A S z h s.s.s.s.s.s.s.s.s.s.s.s.s.s.s.s.s.s.s.s.s.s.s.s.s.s.s.s.s.s.s.s.s.s.s.s.s.s.s.s.s.s.s.s.s.s.s.s.s.s.s.s.s.s.s.s.s.s.s.s.s.s.s.s.s.s.s.s.s.s.s.s.s.s.s.",
"s.s.s.s.s.s.s.s.s.s.s.s.s.s.s.s.s.s.s.s.s.s.s.s.s.s.s.s.s.s.s.s.s.s.s.s.s.s.s.s.s.s.s.s.s.s.s.s.s.s.s.s.s.s.s.s.s.s.s.s.s.s.s.s.s.s.s.s.s.s.s.s.s.s.s.s.s.s.s.s.s.s.s.s.s.s.s.s.s.s.s.s.s.s.s.s.s.s.s.s.s.s.s.s.s.s.s.s.s.s.s.s.s.s.s.s.s.s.s.s.s.s.s.s.s.s.s.s.s.s.s.s.s.s.s.s.s.s.s.s.s.s.s.s.s.s.s.s.s.s.s.s.s.s.s.s.s.s.s.s.s.s.s.s.s.s.s.s.s.s.s.s.s.s.s.s.s.s.s.s.s.s.s.s.s.s.s.s.s.s.s.s.s.s.s.s.s.s.s.s.s.s.s.s.s.s.s.s.s.s.s.s.s.s.s.s.s.s.s.s.s.s.s.s.s.s.s.s.a.s.s.s.J X.*.5.7.7.7.u.u.u.f.f.f.h.b.M.K.S.H.K.H.E.K.E.!.^.^.^.!.!.{.}.}.^.^.^.{.^.^.}.}.}.{.{.}.{.{.{.^.^.{.^.}.^.{.^.^.!.{.^.!.!.E.E.E.E.E.E.!.!.!.!.K.^.E.E.E.E.!.E.E.E.E.E.E.E.^.{.!.^.E.^.^.^.!.W.!.}.^.!.!.(.(.(.}.^.^.(.!.!.^.^.(.}.!.(.^.E.{.!.!.!.^.^.^.^.E.^.!.!.^.E.E.E.E.T.L.S.H.S.L.L.K.L.L.H.J.L.L.J.E.L.L.J.J.J.T.J.J.J.J.J.J.J.J.S.J.J.S.S.l.J.C.J.T.T.T.T.J.M.E.E.H.E.E.E.E.E.!.!.E.T.L.T.E.!.!.!.E.!.W.E.!.W.^.^.^.^.~.^.!.^.^. X^.(.(.^.W.^.(.^.^.^.Q.Q.T.T.T.k.C.h.l.h.g.y.d.h.k.l.h.h.h.d.h.h.g.d.y.y.g.g.g.y.y.y.y.d.7.7.y.7.7.:.:.7.y.7.7.:.;.=.#...| ......| [ ( W Y P Z M Z V z Z Z z f s.s.s.s.s.s.s.s.s.s.s.s.s.s.s.s.s.s.s.s.s.s.s.s.s.s.s.s.s.s.s.s.s.s.s.s.s.s.s.s.s.s.s.s.s.s.s.s.s.s.s.s.s.s.s.s.s.s.s.s.s.s.s.s.s.s.s.s.s.s.s.s.s.s.s.",
"s.s.s.s.s.s.s.s.s.s.s.s.s.s.s.s.s.s.s.s.s.s.s.s.s.s.s.s.s.s.s.s.s.s.s.s.s.s.s.s.s.s.s.s.s.s.s.s.s.s.s.s.s.s.s.s.s.s.s.s.s.s.s.s.s.s.s.s.s.s.s.s.s.s.s.s.s.s.s.s.s.s.s.s.s.s.s.s.s.s.s.s.s.s.s.s.s.s.s.s.s.s.s.s.s.s.s.s.s.s.s.s.s.s.s.s.s.s.s.s.s.s.s.s.s.s.s.s.s.s.s.s.s.s.s.s.s.s.s.s.s.s.s.s.s.s.s.s.s.s.s.s.s.s.s.s.s.s.s.s.s.s.s.s.s.s.s.s.s.s.s.s.s.s.s.s.s.s.s.s.s.s.s.s.s.s.s.s.s.s.s.s.s.s.s.s.s.s.s.s.s.s.s.s.s.s.s.s.s.s.s.s.s.s.s.s.s.s.s.s.s.s.s.s.s.s.s.s.s.s.s.s.W $.2.5.7.u.y.u.u.u.f.f.f.b.b.b.M.S.K.K.K.E.E.!.!.E.^.^.^.^.{.^.^.{.{.{.{.{.{.!.{.}.^.{.^.^.{.^.^.{.}.}.{.^.^.^.{.^.{.!.!.!.E.E.E.E.E.E.E.E.E.E.E.!.[.E.E.E.E.E.E.E.^.E.E.E.^.^.^.^.^.{.}.^.E.^.^.!.!.^.!.!.^.(.(.(.^.^.^.(.}.(.(.!.^.}.(.^.!.^.!.!.^.!.^.^.^.^.!.^.!.!.^.E.E.E.E.K.S.S.S.H.E.K.T.E.J.J.J.L.T.J.L.T.L.J.T.L.J.J.J.J.J.J.J.J.S.J.J.J.C.J.J.J.T.T.T.T.J.L.S.H.T.E.E.E.E.E.!.E.E.L.L.L.T.E.E.E.W.W.!.!.!.E.!.!.!.Q.!.^.W.^.^.^.(.^.(.(.^.^.^.(.^.^.^.Q.Q.W.U.I.I.A.k.h.h.d.h.d.d.d.l.g.h.d.d.g.d.y.y.y.g.d.d.g.y.y.y.y.7.:.:.7.>.:.:.:.>.>.:.:.;.*.#...| [ | [ [ [ W E U D A V V v z B m d y s.s.s.s.s.s.s.s.s.s.s.s.s.s.s.s.s.s.s.s.s.s.s.s.s.s.s.s.s.s.s.s.s.s.s.s.s.s.s.s.s.s.s.s.s.s.s.s.s.s.s.s.s.s.s.s.s.s.s.s.s.s.s.s.s.s.s.s.s.s.s.s.s.s.s.",
"s.s.s.s.s.s.s.s.s.s.s.s.s.s.s.s.s.s.s.s.s.s.s.s.s.s.s.s.s.s.s.s.s.s.s.s.s.s.s.s.s.s.s.s.s.s.s.s.s.s.s.s.s.s.s.s.s.s.s.s.s.s.s.s.s.s.s.s.s.s.s.s.s.s.s.s.s.s.s.s.s.s.s.s.s.s.s.s.s.s.s.s.s.s.s.s.s.s.s.s.s.s.s.s.s.s.s.s.s.s.s.s.s.s.s.s.s.s.s.s.s.s.s.s.s.s.s.s.s.s.s.s.s.s.s.s.s.s.s.s.s.s.s.s.s.s.s.s.s.s.s.s.s.s.s.s.s.s.s.s.s.s.s.s.s.s.s.s.s.s.s.s.s.s.s.s.s.s.s.s.s.s.s.s.s.s.s.s.s.s.s.s.s.s.s.s.s.s.s.s.s.s.s.s.s.s.s.s.s.s.s.s.s.s.s.s.s.s.s.s.s.s.s.s.s.s.s.s.s.s.s.s.X.$.5.6.7.y.7.u.u.u.f.f.f.f.b.M.K.H.K.K.H.E.E.E.E.!.!.^.!.^.{.^.^.^.{.}.{.^.{.!.{.{.{.{.^.^.^.^.}.^.{.{.^.{.{.^.^.^.^.!.!.!.E.E.K.E.E.!.E.!.E.K.E.L.!.E.E.E.E.E.E.E.!.[.E.E.^.^.{.^.^.^.}.}.^.^.^.(.(.(.^.(.(.^.(.}.(.(.}.}.(.(.(.}.!.(.^.^.}.^.!.^.^.!.^.!.!.E.!.^.!.!.^.^.T.E.E.L.H.L.H.K.E.S.L.L.J.T.T.J.T.W.W.L.T.T.W.T.L.L.J.J.J.W.S.S.J.J.S.S.S.J.J.J.L.T.T.J.T.L.L.E.H.E.H.E.T.E.E.E.L.L.L.T.E.H.T.E.E.T.E.W.!.E.W.W.!.!.!.Q.Q.^.^.^.^.^.~.(.(.^.^.(.^.^.^.W.Q.~.U.I.U.U.l.l.l.d.d.y.d.d.g.h.d.d.d.d.d.y.y.y.y.y.y.y.y.y.7.:.;.:.:.;.;.;.:.;.>.>.;.;.*.*.X.| | [ [ [ [ [ W Y U D S V v h f z z 0 0 s.s.s.s.s.s.s.s.s.s.s.s.s.s.s.s.s.s.s.s.s.s.s.s.s.s.s.s.s.s.s.s.s.s.s.s.s.s.s.s.s.s.s.s.s.s.s.s.s.s.s.s.s.s.s.s.s.s.s.s.s.s.s.s.s.s.s.s.s.s.s.s.s.s.s.",
"s.s.s.s.s.s.s.s.s.s.s.s.s.s.s.s.s.s.s.s.s.s.s.s.s.s.s.s.s.s.s.s.s.s.s.s.s.s.s.s.s.s.s.s.s.s.s.s.s.s.s.s.s.s.s.s.s.s.s.s.s.s.s.s.s.s.s.s.s.s.s.s.s.s.s.s.s.s.s.s.s.s.s.s.s.s.s.s.s.s.s.s.s.s.s.s.s.s.s.s.s.s.s.s.s.s.s.s.s.s.s.s.s.s.s.s.s.s.s.s.s.s.s.s.s.s.s.s.s.s.s.s.s.s.s.s.s.s.s.s.s.s.s.s.s.s.s.s.s.s.s.s.s.s.s.s.s.s.s.s.s.s.s.s.s.s.s.s.s.s.s.s.s.s.s.s.s.s.s.s.s.s.s.s.s.s.s.s.s.s.s.s.s.s.s.s.s.s.s.s.s.s.s.s.s.s.s.s.s.s.s.s.s.s.s.s.s.s.s.s.s.s.s.s.s.s.s.s.s.s.s.R X.=.2.7.7.u.7.y.u.u.u.u.f.f.b.v.S.K.K.E.K.E.E.E.E.E.!.^.^.{.{.^.{.{.{.{.^.{.}.{.{.{.{.}.}.}.{.{.{.^.{.{.^.!.{.}.{.{.^.^.^.!.E.E.E.E.E.E.E.E.K.E.E.L.E.E.!.!.K.E.!.E.E.E.!.!.^.^.^.^.}.}.}.}.!.^.(.^.^.(.^.^.(.(.}.}.(.}.}.(.}. X}. X(.(.!.^.}.}.}.!.^.!.^.!.!.!.E.!.!.!.!.!.!.!.!.E.H.M.S.H.E.K.T.H.J.E.W.U.T.W.W.W.L.J.J.J.J.J.L.J.J.J.J.J.J.C.M.L.J.J.J.H.L.T.H.H.H.H.L.T.T.H.J.H.L.E.E.E.L.E.L.H.H.H.H.E.L.E.T.E.W.L.L.W.W.T.T.W.!.!.W.(.^.(.^.(.^.(.^.(.^.^.W.^.Q.Q.T.U.I.A.k.C.h.h.g.d.d.d.:.d.d.d.y.y.y.d.y.:.7.:.y.y.y.y.7.7.;.7.;.;.;.;.;.;.;.;.;.*.*.#...' ` ` [ ` ` ` R T U P S M h k d d d 0 y s.s.s.s.s.s.s.s.s.s.s.s.s.s.s.s.s.s.s.s.s.s.s.s.s.s.s.s.s.s.s.s.s.s.s.s.s.s.s.s.s.s.s.s.s.s.s.s.s.s.s.s.s.s.s.s.s.s.s.s.s.s.s.s.s.s.s.s.s.s.s.s.s.s.s.",
"s.s.s.s.s.s.s.s.s.s.s.s.s.s.s.s.s.s.s.s.s.s.s.s.s.s.s.s.s.s.s.s.s.s.s.s.s.s.s.s.s.s.s.s.s.s.s.s.s.s.s.s.s.s.s.s.s.s.s.s.s.s.s.s.s.s.s.s.s.s.s.s.s.s.s.s.s.s.s.s.s.s.s.s.s.s.s.s.s.s.s.s.s.s.s.s.s.s.s.s.s.s.s.s.s.s.s.s.s.s.s.s.s.s.s.s.s.s.s.s.s.s.s.s.s.s.s.s.s.s.s.s.s.s.s.s.s.s.s.s.s.s.s.s.s.s.s.s.s.s.s.s.s.s.s.s.s.s.s.s.s.s.s.s.s.s.s.s.s.s.s.s.s.s.s.s.s.s.s.s.s.s.s.s.s.s.s.s.s.s.s.s.s.s.s.s.s.s.s.s.s.s.s.s.s.s.s.s.s.s.s.s.s.s.s.s.s.s.s.s.s.s.s.s.s.s.s.s.s.s.s.{  .=.5.6.7.y.7.y.u.u.u.f.f.h.M.M.M.K.K.E.K.!.E.!.E.!.!.!.!.{.^.^.{.!.!.!.^.{.{.^.^.}.}.}.}.}.}.^.{.{.!.^.^.^.^.^.{.{.^.{.^.!.E.E.E.E.!.!.E.E.K.E.E.E.E.E.!.!.E.E.E.E.E.E.E.^.^.^.^.}.}.}.}.}.(.(.^.}.}.^.(.(.(.(.}.(.(.(.(.(. X}. X X(.(.}.^.}.^.^.}.^.!.T.T.!.^.!.!.!.^.E.!.!.!.!.!.!.H.H.H.E.H.L.H.J.W.J.C.L.L.W.L.J.J.J.J.T.T.J.J.J.J.J.J.S.C.C.J.S.J.C.J.S.H.L.H.T.L.E.T.L.J.H.H.T.K.T.E.E.E.L.T.L.H.H.E.L.T.H.H.L.J.W.T.T.!.W.!.W.W.!.^.^.^.(.^.(.W.!.^.(.^.Q.Q.W.W.T.U.I.A.k.l.l.h.g.g.d.y.:.7.y.d.y.:.:.y.y.y.y.y.y.y.y.7.7.7.:.;.;.*.*.*.*.-.*.*.*.*.*.#...' ( ( ( ( ` ( E T U U S z f y y 0 y 8 s.s.s.s.s.s.s.s.s.s.s.s.s.s.s.s.s.s.s.s.s.s.s.s.s.s.s.s.s.s.s.s.s.s.s.s.s.s.s.s.s.s.s.s.s.s.s.s.s.s.s.s.s.s.s.s.s.s.s.s.s.s.s.s.s.s.s.s.s.s.s.s.s.s.s.s.",
"s.s.s.s.s.s.s.s.s.s.s.s.s.s.s.s.s.s.s.s.s.s.s.s.s.s.s.s.s.s.s.s.s.s.s.s.s.s.s.s.s.s.s.s.s.s.s.s.s.s.s.s.s.s.s.s.s.s.s.s.s.s.s.s.s.s.s.s.s.s.s.s.s.s.s.s.s.s.s.s.s.s.s.s.s.s.s.s.s.s.s.s.s.s.s.s.s.s.s.s.s.s.s.s.s.s.s.s.s.s.s.s.s.s.s.s.s.s.s.s.s.s.s.s.s.s.s.s.s.s.s.s.s.s.s.s.s.s.s.s.s.s.s.s.s.s.s.s.s.s.s.s.s.s.s.s.s.s.s.s.s.s.s.s.s.s.s.s.s.s.s.s.s.s.s.s.s.s.s.s.s.s.s.s.s.s.s.s.s.s.s.s.s.s.s.s.s.s.s.s.s.s.s.s.s.s.s.s.s.s.s.s.s.s.s.s.s.s.s.s.s.s.s.s.s.s.s.s.s.s.s.X.$.5.;.7.u.y.7.7.u.y.u.u.f.h.b.M.M.S.K.E.E.!.E.!.E.E.E.^.!.!.^.^.!.^.^.^.^.{.^.^.{.{.{.{.{.{.{.{.{.{.{.{.{.{.^.^.{.^.^.^.^.!.E.E.!.!.E.E.E.E.E.E.E.E.E.E.E.!.[.[.[.[.E.^.!.[.}.}.}.}.}.}.}.}.(.(.(.}.(.}.}.(.(.(.(.(.(.(.}.(.}.(.}.(.}.}.}.^.^.^.(.^.}.^.!.!.!.!.!.E.^.E.E.!.^.^.!.!.!.H.H.E.S.H.S.E.C.J.J.J.J.J.W.L.J.J.J.J.J.W.J.J.J.J.J.J.J.J.J.S.C.J.J.J.S.L.L.E.T.H.!.E.L.H.H.M.T.H.L.E.E.L.L.E.E.H.E.E.T.E.W.W.T.T.W.T.T.!.!.!.W.!.!.!.!.!.Q.^.^.Q.!.!.^.Q.Q.Q.T.T.W.U.I.A.A.A.k.h.g.g.d.:.=.;.7.7.y.:.7.:.:.:.:.y.:.:.7.:.:.;.;.;.*.*.$.#.$.$.*.$.$.#.#.....` ( R ( ( ` ( T U U U A h d 0 7 0 0 6 s.s.s.s.s.s.s.s.s.s.s.s.s.s.s.s.s.s.s.s.s.s.s.s.s.s.s.s.s.s.s.s.s.s.s.s.s.s.s.s.s.s.s.s.s.s.s.s.s.s.s.s.s.s.s.s.s.s.s.s.s.s.s.s.s.s.s.s.s.s.s.s.s.s.s.s.",
"s.s.s.s.s.s.s.s.s.s.s.s.s.s.s.s.s.s.s.s.s.s.s.s.s.s.s.s.s.s.s.s.s.s.s.s.s.s.s.s.s.s.s.s.s.s.s.s.s.s.s.s.s.s.s.s.s.s.s.s.s.s.s.s.s.s.s.s.s.s.s.s.s.s.s.s.s.s.s.s.s.s.s.s.s.s.s.s.s.s.s.s.s.s.s.s.s.s.s.s.s.s.s.s.s.s.s.s.s.s.s.s.s.s.s.s.s.s.s.s.s.s.s.s.s.s.s.s.s.s.s.s.s.s.s.s.s.s.s.s.s.s.s.s.s.s.s.s.s.s.s.s.s.s.s.s.s.s.s.s.s.s.s.s.s.s.s.s.s.s.s.s.s.s.s.s.s.s.s.s.s.s.s.s.s.s.s.s.s.s.s.s.s.s.s.s.s.s.s.s.s.s.s.s.s.s.s.s.s.s.s.s.s.s.s.s.s.s.s.s.s.s.s.s.s.s.s.s.s.s.U  .$.5.5.7.8.7.7.7.7.7.7.u.f.b.v.M.S.K.K.E.K.E.E.!.E.!.!.^.!.^.}.{.^.{.!.^.!.{.{.^.^.^.{.{.{.^.}.^.^.{.{.{.{.{.^.^.!.!.!.^.!.!.E.!.^.!.E.!.E.E.E.E.E.K.E.E.E.E.!.}.[.!.E.^.E.E.!.^.}.}.}.^.}.}.(.(.}.(.(.(.}.(.(.(.}.(. X}.(.}.(.}.(.(.}.}.(.!.!.}.^.^.}.^.^.^.^.!.!.E.^.E.!.E.^.^.^.^.{.E.L.J.H.H.S.J.J.C.J.J.L.L.W.W.T.T.T.T.J.J.L.L.L.J.J.J.S.l.C.l.l.J.J.S.S.H.S.L.T.L.E.T.E.L.L.J.J.J.T.L.L.L.S.H.T.H.L.H.J.L.L.W.T.T.U.T.T.!.W.Q.!.W.!.!.!.!.^.(.^.!.!.!.!.W.Q.Q.W.T.T.T.I.P.A.k.k.l.h.h.d.r.;.;.;.:.:.y.y.:.7.7.:.:.:.7.7.;.;.;.;.=.*.*.#.#.#.#.*.$.#.@.#...' ` E E R ( W R U U U U S k y 7 < 7 6 1 s.s.s.s.s.s.s.s.s.s.s.s.s.s.s.s.s.s.s.s.s.s.s.s.s.s.s.s.s.s.s.s.s.s.s.s.s.s.s.s.s.s.s.s.s.s.s.s.s.s.s.s.s.s.s.s.s.s.s.s.s.s.s.s.s.s.s.s.s.s.s.s.s.s.s.s.",
"s.s.s.s.s.s.s.s.s.s.s.s.s.s.s.s.s.s.s.s.s.s.s.s.s.s.s.s.s.s.s.s.s.s.s.s.s.s.s.s.s.s.s.s.s.s.s.s.s.s.s.s.s.s.s.s.s.s.s.s.s.s.s.s.s.s.s.s.s.s.s.s.s.s.s.s.s.s.s.s.s.s.s.s.s.s.s.s.s.s.s.s.s.s.s.s.s.s.s.s.s.s.s.s.s.s.s.s.s.s.s.s.s.s.s.s.s.s.s.s.s.s.s.s.s.s.s.s.s.s.s.s.s.s.s.s.s.s.s.s.s.s.s.s.s.s.s.s.s.s.s.s.s.s.s.s.s.s.s.s.s.s.s.s.s.s.s.s.s.s.s.s.s.s.s.s.s.s.s.s.s.s.s.s.s.s.s.s.s.s.s.s.s.s.s.s.s.s.s.s.s.s.s.s.s.s.s.s.s.s.s.s.s.s.s.s.s.s.s.s.s.s.s.s.s.s.s.s.s.s.W X.$.2.2.7.y.7.7.7.7.u.u.f.h.b.M.S.S.K.K.E.E.E.E.E.E.!.!.!.^.^.^.^.{.{.{.^.{.{.{.^.^.^.^.{.{.{.{.}.^.^.{.^.{.^.^.!.!.^.!.^.{.!.!.!.^.!.^.^.!.!.!.!.[.[.[.[.E.[.[.^.[.!.E.^.!.!.E.!.{.}.}.^.{.}.}.}.}.(.}.}.}.(.(.(.}.(. X}.^.}.}.(.}.(.}.}.}.^.(.^.^.^.^.^.^.!.(.^.!.!.!.^.!.^.!.!.^.!.^.E.H.M.H.H.S.S.H.S.H.H.L.L.J.J.W.W.L.L.J.J.J.J.J.J.J.C.C.M.S.S.H.H.l.L.S.H.S.H.J.L.J.J.L.E.H.J.S.H.J.S.M.L.H.T.L.T.H.L.L.H.H.H.L.W.W.T.T.T.!.E.T.!.!.!.E.!.!.!.!.!.W.W.T.R.T.T.U.U.J.I.A.k.l.h.j.h.h.g.d.d.>.;.-.;.:.:.y.7.7.;.;.:.>.:.;.;.-.;.;.*.#.$.#.$.#.#.*.#.#.......` ( E E E E R Y U U U U C d 0 6 < 6 , 7 s.s.s.s.s.s.s.s.s.s.s.s.s.s.s.s.s.s.s.s.s.s.s.s.s.s.s.s.s.s.s.s.s.s.s.s.s.s.s.s.s.s.s.s.s.s.s.s.s.s.s.s.s.s.s.s.s.s.s.s.s.s.s.s.s.s.s.s.s.s.s.s.s.s.s.s.",
"s.s.s.s.s.s.s.s.s.s.s.s.s.s.s.s.s.s.s.s.s.s.s.s.s.s.s.s.s.s.s.s.s.s.s.s.s.s.s.s.s.s.s.s.s.s.s.s.s.s.s.s.s.s.s.s.s.s.s.s.s.s.s.s.s.s.s.s.s.s.s.s.s.s.s.s.s.s.s.s.s.s.s.s.s.s.s.s.s.s.s.s.s.s.s.s.s.s.s.s.s.s.s.s.s.s.s.s.s.s.s.s.s.s.s.s.s.s.s.s.s.s.s.s.s.s.s.s.s.s.s.s.s.s.s.s.s.s.s.s.s.s.s.s.s.s.s.s.s.s.s.s.s.s.s.s.s.s.s.s.s.s.s.s.s.s.s.s.s.s.s.s.s.s.s.s.s.s.s.s.s.s.s.s.s.s.s.s.s.s.s.s.s.s.s.s.s.s.s.s.s.s.s.s.s.s.s.s.s.s.s.s.s.s.s.s.s.s.s.s.s.s.s.s.s.s.s.s.s.s.X.X.$.2.2.7.y.5.7.7.7.7.u.u.h.h.h.M.H.H.H.K.E.E.E.E.E.E.!.!.E.!.!.^.{.{.{.!.^.{.{.}.^.{.}.}.}.^.{.{.{.{.^.{.^.{.!.^.}.^.!.^.{.^.^.^.^.!.!.^.!.^.!.!.!.!.E.E.E.{.^.^.^.^.}.}.}.}.^.^.[.}.}.}.{.{.^.^.(.(.}.(.^.}.(.(.}.^.(.}.}.!.}. XXX}.}.}.^.!.^.}.}.!.^.!.!.!.^.!.W.!.!.W.T.W.L.W.W.E.E.W.J.S.H.H.M.J.H.H.H.J.H.H.H.L.T.L.S.L.J.L.J.S.J.J.J.C.S.J.J.M.M.M.H.S.l.C.S.J.S.J.J.J.J.J.C.C.J.J.l.C.J.J.L.H.H.J.S.T.H.H.L.H.H.E.E.T.L.T.T.T.T.W.!.E.T.E.W.T.!.T.T.W.T.J.U.U.U.U.U.I.A.l.h.h.h.g.g.d.d.y.:.:.;.*.;.;.;.;.;.;.;.;.;.*.*.-.*.$.$.#...#.#.#.#...........' ' ` R E E T E T Y U U U D Z i 6 < < , < s.s.s.s.s.s.s.s.s.s.s.s.s.s.s.s.s.s.s.s.s.s.s.s.s.s.s.s.s.s.s.s.s.s.s.s.s.s.s.s.s.s.s.s.s.s.s.s.s.s.s.s.s.s.s.s.s.s.s.s.s.s.s.s.s.s.s.s.s.s.s.s.s.s.s.s.s.",
"s.s.s.s.s.s.s.s.s.s.s.s.s.s.s.s.s.s.s.s.s.s.s.s.s.s.s.s.s.s.s.s.s.s.s.s.s.s.s.s.s.s.s.s.s.s.s.s.s.s.s.s.s.s.s.s.s.s.s.s.s.s.s.s.s.s.s.s.s.s.s.s.s.s.s.s.s.s.s.s.s.s.s.s.s.s.s.s.s.s.s.s.s.s.s.s.s.s.s.s.s.s.s.s.s.s.s.s.s.s.s.s.s.s.s.s.s.s.s.s.s.s.s.s.s.s.s.s.s.s.s.s.s.s.s.s.s.s.s.s.s.s.s.s.s.s.s.s.s.s.s.s.s.s.s.s.s.s.s.s.s.s.s.s.s.s.s.s.s.s.s.s.s.s.s.s.s.s.s.s.s.s.s.s.s.s.s.s.s.s.s.s.s.s.s.s.s.s.s.s.s.s.s.s.s.s.s.s.s.s.s.s.s.s.s.s.s.s.s.s.s.s.s.s.s.s.s.s.s.v | X.$.2.5.6.7.7.7.7.7.y.u.h.b.v.l.S.H.H.H.H.E.E.E.E.E.E.E.!.E.E.^.^.{.}.{.^.}.{.{.}.}.{.}.}.}.}.}.}.^.}.{.{.^.{.!.!.^.!.{.{.{.}.^.^.!.!.^.^.!.!.[.E.E.K.E.!.E.^.^.}.^.^.}.^.}.}.[.[.{.}.}.}.{.}.(.^.(.}.}.!.^.(.^.^.(.}.}.^.}.(.}.}.(.}.}.}.}.(.!.^.(.^.^.^.^.!.^.!.!.!.^.!.!.T.W.!.W.E.W.W.T.L.J.H.m.H.M.J.H.J.H.J.J.H.H.L.L.L.J.J.J.J.J.J.J.C.H.M.J.S.J.M.M.M.l.C.C.C.l.J.C.S.J.J.J.S.J.J.S.S.H.S.J.S.S.M.l.S.S.J.H.H.H.E.L.H.H.J.J.I.T.T.T.W.W.J.J.T.J.U.U.U.J.J.U.J.J.J.J.A.A.k.k.j.h.h.h.g.d.d.r.>.=.*.*.;.;.;.;.;.;.;.;.*.*.*.*.*.$.#.@.@...............| ' ` ( E T T T Y U U U U G A v 0 < : , = 7 s.s.s.s.s.s.s.s.s.s.s.s.s.s.s.s.s.s.s.s.s.s.s.s.s.s.s.s.s.s.s.s.s.s.s.s.s.s.s.s.s.s.s.s.s.s.s.s.s.s.s.s.s.s.s.s.s.s.s.s.s.s.s.s.s.s.s.s.s.s.s.s.s.s.s.s.s.",
"s.s.s.s.s.s.s.s.s.s.s.s.s.s.s.s.s.s.s.s.s.s.s.s.s.s.s.s.s.s.s.s.s.s.s.s.s.s.s.s.s.s.s.s.s.s.s.s.s.s.s.s.s.s.s.s.s.s.s.s.s.s.s.s.s.s.s.s.s.s.s.s.s.s.s.s.s.s.s.s.s.s.s.s.s.s.s.s.s.s.s.s.s.s.s.s.s.s.s.s.s.s.s.s.s.s.s.s.s.s.s.s.s.s.s.s.s.s.s.s.s.s.s.s.s.s.s.s.s.s.s.s.s.s.s.s.s.s.s.s.s.s.s.s.s.s.s.s.s.s.s.s.s.s.s.s.s.s.s.s.s.s.s.s.s.s.s.s.s.s.s.s.s.s.s.s.s.s.s.s.s.s.s.s.s.s.s.s.s.s.s.s.s.s.s.s.s.s.s.s.s.s.s.s.s.s.s.s.s.s.s.s.s.s.s.s.s.s.s.s.s.s.s.s.s.s.s.s.s.Y | $.$.=.;.7.7.7.5.7.7.y.u.f.b.M.v.M.M.M.S.L.K.E.E.E.E.E.E.E.!.!.[.[.{.{.^.^.}.{.{.^.}.}.}.^.}.{.^.{.^.{.!.^.{.{.{.{.{.^.{.}.^.{.^.{.{.^.^.^.{.!.!.E.!.E.K.!.E.[.E.^.!.^.^.^.}.}.{.{.[.}.}.}.}.{.(.(.}.}.(.(.}.(.!.(.}.(.!.(.}.(.(.(.(.(.}.(.}.(.!.(.}.(.^.^.(.!.!.^.E.W.E.^.!.!.!.W.W.!.W.W.L.J.L.T.H.J.H.H.J.J.T.L.H.H.H.H.T.H.J.J.J.J.J.J.J.M.M.l.H.J.S.M.M.M.l.l.C.C.C.C.C.C.J.J.J.J.J.J.J.J.l.H.S.M.M.J.M.M.M.S.H.H.H.H.J.H.H.S.H.H.H.H.H.H.H.H.J.J.J.T.T.J.A.C.A.l.C.k.k.l.l.l.l.g.g.h.g.g.g.d.y.:.;.*.*.*.;.;.;.-.;.;.;.-.*.*.$.#.#.#.#...........| ....' ' ` R T T T U U U U P F D V f 6 - - - 1 s.s.s.s.s.s.s.s.s.s.s.s.s.s.s.s.s.s.s.s.s.s.s.s.s.s.s.s.s.s.s.s.s.s.s.s.s.s.s.s.s.s.s.s.s.s.s.s.s.s.s.s.s.s.s.s.s.s.s.s.s.s.s.s.s.s.s.s.s.s.s.s.s.s.s.s.s.s.",
"s.s.s.s.s.s.s.s.s.s.s.s.s.s.s.s.s.s.s.s.s.s.s.s.s.s.s.s.s.s.s.s.s.s.s.s.s.s.s.s.s.s.s.s.s.s.s.s.s.s.s.s.s.s.s.s.s.s.s.s.s.s.s.s.s.s.s.s.s.s.s.s.s.s.s.s.s.s.s.s.s.s.s.s.s.s.s.s.s.s.s.s.s.s.s.s.s.s.s.s.s.s.s.s.s.s.s.s.s.s.s.s.s.s.s.s.s.s.s.s.s.s.s.s.s.s.s.s.s.s.s.s.s.s.s.s.s.s.s.s.s.s.s.s.s.s.s.s.s.s.s.s.s.s.s.s.s.s.s.s.s.s.s.s.s.s.s.s.s.s.s.s.s.s.s.s.s.s.s.s.s.s.s.s.s.s.s.s.s.s.s.s.s.s.s.s.s.s.s.s.s.s.s.s.s.s.s.s.s.s.s.s.s.s.s.s.s.s.s.s.s.s.s.s.s.s.s.s.s.R | $.$.$.2.5.7.7.7.2.7.y.u.f.h.b.v.M.M.S.S.H.K.K.E.E.E.E.E.E.^.!.{.{.[.{.{.[.!.{.}.}.^.}.}.^.{.{.^.{.^.^.^.{.{.{.}.^.^.^.E.^.{.^.!.^.!.^.{.^.^.!.E.E.^.[.E.K.!.!.^.!.!.!.E.^.}.}.[.[.}.|.^.{.}.{.!.^.^.(.(.(.(.(.}.(.}.(.(.(.(.}. X}.}.(.(.(.(.^.^.^.(.!.!.(.^.!.(.(.!.!.^.!.!.!.^.!.!.!.E.W.W.T.!.T.L.H.J.J.J.H.L.H.H.H.H.H.H.S.S.L.L.J.J.J.M.C.M.S.J.M.J.M.S.l.h.h.h.l.l.C.S.C.M.C.M.J.T.J.T.H.J.H.J.M.H.J.M.S.M.M.S.S.J.J.J.J.S.M.H.S.J.H.J.J.M.S.J.J.J.J.A.k.h.h.l.l.l.l.k.l.k.l.g.l.g.g.g.g.d.d.:.:.;.-.#.#.*.=.;.;.;.;.;.*.*.*.$.#.#.*.#.#.....| | | | | ` ` ( R T G G G F P U D D D v y , - = < s.s.s.s.s.s.s.s.s.s.s.s.s.s.s.s.s.s.s.s.s.s.s.s.s.s.s.s.s.s.s.s.s.s.s.s.s.s.s.s.s.s.s.s.s.s.s.s.s.s.s.s.s.s.s.s.s.s.s.s.s.s.s.s.s.s.s.s.s.s.s.s.s.s.s.s.s.s.s.",
"s.s.s.s.s.s.s.s.s.s.s.s.s.s.s.s.s.s.s.s.s.s.s.s.s.s.s.s.s.s.s.s.s.s.s.s.s.s.s.s.s.s.s.s.s.s.s.s.s.s.s.s.s.s.s.s.s.s.s.s.s.s.s.s.s.s.s.s.s.s.s.s.s.s.s.s.s.s.s.s.s.s.s.s.s.s.s.s.s.s.s.s.s.s.s.s.s.s.s.s.s.s.s.s.s.s.s.s.s.s.s.s.s.s.s.s.s.s.s.s.s.s.s.s.s.s.s.s.s.s.s.s.s.s.s.s.s.s.s.s.s.s.s.s.s.s.s.s.s.s.s.s.s.s.s.s.s.s.s.s.s.s.s.s.s.s.s.s.s.s.s.s.s.s.s.s.s.s.s.s.s.s.s.s.s.s.s.s.s.s.s.s.s.s.s.s.s.s.s.s.s.s.s.s.s.s.s.s.s.s.s.s.s.s.s.s.s.s.s.s.s.s.s.s.s.s.s.s.c  ...$.$.2.2.2.2.7.7.7.5.5.u.f.h.h.v.M.M.S.S.H.H.K.K.E.E.E.!.E.[.!.!.{.{.[.[.^.[.{.{.}.{.^.{.^.!.{.^.^.{.{.^.}.{.^.!.!.^.E.^.^.!.!.!.!.!.^.^.^.^.!.E.E.E.E.E.E.E.!.^.}.}.^.^.^.}.}.[.^.^.}.}.}.}.{.(.(.(.(.(.(.}.(.}.}.}.}.}.}.(.}.}.(.^.}.(.!.!.!.^.(.^.!.!.^.^.^.(.(.!.^.!.(.!.^.!.^.!.W.E.^.W.L.E.E.E.H.S.H.J.J.S.H.H.H.M.H.H.S.S.J.J.J.J.J.M.S.M.S.M.S.l.l.M.M.l.l.l.C.l.C.S.S.J.J.C.S.S.J.J.J.H.E.T.H.S.H.M.H.J.M.M.M.M.J.S.M.M.M.S.S.M.M.M.M.l.S.S.l.l.k.l.l.l.g.g.h.h.g.j.l.A.l.l.l.j.j.g.g.g.d.d.:.:.;.*...#.*.=.;.;.*.*.*.*.*.*.#.#.$.#.#.....| | | | ' ` ( ( E T G F D D F D D S V f 7 O = 1 s.s.s.s.s.s.s.s.s.s.s.s.s.s.s.s.s.s.s.s.s.s.s.s.s.s.s.s.s.s.s.s.s.s.s.s.s.s.s.s.s.s.s.s.s.s.s.s.s.s.s.s.s.s.s.s.s.s.s.s.s.s.s.s.s.s.s.s.s.s.s.s.s.s.s.s.s.s.s.s.",
"s.s.s.s.s.s.s.s.s.s.s.s.s.s.s.s.s.s.s.s.s.s.s.s.s.s.s.s.s.s.s.s.s.s.s.s.s.s.s.s.s.s.s.s.s.s.s.s.s.s.s.s.s.s.s.s.s.s.s.s.s.s.s.s.s.s.s.s.s.s.s.s.s.s.s.s.s.s.s.s.s.s.s.s.s.s.s.s.s.s.s.s.s.s.s.s.s.s.s.s.s.s.s.s.s.s.s.s.s.s.s.s.s.s.s.s.s.s.s.s.s.s.s.s.s.s.s.s.s.s.s.s.s.s.s.s.s.s.s.s.s.s.s.s.s.s.s.s.s.s.s.s.s.s.s.s.s.s.s.s.s.s.s.s.s.s.s.s.s.s.s.s.s.s.s.s.s.s.s.s.s.s.s.s.s.s.s.s.s.s.s.s.s.s.s.s.s.s.s.s.s.s.s.s.s.s.s.s.s.s.s.s.s.s.s.s.s.s.s.s.s.s.s.s.s.s.s.s.v { ..$.=.2.5.5.2.7.5.5.5.7.u.f.h.M.v.v.v.S.S.H.K.E.H.K.E.E.!.K.E.!.[.!.[.!.!.!.[.{.}.}.}.{.^.^.}.}.{.{.^.^.^.^.{.{.!.!.^.E.!.^.!.!.!.!.^.^.!.!.!.!.!.{.[.E.^.!.{.{.^.}.}.}.^.}.}.^.}.{.[.^.}.}.{.{.(.(.}.}.(.(.}.}.^.(.}.}.}.}.(.(. X}.(.!.(.(.(.(.(.(.^.!.^.!.^.(.^.^.^.^.(.(.(.}.W.^.^.!.W.^.E.T.T.E.T.E.J.T.H.S.M.H.H.H.H.H.L.H.J.J.C.J.J.S.C.J.M.S.H.M.l.M.M.M.S.l.l.h.h.l.C.S.J.J.S.J.J.J.J.L.L.W.T.T.J.T.J.J.H.S.S.l.l.M.l.l.l.M.M.M.M.h.l.l.l.M.C.l.l.l.l.h.g.d.d.g.g.d.g.g.j.j.j.j.j.j.j.g.j.g.g.d.:.:.*.#.#.#.*.*.*.*.=.*.=.#.#.#...#.......| | | | [ ' ( ( R E G D D D D D D S V h y , o < s.s.s.s.s.s.s.s.s.s.s.s.s.s.s.s.s.s.s.s.s.s.s.s.s.s.s.s.s.s.s.s.s.s.s.s.s.s.s.s.s.s.s.s.s.s.s.s.s.s.s.s.s.s.s.s.s.s.s.s.s.s.s.s.s.s.s.s.s.s.s.s.s.s.s.s.s.s.s.s.s.",
"s.s.s.s.s.s.s.s.s.s.s.s.s.s.s.s.s.s.s.s.s.s.s.s.s.s.s.s.s.s.s.s.s.s.s.s.s.s.s.s.s.s.s.s.s.s.s.s.s.s.s.s.s.s.s.s.s.s.s.s.s.s.s.s.s.s.s.s.s.s.s.s.s.s.s.s.s.s.s.s.s.s.s.s.s.s.s.s.s.s.s.s.s.s.s.s.s.s.s.s.s.s.s.s.s.s.s.s.s.s.s.s.s.s.s.s.s.s.s.s.s.s.s.s.s.s.s.s.s.s.s.s.s.s.s.s.s.s.s.s.s.s.s.s.s.s.s.s.s.s.s.s.s.s.s.s.s.s.s.s.s.s.s.s.s.s.s.s.s.s.s.s.s.s.s.s.s.s.s.s.s.s.s.s.s.s.s.s.s.s.s.s.s.s.s.s.s.s.s.s.s.s.s.s.s.s.s.s.s.s.s.s.s.s.s.s.s.s.s.s.s.s.s.s.s.s.s.s.Y { $.$.2.2.2.2.2.=.2.5.7.7.f.f.h.h.h.v.v.M.S.H.K.E.E.E.K.K.!.E.!.!.E.E.E.!.[.^.!.{.^.{.{.^.{.{.{.{.}.{.^.{.^.{.{.{.^.!.!.^.!.!.^.!.!.E.!.E.^.{.{.!.[.!.[.[.[.[.}.{.^.^.^.}.^.}.}.^.^.}.!.^.^.}.{.{.(.^.(.}.(.}.}. X X}.(.}.}.(.(.}.(.(.(.(.!. X}.!.!.(.^.^.!.E.!.^.}.^.^.^.^.!.!.!.(.(.!.W.!.!.!.^.E.E.E.T.H.T.H.J.H.H.J.H.H.J.H.H.J.J.C.S.C.J.C.C.J.S.J.M.l.M.l.l.h.g.h.h.h.l.l.C.S.J.S.J.J.J.J.L.L.T.T.T.T.T.T.J.J.M.S.l.l.h.h.h.h.h.h.h.l.l.l.l.h.h.V.l.h.h.g.d.g.y.y.d.d.g.g.g.g.j.j.j.k.j.j.j.l.g.d.d.r.:.=.#.....#.*.=.*.=.=.*.$.#.#.#.....| | | [ [ ` ` ` ( ( E U F D S A S S A Z z d 7 - < s.s.s.s.s.s.s.s.s.s.s.s.s.s.s.s.s.s.s.s.s.s.s.s.s.s.s.s.s.s.s.s.s.s.s.s.s.s.s.s.s.s.s.s.s.s.s.s.s.s.s.s.s.s.s.s.s.s.s.s.s.s.s.s.s.s.s.s.s.s.s.s.s.s.s.s.s.s.s.s.s.s.",
"s.s.s.s.s.s.s.s.s.s.s.s.s.s.s.s.s.s.s.s.s.s.s.s.s.s.s.s.s.s.s.s.s.s.s.s.s.s.s.s.s.s.s.s.s.s.s.s.s.s.s.s.s.s.s.s.s.s.s.s.s.s.s.s.s.s.s.s.s.s.s.s.s.s.s.s.s.s.s.s.s.s.s.s.s.s.s.s.s.s.s.s.s.s.s.s.s.s.s.s.s.s.s.s.s.s.s.s.s.s.s.s.s.s.s.s.s.s.s.s.s.s.s.s.s.s.s.s.s.s.s.s.s.s.s.s.s.s.s.s.s.s.s.s.s.s.s.s.s.s.s.s.s.s.s.s.s.s.s.s.s.s.s.s.s.s.s.s.s.s.s.s.s.s.s.s.s.s.s.s.s.s.s.s.s.s.s.s.s.s.s.s.s.s.s.s.s.s.s.s.s.s.s.s.s.s.s.s.s.s.s.s.s.s.s.s.s.s.s.s.s.s.s.s.s.s.s.s.Y | X.$.=.2.2.=.2.2.5.5.5.7.u.f.h.h.h.l.M.M.S.S.K.K.E.E.E.E.!.!.!.^.E.E.!.!.E.!.!.^.{.{.{.^.^.^.{.!.{.{.!.!.^.!.^.^.!.!.^.!.!.!.!.E.!.!.^.^.!.^.!.!.{.}.[.[.^.[.{.}.^.}.}.}.}.}.}.}.}.|.[.}.}.{.{.{.(.}.}.(.}.(.}.|.}.}.}.XX X}.(.}.}.(.^.(.(.^.^.^.^.!.^.(.!.(.!.^.(.(.(.(.!.^.!.!.(.(.^.!.W.W.!.!.E.T.W.J.T.L.J.L.S.L.J.J.L.S.S.S.J.S.J.S.C.J.S.l.S.S.S.M.l.l.l.l.l.h.h.l.l.l.l.C.J.J.J.J.J.J.J.J.J.T.L.W.L.J.L.J.S.S.M.M.l.h.h.h.h.h.h.h.h.l.l.h.h.h.g.h.h.h.d.d.y.d.d.g.g.g.h.l.h.j.j.g.h.j.j.j.j.j.g.g.d.:.>.*.#.] ..#.*.*.*.=.*.*.#.#.#.....| | [ ` ` ` ` ` ( R T F D S Z A C V V v d y 5 s.s.s.s.s.s.s.s.s.s.s.s.s.s.s.s.s.s.s.s.s.s.s.s.s.s.s.s.s.s.s.s.s.s.s.s.s.s.s.s.s.s.s.s.s.s.s.s.s.s.s.s.s.s.s.s.s.s.s.s.s.s.s.s.s.s.s.s.s.s.s.s.s.s.s.s.s.s.s.s.s.s.s.s.",
"s.s.s.s.s.s.s.s.s.s.s.s.s.s.s.s.s.s.s.s.s.s.s.s.s.s.s.s.s.s.s.s.s.s.s.s.s.s.s.s.s.s.s.s.s.s.s.s.s.s.s.s.s.s.s.s.s.s.s.s.s.s.s.s.s.s.s.s.s.s.s.s.s.s.s.s.s.s.s.s.s.s.s.s.s.s.s.s.s.s.s.s.s.s.s.s.s.s.s.s.s.s.s.s.s.s.s.s.s.s.s.s.s.s.s.s.s.s.s.s.s.s.s.s.s.s.s.s.s.s.s.s.s.s.s.s.s.s.s.s.s.s.s.s.s.s.s.s.s.s.s.s.s.s.s.s.s.s.s.s.s.s.s.s.s.s.s.s.s.s.s.s.s.s.s.s.s.s.s.s.s.s.s.s.s.s.s.s.s.s.s.s.s.s.s.s.s.s.s.s.s.s.s.s.s.s.s.s.s.s.s.s.s.s.s.s.s.s.s.s.s.s.s.s.s.s.s.f o.{ ..$.$.=.=.5.;.$.5.5.7.5.u.f.b.h.h.h.v.M.H.S.L.K.E.E.E.E.E.E.E.E.E.E.!.!.!.^.[.{.^.!.^.{.^.!.}.^.!.!.!.!.!.!.E.!.[.E.E.[.!.K.K.E.!.^.{.{.^.{.{.}.}.}.^.^.}.}.}.}.}.}.}.}.}.}.}.}.}.}.^.^.}.}.}.{.^.(.}.}.}.}.}.}.}.|.}.}.}. X}.}.(.!.(.!.^.^.!.(.(.!.!.!.(.^.!.(.(.(.(.^.W.(.W.!.!.!.^.!.E.W.!.E.E.W.H.H.T.L.J.J.J.J.J.S.J.S.C.C.S.C.J.C.C.S.J.C.S.S.S.l.S.S.S.S.M.l.v.l.l.M.l.l.M.S.M.L.J.J.J.J.S.H.H.H.H.H.H.H.M.M.l.M.l.M.h.h.f.f.h.h.h.h.h.h.h.h.h.d.h.d.d.y.y.d.y.d.d.g.l.h.g.g.g.g.g.l.j.j.j.j.j.g.d.r.:.=.#.] ....#.$.*.=.$.=.#.#.#...| | | ' ` ( ( ( ( ( E G D D Z V V V M v f 0 6 s.s.s.s.s.s.s.s.s.s.s.s.s.s.s.s.s.s.s.s.s.s.s.s.s.s.s.s.s.s.s.s.s.s.s.s.s.s.s.s.s.s.s.s.s.s.s.s.s.s.s.s.s.s.s.s.s.s.s.s.s.s.s.s.s.s.s.s.s.s.s.s.s.s.s.s.s.s.s.s.s.s.s.s.s.",
"s.s.s.s.s.s.s.s.s.s.s.s.s.s.s.s.s.s.s.s.s.s.s.s.s.s.s.s.s.s.s.s.s.s.s.s.s.s.s.s.s.s.s.s.s.s.s.s.s.s.s.s.s.s.s.s.s.s.s.s.s.s.s.s.s.s.s.s.s.s.s.s.s.s.s.s.s.s.s.s.s.s.s.s.s.s.s.s.s.s.s.s.s.s.s.s.s.s.s.s.s.s.s.s.s.s.s.s.s.s.s.s.s.s.s.s.s.s.s.s.s.s.s.s.s.s.s.s.s.s.s.s.s.s.s.s.s.s.s.s.s.s.s.s.s.s.s.s.s.s.s.s.s.s.s.s.s.s.s.s.s.s.s.s.s.s.s.s.s.s.s.s.s.s.s.s.s.s.s.s.s.s.s.s.s.s.s.s.s.s.s.s.s.s.s.s.s.s.s.s.s.s.s.s.s.s.s.s.s.s.s.s.s.s.s.s.s.s.s.s.s.s.s.s.s.s.a.c W [ ..$.=.$.;.2.5.5.5.5.7.5.u.f.h.f.h.h.v.v.S.S.H.H.E.K.K.E.E.E.E.^.E.E.E.[.[.!.!.!.{.{.^.^.{.{.{.!.!.!.^.{.!.^.{.!.E.!.E.E.E.{.!.E.{.!.!.{.}.{.!.^.}.}.}.}.(.}.|.}.}.}.}.}.}.}.}.{.}.{.}.{.^.{.}.}.(.(.(.}.}.(.(.XX}.}.}.}.}.}.}.!.}.^.(.!.}.^.!.E.!.^.^.^.!.!.^.(.!.^.(.^.^.(.!.^.^.!.^.^.!.W.W.W.!.W.T.H.W.L.J.J.W.J.J.J.J.J.C.S.l.J.C.S.S.C.C.J.J.S.S.S.S.S.J.S.C.M.S.C.C.C.C.C.S.J.J.H.T.H.H.L.H.H.H.L.S.S.S.M.l.M.l.M.l.h.f.f.f.f.f.h.h.f.f.h.d.d.d.d.d.d.d.y.y.y.y.d.d.g.g.g.g.g.h.l.l.k.k.k.k.l.g.d.d.r.:.;.*...' ..X.#.=.$.$.$.#.....| | | ' ( ( ( / ( ( R T G D S V M z h k d 0 , s.s.s.s.s.s.s.s.s.s.s.s.s.s.s.s.s.s.s.s.s.s.s.s.s.s.s.s.s.s.s.s.s.s.s.s.s.s.s.s.s.s.s.s.s.s.s.s.s.s.s.s.s.s.s.s.s.s.s.s.s.s.s.s.s.s.s.s.s.s.s.s.s.s.s.s.s.s.s.s.s.s.s.s.s.s.",
"s.s.s.s.s.s.s.s.s.s.s.s.s.s.s.s.s.s.s.s.s.s.s.s.s.s.s.s.s.s.s.s.s.s.s.s.s.s.s.s.s.s.s.s.s.s.s.s.s.s.s.s.s.s.s.s.s.s.s.s.s.s.s.s.s.s.s.s.s.s.s.s.s.s.s.s.s.s.s.s.s.s.s.s.s.s.s.s.s.s.s.s.s.s.s.s.s.s.s.s.s.s.s.s.s.s.s.s.s.s.s.s.s.s.s.s.s.s.s.s.s.s.s.s.s.s.s.s.s.s.s.s.s.s.s.s.s.s.s.s.s.s.s.s.s.s.s.s.s.s.s.s.s.s.s.s.s.s.s.s.s.s.s.s.s.s.s.s.s.s.s.s.s.s.s.s.s.s.s.s.s.s.s.s.s.s.s.s.s.s.s.s.s.s.s.s.s.s.s.s.s.s.s.s.s.s.s.s.s.s.s.s.s.s.s.s.s.s.s.s.s.s.s.s.s.s.s.Y [ [ ..X.$.;.=.2.2.;.$.;.u.7.u.u.f.h.h.l.v.h.S.H.L.L.E.E.E.E.E.E.!.[.E.E.!.E.[.[.!.[.^.!.[.{.!.{.!.E.{.^.E.E.!.!.!.!.!.E.E.E.E.E.E.!.!.{.{.}.}.}.}.}.}.}.}.}.{.}.}.{.}.}.}.}.}.}.^.!.}.{.}.}.}.{.{.}.(.^.(.}.^.}.(.(.}.}.}.(.(.(.^.}.(.^.(.(.!.!.!.E.!.!.!.}.!.^.}.^.^.^.^.!.(.(.}.(.^.^.^.!.!.W.W.W.T.L.H.J.T.W.T.W.L.J.J.C.C.J.C.J.S.S.C.J.S.S.J.J.S.S.S.l.l.S.l.l.l.C.M.M.J.S.C.C.C.J.H.H.H.H.H.H.H.T.L.H.J.L.S.M.M.M.M.l.h.f.f.f.f.f.f.f.f.f.f.f.d.d.d.d.d.y.y.y.y.y.d.d.d.d.g.g.h.g.h.l.h.l.j.l.j.j.g.g.g.y.y.:.-...' ' ....#.#.#.$...| | | | ` ` ( / E W ( R E T F S V M h h f d 9 < - s.s.s.s.s.s.s.s.s.s.s.s.s.s.s.s.s.s.s.s.s.s.s.s.s.s.s.s.s.s.s.s.s.s.s.s.s.s.s.s.s.s.s.s.s.s.s.s.s.s.s.s.s.s.s.s.s.s.s.s.s.s.s.s.s.s.s.s.s.s.s.s.s.s.s.s.s.s.s.s.s.s.s.s.s.s.",
"s.s.s.s.s.s.s.s.s.s.s.s.s.s.s.s.s.s.s.s.s.s.s.s.s.s.s.s.s.s.s.s.s.s.s.s.s.s.s.s.s.s.s.s.s.s.s.s.s.s.s.s.s.s.s.s.s.s.s.s.s.s.s.s.s.s.s.s.s.s.s.s.s.s.s.s.s.s.s.s.s.s.s.s.s.s.s.s.s.s.s.s.s.s.s.s.s.s.s.s.s.s.s.s.s.s.s.s.s.s.s.s.s.s.s.s.s.s.s.s.s.s.s.s.s.s.s.s.s.s.s.s.s.s.s.s.s.s.s.s.s.s.s.s.s.s.s.s.s.s.s.s.s.s.s.s.s.s.s.s.s.s.s.s.s.s.s.s.s.s.s.s.s.s.s.s.s.s.s.s.s.s.s.s.s.s.s.s.s.s.s.s.s.s.s.s.s.s.s.s.s.s.s.s.s.s.s.s.s.s.s.s.s.s.s.s.s.s.s.s.s.s.s.s.s.s.s.J _ ....$.=.$.=.2.2.2.5.5.7.7.u.u.h.h.h.v.v.M.S.H.H.H.H.L.E.K.K.E.E.E.E.K.!.!.E.E.E.!.[.!.!.[.{.!.!.E.E.E.E.E.!.[.!.!.E.E.!.E.!.E.E.!.{.{.^.^.}.{.}.|.}.|.{.}.}.}.}.}..X|.}.{.}. X}.}.}.}.{.{..X}.{.{.(.}.(.}.}.}.}.(.(.^.(.}.(. X(.(.}.}. X^.}.(.!.!.!.^.!.!.(.!.^.!.^.(.(.!.^.!.!.!.!.!.^.!.!.W.!.W.W.W.T.L.J.J.W.J.J.J.J.J.S.S.C.J.J.C.C.J.J.J.J.J.S.J.C.l.l.C.C.C.M.S.C.C.J.C.C.C.J.S.M.M.J.M.J.J.H.H.S.J.M.S.M.M.M.M.h.l.h.h.f.f.f.f.y.y.y.d.f.y.d.d.d.d.d.y.y.y.:.y.y.y.y.d.d.g.g.h.h.l.l.h.h.j.j.g.g.g.d.d.d.r.;.#.' ' ' ..#.$.$.#...| | | ` ` ( ( / E E / R E U D Z M z f f y 8 , = s.s.s.s.s.s.s.s.s.s.s.s.s.s.s.s.s.s.s.s.s.s.s.s.s.s.s.s.s.s.s.s.s.s.s.s.s.s.s.s.s.s.s.s.s.s.s.s.s.s.s.s.s.s.s.s.s.s.s.s.s.s.s.s.s.s.s.s.s.s.s.s.s.s.s.s.s.s.s.s.s.s.s.s.s.s.s.",
"s.s.s.s.s.s.s.s.s.s.s.s.s.s.s.s.s.s.s.s.s.s.s.s.s.s.s.s.s.s.s.s.s.s.s.s.s.s.s.s.s.s.s.s.s.s.s.s.s.s.s.s.s.s.s.s.s.s.s.s.s.s.s.s.s.s.s.s.s.s.s.s.s.s.s.s.s.s.s.s.s.s.s.s.s.s.s.s.s.s.s.s.s.s.s.s.s.s.s.s.s.s.s.s.s.s.s.s.s.s.s.s.s.s.s.s.s.s.s.s.s.s.s.s.s.s.s.s.s.s.s.s.s.s.s.s.s.s.s.s.s.s.s.s.s.s.s.s.s.s.s.s.s.s.s.s.s.s.s.s.s.s.s.s.s.s.s.s.s.s.s.s.s.s.s.s.s.s.s.s.s.s.s.s.s.s.s.s.s.s.s.s.s.s.s.s.s.s.s.s.s.s.s.s.s.s.s.s.s.s.s.s.s.s.s.s.s.s.s.s.s.s.s.s.s.s.u J [ | X.$.$.;.=.;.=.2.5.5.5.7.y.u.f.h.f.x.v.M.S.H.H.H.K.K.E.E.K.E.!.!.E.E.!.K.E.E.[.[.!.[.!.!.!.E.E.E.!.!.!.[.!.!.E.E.E.E.E.E.E.!.E.E.^.^.{.{.{.{.{.{.{.}.}.}.}.{.}.}.{.{.}.{. X.X X|.}.{.}.{.{.}.^.}.}.}.(.}.}.}.}.}.}.(.^.^.}.(.}.}.(.(.^.}.W.^.^.!.^.^.!.^.(.W.(.!.E.!.^.!.E.^.!.E.(.(.^.E.(.!.W.W.!.!.W.L.H.J.J.J.T.L.J.S.L.J.C.J.J.C.S.J.C.S.C.J.S.C.J.S.C.C.l.l.l.l.C.S.J.S.C.J.C.l.M.M.J.M.M.S.J.J.J.H.H.J.S.M.M.h.l.h.f.f.f.f.f.y.y.y.y.y.d.y.d.d.d.d.y.d.y.:.:.:.r.:.y.y.d.g.g.h.h.j.j.j.l.l.l.g.d.g.g.d.y.7.;.*...` ' | ..#.#.....| | ` ( ( ( R R E E R R U U S V z j f y 7 , O O s.s.s.s.s.s.s.s.s.s.s.s.s.s.s.s.s.s.s.s.s.s.s.s.s.s.s.s.s.s.s.s.s.s.s.s.s.s.s.s.s.s.s.s.s.s.s.s.s.s.s.s.s.s.s.s.s.s.s.s.s.s.s.s.s.s.s.s.s.s.s.s.s.s.s.s.s.s.s.s.s.s.s.s.s.s.s.",
"s.s.s.s.s.s.s.s.s.s.s.s.s.s.s.s.s.s.s.s.s.s.s.s.s.s.s.s.s.s.s.s.s.s.s.s.s.s.s.s.s.s.s.s.s.s.s.s.s.s.s.s.s.s.s.s.s.s.s.s.s.s.s.s.s.s.s.s.s.s.s.s.s.s.s.s.s.s.s.s.s.s.s.s.s.s.s.s.s.s.s.s.s.s.s.s.s.s.s.s.s.s.s.s.s.s.s.s.s.s.s.s.s.s.s.s.s.s.s.s.s.s.s.s.s.s.s.s.s.s.s.s.s.s.s.s.s.s.s.s.s.s.s.s.s.s.s.s.s.s.s.s.s.s.s.s.s.s.s.s.s.s.s.s.s.s.s.s.s.s.s.s.s.s.s.s.s.s.s.s.s.s.s.s.s.s.s.s.s.s.s.s.s.s.s.s.s.s.s.s.s.s.s.s.s.s.s.s.s.s.s.s.s.s.s.s.s.s.s.s.s.s.s.s.s.s.s ! [ | ..$.=.=.2.2.2.2.2.7.7.5.7.u.f.h.h.v.v.v.H.H.S.S.K.H.E.!.K.H.E.E.E.K.[.[.E.E.!.!.E.E.!.!.E.K.E.E.!.!.!.!.{.E.E.E.E.E.K.E.E.E.[.E.!.!.^.{.{.{.}.}.{.^.}.^.}.}.}.}.{.{.}.}.^.{.}.}.{.!.^.}.}.}.^.!.}.^.(.^.!.!.!.}.}.(.(.(.!.!.(.!.!.U.(.^.^.W.W.^.E.^.(.^.!.!.(.(.!.!.!.!.!.E.!.!.W.!.!.E.W.W.E.W.!.E.W.T.W.L.J.J.J.S.S.J.J.J.J.J.S.S.J.S.J.L.J.J.J.J.C.C.l.l.l.C.S.V.C.M.M.C.h.C.J.S.l.l.M.M.M.M.M.M.M.M.S.M.M.M.l.h.h.h.h.h.f.y.y.y.y.y.y.y.y.d.d.y.y.y.y.y.y.:.:.;.:.y.d.d.d.g.g.g.g.g.h.l.l.l.h.h.h.d.d.d.d.d.:.*.#.' ` ' ..........| ` ( ( / / E E T T T Y U F S v f d y 8 , o O s.s.s.s.s.a.s.s.s.s.s.s.s.s.s.s.s.s.s.s.s.s.s.s.s.s.s.s.s.s.s.s.s.s.s.s.s.s.s.s.s.s.s.s.s.s.s.s.s.s.s.s.s.s.s.s.s.s.s.s.s.s.s.s.s.s.s.s.s.s.s.s.s.s.s.s.s.s.s.s.s.s.s.s.s.s.s.s.",
"s.s.s.s.s.s.s.s.s.s.s.s.s.s.s.s.s.s.s.s.s.s.s.s.s.s.s.s.s.s.s.s.s.s.s.s.s.s.s.s.s.s.s.s.s.s.s.s.s.s.s.s.s.s.s.s.s.s.s.s.s.s.s.s.s.s.s.s.s.s.s.s.s.s.s.s.s.s.s.s.s.s.s.s.s.s.s.s.s.s.s.s.s.s.s.s.s.s.s.s.s.s.s.s.s.s.s.s.s.s.s.s.s.s.s.s.s.s.s.s.s.s.s.s.s.s.s.s.s.s.s.s.s.s.s.s.s.s.s.s.s.s.s.s.s.s.s.s.s.s.s.s.s.s.s.s.s.s.s.s.s.s.s.s.s.s.s.s.s.s.s.s.s.s.s.s.s.s.s.s.s.s.s.s.s.s.s.s.s.s.s.s.s.s.s.s.s.s.s.s.s.s.s.s.s.s.s.s.s.s.s.s.s.s.s.s.s.s.s.s.s.s.s.s.s.s.u Y ....X.$.=.$.=.=.=.7.2.7.7.7.u.u.f.h.h.v.S.S.S.S.S.H.K.H.L.E.E.E.E.E.E.E.E.E.E.E.!.!.!.E.!.E.H.E.K.K.!.E.!.!.[.E.E.E.E.E.E.E.E.E.E.E.[.{.{.{.^.{.{.{.}.{.}.}.{.}.}.}.{.}.|.|.^.{.}.}.}.{.^.}.{.{.!.!.(.!.!.^.^.!.!.!.}.(.}. X(.^.!.(.W.(.!.(.W.!.^.W.!.W.E.^.!.^.^.(.!.!.E.!.(.E.!.!.T.!.!.!.!.E.!.W.W.E.E.T.W.L.J.J.S.J.J.C.S.J.L.J.C.J.J.C.C.S.C.C.C.S.S.J.S.S.l.l.C.v.M.l.C.S.M.M.l.M.h.M.h.M.M.M.h.h.M.M.l.l.l.l.l.h.h.h.f.f.f.f.y.y.y.y.y.y.y.y.y.y.y.y.y.y.:.:.:.;.:.r.y.d.d.d.g.h.h.h.h.l.l.h.l.l.g.d.d.d.d.d.:.#.#.] / ` ' ......| ' ( / / / E E E T T U U F F Z z d y 9 , o o s.s.s.s.s.s.s.s.s.s.s.s.s.s.s.s.s.s.s.s.s.s.s.s.s.s.s.s.s.s.s.s.s.s.s.s.s.s.s.s.s.s.s.s.s.s.s.s.s.s.s.s.s.s.s.s.s.s.s.s.s.s.s.s.s.s.s.s.s.s.s.s.s.s.s.s.s.s.s.s.s.s.s.s.s.s.s.s.s.",
"s.s.s.s.s.s.s.s.s.s.s.s.s.s.s.s.s.s.s.s.s.s.s.s.s.s.s.s.s.s.s.s.s.s.s.s.s.s.s.s.s.s.s.s.s.s.s.s.s.s.s.s.s.s.s.s.s.s.s.s.s.s.s.s.s.s.s.s.s.s.s.s.s.s.s.s.s.s.s.s.s.s.s.s.s.s.s.s.s.s.s.s.s.s.s.s.s.s.s.s.s.s.s.s.s.s.s.s.s.s.s.s.s.s.s.s.s.s.s.s.s.s.s.s.s.s.s.s.s.s.s.s.s.s.s.s.s.s.s.s.s.s.s.s.s.s.s.s.s.s.s.s.s.s.s.s.s.s.s.s.s.s.s.s.s.s.s.s.s.s.s.s.s.s.s.s.s.s.s.s.s.s.s.s.s.s.s.s.s.s.s.s.s.s.s.s.s.s.s.s.s.s.s.s.s.s.s.s.s.s.s.s.s.s.s.s.s.s.s.s.s.s.s.s.s.s.s R [ | $.$.$.2.2.=.=.2.7.7.7.u.u.f.f.h.h.b.v.v.v.M.S.S.K.K.K.L.K.E.E.E.E.E.[.!.E.E.E.E.E.E.!.E.K.E.E.E.!.!.!.!.!.E.E.E.E.E.E.E.E.[.!.^.E.!.!.!.!.^.{.^.{.{.}.}.}.}.}..X}..X|.}.}..X.X.X{.}.^.}.^.}.}.^.}.{.{.{.!.^.(.}.}.}.(.T.}. X^.!.}.^.!.(.!.(.!.W.W.!.E.!.}.(.^.!.(.^.!.!.(.^.!.!.T.!.T.T.W.!.T.!.E.E.T.W.W.W.K.L.J.J.S.S.J.J.M.S.C.C.J.C.C.S.C.S.J.C.C.S.l.C.l.l.l.l.C.l.l.C.l.h.l.M.l.l.h.l.h.l.h.h.l.l.l.l.h.h.l.h.h.f.f.f.f.y.y.y.7.y.y.y.y.y.y.y.y.y.y.:.:.:.:.:.:.y.y.d.d.d.g.h.l.h.h.h.h.l.j.g.d.d.g.d.d.d.:.;.#.' ` ` ` | ....| ` ` ( / R R E T T G U G D V z d 0 8 4 o O s.s.s.s.s.s.s.s.s.s.s.s.s.s.s.s.s.s.s.s.s.s.s.s.s.s.s.s.s.s.s.s.s.s.s.s.s.s.s.s.s.s.s.s.s.s.s.s.s.s.s.s.s.s.s.s.s.s.s.s.s.s.s.s.s.s.s.s.s.s.s.s.s.s.s.s.s.s.s.s.s.s.s.s.s.s.s.s.s.s.",
"s.s.s.s.s.s.s.s.s.s.s.s.s.s.s.s.s.s.s.s.s.s.s.s.s.s.s.s.s.s.s.s.s.s.s.s.s.s.s.s.s.s.s.s.s.s.s.s.s.s.s.s.s.s.s.s.s.s.s.s.s.s.s.s.s.s.s.s.s.s.s.s.s.s.s.s.s.s.s.s.s.s.s.s.s.s.s.s.s.s.s.s.s.s.s.s.s.s.s.s.s.s.s.s.s.s.s.s.s.s.s.s.s.s.s.s.s.s.s.s.s.s.s.s.s.s.s.s.s.s.s.s.s.s.s.s.s.s.s.s.s.s.s.s.s.s.s.s.s.s.s.s.s.s.s.s.s.s.s.s.s.s.s.s.s.s.s.s.s.s.s.s.s.s.s.s.s.s.s.s.s.s.s.s.s.s.s.s.s.s.s.s.s.s.s.s.s.s.s.s.s.s.s.s.s.s.s.s.s.s.s.s.s.s.s.s.s.s.s.s.s.s.s.s.s.s.f Y _ { X.=.2.$.$.2.2.5.7.7.7.7.y.f.f.h.h.v.M.M.v.M.M.M.L.L.K.H.L.K.E.K.[.E.E.[.[.E.K.E.E.E.[.E.E.E.E.E.E.E.E.E.E.E.E.E.!.E.!.!.!.!.!.!.!.!.!.[.{.^.{.{.}.^.{.^.}.{.}.{.[.}.}.|.}.}.}.}.}.}.}.(.}.^.^.}.}.^.{.}.}.^.^.}.}.^.^.^.!.!.}.^.^.(.(.!.(.^.}.!.!.E.W.W.!.!.!.W.!.(.!.W.U.^.(.!.!.^.!.W.W.W.E.T.W.E.T.T.W.W.T.L.H.H.S.J.J.J.M.J.J.J.C.C.S.S.C.C.C.C.S.C.l.C.l.l.h.l.l.h.l.l.l.l.l.l.M.l.h.M.h.h.h.M.M.l.h.h.h.h.h.h.f.f.f.f.d.y.y.7.7.7.y.7.7.y.y.y.y.y.y.y.7.7.:.y.y.y.d.g.d.g.h.h.l.l.l.l.h.j.g.g.g.g.d.d.d.y.y.;.*.] ' ( ` | | | | ` ( ( ( W R T T G F F D A z a 0 8 6 & > s.s.s.s.s.s.s.s.s.s.s.s.s.s.s.s.s.s.s.s.s.s.s.s.s.s.s.s.s.s.s.s.s.s.s.s.s.s.s.s.s.s.s.s.s.s.s.s.s.s.s.s.s.s.s.s.s.s.s.s.s.s.s.s.s.s.s.s.s.s.s.s.s.s.s.s.s.s.s.s.s.s.s.s.s.s.s.s.s.s.s.",
"s.s.s.s.s.s.s.s.s.s.s.s.s.s.s.s.s.s.s.s.s.s.s.s.s.s.s.s.s.s.s.s.s.s.s.s.s.s.s.s.s.s.s.s.s.s.s.s.s.s.s.s.s.s.s.s.s.s.s.s.s.s.s.s.s.s.s.s.s.s.s.s.s.s.s.s.s.s.s.s.s.s.s.s.s.s.s.s.s.s.s.s.s.s.s.s.s.s.s.s.s.s.s.s.s.s.s.s.s.s.s.s.s.s.s.s.s.s.s.s.s.s.s.s.s.s.s.s.s.s.s.s.s.s.s.s.s.s.s.s.s.s.s.s.s.s.s.s.s.s.s.s.s.s.s.s.s.s.s.s.s.s.s.s.s.s.s.s.s.s.s.s.s.s.s.s.s.s.s.s.s.s.s.s.s.s.s.s.s.s.s.s.s.s.s.s.s.s.s.s.s.s.s.s.s.s.s.s.s.s.s.s.s.s.s.s.s.s.s.s.s.s.s.s.s.s.c Y [ { X.$.$.2.2.2.2.5.7.7.7.y.f.u.f.h.h.h.h.v.l.v.S.H.H.H.H.K.K.H.E.E.E.[.E.E.E.K.E.E.E.E.E.E.E.K.E.K.E.E.E.E.E.E.E.E.!.E.E.!.E.E.!.{.!.{.{.{.}.}.{.}.|.}.}.}.}.}.}.{.{.[.{.{.}.}.}.{.}.|.}.^.{.}.}.^.!.}.}.}.^.(.!.^.^.}.}.!.}.!.}.^.!.E.(.(.!.!.!.!.^.!.(.!.W.!.^.!.W.W.W.W.W.R.W.W.!.E.W.!.!.W.T.!.E.!.W.T.L.R.H.J.H.E.H.J.J.S.M.J.J.C.C.C.C.C.C.C.l.C.C.C.l.l.l.l.l.l.h.l.h.l.l.l.M.M.M.M.l.h.h.h.h.h.h.h.h.h.h.h.f.h.f.f.f.f.d.y.y.y.7.7.7.7.7.y.y.y.y.y.y.y.y.7.:.r.y.d.y.d.d.h.h.h.h.l.l.l.l.h.g.g.g.g.d.d.d.y.:.;.#.] ` ` ` ` ' ' ` ( ( R R E E T G F D D Z V z a 7 6 < s.s.s.s.s.s.s.s.s.s.s.s.s.s.s.s.s.s.s.s.s.s.s.s.s.s.s.s.s.s.s.s.s.s.s.s.s.s.s.s.s.s.s.s.s.s.s.s.s.s.s.s.s.s.s.s.s.s.s.s.s.s.s.s.s.s.s.s.s.s.s.s.s.s.s.s.s.s.s.s.s.s.s.s.s.s.s.s.s.s.s.s.s.",
"s.s.s.s.s.s.s.s.s.s.s.s.s.s.s.s.s.s.s.s.s.s.s.s.s.s.s.s.s.s.s.s.s.s.s.s.s.s.s.s.s.s.s.s.s.s.s.s.s.s.s.s.s.s.s.s.s.s.s.s.s.s.s.s.s.s.s.s.s.s.s.s.s.s.s.s.s.s.s.s.s.s.s.s.s.s.s.s.s.s.s.s.s.s.s.s.s.s.s.s.s.s.s.s.s.s.s.s.s.s.s.s.s.s.s.s.s.s.s.s.s.s.s.s.s.s.s.s.s.s.s.s.s.s.s.s.s.s.s.s.s.s.s.s.s.s.s.s.s.s.s.s.s.s.s.s.s.s.s.s.s.s.s.s.s.s.s.s.s.s.s.s.s.s.s.s.s.s.s.s.s.s.s.s.s.s.s.s.s.s.s.s.s.s.s.s.s.s.s.s.s.s.s.s.s.s.s.s.s.s.s.s.s.s.s.s.s.s.s.s.s.s.s.s.s.u I R ( X.X.X.$.=.$.=.6.5.5.7.7.7.u.u.f.h.h.h.h.v.v.l.S.H.H.E.H.K.H.H.E.E.E.E.E.E.E.K.K.K.E.E.E.E.E.E.K.K.E.E.E.E.E.E.E.E.!.E.!.!.!.!.!.{.[.[.[.[.[.{.}.{.{.}.}.}.}.}.}.}.}.}..X}..X}..X}.[.}.}.{.^.E.^.^.^.}.!.{.{.^.^.(.{.^.^.{.^.!.{.!.!.W.E.^.!.!.!.!.(.!.!.E.E.T.!.!.^.!.W.^.W.W.!.J.!.E.!.^.E.W.J.W.J.J.L.L.W.T.L.H.H.T.H.J.J.M.M.M.l.l.l.l.l.C.C.C.l.h.l.C.l.h.l.l.l.h.h.h.h.h.h.h.l.l.h.h.h.h.h.h.f.f.f.h.h.h.f.f.f.f.f.f.f.y.y.d.y.y.y.7.7.:.:.7.y.y.y.y.y.y.7.7.7.y.y.7.y.7.d.f.d.h.h.h.h.l.l.l.g.g.h.d.y.d.y.y.>.=.$.' ` ( ( ` ` ` ` ( ( E T T T U D D S A V m d 9 4 8 s.s.s.s.s.s.s.s.s.s.s.s.s.s.s.s.s.s.s.s.s.s.s.s.s.s.s.s.s.s.s.s.s.s.s.s.s.s.s.s.s.s.s.s.s.s.s.s.s.s.s.s.s.s.s.s.s.s.s.s.s.s.s.s.s.s.s.s.s.s.s.s.s.s.s.s.s.s.s.s.s.s.s.s.s.s.s.s.s.s.s.s.s.s.",
"s.s.s.s.s.s.s.s.s.s.s.s.s.s.s.s.s.s.s.s.s.s.s.s.s.s.s.s.s.s.s.s.s.s.s.s.s.s.s.s.s.s.s.s.s.s.s.s.s.s.s.s.s.s.s.s.s.s.s.s.s.s.s.s.s.s.s.s.s.s.s.s.s.s.s.s.s.s.s.s.s.s.s.s.s.s.s.s.s.s.s.s.s.s.s.s.s.s.s.s.s.s.s.s.s.s.s.s.s.s.s.s.s.s.s.s.s.s.s.s.s.s.s.s.s.s.s.s.s.s.s.s.s.s.s.s.s.s.s.s.s.s.s.s.s.s.s.s.s.s.s.s.s.s.s.s.s.s.s.s.s.s.s.s.s.s.s.s.s.s.s.s.s.s.s.s.s.s.s.s.s.s.s.s.s.s.s.s.s.s.s.s.s.s.s.s.s.s.s.s.s.s.s.s.s.s.s.s.s.s.s.s.s.s.s.s.s.s.s.s.s.s.s.s.s.x C Y [  .X.$.$.$.=.=.2.5.7.7.y.y.f.u.f.u.h.h.l.M.h.l.M.H.M.M.M.H.H.E.E.K.E.E.E.K.K.K.K.K.E.E.E.E.E.E.E.K.E.E.E.E.E.E.!.E.E.!.!.!.!.{.[.[.{.[.{.{.{.}.|.}.}.}.{.}.}.}.}.}.}.}.}.}.}.}.}.}.{.}.}.[.{.{.{.!.^.^.^.[.{.!.^.{.!.^.!.{.^.!.^.!.^.!.W.!.E.E.!.W.W.!.!.(.!.!.!.!.^.^.W.!.!.U.!.^.W.!.!.!.E.!.W.L.L.L.W.W.H.W.J.J.J.J.J.S.J.S.S.l.h.l.l.l.C.C.l.C.l.l.l.h.h.h.h.h.h.h.h.h.l.h.h.f.h.l.h.h.h.h.h.h.f.f.h.h.f.f.f.h.f.d.f.f.y.y.y.y.y.y.y.7.7.7.:.7.y.y.7.7.7.7.7.7.y.7.7.y.y.y.d.f.h.h.k.l.l.l.l.h.h.g.d.y.y.d.y.y.>.-.*...' / E ( ( ` ( ( R T T T U G D A Z V z j 9 6 1 s.s.s.s.s.s.s.s.s.s.s.s.s.s.s.s.s.s.s.s.s.s.s.s.s.s.s.s.s.s.s.s.s.s.s.s.s.s.s.s.s.s.s.s.s.s.s.s.s.s.s.s.s.s.s.s.s.s.s.s.s.s.s.s.s.s.s.s.s.s.s.s.s.s.s.s.s.s.s.s.s.s.s.s.s.s.s.s.s.s.s.s.s.s.s.",
"s.s.s.s.s.s.s.s.s.s.s.s.s.s.s.s.s.s.s.s.s.s.s.s.s.s.s.s.s.s.s.s.s.s.s.s.s.s.s.s.s.s.s.s.s.s.s.s.s.s.s.s.s.s.s.s.s.s.s.s.s.s.s.s.s.s.s.s.s.s.s.s.s.s.s.s.s.s.s.s.s.s.s.s.s.s.s.s.s.s.s.s.s.s.s.s.s.s.s.s.s.s.s.s.s.s.s.s.s.s.s.s.s.s.s.s.s.s.s.s.s.s.s.s.s.s.s.s.s.s.s.s.s.s.s.s.s.s.s.s.s.s.s.s.s.s.s.s.s.s.s.s.s.s.s.s.s.s.s.s.s.s.s.s.s.s.s.s.s.s.s.s.s.s.s.s.s.s.s.s.s.s.s.s.s.s.s.s.s.s.s.s.s.s.s.s.s.s.s.s.s.s.s.s.s.s.s.s.s.s.s.s.s.s.s.s.s.s.s.s.s.s.s.s.s.s C Y [  . .X.$.$.$.=.5.=.2.7.7.7.y.u.f.f.h.u.v.h.l.l.M.M.M.H.M.M.E.E.E.E.K.E.E.E.K.K.E.E.K.E.E.K.K.K.E.E.E.E.E.E.!.!.E.!.!.!.!.!.[.{.!.[.[.[.[.{.[.[.[.{.{.{.{.{.{.{.{.{.}.{.{.{.{.{.{.{.{.!.}.}.}.}.}.[.}.!.^.^.!.!.^.^.^.^.!.{.^.!.{.^.E.E.W.J.E.!.!.W.!.(.!.!.!.W.!.^.W.!.W.W.W.U.W.!.E.!.!.!.W.J.!.L.E.T.T.H.J.H.H.L.J.J.M.S.M.J.H.J.l.l.h.C.l.l.l.h.l.l.l.h.f.h.h.f.h.h.h.h.h.h.h.f.f.h.h.h.h.f.f.f.f.f.f.f.f.f.f.d.f.d.f.f.d.f.d.y.7.7.7.7.7.5.:.7.7.7.7.7.7.y.y.y.y.y.y.y.y.d.f.h.f.h.h.k.h.l.l.h.g.g.d.d.d.d.y.r.;.*.*...' / E R R ( ( R E T T U U F A V M z j 0 7 < 7 s.s.s.s.s.s.s.s.s.s.s.s.s.s.s.s.s.s.s.s.s.s.s.s.s.s.s.s.s.s.s.s.s.s.s.s.s.s.s.s.s.s.s.s.s.s.s.s.s.s.s.s.s.s.s.s.s.s.s.s.s.s.s.s.s.s.s.s.s.s.s.s.s.s.s.s.s.s.s.s.s.s.s.s.s.s.s.s.s.s.s.s.s.s.s.",
"s.s.s.s.s.s.s.s.s.s.s.s.s.s.s.s.s.s.s.s.s.s.s.s.s.s.s.s.s.s.s.s.s.s.s.s.s.s.s.s.s.s.s.s.s.s.s.s.s.s.s.s.s.s.s.s.s.s.s.s.s.s.s.s.s.s.s.s.s.s.s.s.s.s.s.s.s.s.s.s.s.s.s.s.s.s.s.s.s.s.s.s.s.s.s.s.s.s.s.s.s.s.s.s.s.s.s.s.s.s.s.s.s.s.s.s.s.s.s.s.s.s.s.s.s.s.s.s.s.s.s.s.s.s.s.s.s.s.s.s.s.s.s.s.s.s.s.s.s.s.s.s.s.s.s.s.s.s.s.s.s.s.s.s.s.s.s.s.s.s.s.s.s.s.s.s.s.s.s.s.s.s.s.s.s.s.s.s.s.s.s.s.s.s.s.s.s.s.s.s.s.s.s.s.s.s.s.s.s.s.s.s.s.s.s.s.s.s.s.s.s.s.s.s.s.s C Y [  . .X.$.X.=.2.5.=.5.5.7.u.y.u.f.h.h.h.h.v.l.h.v.v.M.M.M.M.S.H.K.K.K.K.K.K.K.K.E.E.K.K.K.K.E.K.K.K.E.E.E.!.!.!.E.!.E.!.{.[.{.{.!.[.!.E.[.{.[.{.[.[.!.{.{.{.{.!.}.[.{.{.!.}.}.{.{.{.{.!.[.{.[.[.[.}.}.^.!.^.^.{.!.^.^.^.{.{.!.!.^.^.^.!.W.W.J.T.W.W.W.E.E.^.E.W.!.^.W.!.W.W.W.W.U.U.E.T.E.!.S.E.J.E.W.T.T.L.L.M.T.S.L.J.J.J.S.J.J.S.l.l.h.h.C.l.l.l.h.l.l.h.g.f.f.g.h.h.f.f.g.h.h.h.h.f.f.f.h.h.f.f.f.f.f.f.f.f.f.f.f.d.f.f.d.f.y.y.5.7.7.7.7.5.5.7.5.:.7.7.5.7.7.7.y.y.y.y.y.y.f.f.f.h.h.h.h.l.k.h.h.h.g.y.y.y.y.:.;.*.#...` / E R R R / E T U U U F D V v z d d 0 4 < s.s.s.s.s.s.s.s.s.s.s.s.s.s.s.s.s.s.s.s.s.s.s.s.s.s.s.s.s.s.s.s.s.s.s.s.s.s.s.s.s.s.s.s.s.s.s.s.s.s.s.s.s.s.s.s.s.s.s.s.s.s.s.s.s.s.s.s.s.s.s.s.s.s.s.s.s.s.s.s.s.s.s.s.s.s.s.s.s.s.s.s.s.s.s.s.",
"s.s.s.s.s.s.s.s.s.s.s.s.s.s.s.s.s.s.s.s.s.s.s.s.s.s.s.s.s.s.s.s.s.s.s.s.s.s.s.s.s.s.s.s.s.s.s.s.s.s.s.s.s.s.s.s.s.s.s.s.s.s.s.s.s.s.s.s.s.s.s.s.s.s.s.s.s.s.s.s.s.s.s.s.s.s.s.s.s.s.s.s.s.s.s.s.s.s.s.s.s.s.s.s.s.s.s.s.s.s.s.s.s.s.s.s.s.s.s.s.s.s.s.s.s.s.s.s.s.s.s.s.s.s.s.s.s.s.s.s.s.s.s.s.s.s.s.s.s.s.s.s.s.s.s.s.s.s.s.s.s.s.s.s.s.s.s.s.s.s.s.s.s.s.s.s.s.s.s.s.s.s.s.s.s.s.s.s.s.s.s.s.s.s.s.s.s.s.s.s.s.s.s.s.s.s.s.s.s.s.s.s.s.s.s.s.s.s.s.s.s.s.s.s.s.x C R [ |  .X.$.$.2.=.2.5.7.7.7.7.f.u.h.h.h.b.f.v.h.h.b.M.M.b.M.K.S.K.K.K.S.S.M.H.K.S.K.K.K.K.K.K.K.K.E.E.E.E.E.!.E.E.E.!.{.!.!.!.!.[.E.E.E.E.E.E.!.[.[.!.[.!.!.!.{.{.{.{.!.!.{.{.}.}.[.{.{.{.{.{.{.{.{.{.E.!.!.^.^.^.!.{.!.!.{.{.!.!.!.!.!.W.W.W.L.L.W.!.!.W.W.!.E.!.!.W.^.!.!.!.W.W.W.W.T.W.W.W.L.S.W.J.S.J.L.J.H.M.J.M.M.C.S.M.l.l.C.M.l.l.h.f.l.h.h.h.h.h.h.h.h.h.h.h.f.g.g.g.h.h.h.h.h.f.f.f.f.f.f.f.f.f.f.f.d.f.f.f.f.d.f.f.y.d.y.y.y.y.7.7.7.5.7.7.7.7.5.5.:.:.7.7.y.y.y.y.y.y.f.f.h.h.h.h.l.l.l.h.h.g.d.r.y.r.:.:.;.$.#...| E T E E E E T T G P D D V m k d a 0 7 < r s.s.s.s.s.s.s.s.s.s.s.s.s.s.s.s.s.s.s.s.s.s.s.s.s.s.s.s.s.s.s.s.s.s.s.s.s.s.s.s.s.s.s.s.s.s.s.s.s.s.s.s.s.s.s.s.s.s.s.s.s.s.s.s.s.s.s.s.s.s.s.s.s.s.s.s.s.s.s.s.s.s.s.s.s.s.s.s.s.s.s.s.s.s.s.s.",
"s.s.s.s.s.s.s.s.s.s.s.s.s.s.s.s.s.s.s.s.s.s.s.s.s.s.s.s.s.s.s.s.s.s.s.s.s.s.s.s.s.s.s.s.s.s.s.s.s.s.s.s.s.s.s.s.s.s.s.s.s.s.s.s.s.s.s.s.s.s.s.s.s.s.s.s.s.s.s.s.s.s.s.s.s.s.s.s.s.s.s.s.s.s.s.s.s.s.s.s.s.s.s.s.s.s.s.s.s.s.s.s.s.s.s.s.s.s.s.s.s.s.s.s.s.s.s.s.s.s.s.s.s.s.s.s.s.s.s.s.s.s.s.s.s.s.s.s.s.s.s.s.s.s.s.s.s.s.s.s.s.s.s.s.s.s.s.s.s.s.s.s.s.s.s.s.s.s.s.s.s.s.s.s.s.s.s.s.s.s.s.s.s.s.s.s.s.s.s.s.s.s.s.s.s.s.s.s.s.s.s.s.s.s.s.s.s.s.s.s.s.s.s.s.s.f J W _ | X.X.$.$.$.2.2.2.5.5.7.7.7.u.u.h.b.b.h.M.M.M.M.M.b.b.b.b.M.S.S.K.M.H.H.H.H.H.K.H.K.K.K.K.K.K.K.K.E.E.E.E.E.H.E.E.E.E.!.!.E.!.E.E.E.E.E.K.E.E.[.[.E.E.E.!.[.[.E.[.[.E.[.!.!.[.!.!.E.[.|.}.[.E.E.E.E.!.!.[.!.!.!.!.!.!.^.{.!.^.^.!.E.E.E.E.E.E.H.H.L.!.W.!.E.W.W.W.W.W.!.!.!.W.!.W.W.!.W.T.W.W.R.J.T.J.J.J.J.J.J.J.M.C.M.l.C.l.C.l.C.l.h.h.h.l.l.h.h.f.h.h.g.g.g.y.g.g.g.f.f.g.d.f.f.f.f.f.y.y.d.f.f.f.d.y.d.f.f.y.f.y.d.d.u.y.y.y.y.y.y.y.7.7.7.7.7.7.7.:.7.:.:.7.7.y.y.y.y.y.y.f.h.h.h.l.l.l.l.h.h.g.g.y.r.:.:.;.=.*.#...[ ( T T T E E T T U F D Z V k d y 9 7 : 6 s.s.s.s.s.s.s.s.s.s.s.s.s.s.s.s.s.s.s.s.s.s.s.s.s.s.s.s.s.s.s.s.s.s.s.s.s.s.s.s.s.s.s.s.s.s.s.s.s.s.s.s.s.s.s.s.s.s.s.s.s.s.s.s.s.s.s.s.s.s.s.s.s.s.s.s.s.s.s.s.s.s.s.s.s.s.s.s.s.s.s.s.s.s.s.s.s.",
"s.s.s.s.s.s.s.s.s.s.s.s.s.s.s.s.s.s.s.s.s.s.s.s.s.s.s.s.s.s.s.s.s.s.s.s.s.s.s.s.s.s.s.s.s.s.s.s.s.s.s.s.s.s.s.s.s.s.s.s.s.s.s.s.s.s.s.s.s.s.s.s.s.s.s.s.s.s.s.s.s.s.s.s.s.s.s.s.s.s.s.s.s.s.s.s.s.s.s.s.s.s.s.s.s.s.s.s.s.s.s.s.s.s.s.s.s.s.s.s.s.s.s.s.s.s.s.s.s.s.s.s.s.s.s.s.s.s.s.s.s.s.s.s.s.s.s.s.s.s.s.s.s.s.s.s.s.s.s.s.s.s.s.s.s.s.s.s.s.s.s.s.s.s.s.s.s.s.s.s.s.s.s.s.s.s.s.s.s.s.s.s.s.s.s.s.s.s.s.s.s.s.s.s.s.s.s.s.s.s.s.s.s.s.s.s.s.s.s.s.s.s.s.s.s.c K W [  .X.X.$.=.$.=.2.5.6.7.y.u.u.u.f.b.f.h.v.h.b.b.v.b.v.v.b.b.M.M.S.S.H.H.H.K.K.K.K.S.N.M.M.M.M.S.M.M.H.H.H.H.H.H.H.K.H.H.H.H.H.H.H.K.K.K.S.H.K.E.K.E.E.{.K.E.[.[.[.[.[.E.E.E.[.{.{.E.!.{.!.E.[.[.[.!.E.E.E.E.!.E.!.!.^.!.^.^.^.!.!.!.E.E.!.!.E.E.E.E.T.!.J.E.W.W.!.!.W.!.!.!.^.W.!.!.W.U.J.U.U.T.J.J.W.T.J.U.J.J.J.J.Z.l.l.l.M.h.h.l.l.l.C.l.h.h.h.l.h.f.f.h.g.g.g.y.g.g.g.g.g.f.g.g.f.f.d.y.d.f.y.y.f.f.f.y.d.f.f.f.f.y.y.y.d.d.y.y.y.y.y.7.5.5.7.:.;.7.7.7.7.y.y.y.y.y.y.y.y.f.f.f.h.f.f.l.h.l.l.l.h.g.g.d.d.y.r.:.=.*.#.| | R E U E E T T U P D A V z a y 9 7 1 5 s.s.s.s.s.s.s.s.s.s.s.s.s.s.s.s.s.s.s.s.s.s.s.s.s.s.s.s.s.s.s.s.s.s.s.s.s.s.s.s.s.s.s.s.s.s.s.s.s.s.s.s.s.s.s.s.s.s.s.s.s.s.s.s.s.s.s.s.s.s.s.s.s.s.s.s.s.s.s.s.s.s.s.s.s.s.s.s.s.s.s.s.s.s.s.s.s.s.",
"s.s.s.s.s.s.s.s.s.s.s.s.s.s.s.s.s.s.s.s.s.s.s.s.s.s.s.s.s.s.s.s.s.s.s.s.s.s.s.s.s.s.s.s.s.s.s.s.s.s.s.s.s.s.s.s.s.s.s.s.s.s.s.s.s.s.s.s.s.s.s.s.s.s.s.s.s.s.s.s.s.s.s.s.s.s.s.s.s.s.s.s.s.s.s.s.s.s.s.s.s.s.s.s.s.s.s.s.s.s.s.s.s.s.s.s.s.s.s.s.s.s.s.s.s.s.s.s.s.s.s.s.s.s.s.s.s.s.s.s.s.s.s.s.s.s.s.s.s.s.s.s.s.s.s.s.s.s.s.s.s.s.s.s.s.s.s.s.s.s.s.s.s.s.s.s.s.s.s.s.s.s.s.s.s.s.s.s.s.s.s.s.s.s.s.s.s.s.s.s.s.s.s.s.s.s.s.s.s.s.s.s.s.s.s.s.s.s.s.s.s.s.s.s.s.f J ! (  .X.X.X.$.=.2.2.2.5.7.u.u.u.7.u.f.f.h.h.h.b.h.b.b.b.b.b.v.M.M.M.M.S.K.K.K.K.M.K.K.b.b.b.v.b.M.b.M.M.b.h.b.h.M.M.b.h.h.h.h.M.H.H.H.M.K.S.K.K.E.K.E.[.[.K.E.K.K.E.K.!.E.!.E.{.E.E.E.{.E.[.}.!.!.!.!.^.^.[.!.E.!.!.[.[.^.^.^.^.^.^.!.^.!.E.E.!.E.E.T.T.T.J.T.W.!.W.W.W.!.^.!.!.!.!.W.U.U.J.U.U.T.U.W.J.W.J.J.A.l.J.C.S.l.C.C.C.l.l.h.h.h.C.l.h.h.f.h.h.g.g.f.y.d.g.g.d.d.g.g.y.g.g.d.f.f.f.d.y.y.y.d.f.d.f.d.y.d.f.f.f.y.y.y.y.y.y.y.y.y.y.5.7.5.5.:.:.7.y.y.y.y.y.y.7.y.y.y.u.f.f.f.h.h.l.l.h.l.k.l.h.g.d.d.d.y.:.;.;.#...| ` R E U T T U U U F S V z f 0 7 7 6 , s.s.s.s.s.s.s.s.s.s.s.s.s.s.s.s.s.s.s.s.s.s.s.s.s.s.s.s.s.s.s.s.s.s.s.s.s.s.s.s.s.s.s.s.s.s.s.s.s.s.s.s.s.s.s.s.s.s.s.s.s.s.s.s.s.s.s.s.s.s.s.s.s.s.s.s.s.s.s.s.s.s.s.s.s.s.s.s.s.s.s.s.s.s.s.s.s.s.s.",
"s.s.s.s.s.s.s.s.s.s.s.s.s.s.s.s.s.s.s.s.s.s.s.s.s.s.s.s.s.s.s.s.s.s.s.s.s.s.s.s.s.s.s.s.s.s.s.s.s.s.s.s.s.s.s.s.s.s.s.s.s.s.s.s.s.s.s.s.s.s.s.s.s.s.s.s.s.s.s.s.s.s.s.s.s.s.s.s.s.s.s.s.s.s.s.s.s.s.s.s.s.s.s.s.s.s.s.s.s.s.s.s.s.s.s.s.s.s.s.s.s.s.s.s.s.s.s.s.s.s.s.s.s.s.s.s.s.s.s.s.s.s.s.s.s.s.s.s.s.s.s.s.s.s.s.s.s.s.s.s.s.s.s.s.s.s.s.s.s.s.s.s.s.s.s.s.s.s.s.s.s.s.s.s.s.s.s.s.s.s.s.s.s.s.s.s.s.s.s.s.s.s.s.s.s.s.s.s.s.s.s.s.s.s.s.s.s.s.s.s.s.s.s.s.s.c K Y _  . . .X.$.=.5.2.5.7.7.7.u.u.u.u.h.x.b.f.h.h.h.b.b.b.b.b.b.b.b.v.b.v.v.b.M.M.M.M.v.b.x.f.f.f.f.u.f.f.f.h.b.M.M.M.H.M.H.H.E.E.E.E.E.E.!.E.[.E.!.!.E.[.!.!.!.[.[.[.[.E.E.K.E.^.!.[.^.K.E.{.!.!.!.E.E.E.E.!.!.E.E.!.!.!.^.^.!.!.^.{.!.!.!.E.E.!.E.!.H.E.T.E.!.T.W.W.W.!.!.!.W.!.!.W.W.T.T.T.T.J.J.U.U.J.J.A.A.C.C.C.C.M.l.C.C.C.l.C.h.h.h.h.h.h.h.f.h.f.f.g.g.g.d.y.y.d.d.d.u.g.d.d.y.d.f.d.y.y.d.y.y.y.f.f.f.d.f.f.d.f.y.y.y.y.y.y.f.u.u.y.7.y.y.7.5.5.5.7.y.7.7.7.7.7.y.y.y.y.f.u.u.f.h.h.h.h.l.l.l.h.g.d.d.d.y.:.:.;.*...| ` R E U U U U G F D Z M k y 7 6 2 , s.s.s.s.s.s.s.s.s.s.s.s.s.s.s.s.s.s.s.s.s.s.s.s.s.s.s.s.s.s.s.s.s.s.s.s.s.s.s.s.s.s.s.s.s.s.s.s.s.s.s.s.s.s.s.s.s.s.s.s.s.s.s.s.s.s.s.s.s.s.s.s.s.s.s.s.s.s.s.s.s.s.s.s.s.s.s.s.s.s.s.s.s.s.s.s.s.s.s.s.",
"s.s.s.s.s.s.s.s.s.s.s.s.s.s.s.s.s.s.s.s.s.s.s.s.s.s.s.s.s.s.s.s.s.s.s.s.s.s.s.s.s.s.s.s.s.s.s.s.s.s.s.s.s.s.s.s.s.s.s.s.s.s.s.s.s.s.s.s.s.s.s.s.s.s.s.s.s.s.s.s.s.s.s.s.s.s.s.s.s.s.s.s.s.s.s.s.s.s.s.s.s.s.s.s.s.s.s.s.s.s.s.s.s.s.s.s.s.s.s.s.s.s.s.s.s.s.s.s.s.s.s.s.s.s.s.s.s.s.s.s.s.s.s.s.s.s.s.s.s.s.s.s.s.s.s.s.s.s.s.s.s.s.s.s.s.s.s.s.s.s.s.s.s.s.s.s.s.s.s.s.s.s.s.s.s.s.s.s.s.s.s.s.s.s.s.s.s.s.s.s.s.s.s.s.s.s.s.s.s.s.s.s.s.s.s.s.s.s.s.s.s.s.s.s.s.f J ! | X.| X.$.$.$.=.2.5.6.6.7.u.u.u.u.f.u.f.f.f.f.f.b.b.b.b.h.b.b.b.b.b.M.b.v.v.b.b.b.f.u.u.u.7.y.u.f.h.M.H.E.E.H.E.!.!.!.^.{.[.{.[.!.!.[.!.!.^.E.!.E.E.{.!.!.E.!.E.E.}.[.E.E.H.E.E.E.E.E.E.E.E.E.E.E.E.!.K.E.!.E.E.!.!.!.{.!.!.!.!.!.!.!.!.!.E.E.!.E.E.E.E.W.!.W.E.W.W.!.W.W.W.W.W.W.T.T.W.W.W.U.J.A.A.J.C.A.J.A.J.h.l.M.l.l.M.l.h.l.h.h.h.f.h.h.h.h.h.g.g.g.g.g.y.y.y.d.f.d.y.d.d.g.y.y.d.y.y.y.y.y.y.y.f.d.f.f.f.f.f.f.d.f.y.y.y.f.y.y.y.y.7.7.7.:.5.:.7.7.y.7.7.7.y.y.y.y.y.y.y.u.h.f.f.l.h.l.l.h.l.h.h.h.d.y.:.;.;.$.#...' ` ( E U G G G G D S V v d 8 < 1 , 6 s.s.s.s.s.s.s.s.s.s.s.s.s.s.s.s.s.s.s.s.s.s.s.s.s.s.s.s.s.s.s.s.s.s.s.s.s.s.s.s.s.s.s.s.s.s.s.s.s.s.s.s.s.s.s.s.s.s.s.s.s.s.s.s.s.s.s.s.s.s.s.s.s.s.s.s.s.s.s.s.s.s.s.s.s.s.s.s.s.s.s.s.s.s.s.s.s.s.s.s.",
"s.s.s.s.s.s.s.s.s.s.s.s.s.s.s.s.s.s.s.s.s.s.s.s.s.s.s.s.s.s.s.s.s.s.s.s.s.s.s.s.s.s.s.s.s.s.s.s.s.s.s.s.s.s.s.s.s.s.s.s.s.s.s.s.s.s.s.s.s.s.s.s.s.s.s.s.s.s.s.s.s.s.s.s.s.s.s.s.s.s.s.s.s.s.s.s.s.s.s.s.s.s.s.s.s.s.s.s.s.s.s.s.s.s.s.s.s.s.s.s.s.s.s.s.s.s.s.s.s.s.s.s.s.s.s.s.s.s.s.s.s.s.s.s.s.s.s.s.s.s.s.s.s.s.s.s.s.s.s.s.s.s.s.s.s.s.s.s.s.s.s.s.s.s.s.s.s.s.s.s.s.s.s.s.s.s.s.s.s.s.s.s.s.s.s.s.s.s.s.s.s.s.s.s.s.s.s.s.s.s.s.s.s.s.s.s.s.s.s.s.s.s.s.s.s.f J W [ | X. . .$.=.5.5.5.5.6.y.u.u.u.u.u.y.u.u.u.u.u.f.f.f.f.f.x.b.f.b.b.b.h.b.b.b.u.u.7.5.5.7.u.h.K.E.!.[.[.{.{.{.{.}.|.}.}.{.|..X{.}.}.}.!.[.[.!.[.E.!.[.E.!.{.}.[.[.E.E.E.E.!.K.E.!.^.E.E.!.E.E.E.L.E.E.^.[.!.E.E.E.E.{.^.^.!.!.!.E.E.!.!.!.!.E.!.^.!.E.E.W.W.W.W.!.T.W.!.^.T.W.T.!.W.W.W.!.W.W.J.A.J.J.A.J.l.C.A.C.A.S.l.h.l.l.l.M.l.h.h.h.h.f.f.f.h.g.g.d.g.g.d.d.y.y.d.d.y.y.y.y.d.d.y.y.y.y.y.y.y.y.y.d.d.y.d.f.g.y.y.y.y.y.f.y.y.y.y.y.7.7.7.5.:.5.7.7.7.7.y.y.y.y.y.y.y.u.y.f.h.f.f.f.f.h.h.h.h.h.h.h.d.y.7.:.;.*.#...| ` ( E U G F G F D A m k 9 < < , 1 s.s.s.s.s.s.s.s.s.s.s.s.s.s.s.s.s.s.s.s.s.s.s.s.s.s.s.s.s.s.s.s.s.s.s.s.s.s.s.s.s.s.s.s.s.s.s.s.s.s.s.s.s.s.s.s.s.s.s.s.s.s.s.s.s.s.s.s.s.s.s.s.s.s.s.s.s.s.s.s.s.s.s.s.s.s.s.s.s.s.s.s.s.s.s.s.s.s.s.s.s.",
"s.s.s.s.s.s.s.s.s.s.s.s.s.s.s.s.s.s.s.s.s.s.s.s.s.s.s.s.s.s.s.s.s.s.s.s.s.s.s.s.s.s.s.s.s.s.s.s.s.s.s.s.s.s.s.s.s.s.s.s.s.s.s.s.s.s.s.s.s.s.s.s.s.s.s.s.s.s.s.s.s.s.s.s.s.s.s.s.s.s.s.s.s.s.s.s.s.s.s.s.s.s.s.s.s.s.s.s.s.s.s.s.s.s.s.s.s.s.s.s.s.s.s.s.s.s.s.s.s.s.s.s.s.s.s.s.s.s.s.s.s.s.s.s.s.s.s.s.s.s.s.s.s.s.s.s.s.s.s.s.s.s.s.s.s.s.s.s.s.s.s.s.s.s.s.s.s.s.s.s.s.s.s.s.s.s.s.s.s.s.s.s.s.s.s.s.s.s.s.s.s.s.s.s.s.s.s.s.s.s.s.s.s.s.s.s.s.s.s.s.s.s.s.s.s.x U _ [ { | { X.$.2.2.2.5.6.7.7.7.7.7.u.u.u.u.u.u.u.u.u.u.u.f.f.f.b.f.f.f.x.x.x.f.u.7.2.;.5.u.v.K.E.[.[.{.}.}..X.X}.}.|.}.|..XoX.X.X.X X.X.X}.!.{.{.}.}.(.{.[.^.!.E.!.}.[.!.K.!.E.E.E.!.[.E.K.!.!.[.E.E.E.E.H.K.E.!.E.E.E.!.!.!.E.E.!.!.E.E.!.!.!.!.!.E.!.^.!.W.W.!.T.W.J.!.T.W.!.W.W.W.W.W.W.W.U.W.U.U.A.J.J.A.C.C.l.l.C.l.l.C.h.l.h.h.h.h.h.h.g.g.g.h.h.g.g.d.d.g.y.y.y.y.y.y.y.y.y.y.y.y.y.y.y.y.y.y.y.y.y.y.y.g.f.f.y.y.y.y.y.y.f.g.y.y.y.y.y.5.5.5.5.5.5.5.5.7.y.y.y.y.y.y.y.y.u.h.h.h.f.f.f.h.h.h.h.h.h.g.d.y.y.:.*.#.#.#.' ` ( E U G F D D S Z v d 7 - = - s.s.s.s.s.s.s.s.s.s.s.s.s.s.s.s.s.s.s.s.s.s.s.s.s.s.s.s.s.s.s.s.s.s.s.s.s.s.s.s.s.s.s.s.s.s.s.s.s.s.s.s.s.s.s.s.s.s.s.s.s.s.s.s.s.s.s.s.s.s.s.s.s.s.s.s.s.s.s.s.s.s.s.s.s.s.s.s.s.s.s.s.s.s.s.s.s.s.s.s.s.s.",
"s.s.s.s.s.s.s.s.s.s.s.s.s.s.s.s.s.s.s.s.s.s.s.s.s.s.s.s.s.s.s.s.s.s.s.s.s.s.s.s.s.s.s.s.s.s.s.s.s.s.s.s.s.s.s.s.s.s.s.s.s.s.s.s.s.s.s.s.s.s.s.s.s.s.s.s.s.s.s.s.s.s.s.s.s.s.s.s.s.s.s.s.s.s.s.s.s.s.s.s.s.s.s.s.s.s.s.s.s.s.s.s.s.s.s.s.s.s.s.s.s.s.s.s.s.s.s.s.s.s.s.s.s.s.s.s.s.s.s.s.s.s.s.s.s.s.s.s.s.s.s.s.s.s.s.s.s.s.s.s.s.s.s.s.s.s.s.s.s.s.s.s.s.s.s.s.s.s.s.s.s.s.s.s.s.s.s.s.s.s.s.s.s.s.s.s.s.s.s.s.s.s.s.s.s.s.s.s.s.s.s.s.s.s.s.s.s.s.s.s.s.s.s.s.s.f I W [ { { X.X.$.2.2.2.5.5.7.y.u.u.u.y.u.u.u.u.u.u.u.u.u.u.f.f.f.f.u.f.f.f.f.u.u.2.$.5.u.x.H.K.E.[.{..XoXoXoXoXoXoXoX.X.X.X X X.X.X.X.X.X}.}..X}.}.|.|.}.}.^.}.}.{.^.^.^.{.[.E.!.!.E.E.E.E.E.E.[.[.{.{.!.!.[.E.E.E.E.E.E.^.!.E.L.!.E.E.E.E.E.E.!.!.E.H.!.T.T.W.!.!.T.T.W.W.!.!.W.T.!.!.W.W.T.W.T.T.U.T.J.C.J.C.C.J.l.C.C.l.C.l.h.h.h.h.h.f.h.f.g.g.g.g.f.h.g.d.y.y.y.y.y.y.y.d.y.y.y.y.y.f.d.y.y.y.d.f.y.y.f.y.y.f.d.g.y.g.f.f.f.d.y.y.f.u.y.y.y.7.5.5.5.5.5.y.y.y.y.y.y.y.u.y.y.y.y.f.h.f.f.l.h.h.h.l.h.f.g.f.f.y.y.>.*.$.#...` ( R T G G F S Z V M k y - = - s.s.s.s.s.s.s.s.s.s.s.s.s.s.s.s.s.s.s.s.s.s.s.s.s.s.s.s.s.s.s.s.s.s.s.s.s.s.s.s.s.s.s.s.s.s.s.s.s.s.s.s.s.s.s.s.s.s.s.s.s.s.s.s.s.s.s.s.s.s.s.s.s.s.s.s.s.s.s.s.s.s.s.s.s.s.s.s.s.s.s.s.s.s.s.s.s.s.s.s.s.s.s.",
"s.s.s.s.s.s.s.s.s.s.s.s.s.s.s.s.s.s.s.s.s.s.s.s.s.s.s.s.s.s.s.s.s.s.s.s.s.s.s.s.s.s.s.s.s.s.s.s.s.s.s.s.s.s.s.s.s.s.s.s.s.s.s.s.s.s.s.s.s.s.s.s.s.s.s.s.s.s.s.s.s.s.s.s.s.s.s.s.s.s.s.s.s.s.s.s.s.s.s.s.s.s.s.s.s.s.s.s.s.s.s.s.s.s.s.s.s.s.s.s.s.s.s.s.s.s.s.s.s.s.s.s.s.s.s.s.s.s.s.s.s.s.s.s.s.s.s.s.s.s.s.s.s.s.s.s.s.s.s.s.s.s.s.s.s.s.s.s.s.s.s.s.s.s.s.s.s.s.s.s.s.s.s.s.s.s.s.s.s.s.s.s.s.s.s.s.s.s.s.s.s.s.s.s.s.s.s.s.s.s.s.s.s.s.s.s.s.s.s.s.s.s.s.s.s.f Y R [ { { X.X.X.$.2.5.5.7.7.7.7.8.7.u.u.7.u.u.u.u.u.u.u.u.u.u.u.u.f.f.f.8.f.8.$.$.u.b.S.E.E.{.{.}.|.|..XoXoXoXoXOXoX.XoXoXoXoX X.X}..XoX.XoX}..X.X}.}.}.}.}.}.[.{.}.{.{.}.{.{.{.E.K.E.E.E.E.E.E.E.!.E.E.^.!.!.!.E.E.E.E.E.E.E.E.E.E.E.E.!.E.T.E.E.E.E.E.W.!.E.W.!.W.T.T.W.W.W.!.T.E.!.E.U.W.W.T.T.U.U.J.W.J.J.C.J.h.h.l.C.l.l.h.h.f.g.f.g.f.f.f.g.f.g.g.g.y.y.d.y.y.y.y.y.y.y.y.d.y.y.y.y.y.y.y.y.y.f.y.d.y.y.d.y.d.f.g.g.f.y.y.y.y.y.y.u.u.y.y.y.y.7.7.5.5.7.7.y.7.7.u.y.y.y.y.f.u.f.f.f.f.h.f.h.l.l.l.h.f.h.y.y.7.:.;.*.#...` ( R T G P D S Z V M a 4 o & s.s.s.s.s.s.s.s.s.s.s.s.s.s.s.s.s.s.s.s.s.s.s.s.s.s.s.s.s.s.s.s.s.s.s.s.s.s.s.s.s.s.s.s.s.s.s.s.s.s.s.s.s.s.s.s.s.s.s.s.s.s.s.s.s.s.s.s.s.s.s.s.s.s.s.s.s.s.s.s.s.s.s.s.s.s.s.s.s.s.s.s.s.s.s.s.s.s.s.s.s.s.s.s.",
"s.s.s.s.s.s.s.s.s.s.s.s.s.s.s.s.s.s.s.s.s.s.s.s.s.s.s.s.s.s.s.s.s.s.s.s.s.s.s.s.s.s.s.s.s.s.s.s.s.s.s.s.s.s.s.s.s.s.s.s.s.s.s.s.s.s.s.s.s.s.s.s.s.s.s.s.s.s.s.s.s.s.s.s.s.s.s.s.s.s.s.s.s.s.s.s.s.s.s.s.s.s.s.s.s.s.s.s.s.s.s.s.s.s.s.s.s.s.s.s.s.s.s.s.s.s.s.s.s.s.s.s.s.s.s.s.s.s.s.s.s.s.s.s.s.s.s.s.s.s.s.s.s.s.s.s.s.s.s.s.s.s.s.s.s.s.s.s.s.s.s.s.s.s.s.s.s.s.s.s.s.s.s.s.s.s.s.s.s.s.s.s.s.s.s.s.s.s.s.s.s.s.s.s.s.s.s.s.s.s.s.s.s.s.s.s.s.s.s.s.s.s.s.s.s.c K ! _ { | { X.$.$.2.5.5.5.7.7.8.8.8.u.u.u.u.u.u.u.u.u.u.u.u.u.u.u.u.u.u.u.5.$.$.u.M.K.E.!.[.{.{.}..X.XoXoX+X+XoXoXoX.XoXoXoXoXoXoX X.XoX.X.X}.}.}..X.X}.}.}.}.{.{.{.[.{.[.[.{.[.!.E.E.E.E.E.E.!.!.E.E.K.E.E.!.!.E.E.E.E.E.E.E.T.E.E.E.E.T.L.E.E.E.T.E.!.W.W.W.T.W.E.W.^.T.W.W.T.W.E.W.W.U.U.U.W.J.J.J.U.J.J.S.l.l.l.l.h.l.h.h.h.h.h.h.h.f.f.f.g.g.d.d.g.g.y.g.g.y.y.y.y.y.y.y.y.y.y.y.y.y.y.y.y.y.y.d.y.u.y.y.f.d.f.f.y.y.g.f.f.f.d.f.g.u.y.y.y.7.5.7.7.5.5.y.y.y.y.y.y.y.y.u.y.f.f.u.y.f.l.h.h.S.l.h.h.h.f.h.y.y.7.;.*.=.X.| ` ( R T U F D Z V V k y , o s.s.s.s.s.s.s.s.s.s.s.s.s.s.s.s.s.s.s.s.s.s.s.s.s.s.s.s.s.s.s.s.s.s.s.s.s.s.s.s.s.s.s.s.s.s.s.s.s.s.s.s.s.s.s.s.s.s.s.s.s.s.s.s.s.s.s.s.s.s.s.s.s.s.s.s.s.s.s.s.s.s.s.s.s.s.s.s.s.s.s.s.s.s.s.s.s.s.s.s.s.s.s.s.s.",
"s.s.s.s.s.s.s.s.s.s.s.s.s.s.s.s.s.s.s.s.s.s.s.s.s.s.s.s.s.s.s.s.s.s.s.s.s.s.s.s.s.s.s.s.s.s.s.s.s.s.s.s.s.s.s.s.s.s.s.s.s.s.s.s.s.s.s.s.s.s.s.s.s.s.s.s.s.s.s.s.s.s.s.s.s.s.s.s.s.s.s.s.s.s.s.s.s.s.s.s.s.s.s.s.s.s.s.s.s.s.s.s.s.s.s.s.s.s.s.s.s.s.s.s.s.s.s.s.s.s.s.s.s.s.s.s.s.s.s.s.s.s.s.s.s.s.s.s.s.s.s.s.s.s.s.s.s.s.s.s.s.s.s.s.s.s.s.s.s.s.s.s.s.s.s.s.s.s.s.s.s.s.s.s.s.s.s.s.s.s.s.s.s.s.s.s.s.s.s.s.s.s.s.s.s.s.s.s.s.s.s.s.s.s.s.s.s.s.s.s.s.s.s.s.s.f Y Y [ [ | | X.$.=.2.2.5.5.5.8.8.7.8.u.8.7.7.u.u.u.u.u.u.u.u.u.u.u.u.u.u.5...=.x.M.S.E.E.[.{.{.}.|..X.XoXoXoXOXoXoXoX.X.XOX#XOXoXoXoX.XoXoXoX.X.X.X}.{.}.}.}.{.{.[.[.{.}.{.E.[.{.!.{.!.E.E.E.K.E.E.!.E.E.K.K.K.E.E.E.E.E.E.L.T.E.L.H.H.H.T.H.L.L.E.E.E.E.E.W.T.W.W.W.W.T.!.E.W.W.E.!.W.L.W.J.J.W.T.U.J.U.W.J.S.S.l.C.l.h.l.h.h.h.h.h.h.h.h.h.f.g.g.g.d.d.g.g.g.y.y.y.y.y.y.y.r.r.y.y.y.y.y.y.y.y.y.y.y.d.f.y.y.y.y.y.g.f.y.y.y.f.f.f.f.f.u.y.y.y.y.y.y.7.y.7.y.y.y.y.y.y.y.y.f.y.y.y.y.f.h.l.l.M.M.h.h.l.h.f.f.y.y.7.:.;.=...| [ ( E T U F A Z V z d 8 % s.s.s.s.s.s.s.s.s.s.s.s.s.s.s.s.s.s.s.s.s.s.s.s.s.s.s.s.s.s.s.s.s.s.s.s.s.s.s.s.s.s.s.s.s.s.s.s.s.s.s.s.s.s.s.s.s.s.s.s.s.s.s.s.s.s.s.s.s.s.s.s.s.s.s.s.s.s.s.s.s.s.s.s.s.s.s.s.s.s.s.s.s.s.s.s.s.s.s.s.s.s.s.s.s.s.",
"s.s.s.s.s.s.s.s.s.s.s.s.s.s.s.s.s.s.s.s.s.s.s.s.s.s.s.s.s.s.s.s.s.s.s.s.s.s.s.s.s.s.s.s.s.s.s.s.s.s.s.s.s.s.s.s.s.s.s.s.s.s.s.s.s.s.s.s.s.s.s.s.s.s.s.s.s.s.s.s.s.s.s.s.s.s.s.s.s.s.s.s.s.s.s.s.s.s.s.s.s.s.s.s.s.s.s.s.s.s.s.s.s.s.s.s.s.s.s.s.s.s.s.s.s.s.s.s.s.s.s.s.s.s.s.s.s.s.s.s.s.s.s.s.s.s.s.s.s.s.s.s.s.s.s.s.s.s.s.s.s.s.s.s.s.s.s.s.s.s.s.s.s.s.s.s.s.s.s.s.s.s.s.s.s.s.s.s.s.s.s.s.s.s.s.s.s.s.s.s.s.s.s.s.s.s.s.s.s.s.s.s.s.s.s.s.s.s.s.s.s.s.s.s.s.h J R | [ { { X.$.$.$.2.5.7.u.8.7.5.8.7.7.7.7.u.u.7.u.8.u.7.8.u.8.u.u.7.5.$.$.u.b.S.K.[.[.{.{.}.}.}..X.XoXoXOX+XoX.X.X.X}..XoXoXoXoX+XoX.X|..X.XoX}. X|.}.{.}.{.{.[.[.{.{.{.}.!.E.E.!.!.!.E.E.L.L.K.E.E.^.E.E.E.E.E.E.E.E.E.E.E.E.E.T.H.H.J.M.H.E.E.E.L.H.J.T.L.H.W.W.!.E.!.!.E.W.W.W.W.L.T.U.W.W.W.W.J.J.U.J.S.C.C.l.l.h.l.h.h.h.h.f.g.h.f.f.f.g.g.g.y.d.g.y.g.y.y.y.y.y.y.y.y.y.y.y.y.y.y.r.y.y.y.g.y.d.f.y.d.y.y.y.y.y.f.f.y.d.y.g.f.y.y.u.u.y.y.y.7.5.5.5.7.y.y.y.y.u.f.u.u.y.y.y.u.y.f.h.l.l.M.l.h.h.h.f.f.y.y.7.7.;.=...| ` R E T P F S Z M z y 8 s.s.s.s.s.s.s.s.s.s.s.s.s.s.s.s.s.s.s.s.s.s.s.s.s.s.s.s.s.s.s.s.s.s.s.s.s.s.s.s.s.s.s.s.s.s.s.s.s.s.s.s.s.s.s.s.s.s.s.s.s.s.s.s.s.s.s.s.s.s.s.s.s.s.s.s.s.s.s.s.s.s.s.s.s.s.s.s.s.s.s.s.s.s.s.s.s.s.s.s.s.s.s.s.s.s.s.",
"s.s.s.s.s.s.s.s.s.s.s.s.s.s.s.s.s.s.s.s.s.s.s.s.s.s.s.s.s.s.s.s.s.s.s.s.s.s.s.s.s.s.s.s.s.s.s.s.s.s.s.s.s.s.s.s.s.s.s.s.s.s.s.s.s.s.s.s.s.s.s.s.s.s.s.s.s.s.s.s.s.s.s.s.s.s.s.s.s.s.s.s.s.s.s.s.s.s.s.s.s.s.s.s.s.s.s.s.s.s.s.s.s.s.s.s.s.s.s.s.s.s.s.s.s.s.s.s.s.s.s.s.s.s.s.s.s.s.s.s.s.s.s.s.s.s.s.s.s.s.s.s.s.s.s.s.s.s.s.s.s.s.s.s.s.s.s.s.s.s.s.s.s.s.s.s.s.s.s.s.s.s.s.s.s.s.s.s.s.s.s.s.s.s.s.s.s.s.s.s.s.s.s.s.s.s.s.s.s.s.s.s.s.s.s.s.s.s.s.s.s.s.s.s.s.s.J R ( [ { | X.$.=.2.2.5.5.7.7.8.7.7.7.7.7.7.u.8.7.u.7.7.8.u.u.8.8.6.5.$...h.b.S.E.[.!.{.{.{.}.|.|..X.XoX.X X X X X X XoXoXoXoXoXoXoX X X X X X.X X}. X}.}.}.}.{.!.[.{.{.!.E.!.[.!.E.!.!.E.K.E.E.E.E.E.E.E.E.E.E.E.T.E.L.H.L.L.L.T.L.J.L.L.S.S.L.H.L.T.L.H.E.W.H.H.W.W.W.!.E.W.W.E.L.W.T.J.W.W.U.W.U.U.U.U.J.S.S.l.C.l.h.h.h.h.h.g.h.h.h.f.f.g.g.g.y.y.y.g.d.y.y.y.y.d.y.y.y.y.y.r.y.y.y.y.y.y.y.y.f.d.y.y.y.d.y.y.y.y.y.y.y.f.f.y.y.f.g.y.u.y.y.y.y.y.y.y.7.y.7.7.y.y.y.y.y.y.u.f.u.f.u.f.h.h.h.h.h.h.h.f.u.f.y.y.7.:.*.$...| ( R T T F D S V z a s.s.s.s.s.s.s.s.s.s.s.s.s.s.s.s.s.s.s.s.s.s.s.s.s.s.s.s.s.s.s.s.s.s.s.s.s.s.s.s.s.s.s.s.s.s.s.s.s.s.s.s.s.s.s.s.s.s.s.s.s.s.s.s.s.s.s.s.s.s.s.s.s.s.s.s.s.s.s.s.s.s.s.s.s.s.s.s.s.s.s.s.s.s.s.s.s.s.s.s.s.s.s.s.s.s.s.s.s.",
"s.s.s.s.s.s.s.s.s.s.s.s.s.s.s.s.s.s.s.s.s.s.s.s.s.s.s.s.s.s.s.s.s.s.s.s.s.s.s.s.s.s.s.s.s.s.s.s.s.s.s.s.s.s.s.s.s.s.s.s.s.s.s.s.s.s.s.s.s.s.s.s.s.s.s.s.s.s.s.s.s.s.s.s.s.s.s.s.s.s.s.s.s.s.s.s.s.s.s.s.s.s.s.s.s.s.s.s.s.s.s.s.s.s.s.s.s.s.s.s.s.s.s.s.s.s.s.s.s.s.s.s.s.s.s.s.s.s.s.s.s.s.s.s.s.s.s.s.s.s.s.s.s.s.s.s.s.s.s.s.s.s.s.s.s.s.s.s.s.s.s.s.s.s.s.s.s.s.s.s.s.s.s.s.s.s.s.s.s.s.s.s.s.s.s.s.s.s.s.s.s.s.s.s.s.s.s.s.s.s.s.s.s.s.s.s.s.s.s.s.s.s.s.s.s.s.J R _ [ [ [ X.$.$.2.5.5.7.8.8.8.8.5.7.7.7.7.7.7.7.7.7.7.7.8.u.7.f.5.$. .f.h.M.H.E.!.!.{.}.}.}.}.}.}.{.}.}.}.}.}.|.|. X X X.XoX.X X}.|.}.}.}.}.{.}.}.}.}.}.{.{.{.}.{.{.[.{.[.[.[.[.[.^.!.E.E.E.E.E.L.E.E.!.L.L.E.L.L.E.E.T.L.T.L.H.S.H.L.L.T.S.M.M.S.H.H.J.L.T.W.J.S.J.L.T.T.W.E.E.W.W.T.J.U.W.W.W.W.U.J.T.J.S.l.C.l.l.l.h.M.h.h.h.h.h.g.d.g.h.h.g.g.d.y.d.d.y.y.y.y.y.y.y.y.y.y.y.y.y.y.y.y.y.y.y.y.f.f.d.y.y.y.y.y.y.y.y.y.f.y.f.g.g.f.f.f.u.y.u.y.y.7.7.5.7.y.y.y.y.y.y.y.u.u.y.y.y.y.h.h.h.h.h.v.b.h.f.f.d.y.y.7.;.;.$.X.| ( R T U U F Z V k y s.s.s.s.s.s.s.s.s.s.s.s.s.s.s.s.s.s.s.s.s.s.s.s.s.s.s.s.s.s.s.s.s.s.s.s.s.s.s.s.s.s.s.s.s.s.s.s.s.s.s.s.s.s.s.s.s.s.s.s.s.s.s.s.s.s.s.s.s.s.s.s.s.s.s.s.s.s.s.s.s.s.s.s.s.s.s.s.s.s.s.s.s.s.s.s.s.s.s.s.s.s.s.s.s.s.s.s.s.",
"s.s.s.s.s.s.s.s.s.s.s.s.s.s.s.s.s.s.s.s.s.s.s.s.s.s.s.s.s.s.s.s.s.s.s.s.s.s.s.s.s.s.s.s.s.s.s.s.s.s.s.s.s.s.s.s.s.s.s.s.s.s.s.s.s.s.s.s.s.s.s.s.s.s.s.s.s.s.s.s.s.s.s.s.s.s.s.s.s.s.s.s.s.s.s.s.s.s.s.s.s.s.s.s.s.s.s.s.s.s.s.s.s.s.s.s.s.s.s.s.s.s.s.s.s.s.s.s.s.s.s.s.s.s.s.s.s.s.s.s.s.s.s.s.s.s.s.s.s.s.s.s.s.s.s.s.s.s.s.s.s.s.s.s.s.s.s.s.s.s.s.s.s.s.s.s.s.s.s.s.s.s.s.s.s.s.s.s.s.s.s.s.s.s.s.s.s.s.s.s.s.s.s.s.s.s.s.s.s.s.s.s.s.s.s.s.s.s.s.s.s.s.s.s.s.s.K Y ! [ [ | X.$.$.2.2.5.5.5.5.5.6.5.5.7.7.7.7.7.7.7.7.7.5.5.y.8.5.$.X.u.f.f.M.K.!.!.!.{.{.^.^.^.^.{.}.}.}.|.XXXXXXXXXXXXXX|.XXXXoX X|.|.}.}.}.^.}.}.}.}.}.{.}.}.}.{.{.{.}.{.[.{.!.!.!.E.E.E.E.E.^.E.E.L.E.E.T.L.E.T.L.J.H.H.K.E.K.S.M.J.S.L.H.H.M.H.H.H.L.H.J.J.W.L.L.L.T.W.T.E.J.W.W.J.U.J.T.U.J.J.U.U.J.J.J.C.M.M.l.h.h.l.h.g.g.g.f.f.g.f.g.g.d.g.y.y.g.g.g.g.y.y.y.y.y.y.y.y.y.y.y.y.y.y.y.y.y.y.f.f.u.y.y.y.y.y.y.y.y.f.y.y.f.y.y.y.f.f.f.u.y.y.y.y.y.7.7.7.7.7.7.y.y.y.f.f.y.h.u.y.f.f.h.h.h.h.h.h.f.f.f.y.y.7.5.=.$.X.| ( R T G P D Z z d 0 s.s.s.s.s.s.s.s.s.s.s.s.s.s.s.s.s.s.s.s.s.s.s.s.s.s.s.s.s.s.s.s.s.s.s.s.s.s.s.s.s.s.s.s.s.s.s.s.s.s.s.s.s.s.s.s.s.s.s.s.s.s.s.s.s.s.s.s.s.s.s.s.s.s.s.s.s.s.s.s.s.s.s.s.s.s.s.s.s.s.s.s.s.s.s.s.s.s.s.s.s.s.s.s.s.s.s.s.s.",
"s.s.s.s.s.s.s.s.s.s.s.s.s.s.s.s.s.s.s.s.s.s.s.s.s.s.s.s.s.s.s.s.s.s.s.s.s.s.s.s.s.s.s.s.s.s.s.s.s.s.s.s.s.s.s.s.s.s.s.s.s.s.s.s.s.s.s.s.s.s.s.s.s.s.s.s.s.s.s.s.s.s.s.s.s.s.s.s.s.s.s.s.s.s.s.s.s.s.s.s.s.s.s.s.s.s.s.s.s.s.s.s.s.s.s.s.s.s.s.s.s.s.s.s.s.s.s.s.s.s.s.s.s.s.s.s.s.s.s.s.s.s.s.s.s.s.s.s.s.s.s.s.s.s.s.s.s.s.s.s.s.s.s.s.s.s.s.s.s.s.s.s.s.s.s.s.s.s.s.s.s.s.s.s.s.s.s.s.s.s.s.s.s.s.s.s.s.s.s.s.s.s.s.s.s.s.s.s.s.s.s.s.s.s.s.s.s.s.s.s.s.s.s.s.s.s.C Y ( _ { | X.$.2.2.$.5.6.6.7.6.5.6.2.6.7.5.5.2.5.7.5.7.5.5.5.5.$...8.u.f.M.K.E.[.[.[.}.}.{.{.{.[.{.{.(.^.}.}.}.}.}. X|.}.}.|. XXX}.(.}.}.}.}.}.^.(.}. X}.{.}.{.[.{.}.}.[.^.!.{.{.[.^.^.E.E.E.E.^.^.!.T.E.L.L.T.L.L.T.L.S.S.S.L.K.E.v.L.T.H.S.H.H.H.H.H.l.S.J.L.T.W.J.H.E.W.J.T.J.T.W.W.J.A.A.U.J.J.J.J.J.J.S.C.l.l.l.h.h.l.h.h.f.g.g.g.y.g.g.f.g.g.g.d.d.d.y.y.y.y.y.y.d.y.y.y.y.y.y.y.y.y.y.y.y.g.f.d.d.y.y.y.y.y.d.y.y.y.y.y.d.y.y.y.u.f.u.u.y.y.y.y.y.y.y.7.y.y.y.y.7.y.y.y.y.f.y.u.u.u.u.u.f.h.h.h.f.f.f.y.7.;.5.=.$.X.| ( R U U F D Z z y s.s.s.s.s.s.s.s.s.s.s.s.s.s.s.s.s.s.s.s.s.s.s.s.s.s.s.s.s.s.s.s.s.s.s.s.s.s.s.s.s.s.s.s.s.s.s.s.s.s.s.s.s.s.s.s.s.s.s.s.s.s.s.s.s.s.s.s.s.s.s.s.s.s.s.s.s.s.s.s.s.s.s.s.s.s.s.s.s.s.s.s.s.s.s.s.s.s.s.s.s.s.s.s.s.s.s.s.s.s.",
"s.s.s.s.s.s.s.s.s.s.s.s.s.s.s.s.s.s.s.s.s.s.s.s.s.s.s.s.s.s.s.s.s.s.s.s.s.s.s.s.s.s.s.s.s.s.s.s.s.s.s.s.s.s.s.s.s.s.s.s.s.s.s.s.s.s.s.s.s.s.s.s.s.s.s.s.s.s.s.s.s.s.s.s.s.s.s.s.s.s.s.s.s.s.s.s.s.s.s.s.s.s.s.s.s.s.s.s.s.s.s.s.s.s.s.s.s.s.s.s.s.s.s.s.s.s.s.s.s.s.s.s.s.s.s.s.s.s.s.s.s.s.s.s.s.s.s.s.s.s.s.s.s.s.s.s.s.s.s.s.s.s.s.s.s.s.s.s.s.s.s.s.s.s.s.s.s.s.s.s.s.s.s.s.s.s.s.s.s.s.s.s.s.s.s.s.s.s.s.s.s.s.s.s.s.s.s.s.s.s.s.s.s.s.s.s.s.s.s.s.s.s.s.s.s.s.C U ( _ [ { X.2.=.2.5.5.5.5.5.7.5.5.7.5.5.5.5.2.2.5.5.5.5.5.2.=.| 5.f.f.b.M.K.[.{.{.!.[.{.^.^.!.^.^.!.^.!.}.}.(.}.}.}.}.}.}.}.}.}.}.}.}.}.^.^.^.}.^.}.{.{.{.{.{.{.{.{.{.^.^.^.{.^.{.[.E.^.^.E.E.E.E.E.^.W.E.T.L.E.L.E.L.L.J.H.K.K.H.H.L.S.H.H.L.H.S.S.J.M.C.C.L.J.M.S.J.T.T.J.J.J.J.J.L.E.W.J.J.J.L.J.L.T.J.J.J.l.l.C.l.h.g.f.g.f.g.g.f.g.g.g.h.g.f.g.g.f.f.g.g.g.g.y.y.y.y.y.y.y.y.y.d.r.y.y.y.y.y.y.f.y.y.y.y.f.f.y.f.y.y.y.y.y.y.g.u.y.f.y.y.y.y.y.y.7.y.7.y.y.y.y.f.f.u.u.u.u.y.y.h.f.h.h.h.f.f.h.h.f.f.f.y.y.5.=.$.$.X.| ( R U U P D Z z 9 s.s.s.s.s.s.s.s.s.s.s.s.s.s.s.s.s.s.s.s.s.s.s.s.s.s.s.s.s.s.s.s.s.s.s.s.s.s.s.s.s.s.s.s.s.s.s.s.s.s.s.s.s.s.s.s.s.s.s.s.s.s.s.s.s.s.s.s.s.s.s.s.s.s.s.s.s.s.s.s.s.s.s.s.s.s.s.s.s.s.s.s.s.s.s.s.s.s.s.s.s.s.s.s.s.s.s.s.s.s.",
"s.s.s.s.s.s.s.s.s.s.s.s.s.s.s.s.s.s.s.s.s.s.s.s.s.s.s.s.s.s.s.s.s.s.s.s.s.s.s.s.s.s.s.s.s.s.s.s.s.s.s.s.s.s.s.s.s.s.s.s.s.s.s.s.s.s.s.s.s.s.s.s.s.s.s.s.s.s.s.s.s.s.s.s.s.s.s.s.s.s.s.s.s.s.s.s.s.s.s.s.s.s.s.s.s.s.s.s.s.s.s.s.s.s.s.s.s.s.s.s.s.s.s.s.s.s.s.s.s.s.s.s.s.s.s.s.s.s.s.s.s.s.s.s.s.s.s.s.s.s.s.s.s.s.s.s.s.s.s.s.s.s.s.s.s.s.s.s.s.s.s.s.s.s.s.s.s.s.s.s.s.s.s.s.s.s.s.s.s.s.s.s.s.s.s.s.s.s.s.s.s.s.s.s.s.s.s.s.s.s.s.s.s.s.s.s.s.s.s.s.s.s.s.s.s.s.C U W _ [ {  .X.1.=.2.5.5.5.5.5.2.2.5.7.5.5.5.2.2.2.5.2.5.5.=.` =.u.f.b.b.K.E.[.[.!.!.!.!.!.T.E.!.!.W.E.!.^.^.}.}.}.}.}.}.{.}.{.}.^.{.}.}.^.^.^.^.}.}.^.^.!.!.^.{.^.^.^.{.{.^.^.E.!.!.!.!.!.E.E.E.!.E.E.T.E.L.L.E.T.K.L.E.L.L.L.L.J.L.E.M.M.M.v.S.M.M.M.S.M.M.H.H.H.J.J.L.L.J.J.L.J.S.T.L.H.T.E.H.T.H.J.J.S.M.M.C.l.l.h.h.h.h.g.g.g.g.g.g.g.g.g.g.f.f.g.f.g.f.g.g.g.g.y.g.y.g.y.d.y.y.y.y.y.y.y.y.y.y.y.y.y.y.f.y.y.y.f.f.d.d.y.f.y.y.f.y.f.y.y.d.y.y.y.y.y.5.7.y.y.y.y.y.y.u.y.y.f.f.y.f.f.f.f.f.f.f.f.f.f.f.y.7.5.;.$.$...| ( E T P F S B j 6 s.s.s.s.s.s.s.s.s.s.s.s.s.s.s.s.s.s.s.s.s.s.s.s.s.s.s.s.s.s.s.s.s.s.s.s.s.s.s.s.s.s.s.s.s.s.s.s.s.s.s.s.s.s.s.s.s.s.s.s.s.s.s.s.s.s.s.s.s.s.s.s.s.s.s.s.s.s.s.s.s.s.s.s.s.s.s.s.s.s.s.s.s.s.s.s.s.s.s.s.s.s.s.s.s.s.s.s.s.s.",
"s.s.s.s.s.s.s.s.s.s.s.s.s.s.s.s.s.s.s.s.s.s.s.s.s.s.s.s.s.s.s.s.s.s.s.s.s.s.s.s.s.s.s.s.s.s.s.s.s.s.s.s.s.s.s.s.s.s.s.s.s.s.s.s.s.s.s.s.s.s.s.s.s.s.s.s.s.s.s.s.s.s.s.s.s.s.s.s.s.s.s.s.s.s.s.s.s.s.s.s.s.s.s.s.s.s.s.s.s.s.s.s.s.s.s.s.s.s.s.s.s.s.s.s.s.s.s.s.s.s.s.s.s.s.s.s.s.s.s.s.s.s.s.s.s.s.s.s.s.s.s.s.s.s.s.s.s.s.s.s.s.s.s.s.s.s.s.s.s.s.s.s.s.s.s.s.s.s.s.s.s.s.s.s.s.s.s.s.s.s.s.s.s.s.s.s.s.s.s.s.s.s.s.s.s.s.s.s.s.s.s.s.s.s.s.s.s.s.s.s.s.s.s.s.s.s.V U Q W [ { { X.2.5.5.5.2.2.5.5.5.5.5.2.5.2.2.2.2.2.2.2.#.=...X.7.u.h.v.M.K.E.E.E.E.E.E.E.E.T.E.E.T.J.T.W.T.T.!.^.^.!.{.^.^.^.!.!.!.^.^.^.^.!.!.{.!.^.}.^.!.^.{.^.^.!.!.^.!.!.!.!.!.!.!.E.E.E.E.E.E.E.E.E.E.E.E.E.E.T.L.L.L.L.L.E.L.L.S.S.S.M.v.S.S.S.S.M.S.l.M.J.H.H.S.L.J.J.S.S.J.S.T.H.S.J.H.T.E.H.H.S.M.M.h.l.l.h.h.h.h.h.g.g.g.g.g.g.g.g.g.g.y.g.g.g.g.f.g.f.g.g.y.y.y.g.f.g.y.y.y.y.y.y.y.g.y.y.y.y.d.f.f.d.d.y.d.f.y.f.y.f.f.f.f.y.d.y.d.f.y.7.7.y.y.5.5.7.y.y.y.y.y.y.y.7.y.u.y.f.y.y.f.h.h.f.f.f.f.y.7.5.5.;.$.$...| ( E T P F D Z d 5 s.s.s.s.s.s.s.s.s.s.s.s.s.s.s.s.s.s.s.s.s.s.s.s.s.s.s.s.s.s.s.s.s.s.s.s.s.s.s.s.s.s.s.s.s.s.s.s.s.s.s.s.s.s.s.s.s.s.s.s.s.s.s.s.s.s.s.s.s.s.s.s.s.s.s.s.s.s.s.s.s.s.s.s.s.s.s.s.s.s.s.s.s.s.s.s.s.s.s.s.s.s.s.s.s.s.s.s.s.s.",
"s.s.s.s.s.s.s.s.s.s.s.s.s.s.s.s.s.s.s.s.s.s.s.s.s.s.s.s.s.s.s.s.s.s.s.s.s.s.s.s.s.s.s.s.s.s.s.s.s.s.s.s.s.s.s.s.s.s.s.s.s.s.s.s.s.s.s.s.s.s.s.s.s.s.s.s.s.s.s.s.s.s.s.s.s.s.s.s.s.s.s.s.s.s.s.s.s.s.s.s.s.s.s.s.s.s.s.s.s.s.s.s.s.s.s.s.s.s.s.s.s.s.s.s.s.s.s.s.s.s.s.s.s.s.s.s.s.s.s.s.s.s.s.s.s.s.s.s.s.s.s.s.s.s.s.s.s.s.s.s.s.s.s.s.s.s.s.s.s.s.s.s.s.s.s.s.s.s.s.s.s.s.s.s.s.s.s.s.s.s.s.s.s.s.s.s.s.s.s.s.s.s.s.s.s.s.s.s.s.s.s.s.s.s.s.s.s.s.s.s.s.s.s.s.s.s.s.U T ( | { { X.1.1.2.5.2.2.2.2.2.5.7.5.5.=.=.=.=.=.2.$.2.$.( 5.8.u.f.v.M.S.H.K.K.E.E.E.E.T.L.E.E.E.!.!.!.!.!.!.^.^.!.^.!.!.^.!.!.{.{.^.^.^.!.!.{.{.^.!.!.^.^.!.!.!.!.!.!.E.!.!.!.E.E.T.E.E.!.^.^.^.!.E.E.L.L.E.L.E.E.L.T.L.E.E.H.J.W.L.M.M.S.S.H.S.S.S.M.H.S.S.l.M.J.S.l.M.S.J.l.J.S.M.H.H.S.J.H.T.J.J.J.C.S.l.S.C.C.l.f.h.h.h.g.g.g.d.f.g.g.g.g.g.g.g.g.g.f.g.g.g.d.y.g.f.g.g.d.y.y.y.y.y.y.y.y.y.y.y.g.f.f.d.y.f.y.y.d.d.y.f.f.f.f.f.d.d.f.d.y.y.7.y.7.5.7.y.5.7.7.7.y.7.y.y.f.y.y.u.u.u.f.h.f.u.u.u.u.f.y.7.5.=.=.$.$...| ` R T P F D V 0 s.s.s.s.s.s.s.s.s.s.s.s.s.s.s.s.s.s.s.s.s.s.s.s.s.s.s.s.s.s.s.s.s.s.s.s.s.s.s.s.s.s.s.s.s.s.s.s.s.s.s.s.s.s.s.s.s.s.s.s.s.s.s.s.s.s.s.s.s.s.s.s.s.s.s.s.s.s.s.s.s.s.s.s.s.s.s.s.s.s.s.s.s.s.s.s.s.s.s.s.s.s.s.s.s.s.s.s.s.s.s.",
"s.s.s.s.s.s.s.s.s.s.s.s.s.s.s.s.s.s.s.s.s.s.s.s.s.s.s.s.s.s.s.s.s.s.s.s.s.s.s.s.s.s.s.s.s.s.s.s.s.s.s.s.s.s.s.s.s.s.s.s.s.s.s.s.s.s.s.s.s.s.s.s.s.s.s.s.s.s.s.s.s.s.s.s.s.s.s.s.s.s.s.s.s.s.s.s.s.s.s.s.s.s.s.s.s.s.s.s.s.s.s.s.s.s.s.s.s.s.s.s.s.s.s.s.s.s.s.s.s.s.s.s.s.s.s.s.s.s.s.s.s.s.s.s.s.s.s.s.s.s.s.s.s.s.s.s.s.s.s.s.s.s.s.s.s.s.s.s.s.s.s.s.s.s.s.s.s.s.s.s.s.s.s.s.s.s.s.s.s.s.s.s.s.s.s.s.s.s.s.s.s.s.s.s.s.s.s.s.s.s.s.s.s.s.s.s.s.s.s.s.s.s.s.s.s.s.s.I U W { { { $.2.2.5.2.=.2.2.2.5.5.2.5.2.=.$.$.$.$.$.$.$._ 5.8.8.u.b.b.M.S.K.K.K.K.E.K.K.K.H.L.T.W.W.T.E.E.!.!.!.!.!.^.^.!.!.!.!.!.!.!.^.!.!.!.^.!.!.^.!.E.!.!.!.E.E.E.E.E.E.!.!.!.!.E.E.E.E.E.!.^.^.E.E.E.E.L.K.K.K.!.E.L.L.H.L.L.L.L.S.S.S.S.S.v.M.S.M.M.S.S.S.M.l.l.M.M.M.l.J.C.l.C.M.J.S.J.S.H.J.J.C.l.C.C.l.l.h.f.h.f.h.h.g.g.g.g.g.d.g.g.d.g.y.d.f.g.g.g.g.g.g.d.g.d.g.g.g.y.y.y.y.d.y.y.y.y.y.y.d.f.f.y.y.f.f.d.y.f.y.f.d.y.f.f.f.f.f.d.y.y.y.y.y.7.y.y.7.7.y.y.y.y.y.f.u.y.y.h.h.h.f.f.y.y.u.u.f.f.u.y.5.;.$.#.#...| ` E U P F A M 7 s.s.s.s.s.s.s.s.s.s.s.s.s.s.s.s.s.s.s.s.s.s.s.s.s.s.s.s.s.s.s.s.s.s.s.s.s.s.s.s.s.s.s.s.s.s.s.s.s.s.s.s.s.s.s.s.s.s.s.s.s.s.s.s.s.s.s.s.s.s.s.s.s.s.s.s.s.s.s.s.s.s.s.s.s.s.s.s.s.s.s.s.s.s.s.s.s.s.s.s.s.s.s.s.s.s.s.s.s.s.s.",
"s.s.s.s.s.s.s.s.s.s.s.s.s.s.s.s.s.s.s.s.s.s.s.s.s.s.s.s.s.s.s.s.s.s.s.s.s.s.s.s.s.s.s.s.s.s.s.s.s.s.s.s.s.s.s.s.s.s.s.s.s.s.s.s.s.s.s.s.s.s.s.s.s.s.s.s.s.s.s.s.s.s.s.s.s.s.s.s.s.s.s.s.s.s.s.s.s.s.s.s.s.s.s.s.s.s.s.s.s.s.s.s.s.s.s.s.s.s.s.s.s.s.s.s.s.s.s.s.s.s.s.s.s.s.s.s.s.s.s.s.s.s.s.s.s.s.s.s.s.s.s.s.s.s.s.s.s.s.s.s.s.s.s.s.s.s.s.s.s.s.s.s.s.s.s.s.s.s.s.s.s.s.s.s.s.s.s.s.s.s.s.s.s.s.s.s.s.s.s.s.s.s.s.s.s.s.s.s.s.s.s.s.s.s.s.s.s.s.s.s.s.s.s.s.s.s.s.J Y W [ | { X.$.2.=.=.2.$.2.5.5.2.=.=.=.=.$.$.$.$.X...[ X.5.6.8.f.b.b.b.M.K.H.M.K.H.H.H.K.L.H.L.L.L.T.E.T.T.E.E.!.!.!.!.E.!.^.!.!.!.!.^.^.^.^.!.!.E.E.!.E.E.!.E.T.H.T.L.T.E.T.E.E.E.E.K.K.E.E.E.E.E.E.E.E.E.E.E.L.T.E.T.L.H.J.H.J.L.L.M.v.l.l.S.M.S.H.H.S.M.S.J.S.M.M.l.M.l.l.M.C.l.l.M.l.l.h.M.l.M.J.l.S.l.V.l.l.l.f.h.g.f.f.f.g.g.d.y.d.g.g.f.g.g.g.h.g.g.g.g.g.g.g.g.d.g.h.g.y.y.y.y.y.y.y.y.y.y.y.y.f.f.y.y.y.d.y.d.f.d.y.f.y.f.d.f.f.y.y.y.y.y.7.y.7.7.;.5.y.7.;.5.y.y.y.f.f.f.u.u.u.y.u.y.u.y.u.f.y.y.y.5.5.$.#.#...| ` R T P F D V y s.s.s.s.s.s.s.s.s.s.s.s.s.s.s.s.s.s.s.s.s.s.s.s.s.s.s.s.s.s.s.s.s.s.s.s.s.s.s.s.s.s.s.s.s.s.s.s.s.s.s.s.s.s.s.s.s.s.s.s.s.s.s.s.s.s.s.s.s.s.s.s.s.s.s.s.s.s.s.s.s.s.s.s.s.s.s.s.s.s.s.s.s.s.s.s.s.s.s.s.s.s.s.s.s.s.s.s.s.s.s.",
"s.s.s.s.s.s.s.s.s.s.s.s.s.s.s.s.s.s.s.s.s.s.s.s.s.s.s.s.s.s.s.s.s.s.s.s.s.s.s.s.s.s.s.s.s.s.s.s.s.s.s.s.s.s.s.s.s.s.s.s.s.s.s.s.s.s.s.s.s.s.s.s.s.s.s.s.s.s.s.s.s.s.s.s.s.s.s.s.s.s.s.s.s.s.s.s.s.s.s.s.s.s.s.s.s.s.s.s.s.s.s.s.s.s.s.s.s.s.s.s.s.s.s.s.s.s.s.s.s.s.s.s.s.s.s.s.s.s.s.s.s.s.s.s.s.s.s.s.s.s.s.s.s.s.s.s.s.s.s.s.s.s.s.s.s.s.s.s.s.s.s.s.s.s.s.s.s.s.s.s.s.s.s.s.s.s.s.s.s.s.s.s.s.s.s.s.s.s.s.s.s.s.s.s.s.s.s.s.s.s.s.s.s.s.s.s.s.s.s.s.s.s.s.s.s.s.s.J Y [ [ { { $.2.2.=.2.=.$.=.2.2.5.5.2.$.$.$.$.$.X...X.E 5.5.7.u.f.b.h.h.M.M.M.M.M.M.M.M.M.M.S.H.H.S.L.T.T.E.E.T.E.E.E.E.!.!.E.E.E.E.E.!.!.!.!.!.E.E.T.T.L.T.T.K.L.H.H.H.H.H.E.E.E.E.E.E.E.E.!.E.E.E.E.E.K.E.E.E.E.E.E.L.L.L.L.S.S.L.S.S.M.M.v.S.S.M.v.H.S.S.S.S.S.S.M.S.C.l.V.h.C.C.h.l.l.l.l.l.l.l.l.l.S.l.l.l.l.h.h.h.h.h.f.g.g.g.d.d.g.g.g.g.g.d.g.g.f.g.g.f.f.f.h.g.d.f.h.g.y.d.y.d.y.y.y.y.y.y.y.d.y.f.y.f.y.y.d.y.d.f.d.d.d.f.f.f.f.d.y.y.y.d.y.d.y.y.7.7.5.:.5.7.y.y.y.y.y.y.f.f.u.y.f.f.f.u.f.f.y.y.7.5.5.$.#.#...| ` R T J F D M 9 s.s.s.s.s.s.s.s.s.s.s.s.s.s.s.s.s.s.s.s.s.s.s.s.s.s.s.s.s.s.s.s.s.s.s.s.s.s.s.s.s.s.s.s.s.s.s.s.s.s.s.s.s.s.s.s.s.s.s.s.s.s.s.s.s.s.s.s.s.s.s.s.s.s.s.s.s.s.s.s.s.s.s.s.s.s.s.s.s.s.s.s.s.s.s.s.s.s.s.s.s.s.s.s.s.s.s.s.s.s.s.",
"s.s.s.s.s.s.s.s.s.s.s.s.s.s.s.s.s.s.s.s.s.s.s.s.s.s.s.s.s.s.s.s.s.s.s.s.s.s.s.s.s.s.s.s.s.s.s.s.s.s.s.s.s.s.s.s.s.s.s.s.s.s.s.s.s.s.s.s.s.s.s.s.s.s.s.s.s.s.s.s.s.s.s.s.s.s.s.s.s.s.s.s.s.s.s.s.s.s.s.s.s.s.s.s.s.s.s.s.s.s.s.s.s.s.s.s.s.s.s.s.s.s.s.s.s.s.s.s.s.s.s.s.s.s.s.s.s.s.s.s.s.s.s.s.s.s.s.s.s.s.s.s.s.s.s.s.s.s.s.s.s.s.s.s.s.s.s.s.s.s.s.s.s.s.s.s.s.s.s.s.s.s.s.s.s.s.s.s.s.s.s.s.s.s.s.s.s.s.s.s.s.s.s.s.s.s.s.s.s.s.s.s.s.s.s.s.s.s.s.s.s.s.s.s.s.s.s.J U W [ {  .X.1.$.$.=.$.=.2.2.5.2.=.$.$.X.X.$.X. .| [ | 2.5.7.u.f.b.b.b.M.M.M.M.M.M.b.M.v.v.S.S.S.J.L.E.T.T.E.!.!.E.E.!.!.!.E.E.T.T.T.T.T.!.!.E.E.T.H.H.L.L.L.E.T.H.T.L.J.L.T.T.E.E.E.E.E.E.E.E.E.E.!.!.E.E.E.E.E.E.E.E.E.L.L.S.S.H.J.M.M.M.M.M.S.v.v.M.v.M.S.M.S.S.l.l.l.h.l.h.l.v.h.f.l.l.l.f.l.l.f.l.l.l.l.h.l.l.f.h.l.h.h.f.g.f.f.g.g.g.g.g.y.d.g.g.g.f.g.g.g.g.g.g.f.g.g.d.d.d.d.y.y.y.y.y.y.y.y.y.y.y.y.d.d.d.d.f.d.y.y.y.d.f.f.f.f.f.y.f.y.y.7.y.y.:.5.5.5.y.y.y.y.7.7.y.y.y.y.y.y.y.u.f.f.y.u.y.y.y.7.5.5.$.#.#...| ` R T F F D v 8 s.s.s.s.s.s.s.s.s.s.s.s.s.s.s.s.s.s.s.s.s.s.s.s.s.s.s.s.s.s.s.s.s.s.s.s.s.s.s.s.s.s.s.s.s.s.s.s.s.s.s.s.s.s.s.s.s.s.s.s.s.s.s.s.s.s.s.s.s.s.s.s.s.s.s.s.s.s.s.s.s.s.s.s.s.s.s.s.s.s.s.s.s.s.s.s.s.s.s.s.s.s.s.s.s.s.s.s.s.s.s.",
"s.s.s.s.s.s.s.s.s.s.s.s.s.s.s.s.s.s.s.s.s.s.s.s.s.s.s.s.s.s.s.s.s.s.s.s.s.s.s.s.s.s.s.s.s.s.s.s.s.s.s.s.s.s.s.s.s.s.s.s.s.s.s.s.s.s.s.s.s.s.s.s.s.s.s.s.s.s.s.s.s.s.s.s.s.s.s.s.s.s.s.s.s.s.s.s.s.s.s.s.s.s.s.s.s.s.s.s.s.s.s.s.s.s.s.s.s.s.s.s.s.s.s.s.s.s.s.s.s.s.s.s.s.s.s.s.s.s.s.s.s.s.s.s.s.s.s.s.s.s.s.s.s.s.s.s.s.s.s.s.s.s.s.s.s.s.s.s.s.s.s.s.s.s.s.s.s.s.s.s.s.s.s.s.s.s.s.s.s.s.s.s.s.s.s.s.s.s.s.s.s.s.s.s.s.s.s.s.s.s.s.s.s.s.s.s.s.s.s.s.s.s.s.s.s.s.s.C U W _ [ [  .$.1.$.$.=.2.2.2.2.2.=.$.$.#.X.X.X.{ { ( 5.5.5.7.u.u.x.b.b.b.h.h.b.M.M.v.M.M.S.J.S.H.T.E.T.T.E.E.T.E.E.!.!.E.!.!.E.!.!.!.!.T.!.!.E.E.E.H.E.E.E.H.E.H.H.L.H.H.L.L.L.L.E.E.!.E.E.^.E.!.^.^.!.^.^.!.!.!.E.E.E.E.E.E.K.H.H.H.H.S.S.H.S.S.M.M.M.S.M.M.M.M.S.M.S.l.l.M.l.l.v.h.h.x.h.h.f.h.h.h.f.l.l.l.h.h.h.f.f.l.h.h.h.h.h.h.g.g.d.g.g.g.g.g.d.g.g.g.g.g.g.g.f.g.d.g.u.d.y.y.y.y.y.y.y.y.y.y.y.y.y.y.y.d.y.y.d.y.d.y.y.f.d.d.y.y.d.d.f.y.y.y.7.y.7.y.y.y.y.7.y.y.y.7.y.u.u.u.u.f.y.u.y.u.y.y.y.y.u.7.5.5.$.$.#...| ` R T U F D M s.s.s.s.s.s.s.s.s.s.s.s.s.s.s.s.s.s.s.s.s.s.s.s.s.s.s.s.s.s.s.s.s.s.s.s.s.s.s.s.s.s.s.s.s.s.s.s.s.s.s.s.s.s.s.s.s.s.s.s.s.s.s.s.s.s.s.s.s.s.s.s.s.s.s.s.s.s.s.s.s.s.s.s.s.s.s.s.s.s.s.s.s.s.s.s.s.s.s.s.s.s.s.s.s.s.s.s.s.s.s.s.",
"s.s.s.s.s.s.s.s.s.s.s.s.s.s.s.s.s.s.s.s.s.s.s.s.s.s.s.s.s.s.s.s.s.s.s.s.s.s.s.s.s.s.s.s.s.s.s.s.s.s.s.s.s.s.s.s.s.s.s.s.s.s.s.s.s.s.s.s.s.s.s.s.s.s.s.s.s.s.s.s.s.s.s.s.s.s.s.s.s.s.s.s.s.s.s.s.s.s.s.s.s.s.s.s.s.s.s.s.s.s.s.s.s.s.s.s.s.s.s.s.s.s.s.s.s.s.s.s.s.s.s.s.s.s.s.s.s.s.s.s.s.s.s.s.s.s.s.s.s.s.s.s.s.s.s.s.s.s.s.s.s.s.s.s.s.s.s.s.s.s.s.s.s.s.s.s.s.s.s.s.s.s.s.s.s.s.s.s.s.s.s.s.s.s.s.s.s.s.s.s.s.s.s.s.s.s.s.s.s.s.s.s.s.s.s.s.s.s.s.s.s.s.s.s.s.s.s.s.I Y W [ { $.2.=.$.$.2.2.4.2.2.2.=.=.$.X.$.$.| { _ 2.2.5.5.8.8.f.f.x.b.b.h.h.h.l.h.h.l.l.M.M.H.L.T.E.E.E.E.E.!.!.!.T.T.!.!.!.E.E.E.E.E.E.E.E.K.L.K.K.H.H.H.H.H.H.S.H.L.L.L.K.L.H.H.K.E.E.E.!.E.E.!.!.E.!.!.!.E.E.!.E.E.E.K.K.E.E.L.H.H.H.H.H.S.S.S.S.M.M.l.h.M.M.v.v.M.l.v.v.h.l.h.h.f.f.h.h.f.h.h.h.f.f.f.h.l.h.h.h.f.h.h.h.h.f.g.g.g.g.d.g.g.g.g.g.g.g.g.g.f.f.g.g.f.g.f.g.g.y.y.y.y.y.y.y.y.y.y.y.y.y.y.y.d.y.y.y.y.y.d.y.y.y.y.d.d.d.f.f.d.d.y.y.7.y.y.y.:.5.5.:.7.y.7.7.y.y.y.f.y.f.u.f.y.u.u.y.y.7.u.7.2.;.$.#.#...| ` R T U P D v s.s.s.s.s.s.s.s.s.s.s.s.s.s.s.s.s.s.s.s.s.s.s.s.s.s.s.s.s.s.s.s.s.s.s.s.s.s.s.s.s.s.s.s.s.s.s.s.s.s.s.s.s.s.s.s.s.s.s.s.s.s.s.s.s.s.s.s.s.s.s.s.s.s.s.s.s.s.s.s.s.s.s.s.s.s.s.s.s.s.s.s.s.s.s.s.s.s.s.s.s.s.s.s.s.s.s.s.s.s.s.s.",
"s.s.s.s.s.s.s.s.s.s.s.s.s.s.s.s.s.s.s.s.s.s.s.s.s.s.s.s.s.s.s.s.s.s.s.s.s.s.s.s.s.s.s.s.s.s.s.s.s.s.s.s.s.s.s.s.s.s.s.s.s.s.s.s.s.s.s.s.s.s.s.s.s.s.s.s.s.s.s.s.s.s.s.s.s.s.s.s.s.s.s.s.s.s.s.s.s.s.s.s.s.s.s.s.s.s.s.s.s.s.s.s.s.s.s.s.s.s.s.s.s.s.s.s.s.s.s.s.s.s.s.s.s.s.s.s.s.s.s.s.s.s.s.s.s.s.s.s.s.s.s.s.s.s.s.s.s.s.s.s.s.s.s.s.s.s.s.s.s.s.s.s.s.s.s.s.s.s.s.s.s.s.s.s.s.s.s.s.s.s.s.s.s.s.s.s.s.s.s.s.s.s.s.s.s.s.s.s.s.s.s.s.s.s.s.s.s.s.s.s.s.s.s.s.s.s.s.s.I Q ( _ [ { X.$.=.2.2.2.2.2.2.2.=.$.X.X...X.{ | W 2.2.5.8.8.u.u.f.f.f.f.h.f.h.h.f.f.l.M.J.J.J.J.J.L.K.E.E.E.!.!.E.!.^.!.!.!.E.L.T.E.K.E.E.E.E.L.K.K.L.H.S.S.S.S.H.S.S.H.H.E.K.L.K.E.E.E.E.E.E.E.E.E.E.E.!.^.!.E.E.E.E.E.E.K.E.E.E.L.L.L.H.H.H.S.S.S.S.S.M.M.h.v.v.M.l.h.v.v.h.v.l.u.h.u.h.h.f.h.h.h.f.y.h.g.h.f.f.l.f.h.h.h.h.g.g.g.f.g.g.d.g.g.g.g.g.d.y.g.g.g.d.y.f.g.f.d.d.d.y.y.y.y.y.d.y.y.y.y.y.y.y.y.y.y.y.y.y.y.y.y.g.f.y.y.d.f.f.y.y.y.y.f.y.:.:.7.:.:.5.5.7.5.;.5.y.y.f.y.y.y.u.u.y.y.y.7.y.7.y.7.;.=.$.#.#.X...[ ( T U F D v s.s.s.s.s.s.s.s.s.s.s.s.s.s.s.s.s.s.s.s.s.s.s.s.s.s.s.s.s.s.s.s.s.s.s.s.s.s.s.s.s.s.s.s.s.s.s.s.s.s.s.s.s.s.s.s.s.s.s.s.s.s.s.s.s.s.s.s.s.s.s.s.s.s.s.s.s.s.s.s.s.s.s.s.s.s.s.s.s.s.s.s.s.s.s.s.s.s.s.s.s.s.s.s.s.s.s.s.s.s.s.s.",
"s.s.s.s.s.s.s.s.s.s.s.s.s.s.s.s.s.s.s.s.s.s.s.s.s.s.s.s.s.s.s.s.s.s.s.s.s.s.s.s.s.s.s.s.s.s.s.s.s.s.s.s.s.s.s.s.s.s.s.s.s.s.s.s.s.s.s.s.s.s.s.s.s.s.s.s.s.s.s.s.s.s.s.s.s.s.s.s.s.s.s.s.s.s.s.s.s.s.s.s.s.s.s.s.s.s.s.s.s.s.s.s.s.s.s.s.s.s.s.s.s.s.s.s.s.s.s.s.s.s.s.s.s.s.s.s.s.s.s.s.s.s.s.s.s.s.s.s.s.s.s.s.s.s.s.s.s.s.s.s.s.s.s.s.s.s.s.s.s.s.s.s.s.s.s.s.s.s.s.s.s.s.s.s.s.s.s.s.s.s.s.s.s.s.s.s.s.s.s.s.s.s.s.s.s.s.s.s.s.s.s.s.s.s.s.s.s.s.s.s.s.s.s.s.s.s.s.s.P Y R _ { o.$.$.$.$.2.2.2.2.2.2.=.$.X. .| | [ W 2.$.5.5.7.6.u.u.u.f.f.f.f.f.f.f.f.h.h.l.M.J.J.J.L.L.H.E.E.T.E.E.E.E.E.E.E.T.E.E.E.K.K.E.E.E.E.E.E.K.E.L.H.S.S.S.H.S.S.S.L.E.K.K.E.E.E.E.E.E.!.^.!.^.E.!.!.!.!.[.E.E.E.E.E.E.E.E.E.E.E.H.H.H.S.S.S.S.M.M.v.S.l.v.v.v.h.h.v.v.u.h.v.h.h.f.f.f.h.f.f.h.f.d.f.f.f.f.f.h.f.g.h.h.h.h.f.h.h.g.g.d.d.g.g.g.g.g.g.g.f.f.g.f.g.g.g.d.d.f.d.f.y.y.y.y.y.y.d.y.y.y.y.d.y.y.y.d.y.y.y.y.y.y.d.d.y.d.f.d.y.y.d.f.y.7.y.y.y.y.7.7.:.;.:.u.y.y.y.7.y.y.y.y.y.y.y.y.y.u.7.5.2.=.$.#.....| [ ( E T U D v s.s.s.s.s.s.s.s.s.s.s.s.s.s.s.s.s.s.s.s.s.s.s.s.s.s.s.s.s.s.s.s.s.s.s.s.s.s.s.s.s.s.s.s.s.s.s.s.s.s.s.s.s.s.s.s.s.s.s.s.s.s.s.s.s.s.s.s.s.s.s.s.s.s.s.s.s.s.s.s.s.s.s.s.s.s.s.s.s.s.s.s.s.s.s.s.s.s.s.s.s.s.s.s.s.s.s.s.s.s.s.s.",
"s.s.s.s.s.s.s.s.s.s.s.s.s.s.s.s.s.s.s.s.s.s.s.s.s.s.s.s.s.s.s.s.s.s.s.s.s.s.s.s.s.s.s.s.s.s.s.s.s.s.s.s.s.s.s.s.s.s.s.s.s.s.s.s.s.s.s.s.s.s.s.s.s.s.s.s.s.s.s.s.s.s.s.s.s.s.s.s.s.s.s.s.s.s.s.s.s.s.s.s.s.s.s.s.s.s.s.s.s.s.s.s.s.s.s.s.s.s.s.s.s.s.s.s.s.s.s.s.s.s.s.s.s.s.s.s.s.s.s.s.s.s.s.s.s.s.s.s.s.s.s.s.s.s.s.s.s.s.s.s.s.s.s.s.s.s.s.s.s.s.s.s.s.s.s.s.s.s.s.s.s.s.s.s.s.s.s.s.s.s.s.s.s.s.s.s.s.s.s.s.s.s.s.s.s.s.s.s.s.s.s.s.s.s.s.s.s.s.s.s.s.s.s.s.s.s.s.s.J Y W _ {  .1.1.$.=.2.2.2.2.2.=.$.X. .| | [ [ ( X.$.5.5.7.7.u.f.u.u.f.f.f.f.f.f.f.f.h.l.l.M.M.M.J.H.H.E.L.L.E.T.T.L.T.E.L.L.L.K.K.K.E.E.E.E.E.L.E.E.K.K.H.H.H.H.L.H.E.E.E.K.H.H.E.E.E.E.E.E.K.E.E.E.E.!.[.!.!.[.!.!.E.E.E.E.K.E.E.K.K.L.H.H.S.S.S.M.H.S.S.M.M.v.v.h.v.v.h.h.v.h.h.f.h.u.u.f.f.u.u.f.y.y.f.f.f.f.f.f.h.h.f.h.h.h.h.h.f.g.g.g.d.g.d.g.g.f.g.d.g.g.g.g.g.d.g.g.d.d.d.d.g.y.y.y.y.y.y.y.y.y.y.y.y.y.y.d.y.y.y.y.y.y.y.r.y.f.f.d.y.y.y.y.y.y.y.7.;.y.t.t.7.y.5.7.y.;.7.y.u.u.u.y.y.y.y.y.y.y.5.5.5.;.$.#.......[ ( E U U D v s.s.s.s.s.s.s.s.s.s.s.s.s.s.s.s.s.s.s.s.s.s.s.s.s.s.s.s.s.s.s.s.s.s.s.s.s.s.s.s.s.s.s.s.s.s.s.s.s.s.s.s.s.s.s.s.s.s.s.s.s.s.s.s.s.s.s.s.s.s.s.s.s.s.s.s.s.s.s.s.s.s.s.s.s.s.s.s.s.s.s.s.s.s.s.s.s.s.s.s.s.s.s.s.s.s.s.s.s.s.s.s.",
"s.s.s.s.s.s.s.s.s.s.s.s.s.s.s.s.s.s.s.s.s.s.s.s.s.s.s.s.s.s.s.s.s.s.s.s.s.s.s.s.s.s.s.s.s.s.s.s.s.s.s.s.s.s.s.s.s.s.s.s.s.s.s.s.s.s.s.s.s.s.s.s.s.s.s.s.s.s.s.s.s.s.s.s.s.s.s.s.s.s.s.s.s.s.s.s.s.s.s.s.s.s.s.s.s.s.s.s.s.s.s.s.s.s.s.s.s.s.s.s.s.s.s.s.s.s.s.s.s.s.s.s.s.s.s.s.s.s.s.s.s.s.s.s.s.s.s.s.s.s.s.s.s.s.s.s.s.s.s.s.s.s.s.s.s.s.s.s.s.s.s.s.s.s.s.s.s.s.s.s.s.s.s.s.s.s.s.s.s.s.s.s.s.s.s.s.s.s.s.s.s.s.s.s.s.s.s.s.s.s.s.s.s.s.s.s.s.s.s.s.s.s.s.s.s.s.s.s.D U R _ { X.2.$.=.$.2.2.2.2.2.=.X.X. . .[ ` R 2.$.=.2.5.7.7.u.u.f.f.f.f.f.f.y.f.f.h.h.l.l.M.S.J.H.H.H.H.T.H.J.S.J.L.E.T.H.H.J.H.K.E.K.K.E.E.L.E.E.E.E.L.L.L.K.K.H.H.K.E.E.E.L.K.E.E.E.E.E.E.E.!.!.!.!.!.!.!.^.[.!.!.!.!.E.K.K.E.E.H.K.E.K.H.H.H.H.S.H.S.M.v.M.M.v.h.v.h.h.v.h.h.f.f.h.u.y.f.f.u.u.f.y.y.y.y.f.f.f.f.h.f.g.g.h.f.f.f.f.g.g.g.y.y.y.d.g.g.y.y.g.h.g.g.g.g.g.d.d.d.y.y.f.y.y.y.y.y.y.y.y.y.y.y.y.y.y.y.y.y.y.y.y.y.y.y.y.d.f.y.y.y.y.y.y.y.y.5.7.y.5.7.y.5.;.7.5.7.y.y.y.y.y.7.7.7.y.y.y.7.7.7.2.$.$.#...#...[ ( E T U F M s.s.s.s.s.s.s.s.s.s.s.s.s.s.s.s.s.s.s.s.s.s.s.s.s.s.s.s.s.s.s.s.s.s.s.s.s.s.s.s.s.s.s.s.s.s.s.s.s.s.s.s.s.s.s.s.s.s.s.s.s.s.s.s.s.s.s.s.s.s.s.s.s.s.s.s.s.s.s.s.s.s.s.s.s.s.s.s.s.s.s.s.s.s.s.s.s.s.s.s.s.s.s.s.s.s.s.s.s.s.s.s.",
"s.s.s.s.s.s.s.s.s.s.s.s.s.s.s.s.s.s.s.s.s.s.s.s.s.s.s.s.s.s.s.s.s.s.s.s.s.s.s.s.s.s.s.s.s.s.s.s.s.s.s.s.s.s.s.s.s.s.s.s.s.s.s.s.s.s.s.s.s.s.s.s.s.s.s.s.s.s.s.s.s.s.s.s.s.s.s.s.s.s.s.s.s.s.s.s.s.s.s.s.s.s.s.s.s.s.s.s.s.s.s.s.s.s.s.s.s.s.s.s.s.s.s.s.s.s.s.s.s.s.s.s.s.s.s.s.s.s.s.s.s.s.s.s.s.s.s.s.s.s.s.s.s.s.s.s.s.s.s.s.s.s.s.s.s.s.s.s.s.s.s.s.s.s.s.s.s.s.s.s.s.s.s.s.s.s.s.s.s.s.s.s.s.s.s.s.s.s.s.s.s.s.s.s.s.s.s.s.s.s.s.s.s.s.s.s.s.s.s.s.s.s.s.s.s.s.s.s.A U R [ { $.$.$.$.$.=.=.=.=.$.X.X. .{ X.[ ` R ..$.5.5.7.7.7.y.f.f.f.f.f.f.f.f.f.f.h.l.l.M.l.M.S.J.J.J.H.T.T.T.J.S.E.E.L.J.J.H.H.E.E.E.E.E.E.E.E.K.L.E.E.E.E.E.E.H.H.K.K.K.K.E.K.K.K.K.K.E.E.E.E.E.E.{.{.{.{.{.{.{.^.!.E.E.E.E.E.K.L.K.E.K.K.K.H.H.H.S.M.M.S.v.l.h.h.v.h.h.h.f.f.f.h.h.f.u.f.u.y.y.u.d.y.y.y.y.y.y.f.f.f.f.h.h.g.g.f.f.g.g.g.d.y.y.d.y.g.g.y.d.g.g.g.g.h.g.y.y.d.y.y.y.y.y.y.y.y.y.y.y.y.d.y.y.y.y.g.y.y.y.y.y.y.y.y.y.y.y.y.y.y.y.y.y.u.5.y.y.5.5.5.;.7.y.5.5.y.y.y.y.u.y.5.y.y.y.y.y.y.y.5.;.$.$.#.....| [ ( R T U F M s.s.s.s.s.s.s.s.s.s.s.s.s.s.s.s.s.s.s.s.s.s.s.s.s.s.s.s.s.s.s.s.s.s.s.s.s.s.s.s.s.s.s.s.s.s.s.s.s.s.s.s.s.s.s.s.s.s.s.s.s.s.s.s.s.s.s.s.s.s.s.s.s.s.s.s.s.s.s.s.s.s.s.s.s.s.s.s.s.s.s.s.s.s.s.s.s.s.s.s.s.s.s.s.s.s.s.s.s.s.s.s.",
"s.s.s.s.s.s.s.s.s.s.s.s.s.s.s.s.s.s.s.s.s.s.s.s.s.s.s.s.s.s.s.s.s.s.s.s.s.s.s.s.s.s.s.s.s.s.s.s.s.s.s.s.s.s.s.s.s.s.s.s.s.s.s.s.s.s.s.s.s.s.s.s.s.s.s.s.s.s.s.s.s.s.s.s.s.s.s.s.s.s.s.s.s.s.s.s.s.s.s.s.s.s.s.s.s.s.s.s.s.s.s.s.s.s.s.s.s.s.s.s.s.s.s.s.s.s.s.s.s.s.s.s.s.s.s.s.s.s.s.s.s.s.s.s.s.s.s.s.s.s.s.s.s.s.s.s.s.s.s.s.s.s.s.s.s.s.s.s.s.s.s.s.s.s.s.s.s.s.s.s.s.s.s.s.s.s.s.s.s.s.s.s.s.s.s.s.s.s.s.s.s.s.s.s.s.s.s.s.s.s.s.s.s.s.s.s.s.s.s.s.s.s.s.s.s.s.s.s.s.U W [ { X.$.$.$.$.$.$.$.$.2.$.X. .{ { ` U X.2.2.$.5.7.y.u.f.f.u.y.u.u.f.f.f.f.f.h.M.M.S.M.S.S.S.S.S.H.H.H.H.S.S.J.J.J.H.H.H.H.H.H.L.E.E.E.E.K.L.K.E.E.E.K.E.E.L.K.E.K.L.L.E.K.H.E.E.E.E.E.!.E.E.!.{.{.{.{.{.{.^.{.}.!.E.E.E.E.E.E.K.E.E.H.E.L.H.M.H.S.S.M.S.S.M.v.h.h.h.h.h.f.u.u.h.f.u.u.u.f.u.u.y.y.y.y.f.d.d.f.g.f.f.h.f.g.g.g.g.g.g.d.g.y.y.g.g.d.g.d.d.g.d.g.g.h.g.d.d.d.y.d.y.d.d.y.y.y.y.y.y.y.y.y.y.y.y.f.y.r.y.y.r.y.y.y.y.y.d.f.y.y.y.:.7.y.y.u.7.5.5.5.7.y.:.7.y.7.7.y.7.y.7.y.y.y.y.7.7.7.7.5.;.$.$.$.....| [ ( ( E Y F s.s.s.s.s.s.s.s.s.s.s.s.s.s.s.s.s.s.s.s.s.s.s.s.s.s.s.s.s.s.s.s.s.s.s.s.s.s.s.s.s.s.s.s.s.s.s.s.s.s.s.s.s.s.s.s.s.s.s.s.s.s.s.s.s.s.s.s.s.s.s.s.s.s.s.s.s.s.s.s.s.s.s.s.s.s.s.s.s.s.s.s.s.s.s.s.s.s.s.s.s.s.s.s.s.s.s.s.s.s.s.s.s.",
"s.s.s.s.s.s.s.s.s.s.s.s.s.s.s.s.s.s.s.s.s.s.s.s.s.s.s.s.s.s.s.s.s.s.s.s.s.s.s.s.s.s.s.s.s.s.s.s.s.s.s.s.s.s.s.s.s.s.s.s.s.s.s.s.s.s.s.s.s.s.s.s.s.s.s.s.s.s.s.s.s.s.s.s.s.s.s.s.s.s.s.s.s.s.s.s.s.s.s.s.s.s.s.s.s.s.s.s.s.s.s.s.s.s.s.s.s.s.s.s.s.s.s.s.s.s.s.s.s.s.s.s.s.s.s.s.s.s.s.s.s.s.s.s.s.s.s.s.s.s.s.s.s.s.s.s.s.s.s.s.s.s.s.s.s.s.s.s.s.s.s.s.s.s.s.s.s.s.s.s.s.s.s.s.s.s.s.s.s.s.s.s.s.s.s.s.s.s.s.s.s.s.s.s.s.s.s.s.s.s.s.s.s.s.s.s.s.s.s.s.s.s.s.s.s.s.s.s.s.Y W _ { X.X.$.$.$.$.1.X.X.$.$.X.| | [ T E 2.$.2.5.5.7.u.u.y.u.f.f.f.f.f.f.f.h.h.h.h.M.M.S.H.J.H.J.J.J.J.S.S.S.S.S.J.J.J.H.H.H.L.L.H.K.E.E.E.K.E.E.E.K.K.E.K.L.H.L.K.E.E.E.E.E.E.E.E.!.^.{.{.^.^.^.!.!.^.^.!.^.{.!.E.E.E.E.E.E.E.!.E.E.H.H.H.K.K.S.M.S.S.h.M.M.v.v.l.h.h.h.h.h.u.y.f.f.f.u.u.y.y.y.y.u.y.y.u.u.y.f.y.f.g.g.f.f.f.f.f.f.f.d.d.y.y.y.g.y.g.g.d.g.g.d.g.d.d.d.y.y.y.y.d.y.g.y.y.d.y.y.y.r.y.y.y.y.y.y.y.y.y.d.y.y.r.y.y.y.y.y.y.y.y.y.7.y.7.y.7.y.5.5.5.5.7.7.;.;.5.7.y.y.y.y.:.7.7.y.y.7.7.5.;.$.$.#.......| ` R R T F s.s.s.s.s.s.s.s.s.s.s.s.s.s.s.s.s.s.s.s.s.s.s.s.s.s.s.s.s.s.s.s.s.s.s.s.s.s.s.s.s.s.s.s.s.s.s.s.s.s.s.s.s.s.s.s.s.s.s.s.s.s.s.s.s.s.s.s.s.s.s.s.s.s.s.s.s.s.s.s.s.s.s.s.s.s.s.s.s.s.s.s.s.s.s.s.s.s.s.s.s.s.s.s.s.s.s.s.s.s.s.s.s.",
"s.s.s.s.s.s.s.s.s.s.s.s.s.s.s.s.s.s.s.s.s.s.s.s.s.s.s.s.s.s.s.s.s.s.s.s.s.s.s.s.s.s.s.s.s.s.s.s.s.s.s.s.s.s.s.s.s.s.s.s.s.s.s.s.s.s.s.s.s.s.s.s.s.s.s.s.s.s.s.s.s.s.s.s.s.s.s.s.s.s.s.s.s.s.s.s.s.s.s.s.s.s.s.s.s.s.s.s.s.s.s.s.s.s.s.s.s.s.s.s.s.s.s.s.s.s.s.s.s.s.s.s.s.s.s.s.s.s.s.s.s.s.s.s.s.s.s.s.s.s.s.s.s.s.s.s.s.s.s.s.s.s.s.s.s.s.s.s.s.s.s.s.s.s.s.s.s.s.s.s.s.s.s.s.s.s.s.s.s.s.s.s.s.s.s.s.s.s.s.s.s.s.s.s.s.s.s.s.s.s.s.s.s.s.s.s.s.s.s.s.s.s.s.s.s.s.s.s.s.U W [ { X.X.X.$.X.$.$.$.$.X.X.{ { [ R T $.$.=.5.5.7.y.y.y.y.u.u.f.f.f.h.f.f.h.h.h.h.h.l.M.M.M.M.M.S.S.S.l.l.l.l.M.S.H.S.L.H.K.K.L.L.K.E.E.E.E.E.E.E.E.E.K.L.K.K.K.K.E.E.E.K.E.E.E.!.!.{.{.^.{.^.{.{.{.{.{.^.^.!.!.E.!.E.!.!.E.E.E.E.K.K.K.H.L.L.H.M.S.H.S.S.l.h.M.v.h.h.h.f.f.f.y.y.y.u.f.y.y.y.y.u.y.y.y.y.y.y.y.y.y.y.f.g.f.f.f.f.f.f.f.d.y.y.y.y.g.y.g.g.g.g.y.g.g.g.g.y.y.d.y.g.y.y.d.d.g.d.r.y.r.y.y.y.y.y.y.y.7.r.r.y.y.r.y.y.f.f.f.y.y.y.y.5.y.7.y.7.5.:.t.:.7.7.:.5.;.y.7.y.7.y.7.5.y.7.5.y.7.5.5.;.=.#.#.#.....[ ` R R U P s.s.s.s.s.s.s.s.s.s.s.s.s.s.s.s.s.s.s.s.s.s.s.s.s.s.s.s.s.s.s.s.s.s.s.s.s.s.s.s.s.s.s.s.s.s.s.s.s.s.s.s.s.s.s.s.s.s.s.s.s.s.s.s.s.s.s.s.s.s.s.s.s.s.s.s.s.s.s.s.s.s.s.s.s.s.s.s.s.s.s.s.s.s.s.s.s.s.s.s.s.s.s.s.s.s.s.s.s.s.s.s.s.",
"s.s.s.s.s.s.s.s.s.s.s.s.s.s.s.s.s.s.s.s.s.s.s.s.s.s.s.s.s.s.s.s.s.s.s.s.s.s.s.s.s.s.s.s.s.s.s.s.s.s.s.s.s.s.s.s.s.s.s.s.s.s.s.s.s.s.s.s.s.s.s.s.s.s.s.s.s.s.s.s.s.s.s.s.s.s.s.s.s.s.s.s.s.s.s.s.s.s.s.s.s.s.s.s.s.s.s.s.s.s.s.s.s.s.s.s.s.s.s.s.s.s.s.s.s.s.s.s.s.s.s.s.s.s.s.s.s.s.s.s.s.s.s.s.s.s.s.s.s.s.s.s.s.s.s.s.s.s.s.s.s.s.s.s.s.s.s.s.s.s.s.s.s.s.s.s.s.s.s.s.s.s.s.s.s.s.s.s.s.s.s.s.s.s.s.s.s.s.s.s.s.s.s.s.s.s.s.s.s.s.s.s.s.s.s.s.s.s.s.s.s.s.s.s.s.s.s.s.s.U R [  .X. .X.X.$.X.$.$.$.$.X.{ [ | E [ $.=.5.5.7.y.y.y.y.u.f.f.h.h.f.f.h.h.h.h.h.l.h.l.l.M.M.S.S.S.S.l.l.S.S.S.S.H.H.S.S.H.E.E.H.L.K.E.E.E.E.E.E.E.E.E.K.H.E.K.H.L.L.E.K.L.K.E.E.!.!.^.{.{.{.{.}.{.{.{.{.{.}.^.!.[.E.E.H.E.E.E.E.E.K.K.E.L.K.K.L.H.S.M.S.M.v.v.v.l.h.h.h.h.u.y.y.f.y.y.y.y.y.y.y.y.7.y.y.y.y.y.y.d.y.y.g.y.g.f.f.f.f.d.d.y.y.y.y.y.g.y.y.d.g.g.y.g.g.g.g.g.y.d.y.g.y.y.y.y.y.y.r.y.r.y.y.y.y.y.y.y.y.y.y.y.y.r.y.y.f.y.y.y.y.y.y.5.;.y.7.5.7.5.5.;.7.5.;.5.5.y.7.7.y.y.7.7.7.5.7.y.5.5.7.2.$.$.#.$.$...[ ( ( R T D s.s.s.s.s.s.s.s.s.s.s.s.s.s.s.s.s.s.s.s.s.s.s.s.s.s.s.s.s.s.s.s.s.s.s.s.s.s.s.s.s.s.s.s.s.s.s.s.s.s.s.s.s.s.s.s.s.s.s.s.s.s.s.s.s.s.s.s.s.s.s.s.s.s.s.s.s.s.s.s.s.s.s.s.s.s.s.s.s.s.s.s.s.s.s.s.s.s.s.s.s.s.s.s.s.s.s.s.s.s.s.s.s.",
"s.s.s.s.s.s.s.s.s.s.s.s.s.s.s.s.s.s.s.s.s.s.s.s.s.s.s.s.s.s.s.s.s.s.s.s.s.s.s.s.s.s.s.s.s.s.s.s.s.s.s.s.s.s.s.s.s.s.s.s.s.s.s.s.s.s.s.s.s.s.s.s.s.s.s.s.s.s.s.s.s.s.s.s.s.s.s.s.s.s.s.s.s.s.s.s.s.s.s.s.s.s.s.s.s.s.s.s.s.s.s.s.s.s.s.s.s.s.s.s.s.s.s.s.s.s.s.s.s.s.s.s.s.s.s.s.s.s.s.s.s.s.s.s.s.s.s.s.s.s.s.s.s.s.s.s.s.s.s.s.s.s.s.s.s.s.s.s.s.s.s.s.s.s.s.s.s.s.s.s.s.s.s.s.s.s.s.s.s.s.s.s.s.s.s.s.s.s.s.s.s.s.s.s.s.s.s.s.s.s.s.s.s.s.s.s.s.s.s.s.s.s.s.s.s.s.s.s.s.J T W { X. .| X.$.X.X.X.X.$.X.| { ( ( 2.2.7.5.7.y.y.y.y.y.u.f.u.h.h.f.h.h.h.l.l.M.M.M.l.l.M.J.S.M.S.S.M.M.M.M.l.l.S.J.S.H.L.L.E.T.K.K.E.E.E.E.K.K.!.E.E.K.K.E.E.K.T.T.L.H.H.L.E.L.E.!.!.^.^.^.{.{.{.}.}.{.{.}.{.^.!.!.!.!.E.E.E.!.E.E.K.K.E.E.E.E.K.S.S.M.v.M.v.h.v.h.f.h.h.u.f.f.y.7.y.y.y.y.y.y.y.y.y.y.7.y.y.y.y.d.y.y.y.y.f.g.g.g.f.y.y.y.y.y.d.d.y.y.d.g.g.y.d.g.g.d.y.y.y.y.y.y.y.y.y.y.y.y.y.r.y.y.y.y.y.y.y.y.y.y.d.y.:.y.y.d.y.y.y.y.y.y.y.5.y.7.7.y.5.2.;.:.:.:.:.5.y.:.y.y.5.5.y.5.7.7.7.5.5.7.;.$.$.$.$.$...[ ( ( Y Y P s.s.s.s.s.s.s.s.s.s.s.s.s.s.s.s.s.s.s.s.s.s.s.s.s.s.s.s.s.s.s.s.s.s.s.s.s.s.s.s.s.s.s.s.s.s.s.s.s.s.s.s.s.s.s.s.s.s.s.s.s.s.s.s.s.s.s.s.s.s.s.s.s.s.s.s.s.s.s.s.s.s.s.s.s.s.s.s.s.s.s.s.s.s.s.s.s.s.s.s.s.s.s.s.s.s.s.s.s.s.s.s.s.",
"s.s.s.s.s.s.s.s.s.s.s.s.s.s.s.s.s.s.s.s.s.s.s.s.s.s.s.s.s.s.s.s.s.s.s.s.s.s.s.s.s.s.s.s.s.s.s.s.s.s.s.s.s.s.s.s.s.s.s.s.s.s.s.s.s.s.s.s.s.s.s.s.s.s.s.s.s.s.s.s.s.s.s.s.s.s.s.s.s.s.s.s.s.s.s.s.s.s.s.s.s.s.s.s.s.s.s.s.s.s.s.s.s.s.s.s.s.s.s.s.s.s.s.s.s.s.s.s.s.s.s.s.s.s.s.s.s.s.s.s.s.s.s.s.s.s.s.s.s.s.s.s.s.s.s.s.s.s.s.s.s.s.s.s.s.s.s.s.s.s.s.s.s.s.s.s.s.s.s.s.s.s.s.s.s.s.s.s.s.s.s.s.s.s.s.s.s.s.s.s.s.s.s.s.s.s.s.s.s.s.s.s.s.s.s.s.s.s.s.s.s.s.s.s.s.s.s.s.s.D Y ( [ [ { X.X.X.X.X.X.1.X.X.| ( ` =.=.5.7.7.7.y.y.y.y.y.y.f.f.h.h.h.h.f.f.h.h.l.l.M.M.M.M.M.M.M.M.M.M.S.J.H.S.S.H.H.H.L.L.T.E.T.K.K.K.E.E.E.L.H.E.K.H.H.K.K.K.K.E.E.T.E.H.L.T.H.E.E.!.!.!.!.{.{.{.{.^.^.{.^.^.{.^.E.E.E.[.E.E.E.E.E.K.L.E.E.K.K.S.H.H.H.M.v.h.h.v.h.h.h.h.f.h.f.f.y.y.y.y.y.7.7.y.y.7.7.7.7.y.y.y.y.y.d.y.y.y.y.g.g.f.y.y.y.y.y.y.d.y.y.g.g.g.g.g.d.y.y.d.y.y.y.y.y.y.y.y.y.y.y.y.7.y.y.y.y.d.y.r.y.y.y.y.y.:.y.y.y.y.y.f.y.:.y.y.;.7.7.5.7.5.;.5.7.y.:.;.5.7.;.y.y.5.7.y.y.y.:.7.5.7.;.;.$.$.$.$.$...| ` ( R Y P s.s.s.s.s.s.s.s.s.s.s.s.s.s.s.s.s.s.s.s.s.s.s.s.s.s.s.s.s.s.s.s.s.s.s.s.s.s.s.s.s.s.s.s.s.s.s.s.s.s.s.s.s.s.s.s.s.s.s.s.s.s.s.s.s.s.s.s.s.s.s.s.s.s.s.s.s.s.s.s.s.s.s.s.s.s.s.s.s.s.s.s.s.s.s.s.s.s.s.s.s.s.s.s.s.s.s.s.s.s.s.s.s.",
"s.s.s.s.s.s.s.s.s.s.s.s.s.s.s.s.s.s.s.s.s.s.s.s.s.s.s.s.s.s.s.s.s.s.s.s.s.s.s.s.s.s.s.s.s.s.s.s.s.s.s.s.s.s.s.s.s.s.s.s.s.s.s.s.s.s.s.s.s.s.s.s.s.s.s.s.s.s.s.s.s.s.s.s.s.s.s.s.s.s.s.s.s.s.s.s.s.s.s.s.s.s.s.s.s.s.s.s.s.s.s.s.s.s.s.s.s.s.s.s.s.s.s.s.s.s.s.s.s.s.s.s.s.s.s.s.s.s.s.s.s.s.s.s.s.s.s.s.s.s.s.s.s.s.s.s.s.s.s.s.s.s.s.s.s.s.s.s.s.s.s.s.s.s.s.s.s.s.s.s.s.s.s.s.s.s.s.s.s.s.s.s.s.s.s.s.s.s.s.s.s.s.s.s.s.s.s.s.s.s.s.s.s.s.s.s.s.s.s.s.s.s.s.s.s.s.s.s.s.s.U W [ [ |  . .X.X. .X.$.X.[ ( ( ;.;.7.5.7.7.u.u.y.u.u.u.u.f.f.h.h.f.h.h.h.h.h.l.l.M.l.M.M.l.M.M.M.M.M.S.S.H.J.l.J.H.H.T.H.H.T.E.T.T.K.E.E.E.E.E.E.K.E.K.K.K.K.H.E.E.T.E.E.L.L.T.E.E.E.E.E.!.!.^.{.{.{.^.}.^.{.^.{.[.!.E.!.E.E.E.E.E.K.H.K.H.H.S.H.H.H.H.H.S.M.h.h.h.h.f.f.u.u.f.u.u.y.y.y.y.y.y.y.y.y.7.7.7.5.7.y.y.y.y.y.y.y.y.f.f.f.f.f.y.y.y.y.y.y.y.d.d.g.d.g.g.d.g.d.y.y.y.y.y.y.y.y.y.y.y.y.y.y.y.y.y.y.y.y.g.d.y.y.y.r.y.y.y.7.y.d.y.:.y.7.7.7.:.5.y.5.5.5.5.5.;.5.7.5.5.y.7.5.7.7.:.:.:.7.5.7.5.;.$.$.#.#... .| ` ( R T U s.s.s.s.s.s.s.s.s.s.s.s.s.s.s.s.s.s.s.s.s.s.s.s.s.s.s.s.s.s.s.s.s.s.s.s.s.s.s.s.s.s.s.s.s.s.s.s.s.s.s.s.s.s.s.s.s.s.s.s.s.s.s.s.s.s.s.s.s.s.s.s.s.s.s.s.s.s.s.s.s.s.s.s.s.s.s.s.s.s.s.s.s.s.s.s.s.s.s.s.s.s.s.s.s.s.s.s.s.s.s.s.s.",
"s.s.s.s.s.s.s.s.s.s.s.s.s.s.s.s.s.s.s.s.s.s.s.s.s.s.s.s.s.s.s.s.s.s.s.s.s.s.s.s.s.s.s.s.s.s.s.s.s.s.s.s.s.s.s.s.s.s.s.s.s.s.s.s.s.s.s.s.s.s.s.s.s.s.s.s.s.s.s.s.s.s.s.s.s.s.s.s.s.s.s.s.s.s.s.s.s.s.s.s.s.s.s.s.s.s.s.s.s.s.s.s.s.s.s.s.s.s.s.s.s.s.s.s.s.s.s.s.s.s.s.s.s.s.s.s.s.s.s.s.s.s.s.s.s.s.s.s.s.s.s.s.s.s.s.s.s.s.s.s.s.s.s.s.s.s.s.s.s.s.s.s.s.s.s.s.s.s.s.s.s.s.s.s.s.s.s.s.s.s.s.s.s.s.s.s.s.s.s.s.s.s.s.s.s.s.s.s.s.s.s.s.s.s.s.s.s.s.s.s.s.s.s.s.s.s.s.s.s.s.U Q _ [ [ [ | { { | X.$.X.[ ( =.;.;.y.7.y.u.f.f.u.u.f.f.f.f.f.f.h.h.h.h.l.h.h.l.l.M.M.M.M.S.M.M.M.M.M.M.M.S.J.M.J.H.E.E.L.L.T.E.T.L.L.E.E.E.T.T.H.H.H.K.H.H.L.E.H.T.E.E.T.T.E.E.E.E.E.E.E.E.E.!.!.^.{.{.{.^.{.^.!.[.[.!.E.!.E.E.E.E.K.K.S.L.H.S.H.H.H.S.S.M.M.v.h.h.f.f.f.u.f.f.y.y.y.y.y.y.y.y.y.y.y.7.y.7.5.:.y.y.y.y.y.y.y.y.f.y.f.y.y.f.y.y.y.d.y.y.y.y.y.y.y.g.d.d.y.y.y.y.y.y.y.y.y.y.y.y.y.y.y.y.y.y.y.y.y.d.y.y.y.y.y.y.y.y.7.7.y.y.y.y.7.7.5.:.5.7.2.;.5.;.5.:.:.;.;.;.7.7.5.5.5.;.;.:.5.5.5.5.;.*.$.#.#.....[ ` ( R R T s.s.s.s.s.s.s.s.s.s.s.s.s.s.s.s.s.s.s.s.s.s.s.s.s.s.s.s.s.s.s.s.s.s.s.s.s.s.s.s.s.s.s.s.s.s.s.s.s.s.s.s.s.s.s.s.s.s.s.s.s.s.s.s.s.s.s.s.s.s.s.s.s.s.s.s.s.s.s.s.s.s.s.s.s.s.s.s.s.s.s.s.s.s.s.s.s.s.s.s.s.s.s.s.s.s.s.s.s.s.s.s.s.",
"s.s.s.s.s.s.s.s.s.s.s.s.s.s.s.s.s.s.s.s.s.s.s.s.s.s.s.s.s.s.s.s.s.s.s.s.s.s.s.s.s.s.s.s.s.s.s.s.s.s.s.s.s.s.s.s.s.s.s.s.s.s.s.s.s.s.s.s.s.s.s.s.s.s.s.s.s.s.s.s.s.s.s.s.s.s.s.s.s.s.s.s.s.s.s.s.s.s.s.s.s.s.s.s.s.s.s.s.s.s.s.s.s.s.s.s.s.s.s.s.s.s.s.s.s.s.s.s.s.s.s.s.s.s.s.s.s.s.s.s.s.s.s.s.s.s.s.s.s.s.s.s.s.s.s.s.s.s.s.s.s.s.s.s.s.s.s.s.s.s.s.s.s.s.s.s.s.s.s.s.s.s.s.s.s.s.s.s.s.s.s.s.s.s.s.s.s.s.s.s.s.s.s.s.s.s.s.s.s.s.s.s.s.s.s.s.s.s.s.s.s.s.s.s.s.s.s.s.s.s.J Y W [ [ [ | | {  .X.X.` ` #.2.;.7.y.7.u.f.f.f.f.f.f.f.f.f.f.f.f.h.h.h.h.h.h.l.h.l.l.M.S.J.S.M.M.M.M.M.M.S.H.J.J.J.J.Y.H.E.E.T.E.T.E.E.E.E.E.H.H.H.K.E.H.H.H.E.H.H.T.E.E.L.H.L.E.E.E.E.E.E.E.E.E.!.^.!.!.!.{.!.E.[.!.E.E.E.E.E.E.K.K.E.K.H.H.H.S.H.H.M.S.M.M.v.h.h.f.f.h.f.u.u.y.y.y.y.7.y.y.y.7.7.5.7.7.5.:.;.y.y.y.y.y.y.y.y.y.y.y.y.y.y.d.y.d.d.y.y.y.y.y.y.y.g.g.d.y.y.y.y.y.y.y.y.y.y.y.y.y.y.y.d.y.y.y.y.d.d.y.d.y.y.y.y.y.7.y.y.y.y.y.7.7.7.:.:.7.5.5.5.5.;.5.;.;.:.:.5.;.:.:.5.:.5.5.5.7.5.;.5.2.=.$.$.#.X...| [ ( R R T s.s.s.s.s.s.s.s.s.s.s.s.s.s.s.s.s.s.s.s.s.s.s.s.s.s.s.s.s.s.s.s.s.s.s.s.s.s.s.s.s.s.s.s.s.s.s.s.s.s.s.s.s.s.s.s.s.s.s.s.s.s.s.s.s.s.s.s.s.s.s.s.s.s.s.s.s.s.s.s.s.s.s.s.s.s.s.s.s.s.s.s.s.s.s.s.s.s.s.s.s.s.s.s.s.s.s.s.s.s.s.s.s.",
"s.s.s.s.s.s.s.s.s.s.s.s.s.s.s.s.s.s.s.s.s.s.s.s.s.s.s.s.s.s.s.s.s.s.s.s.s.s.s.s.s.s.s.s.s.s.s.s.s.s.s.s.s.s.s.s.s.s.s.s.s.s.s.s.s.s.s.s.s.s.s.s.s.s.s.s.s.s.s.s.s.s.s.s.s.s.s.s.s.s.s.s.s.s.s.s.s.s.s.s.s.s.s.s.s.s.s.s.s.s.s.s.s.s.s.s.s.s.s.s.s.s.s.s.s.s.s.s.s.s.s.s.s.s.s.s.s.s.s.s.s.s.s.s.s.s.s.s.s.s.s.s.s.s.s.s.s.s.s.s.s.s.s.s.s.s.s.s.s.s.s.s.s.s.s.s.s.s.s.s.s.s.s.s.s.s.s.s.s.s.s.s.s.s.s.s.s.s.s.s.s.s.s.s.s.s.s.s.s.s.s.s.s.s.s.s.s.s.s.s.s.s.s.s.s.s.s.s.s.s.P Y W [ [ [ | [ [ X.X.( ` $.=.5.5.7.y.y.y.u.f.f.u.f.f.f.h.f.f.f.h.h.h.h.f.f.h.h.M.h.M.M.M.S.S.S.M.M.l.M.M.S.H.H.Y.J.H.T.T.J.T.E.L.T.E.E.T.E.E.T.L.E.L.E.K.H.S.H.L.H.H.H.L.H.H.H.L.E.K.T.T.E.T.E.T.E.E.E.!.!.^.!.^.!.!.E.E.E.E.E.E.E.K.E.E.L.S.S.S.S.H.S.S.M.M.M.v.h.h.f.f.u.y.y.y.y.y.y.7.7.7.7.y.7.5.5.7.7.5.:.:.y.5.y.y.y.y.y.y.y.y.u.y.u.u.y.y.y.y.y.y.y.y.y.y.y.y.y.y.y.y.y.y.y.y.y.y.y.y.y.y.y.y.y.y.y.y.y.y.y.y.y.y.y.y.7.y.7.y.y.7.7.y.:.7.:.5.5.5.:.5.;.;.;.5.=.;.5.5.2.;.2.5.5.5.5.5.2.5.5.$.2.;.;.$.$.$.#...| [ ( / R T s.s.s.s.s.s.s.s.s.s.s.s.s.s.s.s.s.s.s.s.s.s.s.s.s.s.s.s.s.s.s.s.s.s.s.s.s.s.s.s.s.s.s.s.s.s.s.s.s.s.s.s.s.s.s.s.s.s.s.s.s.s.s.s.s.s.s.s.s.s.s.s.s.s.s.s.s.s.s.s.s.s.s.s.s.s.s.s.s.s.s.s.s.s.s.s.s.s.s.s.s.s.s.s.s.s.s.s.s.s.s.s.s.",
"s.s.s.s.s.s.s.s.s.s.s.s.s.s.s.s.s.s.s.s.s.s.s.s.s.s.s.s.s.s.s.s.s.s.s.s.s.s.s.s.s.s.s.s.s.s.s.s.s.s.s.s.s.s.s.s.s.s.s.s.s.s.s.s.s.s.s.s.s.s.s.s.s.s.s.s.s.s.s.s.s.s.s.s.s.s.s.s.s.s.s.s.s.s.s.s.s.s.s.s.s.s.s.s.s.s.s.s.s.s.s.s.s.s.s.s.s.s.s.s.s.s.s.s.s.s.s.s.s.s.s.s.s.s.s.s.s.s.s.s.s.s.s.s.s.s.s.s.s.s.s.s.s.s.s.s.s.s.s.s.s.s.s.s.s.s.s.s.s.s.s.s.s.s.s.s.s.s.s.s.s.s.s.s.s.s.s.s.s.s.s.s.s.s.s.s.s.s.s.s.s.s.s.s.s.s.s.s.s.s.s.s.s.s.s.s.s.s.s.s.s.s.s.s.s.s.s.s.s.s.U T R _ _ [ [ | { [ ` [ =.;.7.7.5.7.y.y.u.u.y.u.f.f.f.f.f.f.f.f.h.h.h.h.f.h.h.h.h.h.M.M.M.M.S.M.M.S.M.l.M.S.H.J.J.J.J.J.H.L.L.L.E.!.E.E.H.T.L.E.!.E.E.L.E.L.S.H.L.H.L.H.T.H.L.L.H.L.K.T.T.T.E.T.T.L.H.T.E.E.!.^.!.!.!.!.!.!.!.!.E.T.T.L.L.T.L.S.S.M.S.S.S.S.M.l.l.h.h.f.u.y.y.u.y.y.y.y.5.7.7.7.7.7.7.5.5.5.5.;.:.7.:.:.y.y.y.y.y.y.y.y.y.y.y.y.y.y.y.d.d.y.y.y.y.i.y.y.y.y.y.y.y.y.y.y.r.y.d.y.y.y.y.y.y.y.y.y.y.y.d.y.y.y.y.y.y.y.y.y.7.:.;.*.:.;.:.5.5.;.2.;.;.;.5.$.;.5.=.$.;.5.5.;.5.5.5.7.7.5.;.;.;.=.$.$.#.#...| [ ( / R T s.s.s.s.s.s.s.s.s.s.s.s.s.s.s.s.s.s.s.s.s.s.s.s.s.s.s.s.s.s.s.s.s.s.s.s.s.s.s.s.s.s.s.s.s.s.s.s.s.s.s.s.s.s.s.s.s.s.s.s.s.s.s.s.s.s.s.s.s.s.s.s.s.s.s.s.s.s.s.s.s.s.s.s.s.s.s.s.s.s.s.s.s.s.s.s.s.s.s.s.s.s.s.s.s.s.s.s.s.s.s.s.s.",
"s.s.s.s.s.s.s.s.s.s.s.s.s.s.s.s.s.s.s.s.s.s.s.s.s.s.s.s.s.s.s.s.s.s.s.s.s.s.s.s.s.s.s.s.s.s.s.s.s.s.s.s.s.s.s.s.s.s.s.s.s.s.s.s.s.s.s.s.s.s.s.s.s.s.s.s.s.s.s.s.s.s.s.s.s.s.s.s.s.s.s.s.s.s.s.s.s.s.s.s.s.s.s.s.s.s.s.s.s.s.s.s.s.s.s.s.s.s.s.s.s.s.s.s.s.s.s.s.s.s.s.s.s.s.s.s.s.s.s.s.s.s.s.s.s.s.s.s.s.s.s.s.s.s.s.s.s.s.s.s.s.s.s.s.s.s.s.s.s.s.s.s.s.s.s.s.s.s.s.s.s.s.s.s.s.s.s.s.s.s.s.s.s.s.s.s.s.s.s.s.s.s.s.s.s.s.s.s.s.s.s.s.s.s.s.s.s.s.s.s.s.s.s.s.s.s.s.s.s.s.F U Y _ [ [ [ [ _  .T $.;.5.7.y.y.y.y.y.u.u.y.y.u.f.f.f.f.h.h.h.l.h.h.h.h.h.h.l.h.M.M.S.J.J.H.J.J.S.M.M.M.S.J.J.S.S.S.S.H.H.H.H.E.E.T.K.L.T.T.E.T.E.T.L.E.H.H.H.H.L.H.H.H.H.L.K.L.S.H.E.E.E.T.L.H.L.H.L.E.E.!.E.E.!.!.!.!.!.!.^.E.L.T.L.L.L.L.H.S.M.S.S.S.S.S.M.l.l.h.f.u.u.u.y.u.y.y.y.7.7.7.7.7.7.5.:.;.:.5.;.-.:.;.:.t.y.y.y.y.y.y.y.y.y.y.y.y.y.y.y.y.y.d.d.y.y.y.y.y.y.y.y.y.y.y.y.y.y.y.y.y.r.y.y.f.y.y.y.y.y.f.y.y.y.y.y.7.y.y.7.7.;.;.:.y.y.5.:.5.5.5.5.5.$.;.=.;.=.$.$.;.5.5.;.5.5.5.7.5.5.5.5.;.=.$.$.$.....| [ ( / R T P s.s.s.s.s.s.s.s.s.s.s.s.s.s.s.s.s.s.s.s.s.s.s.s.s.s.s.s.s.s.s.s.s.s.s.s.s.s.s.s.s.s.s.s.s.s.s.s.s.s.s.s.s.s.s.s.s.s.s.s.s.s.s.s.s.s.s.s.s.s.s.s.s.s.s.s.s.s.s.s.s.s.s.s.s.s.s.s.s.s.s.s.s.s.s.s.s.s.s.s.s.s.s.s.s.s.s.s.s.s.s.s.",
"s.s.s.s.s.s.s.s.s.s.s.s.s.s.s.s.s.s.s.s.s.s.s.s.s.s.s.s.s.s.s.s.s.s.s.s.s.s.s.s.s.s.s.s.s.s.s.s.s.s.s.s.s.s.s.s.s.s.s.s.s.s.s.s.s.s.s.s.s.s.s.s.s.s.s.s.s.s.s.s.s.s.s.s.s.s.s.s.s.s.s.s.s.s.s.s.s.s.s.s.s.s.s.s.s.s.s.s.s.s.s.s.s.s.s.s.s.s.s.s.s.s.s.s.s.s.s.s.s.s.s.s.s.s.s.s.s.s.s.s.s.s.s.s.s.s.s.s.s.s.s.s.s.s.s.s.s.s.s.s.s.s.s.s.s.s.s.s.s.s.s.s.s.s.s.s.s.s.s.s.s.s.s.s.s.s.s.s.s.s.s.s.s.s.s.s.s.s.s.s.s.s.s.s.s.s.s.s.s.s.s.s.s.s.s.s.s.s.s.s.s.s.s.s.s.s.s.s.s.s.s.P Y _ ( ( [ [ [ E ..=.5.7.7.u.y.y.y.f.u.u.y.u.u.f.f.f.h.h.f.h.h.h.h.h.h.h.l.M.h.h.h.M.M.M.S.J.H.S.S.J.S.S.J.H.J.J.J.H.H.H.H.H.L.T.T.E.E.L.H.H.T.E.H.E.T.L.T.L.T.E.T.L.T.H.H.H.H.S.H.E.E.T.E.E.H.E.E.E.T.E.E.E.E.E.!.!.!.!.!.!.E.E.W.E.L.T.L.L.S.S.M.S.S.M.M.S.v.v.h.h.f.f.y.y.y.y.y.y.7.;.;.;.7.5.:.;.;.;.;.:.;.:.;.:.t.y.y.y.7.7.y.y.y.y.y.y.y.y.y.y.y.y.f.f.y.y.y.y.y.y.y.y.y.y.y.y.y.r.y.y.d.r.y.d.y.y.y.y.y.y.y.y.y.y.y.y.:.y.y.7.7.5.y.7.y.:.:.:.7.5.;.5.;.$.$.$.;.$.2.;.;.5.5.;.;.5.5.5.:.;.5.5.;.=.*.$.$.....| [ ( R R T J s.s.s.s.s.s.s.s.s.s.s.s.s.s.s.s.s.s.s.s.s.s.s.s.s.s.s.s.s.s.s.s.s.s.s.s.s.s.s.s.s.s.s.s.s.s.s.s.s.s.s.s.s.s.s.s.s.s.s.s.s.s.s.s.s.s.s.s.s.s.s.s.s.s.s.s.s.s.s.s.s.s.s.s.s.s.s.s.s.s.s.s.s.s.s.s.s.s.s.s.s.s.s.s.s.s.s.s.s.s.s.s.",
"s.s.s.s.s.s.s.s.s.s.s.s.s.s.s.s.s.s.s.s.s.s.s.s.s.s.s.s.s.s.s.s.s.s.s.s.s.s.s.s.s.s.s.s.s.s.s.s.s.s.s.s.s.s.s.s.s.s.s.s.s.s.s.s.s.s.s.s.s.s.s.s.s.s.s.s.s.s.s.s.s.s.s.s.s.s.s.s.s.s.s.s.s.s.s.s.s.s.s.s.s.s.s.s.s.s.s.s.s.s.s.s.s.s.s.s.s.s.s.s.s.s.s.s.s.s.s.s.s.s.s.s.s.s.s.s.s.s.s.s.s.s.s.s.s.s.s.s.s.s.s.s.s.s.s.s.s.s.s.s.s.s.s.s.s.s.s.s.s.s.s.s.s.s.s.s.s.s.s.s.s.s.s.s.s.s.s.s.s.s.s.s.s.s.s.s.s.s.s.s.s.s.s.s.s.s.s.s.s.s.s.s.s.s.s.s.s.s.s.s.s.s.s.s.s.s.s.s.s.s.s.U Y W W ( ( ( E ..$.5.5.y.y.y.y.u.u.f.f.f.u.u.u.f.f.h.h.h.h.h.h.h.h.h.h.h.l.M.l.l.l.M.M.S.J.H.H.S.M.J.H.H.H.J.H.H.H.H.H.H.H.H.E.T.H.E.E.H.H.T.L.E.E.E.T.H.H.H.E.E.E.E.E.H.T.E.H.H.T.T.T.L.H.H.H.E.T.E.E.T.T.E.E.E.E.!.!.!.!.!.T.L.L.T.L.L.L.L.H.H.M.S.M.S.S.M.v.v.h.h.h.f.u.y.y.y.y.7.y.5.:.7.5.5.:.5.5.;.;.;.;.;.-.;.5.5.7.y.y.y.y.y.y.y.y.y.y.y.y.y.y.y.f.f.y.y.y.y.y.y.y.y.y.y.y.y.r.r.y.y.d.r.y.y.y.y.y.y.y.y.y.y.y.y.y.y.7.y.7.y.y.y.y.7.:.;.;.:.5.5.=.;.;.$.;.$.;.$.;.;.;.2.2.5.;.7.7.;.5.;.2.;.;.=.*.$.$.$.#...| ( R R R P s.s.s.s.s.s.s.s.s.s.s.s.s.s.s.s.s.s.s.s.s.s.s.s.s.s.s.s.s.s.s.s.s.s.s.s.s.s.s.s.s.s.s.s.s.s.s.s.s.s.s.s.s.s.s.s.s.s.s.s.s.s.s.s.s.s.s.s.s.s.s.s.s.s.s.s.s.s.s.s.s.s.s.s.s.s.s.s.s.s.s.s.s.s.s.s.s.s.s.s.s.s.s.s.s.s.s.s.s.s.s.s.",
"s.s.s.s.s.s.s.s.s.s.s.s.s.s.s.s.s.s.s.s.s.s.s.s.s.s.s.s.s.s.s.s.s.s.s.s.s.s.s.s.s.s.s.s.s.s.s.s.s.s.s.s.s.s.s.s.s.s.s.s.s.s.s.s.s.s.s.s.s.s.s.s.s.s.s.s.s.s.s.s.s.s.s.s.s.s.s.s.s.s.s.s.s.s.s.s.s.s.s.s.s.s.s.s.s.s.s.s.s.s.s.s.s.s.s.s.s.s.s.s.s.s.s.s.s.s.s.s.s.s.s.s.s.s.s.s.s.s.s.s.s.s.s.s.s.s.s.s.s.s.s.s.s.s.s.s.s.s.s.s.s.s.s.s.s.s.s.s.s.s.s.s.s.s.s.s.s.s.s.s.s.s.s.s.s.s.s.s.s.s.s.s.s.s.s.s.s.s.s.s.s.s.s.s.s.s.s.s.s.s.s.s.s.s.s.s.s.s.s.s.s.s.s.s.s.s.s.s.s.s.s.D Y T R W ( T ..*.;.5.7.y.y.y.u.u.f.f.f.f.u.u.f.f.f.f.f.u.f.f.h.h.h.h.h.h.M.M.M.M.M.S.J.H.J.J.H.S.M.H.H.H.H.S.J.H.H.L.H.L.L.L.E.E.H.E.E.E.E.E.L.E.E.E.E.L.H.T.E.H.L.L.L.L.H.T.S.S.H.H.H.H.L.H.L.L.L.H.E.E.T.E.E.T.T.E.E.E.!.!.T.T.L.T.L.L.L.H.H.H.M.M.S.S.S.M.v.h.v.h.h.h.u.y.y.y.y.7.y.y.7.5.;.;.;.5.7.;.:.-.;.;.;.;.:.:.5.7.y.y.y.7.7.7.y.y.y.y.y.y.y.y.y.y.y.y.y.y.y.y.y.y.y.y.d.y.r.y.y.y.y.y.y.f.y.r.y.y.:.y.y.y.y.y.y.7.y.y.:.7.5.7.7.5.:.;.:.:.5.5.;.=.$.$.;.$.;.$.;.$.;.=.2.5.;.5.5.5.5.;.;.2.;.=.*.$.$.#.#...| ( R R Y U s.s.s.s.s.s.s.s.s.s.s.s.s.s.s.s.s.s.s.s.s.s.s.s.s.s.s.s.s.s.s.s.s.s.s.s.s.s.s.s.s.s.s.s.s.s.s.s.s.s.s.s.s.s.s.s.s.s.s.s.s.s.s.s.s.s.s.s.s.s.s.s.s.s.s.s.s.s.s.s.s.s.s.s.s.s.s.s.s.s.s.s.s.s.s.s.s.s.s.s.s.s.s.s.s.s.s.s.s.s.s.s.",
"s.s.s.s.s.s.s.s.s.s.s.s.s.s.s.s.s.s.s.s.s.s.s.s.s.s.s.s.s.s.s.s.s.s.s.s.s.s.s.s.s.s.s.s.s.s.s.s.s.s.s.s.s.s.s.s.s.s.s.s.s.s.s.s.s.s.s.s.s.s.s.s.s.s.s.s.s.s.s.s.s.s.s.s.s.s.s.s.s.s.s.s.s.s.s.s.s.s.s.s.s.s.s.s.s.s.s.s.s.s.s.s.s.s.s.s.s.s.s.s.s.s.s.s.s.s.s.s.s.s.s.s.s.s.s.s.s.s.s.s.s.s.s.s.s.s.s.s.s.s.s.s.s.s.s.s.s.s.s.s.s.s.s.s.s.s.s.s.s.s.s.s.s.s.s.s.s.s.s.s.s.s.s.s.s.s.s.s.s.s.s.s.s.s.s.s.s.s.s.s.s.s.s.s.s.s.s.s.s.s.s.s.s.s.s.s.s.s.s.s.s.s.s.s.s.s.s.s.s.s.s.D Y Y R ( T ..;.$.;.y.y.y.u.f.f.f.f.h.f.u.u.u.u.f.u.y.u.f.f.f.f.h.h.l.l.l.M.M.l.M.J.H.H.H.H.H.J.S.S.H.H.H.S.S.J.L.L.E.T.L.H.H.L.T.E.E.E.E.E.T.E.L.K.E.E.L.J.T.H.H.L.L.T.H.H.H.H.J.H.H.M.M.H.H.H.H.L.H.L.E.T.L.E.E.E.!.E.E.E.E.L.L.T.E.L.L.L.H.H.S.S.S.M.S.S.v.v.h.h.l.f.h.u.u.y.y.y.y.y.7.7.5.:.:.;.5.7.;.;.-.;.-.=.;.;.:.5.7.7.y.y.y.5.5.7.y.y.y.y.y.y.f.y.y.y.y.y.y.y.y.y.y.y.y.y.d.y.y.y.y.y.y.r.y.y.r.y.r.7.y.7.y.y.y.y.7.7.7.7.7.7.:.;.5.7.;.5.:.5.5.;.2.=.$.$.#.;.;.$.$.$.=.5.5.;.5.;.;.5.;.5.5.;.=.*.$.$.#.#. .| _ R T T U s.s.s.s.s.s.s.s.s.s.s.s.s.s.s.s.s.s.s.s.s.s.s.s.s.s.s.s.s.s.s.s.s.s.s.s.s.s.s.s.s.s.s.s.s.s.s.s.s.s.s.s.s.s.s.s.s.s.s.s.s.s.s.s.s.s.s.s.s.s.s.s.s.s.s.s.s.s.s.s.s.s.s.s.s.s.s.s.s.s.s.s.s.s.s.s.s.s.s.s.s.s.s.s.s.s.s.s.s.s.s.s.",
"s.s.s.s.s.s.s.s.s.s.s.s.s.s.s.s.s.s.s.s.s.s.s.s.s.s.s.s.s.s.s.s.s.s.s.s.s.s.s.s.s.s.s.s.s.s.s.s.s.s.s.s.s.s.s.s.s.s.s.s.s.s.s.s.s.s.s.s.s.s.s.s.s.s.s.s.s.s.s.s.s.s.s.s.s.s.s.s.s.s.s.s.s.s.s.s.s.s.s.s.s.s.s.s.s.s.s.s.s.s.s.s.s.s.s.s.s.s.s.s.s.s.s.s.s.s.s.s.s.s.s.s.s.s.s.s.s.s.s.s.s.s.s.s.s.s.s.s.s.s.s.s.s.s.s.s.s.s.s.s.s.s.s.s.s.s.s.s.s.s.s.s.s.s.s.s.s.s.s.s.s.s.s.s.s.s.s.s.s.s.s.s.s.s.s.s.s.s.s.s.s.s.s.s.s.s.s.s.s.s.s.s.s.s.s.s.s.s.s.s.s.s.s.s.s.s.s.s.s.s.s.A Y T R T X.$.;.;.7.y.y.y.u.f.f.f.f.f.u.y.y.u.u.f.u.f.f.h.h.h.h.h.h.l.M.M.M.M.M.M.M.S.S.J.H.H.S.S.S.H.L.H.H.H.L.T.T.T.L.H.H.T.L.H.E.E.E.E.E.T.H.S.H.E.E.E.J.T.T.H.H.H.T.H.H.H.H.J.H.S.J.L.L.L.L.H.H.L.H.E.H.H.L.T.E.E.E.E.E.E.S.L.L.L.L.L.L.H.H.H.M.M.S.M.v.M.v.h.h.h.h.h.f.u.u.y.y.y.y.5.:.7.;.5.;.;.;.;.;.*.;.;.=.=.=.;.5.7.5.7.y.y.5.7.7.y.y.y.y.d.d.f.y.y.y.y.y.y.y.y.y.y.y.d.d.d.y.r.y.y.y.y.r.y.r.y.y.y.y.y.y.y.y.y.y.y.y.7.y.7.5.5.7.y.;.;.5.;.5.5.;.=.$.$.$.$.;.=.#.;.$.2.5.5.5.5.=.5.:.$.5.2.;.=.=.$.$.#.#...| ( / T U U s.s.s.s.s.s.s.s.s.s.s.s.s.s.s.s.s.s.s.s.s.s.s.s.s.s.s.s.s.s.s.s.s.s.s.s.s.s.s.s.s.s.s.s.s.s.s.s.s.s.s.s.s.s.s.s.s.s.s.s.s.s.s.s.s.s.s.s.s.s.s.s.s.s.s.s.s.s.s.s.s.s.s.s.s.s.s.s.s.s.s.s.s.s.s.s.s.s.s.s.s.s.s.s.s.s.s.s.s.s.s.s.",
"s.s.s.s.s.s.s.s.s.s.s.s.s.s.s.s.s.s.s.s.s.s.s.s.s.s.s.s.s.s.s.s.s.s.s.s.s.s.s.s.s.s.s.s.s.s.s.s.s.s.s.s.s.s.s.s.s.s.s.s.s.s.s.s.s.s.s.s.s.s.s.s.s.s.s.s.s.s.s.s.s.s.s.s.s.s.s.s.s.s.s.s.s.s.s.s.s.s.s.s.s.s.s.s.s.s.s.s.s.s.s.s.s.s.s.s.s.s.s.s.s.s.s.s.s.s.s.s.s.s.s.s.s.s.s.s.s.s.s.s.s.s.s.s.s.s.s.s.s.s.s.s.s.s.s.s.s.s.s.s.s.s.s.s.s.s.s.s.s.s.s.s.s.s.s.s.s.s.s.s.s.s.s.s.s.s.s.s.s.s.s.s.s.s.s.s.s.s.s.s.s.s.s.s.s.s.s.s.s.s.s.s.s.s.s.s.s.s.s.s.s.s.s.s.s.s.s.s.s.s.s.C U T G ' =.*.;.7.y.y.u.u.f.f.f.u.y.f.f.f.u.y.f.f.f.f.f.h.h.h.h.l.l.M.M.M.M.M.S.S.J.J.S.H.J.M.J.J.J.L.T.L.L.H.T.E.E.E.T.L.T.E.E.L.E.T.E.L.T.E.E.L.T.E.E.E.E.E.T.L.H.T.T.H.J.H.H.H.J.J.M.H.E.L.H.L.L.H.H.H.S.H.H.L.H.H.E.E.E.E.H.H.E.K.L.L.K.L.L.L.M.M.M.h.h.v.v.v.v.h.f.f.f.f.f.u.y.y.7.7.5.:.;.;.;.-.2.2.;.2.5.;.=.$.;.;.7.:.5.7.7.7.7.7.7.7.y.y.y.y.y.y.y.f.y.d.y.y.y.y.y.y.y.y.y.y.y.y.y.y.y.y.y.y.y.r.y.y.y.7.7.y.7.y.y.:.:.:.7.7.5.;.7.7.;.;.:.;.5.5.=.=.$.#.$.$.$.$.$.;.$.=.2.$.5.;.;.;.;.;.2.;.;.$.=.#.$.#.#...| ( ( E U U s.s.s.s.s.s.s.s.s.s.s.s.s.s.s.s.s.s.s.s.s.s.s.s.s.s.s.s.s.s.s.s.s.s.s.s.s.s.s.s.s.s.s.s.s.s.s.s.s.s.s.s.s.s.s.s.s.s.s.s.s.s.s.s.s.s.s.s.s.s.s.s.s.s.s.s.s.s.s.s.s.s.s.s.s.s.s.s.s.s.s.s.s.s.s.s.s.s.s.s.s.s.s.s.s.s.s.s.s.s.s.s.",
"s.s.s.s.s.s.s.s.s.s.s.s.s.s.s.s.s.s.s.s.s.s.s.s.s.s.s.s.s.s.s.s.s.s.s.s.s.s.s.s.s.s.s.s.s.s.s.s.s.s.s.s.s.s.s.s.s.s.s.s.s.s.s.s.s.s.s.s.s.s.s.s.s.s.s.s.s.s.s.s.s.s.s.s.s.s.s.s.s.s.s.s.s.s.s.s.s.s.s.s.s.s.s.s.s.s.s.s.s.s.s.s.s.s.s.s.s.s.s.s.s.s.s.s.s.s.s.s.s.s.s.s.s.s.s.s.s.s.s.s.s.s.s.s.s.s.s.s.s.s.s.s.s.s.s.s.s.s.s.s.s.s.s.s.s.s.s.s.s.s.s.s.s.s.s.s.s.s.s.s.s.s.s.s.s.s.s.s.s.s.s.s.s.s.s.s.s.s.s.s.s.s.s.s.s.s.s.s.s.s.s.s.s.s.s.s.s.s.s.s.s.s.s.s.s.s.s.s.s.s.s.C U F ` ;.;.7.5.y.y.y.y.u.y.u.u.u.y.y.f.u.u.f.f.h.h.f.h.h.h.h.M.M.l.M.M.M.S.M.M.J.S.S.J.H.H.J.H.H.H.L.L.H.H.H.H.T.T.E.E.E.T.E.E.E.E.E.T.L.H.H.E.E.E.E.E.E.E.T.T.T.H.T.T.H.H.H.H.J.J.J.H.H.H.H.H.H.S.K.L.H.M.H.H.H.L.S.M.S.H.L.L.S.K.K.K.L.H.H.H.L.S.M.M.v.h.h.v.v.v.h.h.h.h.h.f.f.y.y.7.5.:.:.*.*.-.-.;.5.2.=.;.;.$.$.$.*.;.:.5.5.5.5.5.5.5.:.7.7.y.y.y.y.y.y.y.y.y.y.y.y.y.y.d.y.y.y.y.y.y.y.y.y.d.y.y.y.y.y.y.y.;.y.5.y.7.7.7.7.5.7.7.5.5.:.:.;.7.;.:.2.;.;.;.$.$.;.$.$.$.=.$.=.;.$.;.*.2.;.;.2.;.;.;.;.*.$.$.#...| | ` ( E T U s.s.s.s.s.s.s.s.s.s.s.s.s.s.s.s.s.s.s.s.s.s.s.s.s.s.s.s.s.s.s.s.s.s.s.s.s.s.s.s.s.s.s.s.s.s.s.s.s.s.s.s.s.s.s.s.s.s.s.s.s.s.s.s.s.s.s.s.s.s.s.s.s.s.s.s.s.s.s.s.s.s.s.s.s.s.s.s.s.s.s.s.s.s.s.s.s.s.s.s.s.s.s.s.s.s.s.s.s.s.s.s.",
"s.s.s.s.s.s.s.s.s.s.s.s.s.s.s.s.s.s.s.s.s.s.s.s.s.s.s.s.s.s.s.s.s.s.s.s.s.s.s.s.s.s.s.s.s.s.s.s.s.s.s.s.s.s.s.s.s.s.s.s.s.s.s.s.s.s.s.s.s.s.s.s.s.s.s.s.s.s.s.s.s.s.s.s.s.s.s.s.s.s.s.s.s.s.s.s.s.s.s.s.s.s.s.s.s.s.s.s.s.s.s.s.s.s.s.s.s.s.s.s.s.s.s.s.s.s.s.s.s.s.s.s.s.s.s.s.s.s.s.s.s.s.s.s.s.s.s.s.s.s.s.s.s.s.s.s.s.s.s.s.s.s.s.s.s.s.s.s.s.s.s.s.s.s.s.s.s.s.s.s.s.s.s.s.s.s.s.s.s.s.s.s.s.s.s.s.s.s.s.s.s.s.s.s.s.s.s.s.s.s.s.s.s.s.s.s.s.s.s.s.s.s.s.s.s.s.s.s.s.s.s.V D ` ;.;.y.7.y.y.y.y.u.u.u.y.y.u.y.y.y.y.u.f.f.f.h.l.h.h.M.l.l.M.l.l.l.M.M.M.M.M.M.S.J.J.J.J.J.S.J.H.H.H.H.H.L.H.T.E.E.E.E.T.T.E.E.E.E.E.E.E.E.E.T.H.L.L.L.L.L.E.T.H.H.L.H.J.H.H.H.S.H.H.E.H.H.H.S.H.E.L.L.S.H.H.H.L.H.H.H.S.H.H.M.H.E.H.K.S.H.H.S.S.S.M.v.h.h.h.v.h.h.h.h.f.f.u.y.y.7.7.5.:.;.*.*.-.=.;.;.=.;.=.&.$.$.$.;.:.;.:.:.5.7.7.7.5.5.7.y.y.y.y.y.y.y.y.y.y.y.y.y.y.y.y.y.y.y.7.7.y.y.y.y.y.y.y.7.y.y.y.:.7.y.7.7.7.7.7.5.5.7.5.7.:.;.;.5.;.:.5.;.;.;.$.;.;.$.$.$.$.$.=.$.$.;.;.5.;.5.2.;.$.$.;.;.&.=.#.X...| ` ( E U P s.s.s.s.s.s.s.s.s.s.s.s.s.s.s.s.s.s.s.s.s.s.s.s.s.s.s.s.s.s.s.s.s.s.s.s.s.s.s.s.s.s.s.s.s.s.s.s.s.s.s.s.s.s.s.s.s.s.s.s.s.s.s.s.s.s.s.s.s.s.s.s.s.s.s.s.s.s.s.s.s.s.s.s.s.s.s.s.s.s.s.s.s.s.s.s.s.s.s.s.s.s.s.s.s.s.s.s.s.s.s.s.",
"s.s.s.s.s.s.s.s.s.s.s.s.s.s.s.s.s.s.s.s.s.s.s.s.s.s.s.s.s.s.s.s.s.s.s.s.s.s.s.s.s.s.s.s.s.s.s.s.s.s.s.s.s.s.s.s.s.s.s.s.s.s.s.s.s.s.s.s.s.s.s.s.s.s.s.s.s.s.s.s.s.s.s.s.s.s.s.s.s.s.s.s.s.s.s.s.s.s.s.s.s.s.s.s.s.s.s.s.s.s.s.s.s.s.s.s.s.s.s.s.s.s.s.s.s.s.s.s.s.s.s.s.s.s.s.s.s.s.s.s.s.s.s.s.s.s.s.s.s.s.s.s.s.s.s.s.s.s.s.s.s.s.s.s.s.s.s.s.s.s.s.s.s.s.s.s.s.s.s.s.s.s.s.s.s.s.s.s.s.s.s.s.s.s.s.s.s.s.s.s.s.s.s.s.s.s.s.s.s.s.s.s.s.s.s.s.s.s.s.s.s.s.s.s.s.s.s.s.s.s.s.h ( ;.:.5.5.y.y.y.y.u.u.u.y.u.y.y.y.u.y.y.y.f.f.f.h.h.l.l.l.h.l.l.l.H.M.M.M.l.M.S.S.S.M.M.M.J.J.J.H.H.H.H.H.L.T.T.T.T.E.E.E.E.E.T.T.T.E.E.T.T.T.E.T.L.H.H.H.H.T.T.T.H.H.T.L.H.H.H.J.J.H.T.E.H.L.K.H.H.K.H.K.H.K.H.S.H.S.H.H.S.S.H.S.K.K.H.H.S.S.S.M.S.S.M.v.M.h.h.h.h.h.h.h.f.f.u.y.y.y.7.5.5.;.;.-.-.=.*.$.;.&.=.$.$.=.$.;.;.;.;.;.7.7.7.7.7.7.7.y.y.y.y.y.y.y.y.y.y.y.y.y.y.d.d.y.y.y.y.y.y.y.y.y.y.y.y.y.7.7.7.5.7.y.7.7.7.7.7.5.5.5.;.5.7.5.:.7.;.:.;.*.*.$.$.$.;.=.$.$.$.$.=.$.$.$.;.5.=.7.2.;.$.=.;.;.$.$.$.....| ` ( E T P s.s.s.s.s.s.s.s.s.s.s.s.s.s.s.s.s.s.s.s.s.s.s.s.s.s.s.s.s.s.s.s.s.s.s.s.s.s.s.s.s.s.s.s.s.s.s.s.s.s.s.s.s.s.s.s.s.s.s.s.s.s.s.s.s.s.s.s.s.s.s.s.s.s.s.s.s.s.s.s.s.s.s.s.s.s.s.s.s.s.s.s.s.s.s.s.s.s.s.s.s.s.s.s.s.s.s.s.s.s.s.s.",
"s.s.s.s.s.s.s.s.s.s.s.s.s.s.s.s.s.s.s.s.s.s.s.s.s.s.s.s.s.s.s.s.s.s.s.s.s.s.s.s.s.s.s.s.s.s.s.s.s.s.s.s.s.s.s.s.s.s.s.s.s.s.s.s.s.s.s.s.s.s.s.s.s.s.s.s.s.s.s.s.s.s.s.s.s.s.s.s.s.s.s.s.s.s.s.s.s.s.s.s.s.s.s.s.s.s.s.s.s.s.s.s.s.s.s.s.s.s.s.s.s.s.s.s.s.s.s.s.s.s.s.s.s.s.s.s.s.s.s.s.s.s.s.s.s.s.s.s.s.s.s.s.s.s.s.s.s.s.s.s.s.s.s.s.s.s.s.s.s.s.s.s.s.s.s.s.s.s.s.s.s.s.s.s.s.s.s.s.s.s.s.s.s.s.s.s.s.s.s.s.s.s.s.s.s.s.s.s.s.s.s.s.s.s.s.s.s.s.s.s.s.s.s.s.s.s.s.s.s.s.s.M 2.*.:.:.y.y.y.u.u.u.u.u.y.y.u.y.y.u.f.f.u.f.f.f.f.h.l.l.l.h.M.l.l.M.M.M.M.M.S.H.J.J.H.M.J.H.J.J.H.H.S.J.H.H.H.T.E.E.E.E.E.E.E.T.E.E.E.E.E.T.H.L.L.L.L.L.L.H.S.T.E.H.J.H.H.H.L.H.H.H.H.H.L.T.H.K.H.H.H.H.H.L.K.K.H.M.S.H.H.S.M.S.K.K.H.H.H.S.S.S.S.H.M.M.M.v.l.h.h.h.h.h.h.f.f.y.y.y.y.y.7.5.;.;.-.*.=.*.$.=.=.=.$.$.$.$.*.=.;.=.;.;.5.5.5.7.7.7.y.y.y.y.u.u.y.y.y.y.y.y.y.y.y.y.y.y.y.y.y.y.y.7.y.y.y.7.y.7.y.:.7.y.y.7.5.y.7.5.5.7.5.5.:.:.5.:.:.*.;.;.*.$.$.$.$.;.=.$.$.$.$.$.$.$.$.5.;.;.5.;.;.;.;.;.;.$.;.$.#...| ` R E U P s.s.s.s.s.s.s.s.s.s.s.s.s.s.s.s.s.s.s.s.s.s.s.s.s.s.s.s.s.s.s.s.s.s.s.s.s.s.s.s.s.s.s.s.s.s.s.s.s.s.s.s.s.s.s.s.s.s.s.s.s.s.s.s.s.s.s.s.s.s.s.s.s.s.s.s.s.s.s.s.s.s.s.s.s.s.s.s.s.s.s.s.s.s.s.s.s.s.s.s.s.s.s.s.s.s.s.s.s.s.s.s.",
"s.s.s.s.s.s.s.s.s.s.s.s.s.s.s.s.s.s.s.s.s.s.s.s.s.s.s.s.s.s.s.s.s.s.s.s.s.s.s.s.s.s.s.s.s.s.s.s.s.s.s.s.s.s.s.s.s.s.s.s.s.s.s.s.s.s.s.s.s.s.s.s.s.s.s.s.s.s.s.s.s.s.s.s.s.s.s.s.s.s.s.s.s.s.s.s.s.s.s.s.s.s.s.s.s.s.s.s.s.s.s.s.s.s.s.s.s.s.s.s.s.s.s.s.s.s.s.s.s.s.s.s.s.s.s.s.s.s.s.s.s.s.s.s.s.s.s.s.s.s.s.s.s.s.s.s.s.s.s.s.s.s.s.s.s.s.s.s.s.s.s.s.s.s.s.s.s.s.s.s.s.s.s.s.s.s.s.s.s.s.s.s.s.s.s.s.s.s.s.s.s.s.s.s.s.s.s.s.s.s.s.s.s.s.s.s.s.s.s.s.s.s.s.s.s.s.s.s.s.s.s.$.$.:.:.5.7.y.y.u.u.y.y.u.u.u.u.u.u.u.f.f.f.f.f.f.h.l.l.M.l.h.l.M.M.l.M.M.S.J.S.S.J.J.J.J.J.J.S.M.J.H.J.J.H.H.H.H.T.E.E.E.T.T.T.T.E.E.H.E.!.!.E.L.H.H.H.H.H.H.M.J.L.E.T.H.H.L.E.E.E.L.S.J.H.H.H.K.H.H.H.E.K.H.H.L.K.H.S.S.S.H.M.M.H.L.H.K.H.S.H.H.S.S.M.v.M.h.l.h.h.h.h.f.h.h.u.y.y.y.y.y.7.5.-.;.;.*.=.*.$.=.$.=.$.$.$.$.*.=.;.=.;.;.5.7.7.7.5.5.y.y.y.y.u.y.y.y.y.y.y.y.y.y.y.d.y.y.y.y.y.y.y.y.y.y.y.y.y.7.y.7.7.7.y.7.5.y.5.5.7.7.:.7.;.;.:.:.:.;.;.*.;.*.=.$.$.$.$.$.$.$.#.#.#.$.$.;.$.;.$.=.;.=.;.$.$.$.2.=.#...| ` ( E T F s.s.s.s.s.s.s.s.s.s.s.s.s.s.s.s.s.s.s.s.s.s.s.s.s.s.s.s.s.s.s.s.s.s.s.s.s.s.s.s.s.s.s.s.s.s.s.s.s.s.s.s.s.s.s.s.s.s.s.s.s.s.s.s.s.s.s.s.s.s.s.s.s.s.s.s.s.s.s.s.s.s.s.s.s.s.s.s.s.s.s.s.s.s.s.s.s.s.s.s.s.s.s.s.s.s.s.s.s.s.s.s.",
"s.s.s.s.s.s.s.s.s.s.s.s.s.s.s.s.s.s.s.s.s.s.s.s.s.s.s.s.s.s.s.s.s.s.s.s.s.s.s.s.s.s.s.s.s.s.s.s.s.s.s.s.s.s.s.s.s.s.s.s.s.s.s.s.s.s.s.s.s.s.s.s.s.s.s.s.s.s.s.s.s.s.s.s.s.s.s.s.s.s.s.s.s.s.s.s.s.s.s.s.s.s.s.s.s.s.s.s.s.s.s.s.s.s.s.s.s.s.s.s.s.s.s.s.s.s.s.s.s.s.s.s.s.s.s.s.s.s.s.s.s.s.s.s.s.s.s.s.s.s.s.s.s.s.s.s.s.s.s.s.s.s.s.s.s.s.s.s.s.s.s.s.s.s.s.s.s.s.s.s.s.s.s.s.s.s.s.s.s.s.s.s.s.s.s.s.s.s.s.s.s.s.s.s.s.s.s.s.s.s.s.s.s.s.s.s.s.s.s.s.s.s.s.s.s.s.s.s.s.s.$.=.5.:.5.7.7.y.y.y.y.y.y.u.u.u.u.u.u.f.f.f.f.f.h.h.h.h.h.l.l.l.M.M.M.M.M.M.M.S.M.M.S.S.M.S.S.S.J.S.M.H.J.J.H.H.H.H.H.L.L.E.L.T.E.T.E.T.H.T.E.E.E.T.H.H.T.L.H.H.H.H.H.H.H.J.H.L.T.T.L.H.H.L.L.H.L.H.L.H.L.E.E.K.H.L.K.K.K.H.S.H.M.M.M.H.H.L.H.S.L.S.M.l.M.M.M.h.h.h.h.h.f.f.h.h.f.u.y.y.y.y.7.5.;.*.;.;.=.=.$.$.$.#.$.$.$.$.$.*.=.*.=.=.;.5.5.5.5.5.7.y.u.y.u.y.y.y.y.y.y.y.y.y.y.y.y.y.y.y.y.y.7.:.y.y.y.y.y.y.y.7.7.5.7.7.7.7.:.:.7.5.:.5.5.:.:.7.:.;.:.;.;.*.=.$.$.$.#.$.$.$.$.#.$.#.$.;.$.;.;.;.;.;.$.$.$.$.5.2.#...| ` ( E T F s.s.s.s.s.s.s.s.s.s.s.s.s.s.s.s.s.s.s.s.s.s.s.s.s.s.s.s.s.s.s.s.s.s.s.s.s.s.s.s.s.s.s.s.s.s.s.s.s.s.s.s.s.s.s.s.s.s.s.s.s.s.s.s.s.s.s.s.s.s.s.s.s.s.s.s.s.s.s.s.s.s.s.s.s.s.s.s.s.s.s.s.s.s.s.s.s.s.s.s.s.s.s.s.s.s.s.s.s.s.s.s.",
"s.s.s.s.s.s.s.s.s.s.s.s.s.s.s.s.s.s.s.s.s.s.s.s.s.s.s.s.s.s.s.s.s.s.s.s.s.s.s.s.s.s.s.s.s.s.s.s.s.s.s.s.s.s.s.s.s.s.s.s.s.s.s.s.s.s.s.s.s.s.s.s.s.s.s.s.s.s.s.s.s.s.s.s.s.s.s.s.s.s.s.s.s.s.s.s.s.s.s.s.s.s.s.s.s.s.s.s.s.s.s.s.s.s.s.s.s.s.s.s.s.s.s.s.s.s.s.s.s.s.s.s.s.s.s.s.s.s.s.s.s.s.s.s.s.s.s.s.s.s.s.s.s.s.s.s.s.s.s.s.s.s.s.s.s.s.s.s.s.s.s.s.s.s.s.s.s.s.s.s.s.s.s.s.s.s.s.s.s.s.s.s.s.s.s.s.s.s.s.s.s.s.s.s.s.s.s.s.s.s.s.s.s.s.s.s.s.s.s.s.s.s.s.s.s.s.s.s.s.X.-.:.7.7.y.7.y.y.y.y.y.y.y.y.u.u.u.u.u.f.f.u.f.h.h.h.M.M.l.l.M.M.l.l.M.M.M.M.l.M.M.M.M.M.M.S.J.H.H.H.H.H.H.H.H.L.H.L.L.L.E.E.E.E.E.E.T.T.E.T.E.L.E.E.H.H.L.H.J.J.H.L.H.S.H.E.H.H.E.E.T.H.L.L.L.H.M.S.H.L.H.H.K.E.L.K.K.E.H.H.H.K.H.H.S.H.H.S.S.S.S.M.S.M.M.M.M.h.h.h.h.h.u.f.f.h.f.u.u.y.y.y.7.5.;.*.*.;.=.=.$.$.#.#.#.$.$.$.$.$.$.$.$.=.$.=.;.5.5.7.7.7.u.u.y.y.y.y.y.y.y.y.y.y.y.y.d.d.y.y.y.7.y.7.7.7.y.y.y.y.y.7.7.7.7.7.5.7.5.7.:.;.:.5.5.7.:.7.;.;.;.;.;.*.=.$.$.$.#.$.$.#.=.#.$.#.$.$.$.$.$.;.;.;.$.=.$.;.;.=.#.| | [ ( E T F A s.s.s.s.s.s.s.s.s.s.s.s.s.s.s.s.s.s.s.s.s.s.s.s.s.s.s.s.s.s.s.s.s.s.s.s.s.s.s.s.s.s.s.s.s.s.s.s.s.s.s.s.s.s.s.s.s.s.s.s.s.s.s.s.s.s.s.s.s.s.s.s.s.s.s.s.s.s.s.s.s.s.s.s.s.s.s.s.s.s.s.s.s.s.s.s.s.s.s.s.s.s.s.s.s.s.s.s.s.s.s.",
"s.s.s.s.s.s.s.s.s.s.s.s.s.s.s.s.s.s.s.s.s.s.s.s.s.s.s.s.s.s.s.s.s.s.s.s.s.s.s.s.s.s.s.s.s.s.s.s.s.s.s.s.s.s.s.s.s.s.s.s.s.s.s.s.s.s.s.s.s.s.s.s.s.s.s.s.s.s.s.s.s.s.s.s.s.s.s.s.s.s.s.s.s.s.s.s.s.s.s.s.s.s.s.s.s.s.s.s.s.s.s.s.s.s.s.s.s.s.s.s.s.s.s.s.s.s.s.s.s.s.s.s.s.s.s.s.s.s.s.s.s.s.s.s.s.s.s.s.s.s.s.s.s.s.s.s.s.s.s.s.s.s.s.s.s.s.s.s.s.s.s.s.s.s.s.s.s.s.s.s.s.s.s.s.s.s.s.s.s.s.s.s.s.s.s.s.s.s.s.s.s.s.s.s.s.s.s.s.s.s.s.s.s.s.s.s.s.s.s.s.s.s.s.s.s.s.s.s.! 2.:.:.7.7.y.y.y.y.y.u.y.y.y.y.u.u.u.u.u.f.f.f.f.h.h.h.l.M.l.h.M.l.l.M.l.l.l.M.S.S.S.M.M.M.S.H.H.H.J.H.H.H.H.J.H.T.T.L.H.T.!.E.E.E.E.K.H.H.L.L.T.E.L.L.H.J.H.H.L.H.T.L.J.J.H.H.H.H.H.H.H.H.H.T.H.H.J.J.H.T.E.L.H.H.H.L.K.K.H.H.L.K.K.K.S.S.M.M.M.M.S.M.H.M.M.M.M.M.h.h.h.h.h.h.f.f.f.f.y.y.y.7.7.5.*.;.;.*.=.$.$.#.$.#.$.$.$.$.$.$.$.$.$.$.=.=.5.2.5.7.7.7.u.u.u.y.y.y.y.y.y.y.y.y.y.y.y.y.y.y.y.y.y.y.7.7.7.y.7.7.y.7.7.5.7.7.5.7.5.5.:.;.5.5.5.7.;.:.;.5.;.;.;.*.=.#.$.$.$.$.#.#.$.#.$.#.$.$.$.;.$.;.;.=.$.2.$.5.$.=.$.#...[ R T U F D s.s.s.s.s.s.s.s.s.s.s.s.s.s.s.s.s.s.s.s.s.s.s.s.s.s.s.s.s.s.s.s.s.s.s.s.s.s.s.s.s.s.s.s.s.s.s.s.s.s.s.s.s.s.s.s.s.s.s.s.s.s.s.s.s.s.s.s.s.s.s.s.s.s.s.s.s.s.s.s.s.s.s.s.s.s.s.s.s.s.s.s.s.s.s.s.s.s.s.s.s.s.s.s.s.s.s.s.s.s.s.",
"s.s.s.s.s.s.s.s.s.s.s.s.s.s.s.s.s.s.s.s.s.s.s.s.s.s.s.s.s.s.s.s.s.s.s.s.s.s.s.s.s.s.s.s.s.s.s.s.s.s.s.s.s.s.s.s.s.s.s.s.s.s.s.s.s.s.s.s.s.s.s.s.s.s.s.s.s.s.s.s.s.s.s.s.s.s.s.s.s.s.s.s.s.s.s.s.s.s.s.s.s.s.s.s.s.s.s.s.s.s.s.s.s.s.s.s.s.s.s.s.s.s.s.s.s.s.s.s.s.s.s.s.s.s.s.s.s.s.s.s.s.s.s.s.s.s.s.s.s.s.s.s.s.s.s.s.s.s.s.s.s.s.s.s.s.s.s.s.s.s.s.s.s.s.s.s.s.s.s.s.s.s.s.s.s.s.s.s.s.s.s.s.s.s.s.s.s.s.s.s.s.s.s.s.s.s.s.s.s.s.s.s.s.s.s.s.s.s.s.s.s.s.s.s.s.s.s.W ;.;.5.7.y.y.y.y.y.7.y.y.y.y.y.y.y.y.y.u.u.f.u.f.h.h.h.h.h.h.l.M.M.M.M.M.M.M.M.M.S.S.S.M.M.l.M.H.S.J.H.H.H.H.M.M.H.L.H.J.H.E.L.H.H.H.L.K.H.L.L.H.S.K.L.H.L.S.H.S.H.S.L.H.J.S.J.L.H.H.S.L.S.M.M.L.H.L.E.H.H.H.H.L.L.T.H.H.H.H.H.L.K.K.H.H.S.S.S.H.C.M.H.S.H.J.M.M.M.h.M.h.h.h.h.h.d.h.f.y.y.u.y.y.y.5.;.;.;.*.*.-.$.$.$.$.$.$.#.$.#.#.#.$.$.$.$.=.;.;.5.5.y.7.y.y.y.y.y.y.y.y.y.y.y.y.y.y.y.y.y.y.y.y.y.y.y.:.:.y.7.:.:.:.5.;.;.5.7.7.5.:.:.5.5.:.7.5.;.:.;.;.;.;.-.*.$.#.$.$.#.#.#.#.$.$.#.$.$.$.$.$.$.;.=.=.=.;.=.5.=.=.$.#.| ( ( T U P D s.s.s.s.s.s.s.s.s.s.s.s.s.s.s.s.s.s.s.s.s.s.s.s.s.s.s.s.s.s.s.s.s.s.s.s.s.s.s.s.s.s.s.s.s.s.s.s.s.s.s.s.s.s.s.s.s.s.s.s.s.s.s.s.s.s.s.s.s.s.s.s.s.s.s.s.s.s.s.s.s.s.s.s.s.s.s.s.s.s.s.s.s.s.s.s.s.s.s.s.s.s.s.s.s.s.s.s.s.s.s.",
"s.s.s.s.s.s.s.s.s.s.s.s.s.s.s.s.s.s.s.s.s.s.s.s.s.s.s.s.s.s.s.s.s.s.s.s.s.s.s.s.s.s.s.s.s.s.s.s.s.s.s.s.s.s.s.s.s.s.s.s.s.s.s.s.s.s.s.s.s.s.s.s.s.s.s.s.s.s.s.s.s.s.s.s.s.s.s.s.s.s.s.s.s.s.s.s.s.s.s.s.s.s.s.s.s.s.s.s.s.s.s.s.s.s.s.s.s.s.s.s.s.s.s.s.s.s.s.s.s.s.s.s.s.s.s.s.s.s.s.s.s.s.s.s.s.s.s.s.s.s.s.s.s.s.s.s.s.s.s.s.s.s.s.s.s.s.s.s.s.s.s.s.s.s.s.s.s.s.s.s.s.s.s.s.s.s.s.s.s.s.s.s.s.s.s.s.s.s.s.s.s.s.s.s.s.s.s.s.s.s.s.s.s.s.s.s.s.s.s.s.s.s.s.s.s.s.Y $.5.5.7.y.y.y.y.y.y.y.y.y.y.y.y.y.y.f.f.f.f.f.f.f.h.h.h.l.M.M.M.M.M.M.M.M.M.M.M.S.J.S.J.S.M.M.S.H.M.S.J.J.H.H.H.L.H.J.H.J.H.H.H.H.T.K.L.L.K.K.E.L.H.H.H.H.H.K.H.S.S.M.S.S.J.H.H.L.L.H.H.H.S.S.H.E.K.K.T.E.H.H.L.L.H.H.H.K.H.H.S.H.K.H.E.H.S.H.S.H.C.S.L.M.M.H.M.M.S.M.M.h.h.h.h.h.d.f.f.u.y.u.y.y.y.7.;.;.;.$.*.*.$.$.$.$.$.....#.#.#.#.#.#.#.$.$.$.;.2.5.7.7.y.y.y.y.y.y.y.y.y.y.y.y.y.7.y.y.y.y.y.y.:.y.y.:.:.:.y.:.:.5.5.;.;.5.5.7.5.5.7.7.5.:.5.5.;.:.;.;.;.;.*.*.$.$.$.#.#.#.#.$.$.#.#.$.$.$.$.$.;.;.=.=.=.=.=.;.=.$.#.....` ( E U P A s.s.s.s.s.s.s.s.s.s.s.s.s.s.s.s.s.s.s.s.s.s.s.s.s.s.s.s.s.s.s.s.s.s.s.s.s.s.s.s.s.s.s.s.s.s.s.s.s.s.s.s.s.s.s.s.s.s.s.s.s.s.s.s.s.s.s.s.s.s.s.s.s.s.s.s.s.s.s.s.s.s.s.s.s.s.s.s.s.s.s.s.s.s.s.s.s.s.s.s.s.s.s.s.s.s.s.s.s.s.s.",
"s.s.s.s.s.s.s.s.s.s.s.s.s.s.s.s.s.s.s.s.s.s.s.s.s.s.s.s.s.s.s.s.s.s.s.s.s.s.s.s.s.s.s.s.s.s.s.s.s.s.s.s.s.s.s.s.s.s.s.s.s.s.s.s.s.s.s.s.s.s.s.s.s.s.s.s.s.s.s.s.s.s.s.s.s.s.s.s.s.s.s.s.s.s.s.s.s.s.s.s.s.s.s.s.s.s.s.s.s.s.s.s.s.s.s.s.s.s.s.s.s.s.s.s.s.s.s.s.s.s.s.s.s.s.s.s.s.s.s.s.s.s.s.s.s.s.s.s.s.s.s.s.s.s.s.s.s.s.s.s.s.s.s.s.s.s.s.s.s.s.s.s.s.s.s.s.s.s.s.s.s.s.s.s.s.s.s.s.s.s.s.s.s.s.s.s.s.s.s.s.s.s.s.s.s.s.s.s.s.s.s.s.s.s.s.s.s.s.s.s.s.s.s.s.s.M X.2.5.:.7.y.y.y.y.y.u.y.y.y.y.u.u.u.u.f.h.f.f.f.h.f.h.M.M.M.M.M.M.M.M.l.M.M.M.M.M.J.J.M.S.M.M.M.S.S.M.J.J.H.H.J.J.H.H.J.H.H.H.L.H.S.H.T.H.S.H.H.L.L.K.H.S.S.M.M.S.M.S.S.S.H.H.H.J.J.J.H.H.H.H.S.H.L.K.L.H.T.H.H.H.H.L.L.H.L.H.L.H.H.S.H.E.H.S.S.l.S.J.H.H.M.M.M.S.M.M.S.l.h.h.h.h.h.f.h.f.f.u.y.y.y.y.5.;.;.*.$.*.$.#.#.#.$.#...#.#.....#.#.#.#.#.$.$.=.2.7.7.7.7.7.7.u.y.y.y.y.y.y.y.y.y.7.y.y.y.y.7.5.y.:.y.:.y.y.r.:.:.5.;.;.5.5.5.;.5.;.5.7.5.:.:.5.5.;.;.;.-.-.*.$.$.$.=.$.$.$.$.$.#.#.#.$.#.#.#.#.$.=.=.=.=.=.;.=.;.$.#.....| R R T P D s.s.s.s.s.s.s.s.s.s.s.s.s.s.s.s.s.s.s.s.s.s.s.s.s.s.s.s.s.s.s.s.s.s.s.s.s.s.s.s.s.s.s.s.s.s.s.s.s.s.s.s.s.s.s.s.s.s.s.s.s.s.s.s.s.s.s.s.s.s.s.s.s.s.s.s.s.s.s.s.s.s.s.s.s.s.s.s.s.s.s.s.s.s.s.s.s.s.s.s.s.s.s.s.s.s.s.s.s.s.s.",
"s.s.s.s.s.s.s.s.s.s.s.s.s.s.s.s.s.s.s.s.s.s.s.s.s.s.s.s.s.s.s.s.s.s.s.s.s.s.s.s.s.s.s.s.s.s.s.s.s.s.s.s.s.s.s.s.s.s.s.s.s.s.s.s.s.s.s.s.s.s.s.s.s.s.s.s.s.s.s.s.s.s.s.s.s.s.s.s.s.s.s.s.s.s.s.s.s.s.s.s.s.s.s.s.s.s.s.s.s.s.s.s.s.s.s.s.s.s.s.s.s.s.s.s.s.s.s.s.s.s.s.s.s.s.s.s.s.s.s.s.s.s.s.s.s.s.s.s.s.s.s.s.s.s.s.s.s.s.s.s.s.s.s.s.s.s.s.s.s.s.s.s.s.s.s.s.s.s.s.s.s.s.s.s.s.s.s.s.s.s.s.s.s.s.s.s.s.s.s.s.s.s.s.s.s.s.s.s.s.s.s.s.s.s.s.s.s.s.s.s.s.s.s.s.s.X.2.;.:.y.7.y.y.y.y.y.u.u.y.y.y.y.u.f.f.u.f.f.f.f.h.f.h.l.M.M.M.M.l.l.l.l.M.M.l.l.l.M.M.M.M.M.M.l.l.l.M.J.H.H.H.H.H.H.H.S.J.J.J.S.H.T.L.L.H.S.H.H.H.H.K.L.H.H.S.S.S.M.S.H.J.M.S.H.J.H.H.H.S.H.H.S.M.H.H.H.L.H.H.E.H.H.H.H.H.H.L.L.K.M.M.H.E.E.H.S.S.M.l.l.J.S.S.M.S.l.l.l.l.l.h.h.f.f.f.f.u.u.y.y.y.y.y.7.:.;.$.$.*.$.#.#.$.#.......#...| #.#...#.#.#.$.=.2.2.5.7.7.7.y.y.y.y.y.y.y.y.y.y.y.y.y.y.7.7.7.7.y.:.y.y.y.y.:.:.;.;.;.:.5.:.5.;.:.;.:.5.:.;.;.:.5.;.;.;.-.-.-.$.$.$.=.$.$.#.$.$.#.#.#.#.#.#.#.$.=.=.=.=.=.=.;.=.=.#.$...| ( ( R T P D s.s.s.s.s.s.s.s.s.s.s.s.s.s.s.s.s.s.s.s.s.s.s.s.s.s.s.s.s.s.s.s.s.s.s.s.s.s.s.s.s.s.s.s.s.s.s.s.s.s.s.s.s.s.s.s.s.s.s.s.s.s.s.s.s.s.s.s.s.s.s.s.s.s.s.s.s.s.s.s.s.s.s.s.s.s.s.s.s.s.s.s.s.s.s.s.s.s.s.s.s.s.s.s.s.s.s.s.s.s.s.",
"s.s.s.s.s.s.s.s.s.s.s.s.s.s.s.s.s.s.s.s.s.s.s.s.s.s.s.s.s.s.s.s.s.s.s.s.s.s.s.s.s.s.s.s.s.s.s.s.s.s.s.s.s.s.s.s.s.s.s.s.s.s.s.s.s.s.s.s.s.s.s.s.s.s.s.s.s.s.s.s.s.s.s.s.s.s.s.s.s.s.s.s.s.s.s.s.s.s.s.s.s.s.s.s.s.s.s.s.s.s.s.s.s.s.s.s.s.s.s.s.s.s.s.s.s.s.s.s.s.s.s.s.s.s.s.s.s.s.s.s.s.s.s.s.s.s.s.s.s.s.s.s.s.s.s.s.s.s.s.s.s.s.s.s.s.s.s.s.s.s.s.s.s.s.s.s.s.s.s.s.s.s.s.s.s.s.s.s.s.s.s.s.s.s.s.s.s.s.s.s.s.s.s.s.s.s.s.s.s.s.s.s.s.s.s.s.s.s.s.s.s.s.s.s._ =.;.:.:.y.y.y.y.y.y.y.y.y.y.y.f.y.f.f.f.u.f.f.h.h.h.l.h.h.h.M.l.M.M.l.M.l.M.M.h.l.l.l.M.M.l.h.l.h.h.l.S.J.S.S.S.H.J.J.H.H.H.H.H.J.H.T.L.H.S.S.H.H.H.H.S.H.M.H.S.H.H.H.S.H.E.H.M.J.H.H.L.H.M.H.H.H.S.H.S.S.H.L.H.E.T.E.L.L.H.L.L.H.H.H.H.H.H.H.H.S.l.M.l.l.S.S.M.M.M.l.l.l.J.l.h.l.f.f.f.f.y.y.y.y.y.y.y.y.:.;.-.*.$.*.#.#.#.#...........| ..........#.$.$.2.2.;.5.5.7.7.y.7.7.7.7.7.7.y.u.y.y.y.y.7.7.y.y.y.y.y.:.:.:.:.:.;.;.:.;.;.:.;.;.;.:.;.:.;.:.;.5.5.;.*.;.-.-.*.$.$.$.$.$.$.#.#.$.#.#...#.#.#.#.$.;.;.=.=.=.=.=.=.=.$.*...| | ( T U P D s.s.s.s.s.s.s.s.s.s.s.s.s.s.s.s.s.s.s.s.s.s.s.s.s.s.s.s.s.s.s.s.s.s.s.s.s.s.s.s.s.s.s.s.s.s.s.s.s.s.s.s.s.s.s.s.s.s.s.s.s.s.s.s.s.s.s.s.s.s.s.s.s.s.s.s.s.s.s.s.s.s.s.s.s.s.s.s.s.s.s.s.s.s.s.s.s.s.s.s.s.s.s.s.s.s.s.s.s.s.s.",
"s.s.s.s.s.s.s.s.s.s.s.s.s.s.s.s.s.s.s.s.s.s.s.s.s.s.s.s.s.s.s.s.s.s.s.s.s.s.s.s.s.s.s.s.s.s.s.s.s.s.s.s.s.s.s.s.s.s.s.s.s.s.s.s.s.s.s.s.s.s.s.s.s.s.s.s.s.s.s.s.s.s.s.s.s.s.s.s.s.s.s.s.s.s.s.s.s.s.s.s.s.s.s.s.s.s.s.s.s.s.s.s.s.s.s.s.s.s.s.s.s.s.s.s.s.s.s.s.s.s.s.s.s.s.s.s.s.s.s.s.s.s.s.s.s.s.s.s.s.s.s.s.s.s.s.s.s.s.s.s.s.s.s.s.s.s.s.s.s.s.s.s.s.s.s.s.s.s.s.s.s.s.s.s.s.s.s.s.s.s.s.s.s.s.s.s.s.s.s.s.s.s.s.s.s.s.s.s.s.s.s.s.s.s.s.s.s.s.s.s.s.s.s.Y ;.;.:.:.:.7.y.y.y.y.y.y.y.y.7.u.f.u.u.y.u.f.f.f.h.h.l.h.h.h.M.M.l.l.M.l.l.l.M.M.l.M.l.l.M.l.h.l.l.l.l.l.M.S.S.J.J.H.S.M.J.J.H.H.H.H.J.H.J.H.M.H.H.H.H.H.H.H.M.H.H.S.L.L.S.H.E.E.H.L.H.H.H.L.H.S.S.S.M.S.H.H.J.H.L.T.E.E.E.H.L.E.H.H.H.H.H.J.H.H.S.H.l.M.l.M.J.S.J.M.M.M.l.M.M.l.h.h.f.f.f.f.y.y.y.y.y.y.y.y.:.;.-.*.$.$.#.#.#.#...#.....| | ..#.......#.$.$.2.2.;.5.5.7.7.7.7.7.7.7.7.y.y.7.7.7.y.y.y.y.y.7.:.:.y.y.:.y.:.:.;.;.;.;.;.;.;.;.;.;.;.5.;.;.;.;.:.;.;.;.;.-.$.*.$.#.$.$.$.#.#.$.#.#.#.#.#.#.#.#.$.=.=.=.=.=.=.=.=.$.*...| | R T U P D s.s.s.s.s.s.s.s.s.s.s.s.s.s.s.s.s.s.s.s.s.s.s.s.s.s.s.s.s.s.s.s.s.s.s.s.s.s.s.s.s.s.s.s.s.s.s.s.s.s.s.s.s.s.s.s.s.s.s.s.s.s.s.s.s.s.s.s.s.s.s.s.s.s.s.s.s.s.s.s.s.s.s.s.s.s.s.s.s.s.s.s.s.s.s.s.s.s.s.s.s.s.s.s.s.s.s.s.s.s.s.",
"s.s.s.s.s.s.s.s.s.s.s.s.s.s.s.s.s.s.s.s.s.s.s.s.s.s.s.s.s.s.s.s.s.s.s.s.s.s.s.s.s.s.s.s.s.s.s.s.s.s.s.s.s.s.s.s.s.s.s.s.s.s.s.s.s.s.s.s.s.s.s.s.s.s.s.s.s.s.s.s.s.s.s.s.s.s.s.s.s.s.s.s.s.s.s.s.s.s.s.s.s.s.s.s.s.s.s.s.s.s.s.s.s.s.s.s.s.s.s.s.s.s.s.s.s.s.s.s.s.s.s.s.s.s.s.s.s.s.s.s.s.s.s.s.s.s.s.s.s.s.s.s.s.s.s.s.s.s.s.s.s.s.s.s.s.s.s.s.s.s.s.s.s.s.s.s.s.s.s.s.s.s.s.s.s.s.s.s.s.s.s.s.s.s.s.s.s.s.s.s.s.s.s.s.s.s.s.s.s.s.s.s.s.s.s.s.s.s.s.s.s.s.Y 2.;.:.:.:.;.7.7.y.y.y.y.y.y.y.y.u.u.y.y.y.u.f.h.h.h.h.h.h.h.h.M.M.l.l.l.l.M.M.M.h.h.h.l.M.M.l.l.M.l.l.l.M.M.J.J.J.S.S.S.H.H.M.S.J.J.J.S.H.J.J.S.S.S.S.M.S.H.K.K.H.S.M.H.H.S.S.E.T.H.L.T.H.H.H.S.S.S.S.H.S.S.H.T.H.J.M.H.L.H.H.H.T.H.H.H.J.J.H.S.M.v.S.l.M.l.M.M.M.M.M.M.l.l.M.h.h.h.f.f.f.f.f.y.y.y.y.y.y.y.7.5.;.-.*.*.$.#.#.$.#.........| | ........| ..#.$.=.2.5.5.7.7.7.7.7.6.7.y.7.y.y.7.y.y.y.y.y.y.7.7.7.y.y.:.:.:.y.y.;.;.;.;.;.;.;.;.;.;.;.:.;.;.;.;.;.;.;.;.;.-.$.*.$.#.#.$.#.#.#.#.#.#.#.#.#.#.#.#.$.=.=.=.;.=.=.=.=.$.$...| | ( T U P D s.s.s.s.s.s.s.s.s.s.s.s.s.s.s.s.s.s.s.s.s.s.s.s.s.s.s.s.s.s.s.s.s.s.s.s.s.s.s.s.s.s.s.s.s.s.s.s.s.s.s.s.s.s.s.s.s.s.s.s.s.s.s.s.s.s.s.s.s.s.s.s.s.s.s.s.s.s.s.s.s.s.s.s.s.s.s.s.s.s.s.s.s.s.s.s.s.s.s.s.s.s.s.s.s.s.s.s.s.s.s.",
"s.s.s.s.s.s.s.s.s.s.s.s.s.s.s.s.s.s.s.s.s.s.s.s.s.s.s.s.s.s.s.s.s.s.s.s.s.s.s.s.s.s.s.s.s.s.s.s.s.s.s.s.s.s.s.s.s.s.s.s.s.s.s.s.s.s.s.s.s.s.s.s.s.s.s.s.s.s.s.s.s.s.s.s.s.s.s.s.s.s.s.s.s.s.s.s.s.s.s.s.s.s.s.s.s.s.s.s.s.s.s.s.s.s.s.s.s.s.s.s.s.s.s.s.s.s.s.s.s.s.s.s.s.s.s.s.s.s.s.s.s.s.s.s.s.s.s.s.s.s.s.s.s.s.s.s.s.s.s.s.s.s.s.s.s.s.s.s.s.s.s.s.s.s.s.s.s.s.s.s.s.s.s.s.s.s.s.s.s.s.s.s.s.s.s.s.s.s.s.s.s.s.s.s.s.s.s.s.s.s.s.s.s.s.s.s.s.s.s.s.s.s.$.2.;.7.:.:.5.5.7.7.y.7.y.y.y.y.y.u.f.f.f.f.u.h.h.h.h.h.h.h.h.h.h.h.h.h.l.h.h.h.l.h.h.h.M.M.l.l.M.M.M.M.M.M.l.M.S.S.S.J.J.J.J.S.M.S.M.S.S.H.H.H.S.M.S.L.K.T.L.H.H.S.S.M.S.S.M.S.L.E.T.E.H.H.H.H.M.S.H.H.H.S.J.H.H.M.H.H.J.H.L.L.H.H.T.J.J.J.J.H.H.H.v.J.l.M.M.M.M.M.M.M.M.l.h.h.M.M.h.h.f.f.f.f.y.y.y.y.y.y.7.7.:.;.-.$.$.#...#.$.#.| | ....| | ..| ....| .. .#.$.2.5.5.5.7.5.7.y.7.7.7.7.y.y.y.5.7.7.y.y.y.7.7.5.y.:.;.:.:.:.:.;.;.;.;.;.-.;.;.;.;.;.;.;.:.;.;.;.;.;.;.-.*.*.$.$.#.#.$.#.#.#.#.#.#.#.#.#.#.#.$.$.=.$.$.$.$.$.$.=.$.#.....| ( T T P D s.s.s.s.s.s.s.s.s.s.s.s.s.s.s.s.s.s.s.s.s.s.s.s.s.s.s.s.s.s.s.s.s.s.s.s.s.s.s.s.s.s.s.s.s.s.s.s.s.s.s.s.s.s.s.s.s.s.s.s.s.s.s.s.s.s.s.s.s.s.s.s.s.s.s.s.s.s.s.s.s.s.s.s.s.s.s.s.s.s.s.s.s.s.s.s.s.s.s.s.s.s.s.s.s.s.s.s.s.s.s.",
"s.s.s.s.s.s.s.s.s.s.s.s.s.s.s.s.s.s.s.s.s.s.s.s.s.s.s.s.s.s.s.s.s.s.s.s.s.s.s.s.s.s.s.s.s.s.s.s.s.s.s.s.s.s.s.s.s.s.s.s.s.s.s.s.s.s.s.s.s.s.s.s.s.s.s.s.s.s.s.s.s.s.s.s.s.s.s.s.s.s.s.s.s.s.s.s.s.s.s.s.s.s.s.s.s.s.s.s.s.s.s.s.s.s.s.s.s.s.s.s.s.s.s.s.s.s.s.s.s.s.s.s.s.s.s.s.s.s.s.s.s.s.s.s.s.s.s.s.s.s.s.s.s.s.s.s.s.s.s.s.s.s.s.s.s.s.s.s.s.s.s.s.s.s.s.s.s.s.s.s.s.s.s.s.s.s.s.s.s.s.s.s.s.s.s.s.s.s.s.s.s.s.s.s.s.s.s.s.s.s.s.s.s.s.s.s.s.s.s.s.s.X.-.;.;.:.7.7.7.7.y.y.y.y.y.y.y.y.y.u.u.u.u.u.u.h.h.h.h.h.v.h.h.h.l.h.h.h.h.h.l.l.l.M.M.h.l.h.h.h.h.M.M.M.M.M.M.J.J.J.S.S.H.H.J.M.J.S.M.S.M.S.L.H.H.S.H.L.H.H.L.H.K.L.H.H.H.H.H.H.L.T.E.H.S.J.H.L.L.J.H.E.L.H.H.L.L.H.H.H.H.H.H.H.H.S.L.J.S.S.J.H.H.J.J.J.S.S.M.M.l.v.v.v.M.v.b.h.h.h.h.h.f.f.f.d.y.y.y.y.y.y.7.5.5.;.;.*.$.#.#.@.#...| | | ..| | | ....| | | ..#.$.$.2.2.5.2.5.5.5.5.2.5.7.5.y.7.5.7.7.5.7.y.7.7.7.5.5.5.:.;.5.5.;.;.;.;.-.;.;.:.;.;.-.;.;.;.;.;.;.;.;.;.;.*.$.*.$.#.#.#.$.#.$...#.#.#.#.#.#.$.$.#.$.$.$.$.$.$.$.#.#.#...| | ( E T F D s.s.s.s.s.s.s.s.s.s.s.s.s.s.s.s.s.s.s.s.s.s.s.s.s.s.s.s.s.s.s.s.s.s.s.s.s.s.s.s.s.s.s.s.s.s.s.s.s.s.s.s.s.s.s.s.s.s.s.s.s.s.s.s.s.s.s.s.s.s.s.s.s.s.s.s.s.s.s.s.s.s.s.s.s.s.s.s.s.s.s.s.s.s.s.s.s.s.s.s.s.s.s.s.s.s.s.s.s.s.s.",
"s.s.s.s.s.s.s.s.s.s.s.s.s.s.s.s.s.s.s.s.s.s.s.s.s.s.s.s.s.s.s.s.s.s.s.s.s.s.s.s.s.s.s.s.s.s.s.s.s.s.s.s.s.s.s.s.s.s.s.s.s.s.s.s.s.s.s.s.s.s.s.s.s.s.s.s.s.s.s.s.s.s.s.s.s.s.s.s.s.s.s.s.s.s.s.s.s.s.s.s.s.s.s.s.s.s.s.s.s.s.s.s.s.s.s.s.s.s.s.s.s.s.s.s.s.s.s.s.s.s.s.s.s.s.s.s.s.s.s.s.s.s.s.s.s.s.s.s.s.s.s.s.s.s.s.s.s.s.s.s.s.s.s.s.s.s.s.s.s.s.s.s.s.s.s.s.s.s.s.s.s.s.s.s.s.s.s.s.s.s.s.s.s.s.s.s.s.s.s.s.s.s.s.s.s.s.s.s.s.s.s.s.s.s.s.s.s.s.s.s.X.=.;.:.5.5.5.5.7.y.y.y.y.y.y.y.u.f.u.y.y.u.y.u.h.f.h.h.h.h.h.f.h.h.h.h.h.h.h.h.l.l.l.l.l.h.l.h.h.h.h.M.M.M.l.M.S.H.H.H.H.J.S.S.S.M.S.J.M.H.J.J.H.J.H.H.H.H.L.L.H.S.H.K.K.K.H.H.L.L.L.S.H.E.L.S.J.T.H.T.T.L.E.E.L.T.H.L.H.H.H.H.H.H.H.H.H.J.S.S.S.J.S.M.M.S.M.M.M.S.v.v.v.v.v.h.h.h.h.l.h.h.h.f.f.f.y.y.y.y.y.y.7.5.;.;.*.*.$.#.@.@.....| | | | | | | | | | | | ..#.$.$.;.2.2.;.5.5.5.5.5.5.5.5.5.5.5.5.5.5.7.7.7.y.7.7.7.5.:.5.5.5.-.;.;.;.*.*.;.:.:.;.;.;.;.;.-.;.;.;.;.;.;.*.$.*.$.#.#.#.#.$.#.#.#.#.#.#.#.#.$.$.#.$.$.$.$.$.$.$.$.#.#...| ` ` E T Y D s.s.s.s.s.s.s.s.s.s.s.s.s.s.s.s.s.s.s.s.s.s.s.s.s.s.s.s.s.s.s.s.s.s.s.s.s.s.s.s.s.s.s.s.s.s.s.s.s.s.s.s.s.s.s.s.s.s.s.s.s.s.s.s.s.s.s.s.s.s.s.s.s.s.s.s.s.s.s.s.s.s.s.s.s.s.s.s.s.s.s.s.s.s.s.s.s.s.s.s.s.s.s.s.s.s.s.s.s.s.s.",
"s.s.s.s.s.s.s.s.s.s.s.s.s.s.s.s.s.s.s.s.s.s.s.s.s.s.s.s.s.s.s.s.s.s.s.s.s.s.s.s.s.s.s.s.s.s.s.s.s.s.s.s.s.s.s.s.s.s.s.s.s.s.s.s.s.s.s.s.s.s.s.s.s.s.s.s.s.s.s.s.s.s.s.s.s.s.s.s.s.s.s.s.s.s.s.s.s.s.s.s.s.s.s.s.s.s.s.s.s.s.s.s.s.s.s.s.s.s.s.s.s.s.s.s.s.s.s.s.s.s.s.s.s.s.s.s.s.s.s.s.s.s.s.s.s.s.s.s.s.s.s.s.s.s.s.s.s.s.s.s.s.s.s.s.s.s.s.s.s.s.s.s.s.s.s.s.s.s.s.s.s.s.s.s.s.s.s.s.s.s.s.s.s.s.s.s.s.s.s.s.s.s.s.s.s.s.s.s.s.s.s.s.s.s.s.s.s.s.s.W ;.;.;.;.5.5.7.7.y.y.u.y.y.y.y.u.u.f.u.u.u.f.u.f.f.f.h.h.h.f.h.h.h.h.h.h.h.l.h.h.l.h.h.h.h.h.h.h.h.h.M.M.M.J.J.J.S.H.J.H.J.J.H.M.H.E.L.J.H.H.H.J.H.J.H.H.H.H.H.E.E.H.M.S.H.K.L.L.E.E.E.H.J.T.T.T.T.H.H.E.E.E.H.H.L.L.H.H.H.S.H.H.H.J.J.L.H.L.S.S.S.M.l.h.l.l.M.M.M.M.v.v.v.v.M.v.h.f.h.h.h.h.h.f.f.f.y.y.u.y.y.y.7.5.:.;.;.*.$.#.#.@.....| | | | | | | | | | | | ..X.#.$.=.;.=.;.2.5.2.2.5.5.5.5.5.5.5.5.5.;.5.5.7.y.7.7.7.:.;.;.;.;.;.-.;.*.*.*.;.;.;.;.;.;.;.-.-.;.-.*.*.*.*.*.$.$.#.#.#.#.#.$.#.#.#.#.#.#.#.#.#.#.#.$.$.$.$.$.$.$.#...#...| ` ( / T P A s.s.s.s.s.s.s.s.s.s.s.s.s.s.s.s.s.s.s.s.s.s.s.s.s.s.s.s.s.s.s.s.s.s.s.s.s.s.s.s.s.s.s.s.s.s.s.s.s.s.s.s.s.s.s.s.s.s.s.s.s.s.s.s.s.s.s.s.s.s.s.s.s.s.s.s.s.s.s.s.s.s.s.s.s.s.s.s.s.s.s.s.s.s.s.s.s.s.s.s.s.s.s.s.s.s.s.s.s.s.s.",
"s.s.s.s.s.s.s.s.s.s.s.s.s.s.s.s.s.s.s.s.s.s.s.s.s.s.s.s.s.s.s.s.s.s.s.s.s.s.s.s.s.s.s.s.s.s.s.s.s.s.s.s.s.s.s.s.s.s.s.s.s.s.s.s.s.s.s.s.s.s.s.s.s.s.s.s.s.s.s.s.s.s.s.s.s.s.s.s.s.s.s.s.s.s.s.s.s.s.s.s.s.s.s.s.s.s.s.s.s.s.s.s.s.s.s.s.s.s.s.s.s.s.s.s.s.s.s.s.s.s.s.s.s.s.s.s.s.s.s.s.s.s.s.s.s.s.s.s.s.s.s.s.s.s.s.s.s.s.s.s.s.s.s.s.s.s.s.s.s.s.s.s.s.s.s.s.s.s.s.s.s.s.s.s.s.s.s.s.s.s.s.s.s.s.s.s.s.s.s.s.s.s.s.s.s.s.s.s.s.s.s.s.s.s.s.s.s.s.Y 2.-.;.;.5.5.5.7.y.y.y.u.u.y.u.u.u.f.u.u.u.f.f.f.f.f.f.f.h.h.f.h.h.h.f.f.h.h.h.h.l.h.l.h.h.h.h.M.M.l.M.M.M.M.J.H.J.S.J.S.H.H.L.H.J.J.H.H.S.H.H.H.H.T.H.H.H.H.L.T.E.H.M.M.S.S.H.H.H.K.E.T.L.H.L.T.H.H.H.L.E.E.T.L.H.H.L.H.H.T.L.J.H.J.S.H.T.H.J.S.S.M.M.J.M.M.l.l.l.M.M.h.v.v.v.b.h.h.h.l.h.f.h.f.f.f.f.y.y.y.7.y.y.7.7.5.;.;.$.$.#.@.@.....| | | | | | | | | | | | | X.#.#.=.=.;.;.;.5.2.2.5.5.5.y.5.5.:.:.5.;.;.5.7.7.5.7.7.:.5.:.;.;.*.-.*.*.*.*.;.;.;.;.-.-.;.-.*.-.*.*.*.*.*.*.$.#.#.#.#.#.#.$.#.$.#.#...#.#.#.#.#.#.$.$.$.$.$.$.$.#.#.#...| ` ( E T F J s.s.s.s.s.s.s.s.s.s.s.s.s.s.s.s.s.s.s.s.s.s.s.s.s.s.s.s.s.s.s.s.s.s.s.s.s.s.s.s.s.s.s.s.s.s.s.s.s.s.s.s.s.s.s.s.s.s.s.s.s.s.s.s.s.s.s.s.s.s.s.s.s.s.s.s.s.s.s.s.s.s.s.s.s.s.s.s.s.s.s.s.s.s.s.s.s.s.s.s.s.s.s.s.s.s.s.s.s.s.s.",
"s.s.s.s.s.s.s.s.s.s.s.s.s.s.s.s.s.s.s.s.s.s.s.s.s.s.s.s.s.s.s.s.s.s.s.s.s.s.s.s.s.s.s.s.s.s.s.s.s.s.s.s.s.s.s.s.s.s.s.s.s.s.s.s.s.s.s.s.s.s.s.s.s.s.s.s.s.s.s.s.s.s.s.s.s.s.s.s.s.s.s.s.s.s.s.s.s.s.s.s.s.s.s.s.s.s.s.s.s.s.s.s.s.s.s.s.s.s.s.s.s.s.s.s.s.s.s.s.s.s.s.s.s.s.s.s.s.s.s.s.s.s.s.s.s.s.s.s.s.s.s.s.s.s.s.s.s.s.s.s.s.s.s.s.s.s.s.s.s.s.s.s.s.s.s.s.s.s.s.s.s.s.s.s.s.s.s.s.s.s.s.s.s.s.s.s.s.s.s.s.s.s.s.s.s.s.s.s.s.s.s.s.s.s.s.s.s.s.1.;.;.:.;.5.7.7.y.y.y.y.u.u.f.y.y.y.y.y.u.y.y.u.f.f.f.h.f.h.h.h.h.v.h.h.l.h.h.h.h.h.h.h.h.h.h.l.l.l.M.M.M.l.M.J.S.M.M.M.S.J.L.H.H.H.H.J.J.M.M.H.S.S.H.H.T.L.H.T.H.L.H.H.H.L.S.K.K.H.H.H.L.H.H.L.H.H.T.T.E.E.E.T.L.T.L.E.E.H.H.L.H.J.M.J.H.L.T.H.H.M.S.l.l.M.l.l.h.f.M.M.h.h.M.v.h.h.h.f.h.h.h.h.f.d.f.f.u.y.y.y.7.y.5.5.;.;.;.$.#.#.#.......| ' | | | | [ [ [ | [ [ | ..#.#.$.=.;.;.2.5.5.5.7.5.5.5.5.5.5.:.;.:.5.5.7.7.:.5.5.:.:.:.;.;.;.-.$.*.$.*.;.;.;.;.;.*.-.*.*.*.*.*.*.*.*.$.$.#.$.#.#.#.#.#.#.#...#.#.#.#.#.#.#.#.$.$.$.$.$.$.$.$.$.#...| ' ` E T U D s.s.s.s.s.s.s.s.s.s.s.s.s.s.s.s.s.s.s.s.s.s.s.s.s.s.s.s.s.s.s.s.s.s.s.s.s.s.s.s.s.s.s.s.s.s.s.s.s.s.s.s.s.s.s.s.s.s.s.s.s.s.s.s.s.s.s.s.s.s.s.s.s.s.s.s.s.s.s.s.s.s.s.s.s.s.s.s.s.s.s.s.s.s.s.s.s.s.s.s.s.s.s.s.s.s.s.s.s.s.s.",
"s.s.s.s.s.s.s.s.s.s.s.s.s.s.s.s.s.s.s.s.s.s.s.s.s.s.s.s.s.s.s.s.s.s.s.s.s.s.s.s.s.s.s.s.s.s.s.s.s.s.s.s.s.s.s.s.s.s.s.s.s.s.s.s.s.s.s.s.s.s.s.s.s.s.s.s.s.s.s.s.s.s.s.s.s.s.s.s.s.s.s.s.s.s.s.s.s.s.s.s.s.s.s.s.s.s.s.s.s.s.s.s.s.s.s.s.s.s.s.s.s.s.s.s.s.s.s.s.s.s.s.s.s.s.s.s.s.s.s.s.s.s.s.s.s.s.s.s.s.s.s.s.s.s.s.s.s.s.s.s.s.s.s.s.s.s.s.s.s.s.s.s.s.s.s.s.s.s.s.s.s.s.s.s.s.s.s.s.s.s.s.s.s.s.s.s.s.s.s.s.s.s.s.s.s.s.s.s.s.s.s.s.s.s.s.s.s.X.$.:.-.7.7.7.y.y.y.y.y.y.y.u.u.u.y.y.u.y.y.u.f.f.f.u.f.f.h.h.h.f.h.h.h.h.h.h.h.h.M.l.l.l.h.l.l.M.l.l.M.h.l.M.M.M.J.S.M.M.M.M.S.H.H.H.H.H.H.J.H.H.H.H.M.H.L.L.H.L.L.H.E.E.H.H.S.H.S.H.H.H.H.H.H.E.E.H.H.E.E.E.T.H.L.L.H.H.E.E.H.L.H.H.M.l.M.J.H.J.J.S.J.M.l.M.l.l.h.f.h.h.h.u.v.v.h.h.h.h.h.f.f.f.h.f.d.y.y.y.7.7.7.7.5.5.;.;.-.$.#.#.#.@.....| ' | | | | [ [ [ [ [ ` | ..#.#.$.=.=.;.2.5.2.;.;.;.5.5.5.5.7.7.5.5.;.;.5.:.;.:.5.;.;.;.;.;.;.*.*.*.$.$.;.;.*.*.;.;.;.;.*.$.*.*.*.$.$.#.$.#.$.$.#.#.#.#.#.#.#.#...#.#.#.#.#.$.$.$.#.$.$.$.$.$.$.$...| | ( R T U J s.s.s.s.s.s.s.s.s.s.s.s.s.s.s.s.s.s.s.s.s.s.s.s.s.s.s.s.s.s.s.s.s.s.s.s.s.s.s.s.s.s.s.s.s.s.s.s.s.s.s.s.s.s.s.s.s.s.s.s.s.s.s.s.s.s.s.s.s.s.s.s.s.s.s.s.s.s.s.s.s.s.s.s.s.s.s.s.s.s.s.s.s.s.s.s.s.s.s.s.s.s.s.s.s.s.s.s.s.s.s.",
"s.s.s.s.s.s.s.s.s.s.s.s.s.s.s.s.s.s.s.s.s.s.s.s.s.s.s.s.s.s.s.s.s.s.s.s.s.s.s.s.s.s.s.s.s.s.s.s.s.s.s.s.s.s.s.s.s.s.s.s.s.s.s.s.s.s.s.s.s.s.s.s.s.s.s.s.s.s.s.s.s.s.s.s.s.s.s.s.s.s.s.s.s.s.s.s.s.s.s.s.s.s.s.s.s.s.s.s.s.s.s.s.s.s.s.s.s.s.s.s.s.s.s.s.s.s.s.s.s.s.s.s.s.s.s.s.s.s.s.s.s.s.s.s.s.s.s.s.s.s.s.s.s.s.s.s.s.s.s.s.s.s.s.s.s.s.s.s.s.s.s.s.s.s.s.s.s.s.s.s.s.s.s.s.s.s.s.s.s.s.s.s.s.s.s.s.s.s.s.s.s.s.s.s.s.s.s.s.s.s.s.s.s.s.s.s.( $.:.-.7.7.5.5.7.y.y.y.y.y.y.y.y.u.u.y.u.f.u.f.f.f.f.u.f.h.h.h.f.f.h.h.h.h.h.h.f.h.l.l.h.l.l.M.M.S.M.M.M.M.S.J.S.S.M.J.H.H.H.J.H.H.H.J.H.H.M.H.L.H.L.H.H.H.L.H.J.L.H.H.T.T.H.H.H.H.M.M.S.H.L.L.T.E.H.H.H.T.T.T.L.H.T.E.H.H.L.T.H.H.T.T.J.S.J.S.J.H.J.J.H.M.l.h.h.h.h.f.f.f.f.y.f.h.h.b.h.h.h.f.d.h.h.h.f.y.y.y.y.7.7.7.:.5.;.;.-.$.#.#.#.......| ' ' | ` ` [ [ ` ` ` ` | | #.#.$.$.;.;.2.5.5.5.5.5.2.;.2.5.5.5.5.7.7.;.;.;.:.;.;.;.:.;.;.;.*.$.*.*.*.*.;.;.*.*.*.*.;.;.*.$.$.*.$.$.*.*.*.#.$.#.#.#.#.#.#.#.#.#.| #.#.#.#.#.$.$.$.$.$.$.$.$.$.$...| | ` ( / T T J s.s.s.s.s.s.s.s.s.s.s.s.s.s.s.s.s.s.s.s.s.s.s.s.s.s.s.s.s.s.s.s.s.s.s.s.s.s.s.s.s.s.s.s.s.s.s.s.s.s.s.s.s.s.s.s.s.s.s.s.s.s.s.s.s.s.s.s.s.s.s.s.s.s.s.s.s.s.s.s.s.s.s.s.s.s.s.s.s.s.s.s.s.s.s.s.s.s.s.s.s.s.s.s.s.s.s.s.s.s.s.",
"s.s.s.s.s.s.s.s.s.s.s.s.s.s.s.s.s.s.s.s.s.s.s.s.s.s.s.s.s.s.s.s.s.s.s.s.s.s.s.s.s.s.s.s.s.s.s.s.s.s.s.s.s.s.s.s.s.s.s.s.s.s.s.s.s.s.s.s.s.s.s.s.s.s.s.s.s.s.s.s.s.s.s.s.s.s.s.s.s.s.s.s.s.s.s.s.s.s.s.s.s.s.s.s.s.s.s.s.s.s.s.s.s.s.s.s.s.s.s.s.s.s.s.s.s.s.s.s.s.s.s.s.s.s.s.s.s.s.s.s.s.s.s.s.s.s.s.s.s.s.s.s.s.s.s.s.s.s.s.s.s.s.s.s.s.s.s.s.s.s.s.s.s.s.s.s.s.s.s.s.s.s.s.s.s.s.s.s.s.s.s.s.s.s.s.s.s.s.s.s.s.s.s.s.s.s.s.s.s.s.s.s.s.s.s.Y =.;.;.:.5.7.7.7.7.y.y.y.y.y.y.y.y.u.u.y.f.f.h.f.u.f.f.h.h.h.h.h.h.h.h.h.h.h.l.l.h.h.l.M.M.M.M.M.S.J.J.S.S.J.J.J.S.J.H.J.J.H.H.J.J.H.H.J.H.T.T.L.L.J.H.H.H.H.H.H.H.H.H.H.H.H.H.H.H.H.S.M.M.S.H.H.H.L.H.H.L.T.H.H.H.H.H.T.H.J.H.H.L.J.H.H.H.M.S.M.l.M.M.S.H.M.h.h.h.h.h.h.f.h.h.h.y.f.h.h.f.f.l.f.f.h.f.f.h.f.u.y.y.y.7.7.5.:.;.;.-.$.#.#.#.......| ' ' ' ( | [ | ` ` ` ` [ | ..#.$.$.2.=.;.5.;.;.;.2.2.;.2.5.5.;.:.:.7.5.:.5.:.;.;.;.;.;.-.;.-.*.*.$.$.*.*.*.*.*.$.*.*.*.*.$.#.$.$.*.$.$.$.#.#.#.#.#.#.#.$.#.#.#.| #.| ..#.#.$.$.$.$.$.$.$.$.$.$.#...| ( ( R T Y D s.s.s.s.s.s.s.s.s.s.s.s.s.s.s.s.s.s.s.s.s.s.s.s.s.s.s.s.s.s.s.s.s.s.s.s.s.s.s.s.s.s.s.s.s.s.s.s.s.s.s.s.s.s.s.s.s.s.s.s.s.s.s.s.s.s.s.s.s.s.s.s.s.s.s.s.s.s.s.s.s.s.s.s.s.s.s.s.s.s.s.s.s.s.s.s.s.s.s.s.s.s.s.s.s.s.s.s.s.s.s.",
"s.s.s.s.s.s.s.s.s.s.s.s.s.s.s.s.s.s.s.s.s.s.s.s.s.s.s.s.s.s.s.s.s.s.s.s.s.s.s.s.s.s.s.s.s.s.s.s.s.s.s.s.s.s.s.s.s.s.s.s.s.s.s.s.s.s.s.s.s.s.s.s.s.s.s.s.s.s.s.s.s.s.s.s.s.s.s.s.s.s.s.s.s.s.s.s.s.s.s.s.s.s.s.s.s.s.s.s.s.s.s.s.s.s.s.s.s.s.s.s.s.s.s.s.s.s.s.s.s.s.s.s.s.s.s.s.s.s.s.s.s.s.s.s.s.s.s.s.s.s.s.s.s.s.s.s.s.s.s.s.s.s.s.s.s.s.s.s.s.s.s.s.s.s.s.s.s.s.s.s.s.s.s.s.s.s.s.s.s.s.s.s.s.s.s.s.s.s.s.s.s.s.s.s.s.s.s.s.s.s.s.s.s.s.s.$.;.-.:.:.:.5.5.7.y.y.y.y.y.y.y.y.f.y.f.u.y.f.f.h.f.f.h.h.h.h.h.h.M.M.M.h.l.l.l.l.l.h.h.l.C.C.S.H.J.H.H.S.S.M.S.J.J.J.M.S.S.S.J.J.S.H.H.H.J.T.L.H.H.H.H.H.H.L.L.H.H.S.H.H.H.S.S.S.H.H.S.H.H.L.T.E.L.T.T.E.T.L.H.H.H.H.H.T.H.H.H.L.L.H.S.H.H.M.M.M.v.l.v.M.S.v.M.h.h.f.h.h.h.h.h.h.h.h.l.h.f.f.h.h.f.u.f.u.f.y.y.y.y.y.7.5.7.:.;.;.;.*.*.#.#.#...| | | | ' ` ` [ ` ` ` ` [ [ | ..#.$.$.=.=.=.;.5.5.;.5.5.5.5.5.5.5.5.5.7.7.7.:.-.$.-.$.$.-.$.$.*.*.*.$.*.$.*.*.*.*.$.;.*.*.$.$.#.*.$.*.$.$.*.$.#.#.#.#.#.$.#.$.#.#.......#.#.#.$.$.$.$.$.$.#.#.$.#.#...| ` ` R T T J s.s.s.s.s.s.s.s.s.s.s.s.s.s.s.s.s.s.s.s.s.s.s.s.s.s.s.s.s.s.s.s.s.s.s.s.s.s.s.s.s.s.s.s.s.s.s.s.s.s.s.s.s.s.s.s.s.s.s.s.s.s.s.s.s.s.s.s.s.s.s.s.s.s.s.s.s.s.s.s.s.s.s.s.s.s.s.s.s.s.s.s.s.s.s.s.s.s.s.s.s.s.s.s.s.s.s.s.s.s.s.",
"s.s.s.s.s.s.s.s.s.s.s.s.s.s.s.s.s.s.s.s.s.s.s.s.s.s.s.s.s.s.s.s.s.s.s.s.s.s.s.s.s.s.s.s.s.s.s.s.s.s.s.s.s.s.s.s.s.s.s.s.s.s.s.s.s.s.s.s.s.s.s.s.s.s.s.s.s.s.s.s.s.s.s.s.s.s.s.s.s.s.s.s.s.s.s.s.s.s.s.s.s.s.s.s.s.s.s.s.s.s.s.s.s.s.s.s.s.s.s.s.s.s.s.s.s.s.s.s.s.s.s.s.s.s.s.s.s.s.s.s.s.s.s.s.s.s.s.s.s.s.s.s.s.s.s.s.s.s.s.s.s.s.s.s.s.s.s.s.s.s.s.s.s.s.s.s.s.s.s.s.s.s.s.s.s.s.s.s.s.s.s.s.s.s.s.s.s.s.s.s.s.s.s.s.s.s.s.s.s.s.s.s.s.s.X.2.;.:.:.y.5.7.y.y.y.7.7.y.y.u.y.u.f.f.f.f.u.h.h.h.f.f.h.h.h.h.h.l.v.h.h.h.h.h.l.l.C.l.l.M.C.C.M.M.J.J.S.J.S.J.J.J.J.S.J.L.J.S.H.H.J.J.H.T.L.H.L.L.L.H.H.H.L.K.K.E.H.S.L.H.H.L.M.S.S.H.S.H.H.L.E.E.L.L.L.T.E.H.J.H.H.H.L.E.T.H.M.J.H.H.J.H.H.S.M.v.l.l.h.v.S.l.M.h.h.h.h.l.h.h.f.f.l.h.h.h.f.f.h.h.f.f.u.u.f.d.y.y.y.y.7.:.:.;.;.;.;.*.*.#.#.#.#.| | ' ` ` ` ( ` ( ` ( ` ( [ | | X.$.#.$.=.=.=.;.;.;.;.5.;.5.5.5.;.5.5.5.5.;.;.*.$.-.$.$.$.#.#.$.$.$.*.*.$.*.*.$.*.*.*.#.#.$.$.$.$.*.*.$.$.$.$.$.#.#.#.#.$.@.#.$.#.#...#.#.#.#.$.$.$.$.$.$.#.$.$.#.....| ` ` R T T P s.s.s.s.s.s.s.s.s.s.s.s.s.s.s.s.s.s.s.s.s.s.s.s.s.s.s.s.s.s.s.s.s.s.s.s.s.s.s.s.s.s.s.s.s.s.s.s.s.s.s.s.s.s.s.s.s.s.s.s.s.s.s.s.s.s.s.s.s.s.s.s.s.s.s.s.s.s.s.s.s.s.s.s.s.s.s.s.s.s.s.s.s.s.s.s.s.s.s.s.s.s.s.s.s.s.s.s.s.s.s.",
"s.s.s.s.s.s.s.s.s.s.s.s.s.s.s.s.s.s.s.s.s.s.s.s.s.s.s.s.s.s.s.s.s.s.s.s.s.s.s.s.s.s.s.s.s.s.s.s.s.s.s.s.s.s.s.s.s.s.s.s.s.s.s.s.s.s.s.s.s.s.s.s.s.s.s.s.s.s.s.s.s.s.s.s.s.s.s.s.s.s.s.s.s.s.s.s.s.s.s.s.s.s.s.s.s.s.s.s.s.s.s.s.s.s.s.s.s.s.s.s.s.s.s.s.s.s.s.s.s.s.s.s.s.s.s.s.s.s.s.s.s.s.s.s.s.s.s.s.s.s.s.s.s.s.s.s.s.s.s.s.s.s.s.s.s.s.s.s.s.s.s.s.s.s.s.s.s.s.s.s.s.s.s.s.s.s.s.s.s.s.s.s.s.s.s.s.s.s.s.s.s.s.s.s.s.s.s.s.s.s.s.s.s.X.;.;.-.r.y.7.7.7.y.y.y.y.y.u.f.u.u.f.f.f.u.f.f.f.f.f.f.f.h.h.h.h.l.h.h.h.h.h.l.l.C.l.M.C.l.h.C.C.l.C.C.C.l.l.C.S.J.J.J.J.J.T.J.J.L.H.H.H.H.J.H.H.L.K.H.S.H.H.L.K.K.E.K.H.K.L.K.K.M.H.S.K.H.H.L.S.H.T.E.E.T.T.E.T.H.H.H.H.T.E.E.H.J.S.J.H.S.S.S.J.S.v.h.l.h.h.h.h.h.h.h.h.h.l.h.l.h.f.h.f.h.u.h.f.f.f.f.f.f.f.f.u.u.u.y.y.:.;.;.;.;.;.;.*.*.#.#.#...| ' | ` ` ` ( ` ` ( ( ( ( ` [ | ..$.#.$.$.=.*.;.;.=.;.;.;.5.5.5.2.;.5.5.5.5.;.;.*.*.*.*.*.#.#.$.$.$.*.*.*.*.$.*.*.$.$.$.$.$.#.$.$.$.$.$.$.#.@.#.#.#.#.#.#.#.$.$.#.#.#.#.#.#.#.#.#.$.$.$.#.#.$.$.#.#...| ( ( ( T E P s.s.s.s.s.s.s.s.s.s.s.s.s.s.s.s.s.s.s.s.s.s.s.s.s.s.s.s.s.s.s.s.s.s.s.s.s.s.s.s.s.s.s.s.s.s.s.s.s.s.s.s.s.s.s.s.s.s.s.s.s.s.s.s.s.s.s.s.s.s.s.s.s.s.s.s.s.s.s.s.s.s.s.s.s.s.s.s.s.s.s.s.s.s.s.s.s.s.s.s.s.s.s.s.s.s.s.s.s.s.s.",
"s.s.s.s.s.s.s.s.s.s.s.s.s.s.s.s.s.s.s.s.s.s.s.s.s.s.s.s.s.s.s.s.s.s.s.s.s.s.s.s.s.s.s.s.s.s.s.s.s.s.s.s.s.s.s.s.s.s.s.s.s.s.s.s.s.s.s.s.s.s.s.s.s.s.s.s.s.s.s.s.s.s.s.s.s.s.s.s.s.s.s.s.s.s.s.s.s.s.s.s.s.s.s.s.s.s.s.s.s.s.s.s.s.s.s.s.s.s.s.s.s.s.s.s.s.s.s.s.s.s.s.s.s.s.s.s.s.s.s.s.s.s.s.s.s.s.s.s.s.s.s.s.s.s.s.s.s.s.s.s.s.s.s.s.s.s.s.s.s.s.s.s.s.s.s.s.s.s.s.s.s.s.s.s.s.s.s.s.s.s.s.s.s.s.s.s.s.s.s.s.s.s.s.s.s.s.s.s.s.s.s.s.! 2.5.7.y.y.y.y.7.7.5.7.y.y.y.u.f.u.y.u.f.u.y.y.f.f.f.f.f.f.f.h.h.l.h.f.h.h.h.l.l.C.l.h.h.l.h.l.l.S.J.S.M.M.J.S.J.S.S.J.J.J.J.H.L.L.L.L.J.L.H.H.L.H.H.K.E.K.L.H.H.H.H.H.L.K.E.E.K.L.M.H.S.K.E.E.T.H.H.T.T.!.!.E.H.L.H.H.J.J.H.E.E.H.H.J.J.H.M.M.M.S.S.v.l.l.M.h.h.h.l.h.f.f.h.h.f.f.h.h.h.h.h.y.h.f.u.f.u.f.f.u.u.y.u.u.y.7.:.:.5.;.;.;.;.*.*.#.#.....| | | [ ` ` ( ( ( ( ( ( ( ` ` | ..$.$.$.$.=.=.=.=.=.=.;.;.5.5.5.2.5.5.5.;.;.;.-.$.*.$.$.*.$.#.#.*.*.*.*.*.*.*.$.$.#.*.*.$.$.#.#.$.$.*.$.$.$.$.$.#.#.#.#.#.#.*.$.#.#.#.#.#.#.#.#.#.$.$.$.#.#.$.$.#.#...| ( ( / T T U s.s.s.s.s.s.s.s.s.s.s.s.s.s.s.s.s.s.s.s.s.s.s.s.s.s.s.s.s.s.s.s.s.s.s.s.s.s.s.s.s.s.s.s.s.s.s.s.s.s.s.s.s.s.s.s.s.s.s.s.s.s.s.s.s.s.s.s.s.s.s.s.s.s.s.s.s.s.s.s.s.s.s.s.s.s.s.s.s.s.s.s.s.s.s.s.s.s.s.s.s.s.s.s.s.s.s.s.s.s.s.",
"s.s.s.s.s.s.s.s.s.s.s.s.s.s.s.s.s.s.s.s.s.s.s.s.s.s.s.s.s.s.s.s.s.s.s.s.s.s.s.s.s.s.s.s.s.s.s.s.s.s.s.s.s.s.s.s.s.s.s.s.s.s.s.s.s.s.s.s.s.s.s.s.s.s.s.s.s.s.s.s.s.s.s.s.s.s.s.s.s.s.s.s.s.s.s.s.s.s.s.s.s.s.s.s.s.s.s.s.s.s.s.s.s.s.s.s.s.s.s.s.s.s.s.s.s.s.s.s.s.s.s.s.s.s.s.s.s.s.s.s.s.s.s.s.s.s.s.s.s.s.s.s.s.s.s.s.s.s.s.s.s.s.s.s.s.s.s.s.s.s.s.s.s.s.s.s.s.s.s.s.s.s.s.s.s.s.s.s.s.s.s.s.s.s.s.s.s.s.s.s.s.s.s.s.s.s.s.s.s.s.s.Y 2.5.:.y.y.y.y.y.y.y.7.y.y.y.y.y.u.f.u.u.y.f.u.u.f.h.f.f.f.h.f.f.h.M.h.f.h.h.h.f.h.h.h.l.l.l.M.C.M.M.M.l.l.l.M.S.S.S.C.J.J.J.H.H.H.J.L.T.T.H.H.J.L.H.H.S.H.H.K.E.K.K.H.L.E.L.E.K.K.K.L.E.T.K.H.E.E.L.E.H.L.E.E.E.E.E.E.E.L.H.J.L.H.H.S.M.M.M.l.M.H.S.M.M.M.l.M.h.h.b.h.h.h.h.h.f.f.f.h.f.h.l.h.u.u.f.u.u.f.f.y.f.f.f.y.y.y.5.5.:.;.:.5.=.=.$.$.#.#...| | | ` ` ` ( ( ( ( ( ( ( ( ( [ | ..$.$.$.$.=.=.$.=.=.;.;.=.;.;.;.2.5.5.;.;.;.;.-.$.*.$.$.$.#.#.#.*.*.*.*.*.*.*.*.$.$.*.$.$.#.#.$.$.$.*.$.$.$.$.$.#.#.#.#.#.#.$.$.#.#.#.#...#.#.#.$.$.$.$.#.$.$.#.#.....| ` ` ( E T P s.s.s.s.s.s.s.s.s.s.s.s.s.s.s.s.s.s.s.s.s.s.s.s.s.s.s.s.s.s.s.s.s.s.s.s.s.s.s.s.s.s.s.s.s.s.s.s.s.s.s.s.s.s.s.s.s.s.s.s.s.s.s.s.s.s.s.s.s.s.s.s.s.s.s.s.s.s.s.s.s.s.s.s.s.s.s.s.s.s.s.s.s.s.s.s.s.s.s.s.s.s.s.s.s.s.s.s.s.s.s.",
"s.s.s.s.s.s.s.s.s.s.s.s.s.s.s.s.s.s.s.s.s.s.s.s.s.s.s.s.s.s.s.s.s.s.s.s.s.s.s.s.s.s.s.s.s.s.s.s.s.s.s.s.s.s.s.s.s.s.s.s.s.s.s.s.s.s.s.s.s.s.s.s.s.s.s.s.s.s.s.s.s.s.s.s.s.s.s.s.s.s.s.s.s.s.s.s.s.s.s.s.s.s.s.s.s.s.s.s.s.s.s.s.s.s.s.s.s.s.s.s.s.s.s.s.s.s.s.s.s.s.s.s.s.s.s.s.s.s.s.s.s.s.s.s.s.s.s.s.s.s.s.s.s.s.s.s.s.s.s.s.s.s.s.s.s.s.s.s.s.s.s.s.s.s.s.s.s.s.s.s.s.s.s.s.s.s.s.s.s.s.s.s.s.s.s.s.s.s.s.s.s.s.s.s.s.s.s.s.s.s.s.2.$.;.:.y.y.y.5.7.y.5.5.y.f.y.y.y.y.f.f.f.f.f.f.f.h.l.f.f.u.f.l.l.l.l.l.h.h.h.h.h.h.h.V.l.h.M.M.l.l.C.C.J.S.S.C.C.J.L.J.J.J.H.J.J.C.J.L.L.L.L.J.H.L.H.L.L.H.K.K.K.H.H.H.L.K.L.H.H.L.L.H.L.H.H.H.L.H.H.H.K.H.H.K.H.H.K.E.T.T.L.L.M.M.H.J.S.M.M.S.M.J.S.M.M.M.v.h.v.h.h.h.l.l.h.h.h.f.f.f.f.f.h.h.f.f.u.u.y.y.f.y.y.u.f.y.y.y.7.:.;.;.;.5.=.*.#.$.#.#.....| | ' ` ( ( ( ( ( ( ( ( ( ( [ | ..X.#.$.$.$.$.$.*.=.=.;.=.;.;.;.;.;.;.;.;.;.;.*.*.*.$.$.$.#.#.#.#.*.*.*.*.*.*.$.$.*.$.#.$.$.#.$.$.$.$.$.#.#.$.$.#.#.#.#.#.#.#.$.#.#.#.....#.#.$.$.$.#.$.$.$.#.#.#...| | ( ` ( E T I s.s.s.s.s.s.s.s.s.s.s.s.s.s.s.s.s.s.s.s.s.s.s.s.s.s.s.s.s.s.s.s.s.s.s.s.s.s.s.s.s.s.s.s.s.s.s.s.s.s.s.s.s.s.s.s.s.s.s.s.s.s.s.s.s.s.s.s.s.s.s.s.s.s.s.s.s.s.s.s.s.s.s.s.s.s.s.s.s.s.s.s.s.s.s.s.s.s.s.s.s.s.s.s.s.s.s.s.s.s.s.",
"s.s.s.s.s.s.s.s.s.s.s.s.s.s.s.s.s.s.s.s.s.s.s.s.s.s.s.s.s.s.s.s.s.s.s.s.s.s.s.s.s.s.s.s.s.s.s.s.s.s.s.s.s.s.s.s.s.s.s.s.s.s.s.s.s.s.s.s.s.s.s.s.s.s.s.s.s.s.s.s.s.s.s.s.s.s.s.s.s.s.s.s.s.s.s.s.s.s.s.s.s.s.s.s.s.s.s.s.s.s.s.s.s.s.s.s.s.s.s.s.s.s.s.s.s.s.s.s.s.s.s.s.s.s.s.s.s.s.s.s.s.s.s.s.s.s.s.s.s.s.s.s.s.s.s.s.s.s.s.s.s.s.s.s.s.s.s.s.s.s.s.s.s.s.s.s.s.s.s.s.s.s.s.s.s.s.s.s.s.s.s.s.s.s.s.s.s.s.s.s.s.s.s.s.s.s.s.s.s.s.1.5.;.;.:.:.5.5.5.t.5.y.y.y.u.y.y.u.u.f.u.f.f.f.f.h.h.l.h.f.f.f.h.l.l.h.h.h.l.h.l.h.h.h.h.l.l.l.l.h.l.C.l.l.C.C.C.C.J.J.J.J.J.H.H.J.J.H.L.L.L.L.L.L.J.H.K.K.L.H.H.S.S.H.L.L.H.E.H.H.K.E.H.L.H.H.H.H.L.J.S.H.H.L.H.H.K.E.E.L.H.H.E.H.J.H.M.M.S.J.J.H.S.J.S.S.M.M.v.v.h.f.h.h.h.l.h.h.f.f.f.f.f.f.f.f.f.u.y.y.y.y.y.y.y.u.y.y.y.y.5.;.-.-.$.;.$.#.#.......| | | ' ( ( ( ( ( ( ( ( ( ( ( ` [ | X.#.$.$.$.$.$.=.=.=.=.=.=.*.=.=.=.;.;.=.;.=.=.*.*.*.$.*.#.#.#.#.*.*.*.*.*.*.$.#.$.$.#.$.$.#.#.#.$.*.#.$.$.*.$.#.$.$.$.#.#.$.$.#.#.....| #.#.$.$.$.#.$.$.$.#.#.....| | ( ( ( E T U s.s.s.s.s.s.s.s.s.s.s.s.s.s.s.s.s.s.s.s.s.s.s.s.s.s.s.s.s.s.s.s.s.s.s.s.s.s.s.s.s.s.s.s.s.s.s.s.s.s.s.s.s.s.s.s.s.s.s.s.s.s.s.s.s.s.s.s.s.s.s.s.s.s.s.s.s.s.s.s.s.s.s.s.s.s.s.s.s.s.s.s.s.s.s.s.s.s.s.s.s.s.s.s.s.s.s.s.s.s.s.",
"s.s.s.s.s.s.s.s.s.s.s.s.s.s.s.s.s.s.s.s.s.s.s.s.s.s.s.s.s.s.s.s.s.s.s.s.s.s.s.s.s.s.s.s.s.s.s.s.s.s.s.s.s.s.s.s.s.s.s.s.s.s.s.s.s.s.s.s.s.s.s.s.s.s.s.s.s.s.s.s.s.s.s.s.s.s.s.s.s.s.s.s.s.s.s.s.s.s.s.s.s.s.s.s.s.s.s.s.s.s.s.s.s.s.s.s.s.s.s.s.s.s.s.s.s.s.s.s.s.s.s.s.s.s.s.s.s.s.s.s.s.s.s.s.s.s.s.s.s.s.s.s.s.s.s.s.s.s.s.s.s.s.s.s.s.s.s.s.s.s.s.s.s.s.s.s.s.s.s.s.s.s.s.s.s.s.s.s.s.s.s.s.s.s.s.s.s.s.s.s.s.s.s.s.s.s.s.s.s.=.5.5.7.7.t.7.y.7.5.5.y.y.y.y.y.u.u.u.y.f.f.f.f.f.f.h.h.h.f.f.g.f.f.l.l.l.l.h.h.h.l.l.l.l.h.l.C.l.C.C.M.S.C.l.C.C.C.J.J.J.J.L.H.H.J.L.H.J.L.H.H.L.L.T.H.L.E.E.H.M.H.H.H.L.L.H.H.E.H.H.K.E.H.K.H.H.H.L.E.L.H.M.S.S.L.E.E.E.E.L.T.L.E.T.T.H.M.M.S.J.M.J.l.l.M.S.M.M.M.h.h.f.h.f.f.h.h.f.f.y.f.f.f.d.d.y.y.f.y.y.y.y.y.u.y.y.y.y.7.7.5.;.-.*.$.$.$.#.......| | ` | ( ( ( ( ( ( ( W ( ( ( ( ` ` | X.#.#.#.$.$.$.$.$.=.$.=.*.=.=.=.=.=.=.=.;.=.=.*.*.#.#.#.#.#.#.#.$.=.$.$.=.$.#.#.#.#.$.$.#.#.$.#.$.$.#.#.$.$.$.#.$.$.$.#.$.$.$.$.#.#.#...#.#.$.#.$.$.$.$.$.#.#.....| | ( ( / E T U s.s.s.s.s.s.s.s.s.s.s.s.s.s.s.s.s.s.s.s.s.s.s.s.s.s.s.s.s.s.s.s.s.s.s.s.s.s.s.s.s.s.s.s.s.s.s.s.s.s.s.s.s.s.s.s.s.s.s.s.s.s.s.s.s.s.s.s.s.s.s.s.s.s.s.s.s.s.s.s.s.s.s.s.s.s.s.s.s.s.s.s.s.s.s.s.s.s.s.s.s.s.s.s.s.s.s.s.s.s.s.",
"s.s.s.s.s.s.s.s.s.s.s.s.s.s.s.s.s.s.s.s.s.s.s.s.s.s.s.s.s.s.s.s.s.s.s.s.s.s.s.s.s.s.s.s.s.s.s.s.s.s.s.s.s.s.s.s.s.s.s.s.s.s.s.s.s.s.s.s.s.s.s.s.s.s.s.s.s.s.s.s.s.s.s.s.s.s.s.s.s.s.s.s.s.s.s.s.s.s.s.s.s.s.s.s.s.s.s.s.s.s.s.s.s.s.s.s.s.s.s.s.s.s.s.s.s.s.s.s.s.s.s.s.s.s.s.s.s.s.s.s.s.s.s.s.s.s.s.s.s.s.s.s.s.s.s.s.s.s.s.s.s.s.s.s.s.s.s.s.s.s.s.s.s.s.s.s.s.s.s.s.s.s.s.s.s.s.s.s.s.s.s.s.s.s.s.s.s.s.s.s.s.s.s.s.s.s.s.s.X.5.:.7.7.y.7.y.y.y.7.y.y.y.y.y.y.y.y.u.y.f.f.f.f.f.f.l.h.h.h.f.h.h.h.h.h.l.C.h.h.h.h.l.l.l.l.C.C.l.C.l.l.l.l.l.C.C.C.S.C.C.C.C.A.J.J.J.J.J.J.J.J.L.T.E.E.T.L.E.T.H.E.E.E.E.L.E.E.E.L.E.E.L.E.E.H.H.H.S.L.H.H.H.H.S.H.H.H.E.E.T.T.T.L.T.L.L.S.S.H.H.H.H.J.M.l.v.v.v.v.v.h.h.f.f.f.f.f.u.y.y.y.y.y.y.d.y.y.f.u.y.y.y.y.y.y.y.y.y.7.5.;.;.*.*.$.$.=.$.#.....| | | ' ( ( ( ( ( ( ( ( R R R R ( | | ....#.$.$.#.$.$.$.$.$.$.=.=.=.=.$.$.$.*.=.=.*.*.*.*.*.$.#.#.#.#.#.#.#.#.#.#.#.#.#.#.#.#.#.#.#.#.#.$.#.#.$.$.$.$.$.#.#.$.$.*.$.$.$.$.$.#.#.#.$.*.$.*.$.$.$.........| | ` ` ( E T T s.s.s.s.s.s.s.s.s.s.s.s.s.s.s.s.s.s.s.s.s.s.s.s.s.s.s.s.s.s.s.s.s.s.s.s.s.s.s.s.s.s.s.s.s.s.s.s.s.s.s.s.s.s.s.s.s.s.s.s.s.s.s.s.s.s.s.s.s.s.s.s.s.s.s.s.s.s.s.s.s.s.s.s.s.s.s.s.s.s.s.s.s.s.s.s.s.s.s.s.s.s.s.s.s.s.s.s.s.s.s.",
"s.s.s.s.s.s.s.s.s.s.s.s.s.s.s.s.s.s.s.s.s.s.s.s.s.s.s.s.s.s.s.s.s.s.s.s.s.s.s.s.s.s.s.s.s.s.s.s.s.s.s.s.s.s.s.s.s.s.s.s.s.s.s.s.s.s.s.s.s.s.s.s.s.s.s.s.s.s.s.s.s.s.s.s.s.s.s.s.s.s.s.s.s.s.s.s.s.s.s.s.s.s.s.s.s.s.s.s.s.s.s.s.s.s.s.s.s.s.s.s.s.s.s.s.s.s.s.s.s.s.s.s.s.s.s.s.s.s.s.s.s.s.s.s.s.s.s.s.s.s.s.s.s.s.s.s.s.s.s.s.s.s.s.s.s.s.s.s.s.s.s.s.s.s.s.s.s.s.s.s.s.s.s.s.s.s.s.s.s.s.s.s.s.s.s.s.s.s.s.s.s.s.s.s.s.s.s.s.2.5.y.y.y.y.y.y.y.y.y.y.y.y.y.y.y.y.y.y.y.f.h.h.h.h.f.f.h.h.h.f.f.f.f.f.f.h.h.h.h.h.h.h.h.h.h.C.l.l.l.l.l.C.l.l.C.C.S.J.C.S.C.J.J.J.J.J.J.J.L.J.J.L.T.L.E.T.H.H.T.E.H.E.E.E.E.L.E.E.T.L.L.E.E.K.H.H.H.S.L.L.H.K.L.L.K.H.H.H.T.L.H.T.E.L.T.J.M.J.J.J.S.S.M.l.l.v.v.v.v.h.h.h.f.f.f.u.f.y.y.y.y.y.y.y.y.d.y.f.y.y.u.y.y.u.y.y.y.y.y.7.;.;.-.*.$.$.*.$.#.....| | | ` ` ( ( R R R / ( R R R R ( [ | | ....X.$.X.X.$.#.$.$.$.=.=.$.=.$.$.$.$.=.*.*.*.*.*.*.#.#.#...@.#.#...| #.$.#.#.#.#.#.#.#.#.#.#.#.$.#.$.$.*.*.$.$.#.$.$.$.$.=.$.*.$.$.#...#.$.=.=.=.$.$.$...........| ( ` ( T W U s.s.s.s.s.s.s.s.s.s.s.s.s.s.s.s.s.s.s.s.s.s.s.s.s.s.s.s.s.s.s.s.s.s.s.s.s.s.s.s.s.s.s.s.s.s.s.s.s.s.s.s.s.s.s.s.s.s.s.s.s.s.s.s.s.s.s.s.s.s.s.s.s.s.s.s.s.s.s.s.s.s.s.s.s.s.s.s.s.s.s.s.s.s.s.s.s.s.s.s.s.s.s.s.s.s.s.s.s.s.s.",
"s.s.s.s.s.s.s.s.s.s.s.s.s.s.s.s.s.s.s.s.s.s.s.s.s.s.s.s.s.s.s.s.s.s.s.s.s.s.s.s.s.s.s.s.s.s.s.s.s.s.s.s.s.s.s.s.s.s.s.s.s.s.s.s.s.s.s.s.s.s.s.s.s.s.s.s.s.s.s.s.s.s.s.s.s.s.s.s.s.s.s.s.s.s.s.s.s.s.s.s.s.s.s.s.s.s.s.s.s.s.s.s.s.s.s.s.s.s.s.s.s.s.s.s.s.s.s.s.s.s.s.s.s.s.s.s.s.s.s.s.s.s.s.s.s.s.s.s.s.s.s.s.s.s.s.s.s.s.s.s.s.s.s.s.s.s.s.s.s.s.s.s.s.s.s.s.s.s.s.s.s.s.s.s.s.s.s.s.s.s.s.s.s.s.s.s.s.s.s.s.s.s.s.s.s.s.s.2.5.y.y.y.y.y.y.y.y.y.7.y.y.y.y.y.y.y.y.u.u.f.h.h.h.f.f.f.f.f.h.h.h.f.g.f.f.g.g.g.g.g.g.h.h.h.l.C.C.l.l.C.C.C.S.C.l.C.C.J.J.H.J.L.J.J.J.J.J.J.L.J.J.L.E.E.E.T.H.H.E.T.T.T.E.E.T.H.L.T.H.T.E.E.L.L.K.H.K.S.S.K.L.E.H.L.S.S.S.S.L.H.H.L.L.H.H.S.M.M.S.M.M.S.S.M.M.M.l.h.l.h.f.f.f.f.u.y.u.u.y.y.f.y.y.y.y.f.y.y.y.y.u.y.y.y.y.y.7.7.y.7.:.:.;.$.*.$.*.$.#.....| | | ( ( ( / R E ( ( R E E E R ( ` ` | | | ......#.$.$.#.$.#.$.$.$.$.$.$.$.$.$.$.#.*.*.#.#.#.X.#...| ..#.| | #.#.#.#...#.#.#.#.#...#.#.$.#.$.$.$.$.$.$.$.$.$.#.$.-.*.*.*.$.$.#.#.$.$.=.=.$.$.#.....| ..| | ` ` ( R W U s.s.s.s.s.s.s.s.s.s.s.s.s.s.s.s.s.s.s.s.s.s.s.s.s.s.s.s.s.s.s.s.s.s.s.s.s.s.s.s.s.s.s.s.s.s.s.s.s.s.s.s.s.s.s.s.s.s.s.s.s.s.s.s.s.s.s.s.s.s.s.s.s.s.s.s.s.s.s.s.s.s.s.s.s.s.s.s.s.s.s.s.s.s.s.s.s.s.s.s.s.s.s.s.s.s.s.s.s.s.s.",
"s.s.s.s.s.s.s.s.s.s.s.s.s.s.s.s.s.s.s.s.s.s.s.s.s.s.s.s.s.s.s.s.s.s.s.s.s.s.s.s.s.s.s.s.s.s.s.s.s.s.s.s.s.s.s.s.s.s.s.s.s.s.s.s.s.s.s.s.s.s.s.s.s.s.s.s.s.s.s.s.s.s.s.s.s.s.s.s.s.s.s.s.s.s.s.s.s.s.s.s.s.s.s.s.s.s.s.s.s.s.s.s.s.s.s.s.s.s.s.s.s.s.s.s.s.s.s.s.s.s.s.s.s.s.s.s.s.s.s.s.s.s.s.s.s.s.s.s.s.s.s.s.s.s.s.s.s.s.s.s.s.s.s.s.s.s.s.s.s.s.s.s.s.s.s.s.s.s.s.s.s.s.s.s.s.s.s.s.s.s.s.s.s.s.s.s.s.s.s.s.s.s.s.s.s.s.2.5.:.y.y.7.7.y.y.y.y.y.y.y.7.y.y.y.y.y.y.y.u.f.h.h.h.f.h.l.f.g.h.l.l.h.h.g.g.g.d.d.d.y.y.g.g.l.h.C.l.h.l.C.C.C.J.C.M.J.J.J.J.J.J.J.S.J.J.J.J.S.J.J.J.J.L.T.E.T.E.T.E.E.E.E.E.E.E.E.E.H.H.L.L.H.S.H.E.H.H.H.L.H.K.L.H.L.K.H.H.L.E.L.L.H.S.J.M.J.H.J.J.H.S.S.M.M.h.v.h.h.h.h.h.f.h.f.u.y.u.u.y.y.f.f.y.y.y.d.y.y.y.7.y.y.y.y.y.y.5.5.:.7.;.;.;.$.$.$.$.$.#.....| ' | ` ( ( / R R R / R E E E E ( ` ` | | |  .......#.#.......#.#.#.$.$.$.$.$.$.$.$.=.*.#.$.#.#.#.| | | ..| | ....#.#.#.....#.#.#...#.#.#.#.#.$.$.$.$.$.$.$.$.#.$.$.$.$.=.$.....#.#.$.=.*.$.$.#...| | | | | ( ( ( ( ( U s.s.s.s.s.s.s.s.s.s.s.s.s.s.s.s.s.s.s.s.s.s.s.s.s.s.s.s.s.s.s.s.s.s.s.s.s.s.s.s.s.s.s.s.s.s.s.s.s.s.s.s.s.s.s.s.s.s.s.s.s.s.s.s.s.s.s.s.s.s.s.s.s.s.s.s.s.s.s.s.s.s.s.s.s.s.s.s.s.s.s.s.s.s.s.s.s.s.s.s.s.s.s.s.s.s.s.s.s.s.s.",
"s.s.s.s.s.s.s.s.s.s.s.s.s.s.s.s.s.s.s.s.s.s.s.s.s.s.s.s.s.s.s.s.s.s.s.s.s.s.s.s.s.s.s.s.s.s.s.s.s.s.s.s.s.s.s.s.s.s.s.s.s.s.s.s.s.s.s.s.s.s.s.s.s.s.s.s.s.s.s.s.s.s.s.s.s.s.s.s.s.s.s.s.s.s.s.s.s.s.s.s.s.s.s.s.s.s.s.s.s.s.s.s.s.s.s.s.s.s.s.s.s.s.s.s.s.s.s.s.s.s.s.s.s.s.s.s.s.s.s.s.s.s.s.s.s.s.s.s.s.s.s.s.s.s.s.s.s.s.s.s.s.s.s.s.s.s.s.s.s.s.s.s.s.s.s.s.s.s.s.s.s.s.s.s.s.s.s.s.s.s.s.s.s.s.s.s.s.s.s.s.s.s.s.s.s.$.7.y.y.y.y.y.y.7.y.y.y.y.y.y.y.y.u.u.y.u.f.f.u.h.h.h.h.h.f.f.f.h.h.h.h.h.h.g.g.g.g.y.r.-.r.y.g.l.C.l.l.h.l.l.l.C.S.S.M.M.S.J.J.S.J.J.J.C.C.J.J.S.S.J.J.L.T.L.L.E.E.H.E.E.E.E.E.T.T.E.E.T.H.H.E.H.M.S.K.H.H.K.L.L.H.H.E.E.H.H.K.K.L.E.E.H.H.H.S.S.H.H.M.S.M.M.H.H.l.v.v.v.h.f.h.f.h.f.f.y.f.u.y.y.f.f.f.f.y.y.y.y.y.y.y.y.y.y.y.y.7.7.5.7.;.;.;.$.$.$.$.$.#.......| ' ( ( / / R R R R E E E T E ( ` ` | | | | | | ........| ......#.#.$.$.$.$.$.#.$.$.$.#.#.#...#.| | | | | | | | #.#...| #.| | #.#.#.#.#.#.#.$.$.*.$.*.*.$.$.$.$.$.*.=.$.$.#...#.#.$.=.$.$.#.....| | | | | ( ` / ( W T s.s.s.s.s.s.s.s.s.s.s.s.s.s.s.s.s.s.s.s.s.s.s.s.s.s.s.s.s.s.s.s.s.s.s.s.s.s.s.s.s.s.s.s.s.s.s.s.s.s.s.s.s.s.s.s.s.s.s.s.s.s.s.s.s.s.s.s.s.s.s.s.s.s.s.s.s.s.s.s.s.s.s.s.s.s.s.s.s.s.s.s.s.s.s.s.s.s.s.s.s.s.s.s.s.s.s.s.s.s.s.",
"s.s.s.s.s.s.s.s.s.s.s.s.s.s.s.s.s.s.s.s.s.s.s.s.s.s.s.s.s.s.s.s.s.s.s.s.s.s.s.s.s.s.s.s.s.s.s.s.s.s.s.s.s.s.s.s.s.s.s.s.s.s.s.s.s.s.s.s.s.s.s.s.s.s.s.s.s.s.s.s.s.s.s.s.s.s.s.s.s.s.s.s.s.s.s.s.s.s.s.s.s.s.s.s.s.s.s.s.s.s.s.s.s.s.s.s.s.s.s.s.s.s.s.s.s.s.s.s.s.s.s.s.s.s.s.s.s.s.s.s.s.s.s.s.s.s.s.s.s.s.s.s.s.s.s.s.s.s.s.s.s.s.s.s.s.s.s.s.s.s.s.s.s.s.s.s.s.s.s.s.s.s.s.s.s.s.s.s.s.s.s.s.s.s.s.s.s.s.s.s.s.s.s.s.X.5.y.y.y.y.y.y.y.7.7.7.y.y.y.y.u.u.u.u.u.y.u.f.u.h.h.h.h.h.f.f.f.h.h.h.h.h.h.h.h.h.h.h.h.h.h.h.l.l.C.C.l.l.C.A.C.C.S.M.M.J.H.H.L.J.J.J.J.C.C.J.J.J.J.J.J.J.T.T.E.E.E.T.T.E.E.E.E.E.T.E.E.L.H.H.H.S.S.S.S.K.H.L.K.S.H.E.E.H.M.S.H.K.H.K.K.H.S.H.M.M.H.H.J.H.J.M.M.S.v.h.v.M.h.h.h.h.f.f.f.f.y.u.y.y.f.y.y.y.y.y.y.y.7.y.y.y.y.y.y.y.7.5.:.:.:.;.;.*.$.$.$.$.#.....| | ` ( ( / / R R W R E E E T T R ( ` [ [ [ | | | | | | | | ..| ..| ....$.#.#.#.#.#.#.#...#.#.#...| | | | | | | | ....#.#.#.#...#...#.#.#.#.$.$.*.*.$.$.*.$.$.$.$.*.*.=.$.$.$.#...#.$.*.$.$.#...| ..| | | | | [ ( ( W T S s.s.s.s.s.s.s.s.s.s.s.s.s.s.s.s.s.s.s.s.s.s.s.s.s.s.s.s.s.s.s.s.s.s.s.s.s.s.s.s.s.s.s.s.s.s.s.s.s.s.s.s.s.s.s.s.s.s.s.s.s.s.s.s.s.s.s.s.s.s.s.s.s.s.s.s.s.s.s.s.s.s.s.s.s.s.s.s.s.s.s.s.s.s.s.s.s.s.s.s.s.s.s.s.s.s.s.s.s.s.",
"s.s.s.s.s.s.s.s.s.s.s.s.s.s.s.s.s.s.s.s.s.s.s.s.s.s.s.s.s.s.s.s.s.s.s.s.s.s.s.s.s.s.s.s.s.s.s.s.s.s.s.s.s.s.s.s.s.s.s.s.s.s.s.s.s.s.s.s.s.s.s.s.s.s.s.s.s.s.s.s.s.s.s.s.s.s.s.s.s.s.s.s.s.s.s.s.s.s.s.s.s.s.s.s.s.s.s.s.s.s.s.s.s.s.s.s.s.s.s.s.s.s.s.s.s.s.s.s.s.s.s.s.s.s.s.s.s.s.s.s.s.s.s.s.s.s.s.s.s.s.s.s.s.s.s.s.s.s.s.s.s.s.s.s.s.s.s.s.s.s.s.s.s.s.s.s.s.s.s.s.s.s.s.s.s.s.s.s.s.s.s.s.s.s.s.s.s.s.s.s.s.s.s.s.5.7.y.u.y.y.y.7.7.y.y.y.y.y.y.y.u.f.u.y.u.u.f.f.u.f.f.f.f.g.g.g.g.h.h.h.l.h.h.h.h.h.l.l.C.C.l.l.l.h.l.l.l.l.C.C.C.J.J.S.J.L.L.J.H.H.J.J.J.J.J.J.J.A.S.J.S.S.L.L.L.E.T.T.L.T.E.E.E.E.E.T.L.T.E.T.H.H.H.K.H.v.S.S.S.S.S.H.K.H.H.S.H.H.S.S.K.S.M.S.M.S.H.S.J.H.J.M.M.M.h.h.h.v.h.h.h.u.u.f.f.f.f.u.y.y.y.y.y.y.y.y.y.y.7.7.7.y.y.y.7.7.5.5.;.;.;.;.;.*.$.#.#.#.| ..| | | ` ( ( / ( E E R E E T T T T E ( ( ` ` [ [ | | [ | | | | | | | | | | ..............| | ....| | | | | | | | | | | | ....#.#.#.#.| #.#.#.$.*.*.-.*.$.$.$.$.*.$.$.;.=.=.*.$.$.#...#.$.*.$.$.#.......' | ` ' | ` ( ( W T F s.s.s.s.s.s.s.s.s.s.s.s.s.s.s.s.s.s.s.s.s.s.s.s.s.s.s.s.s.s.s.s.s.s.s.s.s.s.s.s.s.s.s.s.s.s.s.s.s.s.s.s.s.s.s.s.s.s.s.s.s.s.s.s.s.s.s.s.s.s.s.s.s.s.s.s.s.s.s.s.s.s.s.s.s.s.s.s.s.s.s.s.s.s.s.s.s.s.s.s.s.s.s.s.s.s.s.s.s.s.",
"s.s.s.s.s.s.s.s.s.s.s.s.s.s.s.s.s.s.s.s.s.s.s.s.s.s.s.s.s.s.s.s.s.s.s.s.s.s.s.s.s.s.s.s.s.s.s.s.s.s.s.s.s.s.s.s.s.s.s.s.s.s.s.s.s.s.s.s.s.s.s.s.s.s.s.s.s.s.s.s.s.s.s.s.s.s.s.s.s.s.s.s.s.s.s.s.s.s.s.s.s.s.s.s.s.s.s.s.s.s.s.s.s.s.s.s.s.s.s.s.s.s.s.s.s.s.s.s.s.s.s.s.s.s.s.s.s.s.s.s.s.s.s.s.s.s.s.s.s.s.s.s.s.s.s.s.s.s.s.s.s.s.s.s.s.s.s.s.s.s.s.s.s.s.s.s.s.s.s.s.s.s.s.s.s.s.s.s.s.s.s.s.s.s.s.s.s.s.s.s.s.s.s.2.;.7.y.y.7.7.7.7.7.7.7.y.y.y.y.y.u.u.y.y.f.f.f.f.f.f.f.f.f.f.g.f.f.h.h.l.h.h.h.l.l.l.l.M.M.C.l.C.M.h.l.C.C.C.C.C.A.J.M.M.J.L.H.J.J.J.J.J.J.S.S.J.J.J.J.J.L.L.L.L.H.L.T.T.L.L.E.E.E.E.E.E.L.H.H.T.H.L.H.T.K.S.H.J.M.H.H.S.S.H.H.M.H.K.H.H.E.H.S.S.S.H.J.S.J.J.M.l.M.M.h.h.h.v.h.f.f.u.f.h.f.f.u.y.y.y.y.y.y.y.y.y.y.7.7.7.7.7.y.7.7.7.:.5.;.-.;.;.;.*.$.#.#.#.| ..| | | ( ( ( / / E ( R E T T T T T R R ( ( ` ` [ [ [ ` ` ` ' ' | | | | | | | | ........| | | ....| | | | | | | | | | | | ....| #.#.#...#.#.#.$.$.$.$.$.$.$.$.$.*.*.*.=.=.=.*.$.$.$.| ..$.$.$.$.#.......| | ` ` ( ( ( R W T F s.s.s.s.s.s.s.s.s.s.s.s.s.s.s.s.s.s.s.s.s.s.s.s.s.s.s.s.s.s.s.s.s.s.s.s.s.s.s.s.s.s.s.s.s.s.s.s.s.s.s.s.s.s.s.s.s.s.s.s.s.s.s.s.s.s.s.s.s.s.s.s.s.s.s.s.s.s.s.s.s.s.s.s.s.s.s.s.s.s.s.s.s.s.s.s.s.s.s.s.s.s.s.s.s.s.s.s.s.s.",
"s.s.s.s.s.s.s.s.s.s.s.s.s.s.s.s.s.s.s.s.s.s.s.s.s.s.s.s.s.s.s.s.s.s.s.s.s.s.s.s.s.s.s.s.s.s.s.s.s.s.s.s.s.s.s.s.s.s.s.s.s.s.s.s.s.s.s.s.s.s.s.s.s.s.s.s.s.s.s.s.s.s.s.s.s.s.s.s.s.s.s.s.s.s.s.s.s.s.s.s.s.s.s.s.s.s.s.s.s.s.s.s.s.s.s.s.s.s.s.s.s.s.s.s.s.s.s.s.s.s.s.s.s.s.s.s.s.s.s.s.s.s.s.s.s.s.s.s.s.s.s.s.s.s.s.s.s.s.s.s.s.s.s.s.s.s.s.s.s.s.s.s.s.s.s.s.s.s.s.s.s.s.s.s.s.s.s.s.s.s.s.s.s.s.s.s.s.s.s.s.s.s.$.;.7.y.y.y.y.y.7.7.7.7.y.y.y.y.y.y.y.d.f.f.f.f.f.h.f.f.h.f.f.h.h.l.l.l.h.h.h.l.l.l.l.l.l.C.C.C.C.l.l.l.l.l.l.l.C.C.C.S.l.M.J.H.J.J.J.J.J.J.J.J.S.J.J.J.H.H.T.E.L.H.L.L.H.H.H.E.T.H.L.T.H.H.H.T.L.H.H.H.L.L.L.L.L.H.H.T.H.S.H.S.S.M.S.L.H.M.H.L.L.S.M.M.M.v.M.M.v.v.h.v.v.h.h.h.h.h.h.h.f.f.f.f.y.y.y.y.y.7.y.y.y.7.7.5.5.5.:.:.7.5.:.:.;.;.;.;.;.5.;.;.$.#...#.....| ( | ' ( ( ( R E R R Q Q Y T T T Q E ( ( ( ` ` [ [ ` ` ` ` ` [ [ | ` | | | | | | ..| | | | | | | | | | | | ....#.....| | | | | ........$.#.$.$.$.$.$.$.$.*.$.-.*.*.=.=.=.=.$.$.....#.$.$.$.#...| | | | | | ( ( ( ( W W E U s.s.s.s.s.s.s.s.s.s.s.s.s.s.s.s.s.s.s.s.s.s.s.s.s.s.s.s.s.s.s.s.s.s.s.s.s.s.s.s.s.s.s.s.s.s.s.s.s.s.s.s.s.s.s.s.s.s.s.s.s.s.s.s.s.s.s.s.s.s.s.s.s.s.s.s.s.s.s.s.s.s.s.s.s.s.s.s.s.s.s.s.s.s.s.s.s.s.s.s.s.s.s.s.s.s.s.s.s.s.",
"s.s.s.s.s.s.s.s.s.s.s.s.s.s.s.s.s.s.s.s.s.s.s.s.s.s.s.s.s.s.s.s.s.s.s.s.s.s.s.s.s.s.s.s.s.s.s.s.s.s.s.s.s.s.s.s.s.s.s.s.s.s.s.s.s.s.s.s.s.s.s.s.s.s.s.s.s.s.s.s.s.s.s.s.s.s.s.s.s.s.s.s.s.s.s.s.s.s.s.s.s.s.s.s.s.s.s.s.s.s.s.s.s.s.s.s.s.s.s.s.s.s.s.s.s.s.s.s.s.s.s.s.s.s.s.s.s.s.s.s.s.s.s.s.s.s.s.s.s.s.s.s.s.s.s.s.s.s.s.s.s.s.s.s.s.s.s.s.s.s.s.s.s.s.s.s.s.s.s.s.s.s.s.s.s.s.s.s.s.s.s.s.s.s.s.s.s.s.s.s.s.1.5.5.y.7.y.7.7.7.5.5.7.7.y.y.y.y.y.y.y.d.f.f.f.f.f.f.d.f.f.f.f.h.h.l.l.l.h.h.h.l.l.l.h.l.C.C.C.C.C.C.J.C.l.l.h.h.l.l.C.J.S.M.S.J.J.J.J.J.J.J.J.J.S.J.J.H.H.H.T.T.L.T.T.E.L.H.H.T.L.L.H.H.L.H.H.H.H.S.J.H.E.T.E.T.L.T.H.H.H.S.H.H.H.H.S.S.S.S.S.H.H.S.H.M.M.M.M.v.h.h.v.h.v.h.h.h.f.h.h.f.f.f.f.u.u.y.y.y.y.7.7.7.7.7.7.7.5.:.7.:.7.;.;.;.;.;.;.;.;.;.;.=.$.X.| ....| | ( | ( ( ( R E E E R R Y T T Y T Y E ( ( ( ( ` ` ` ( ` ` ( ( ` ` ` ` ` ' | | ' | | | | | | ' ' ' ' | | | | ..| ....#...| | ......| ....#.#.#.#.$.*.*.$.$.*.#.*.$.*.*.=.=.=.$.$.....#.#.$.#.#...| | | | | | ( | ( ( / R T U s.s.s.s.s.s.s.s.s.s.s.s.s.s.s.s.s.s.s.s.s.s.s.s.s.s.s.s.s.s.s.s.s.s.s.s.s.s.s.s.s.s.s.s.s.s.s.s.s.s.s.s.s.s.s.s.s.s.s.s.s.s.s.s.s.s.s.s.s.s.s.s.s.s.s.s.s.s.s.s.s.s.s.s.s.s.s.s.s.s.s.s.s.s.s.s.s.s.s.s.s.s.s.s.s.s.s.s.s.s.",
"s.s.s.s.s.s.s.s.s.s.s.s.s.s.s.s.s.s.s.s.s.s.s.s.s.s.s.s.s.s.s.s.s.s.s.s.s.s.s.s.s.s.s.s.s.s.s.s.s.s.s.s.s.s.s.s.s.s.s.s.s.s.s.s.s.s.s.s.s.s.s.s.s.s.s.s.s.s.s.s.s.s.s.s.s.s.s.s.s.s.s.s.s.s.s.s.s.s.s.s.s.s.s.s.s.s.s.s.s.s.s.s.s.s.s.s.s.s.s.s.s.s.s.s.s.s.s.s.s.s.s.s.s.s.s.s.s.s.s.s.s.s.s.s.s.s.s.s.s.s.s.s.s.s.s.s.s.s.s.s.s.s.s.s.s.s.s.s.s.s.s.s.s.s.s.s.s.s.s.s.s.s.s.s.s.s.s.s.s.s.s.s.s.s.s.s.s.s.s.s.X.5.y.5.7.y.y.7.7.7.7.5.7.y.y.y.y.y.y.u.y.f.f.d.f.f.f.y.d.d.f.h.h.h.h.l.l.l.l.h.h.h.h.l.l.l.C.J.S.S.C.S.S.C.l.l.h.h.l.l.C.J.J.S.J.J.J.J.J.J.J.S.C.C.C.C.S.L.H.L.H.H.H.E.E.E.E.L.H.E.T.L.H.H.E.T.T.H.H.J.H.L.T.T.E.T.E.E.T.H.H.H.S.H.H.H.H.S.S.S.M.S.S.v.S.S.M.M.M.v.v.h.h.h.v.h.h.f.f.f.h.f.f.u.u.y.y.u.y.y.y.7.5.5.7.7.7.y.:.7.;.:.:.5.;.;.;.;.;.;.;.5.;.*.$...| ..| | | | ' ` / ( R E E E E Y Y Y Y T Y Y T E R R ( ( ( ( ( ( ( ( ( ( ( ( ( ( ( ( ( ( | ` | ` ` ` ' ` ' ` | | | | | | ......| | ....| ..| ....#.$.$.$.$.*.*.#.$.*.#.*.$.$.*.*.=.*.$.$.....#.$.#.#.#.#.| | | | | ( ( [ ( ( / W E T s.s.s.s.s.s.s.s.s.s.s.s.s.s.s.s.s.s.s.s.s.s.s.s.s.s.s.s.s.s.s.s.s.s.s.s.s.s.s.s.s.s.s.s.s.s.s.s.s.s.s.s.s.s.s.s.s.s.s.s.s.s.s.s.s.s.s.s.s.s.s.s.s.s.s.s.s.s.s.s.s.s.s.s.s.s.s.s.s.s.s.s.s.s.s.s.s.s.s.s.s.s.s.s.s.s.s.s.s.s.",
"s.s.s.s.s.s.s.s.s.s.s.s.s.s.s.s.s.s.s.s.s.s.s.s.s.s.s.s.s.s.s.s.s.s.s.s.s.s.s.s.s.s.s.s.s.s.s.s.s.s.s.s.s.s.s.s.s.s.s.s.s.s.s.s.s.s.s.s.s.s.s.s.s.s.s.s.s.s.s.s.s.s.s.s.s.s.s.s.s.s.s.s.s.s.s.s.s.s.s.s.s.s.s.s.s.s.s.s.s.s.s.s.s.s.s.s.s.s.s.s.s.s.s.s.s.s.s.s.s.s.s.s.s.s.s.s.s.s.s.s.s.s.s.s.s.s.s.s.s.s.s.s.s.s.s.s.s.s.s.s.s.s.s.s.s.s.s.s.s.s.s.s.s.s.s.s.s.s.s.s.s.s.s.s.s.s.s.s.s.s.s.s.s.s.s.s.s.s.s.s.5.y.y.y.;.7.y.7.7.7.7.7.y.y.y.y.y.y.u.u.u.f.f.f.f.f.d.g.f.g.h.h.h.l.h.l.h.h.h.h.h.h.h.l.h.h.l.S.C.C.l.C.C.C.l.l.l.C.C.C.C.J.S.J.J.J.J.J.J.J.S.C.C.C.C.S.J.J.H.H.H.H.H.L.E.E.E.H.H.T.H.H.H.T.H.L.L.H.H.H.H.H.H.E.T.H.T.E.L.L.H.H.S.S.H.H.H.H.S.S.S.M.S.H.H.H.M.M.M.v.S.M.h.h.h.h.h.f.f.f.f.f.f.u.y.y.y.y.y.y.y.7.5.5.7.7.7.y.7.:.:.;.;.5.5.-.-.*.*.*.;.;.$.$.$...| ..| | | ` ' ( ( / E E T T Y T T Y T U U U T T E E E R ( ( ( R R R E R R R R ( ( ( ( ( ` ` ( ( ` ` ` ` ` ` ' ` ` ` | | | ..| | | ....| ........#.#.$.$.*.*.$.$.$.$.#.*.$.*.*.;.*.$.$.$.....#.#.#...#.#.| | | | | | ( ( ( ( / R ( T s.s.s.s.s.s.s.s.s.s.s.s.s.s.s.s.s.s.s.s.s.s.s.s.s.s.s.s.s.s.s.s.s.s.s.s.s.s.s.s.s.s.s.s.s.s.s.s.s.s.s.s.s.s.s.s.s.s.s.s.s.s.s.s.s.s.s.s.s.s.s.s.s.s.s.s.s.s.s.s.s.s.s.s.s.s.s.s.s.s.s.s.s.s.s.s.s.s.s.s.s.s.s.s.s.s.s.s.s.s.",
"s.s.s.s.s.s.s.s.s.s.s.s.s.s.s.s.s.s.s.s.s.s.s.s.s.s.s.s.s.s.s.s.s.s.s.s.s.s.s.s.s.s.s.s.s.s.s.s.s.s.s.s.s.s.s.s.s.s.s.s.s.s.s.s.s.s.s.s.s.s.s.s.s.s.s.s.s.s.s.s.s.s.s.s.s.s.s.s.s.s.s.s.s.s.s.s.s.s.s.s.s.s.s.s.s.s.s.s.s.s.s.s.s.s.s.s.s.s.s.s.s.s.s.s.s.s.s.s.s.s.s.s.s.s.s.s.s.s.s.s.s.s.s.s.s.s.s.s.s.s.s.s.s.s.s.s.s.s.s.s.s.s.s.s.s.s.s.s.s.s.s.s.s.s.s.s.s.s.s.s.s.s.s.s.s.s.s.s.s.s.s.s.s.s.s.s.s.s.s.5.7.y.r.:.5.7.y.7.7.7.7.y.y.y.7.y.y.u.u.u.y.d.u.f.f.g.g.f.f.f.h.h.h.h.l.l.h.h.h.h.l.l.l.l.h.h.l.l.l.l.l.C.C.C.l.C.C.C.C.l.A.C.S.J.J.J.J.J.S.S.C.S.J.J.S.C.S.S.H.H.H.H.H.L.E.T.T.T.T.T.T.H.L.T.H.H.J.S.H.H.H.H.T.T.L.H.E.L.T.E.S.S.H.H.S.M.S.H.H.S.S.S.S.S.M.M.v.M.S.M.v.M.v.v.h.v.h.f.u.f.u.u.u.f.y.7.y.y.y.y.7.7.7.7.7.7.7.7.7.7.5.:.;.:.;.-.-.*.;.;.=.=.$.$.$.$.| | | | | ` ` ( / / E T T T T T Y Y U U U U U T T E R R R R R E R E E E E E E E R ( ( ( ( ( / / / / / ( ( ( / ( ( ( ` ` | | ..| | ........| #.#.#.$.$.*.$.$.$.$.$.$.#.$.$.$.$.;.*.=.$.$.#...#.#.........| ' | | | | | | ( ( ( R ( T s.s.s.s.s.s.s.s.s.s.s.s.s.s.s.s.s.s.s.s.s.s.s.s.s.s.s.s.s.s.s.s.s.s.s.s.s.s.s.s.s.s.s.s.s.s.s.s.s.s.s.s.s.s.s.s.s.s.s.s.s.s.s.s.s.s.s.s.s.s.s.s.s.s.s.s.s.s.s.s.s.s.s.s.s.s.s.s.s.s.s.s.s.s.s.s.s.s.s.s.s.s.s.s.s.s.s.s.s.s.",
"s.s.s.s.s.s.s.s.s.s.s.s.s.s.s.s.s.s.s.s.s.s.s.s.s.s.s.s.s.s.s.s.s.s.s.s.s.s.s.s.s.s.s.s.s.s.s.s.s.s.s.s.s.s.s.s.s.s.s.s.s.s.s.s.s.s.s.s.s.s.s.s.s.s.s.s.s.s.s.s.s.s.s.s.s.s.s.s.s.s.s.s.s.s.s.s.s.s.s.s.s.s.s.s.s.s.s.s.s.s.s.s.s.s.s.s.s.s.s.s.s.s.s.s.s.s.s.s.s.s.s.s.s.s.s.s.s.s.s.s.s.s.s.s.s.s.s.s.s.s.s.s.s.s.s.s.s.s.s.s.s.s.s.s.s.s.s.s.s.s.s.s.s.s.s.s.s.s.s.s.s.s.s.s.s.s.s.s.s.s.s.s.s.s.s.s.s.s.=.;.7.:.r.:.;.7.7.7.7.7.7.y.7.7.y.y.u.y.y.y.y.y.d.d.d.g.d.d.d.g.h.h.h.h.h.l.l.h.h.h.l.S.l.l.l.l.l.l.l.C.C.l.C.C.l.l.C.C.C.l.C.C.S.S.M.M.M.S.J.S.S.J.J.S.S.S.C.S.J.J.H.H.H.L.T.H.H.H.H.M.L.H.L.L.J.H.J.J.H.H.H.S.H.H.H.H.E.H.L.L.S.S.H.S.M.S.S.S.H.H.H.H.M.S.v.v.M.M.S.M.v.M.v.h.h.v.h.f.f.f.y.f.y.u.y.7.y.y.y.y.5.5.5.;.5.5.5.5.:.5.5.;.;.;.;.;.-.*.*.*.=.$.$.$.$.#.| | | | | ( ` ( ( / E T T T Y Y U U U U U U P U U T T T T T T T T Y T T T T T T E R R R ( ( ( ( ( ( ( ( ( ( ( ( ( ( ( ` | | | | | | | ......#.#.#.$.$.$.$.*.*.$.$.$.$.$.*.$.$.=.*.;.$.$.....#...........| ' | | | | | | | ( ( ( ( E J s.s.s.s.s.s.s.s.s.s.s.s.s.s.s.s.s.s.s.s.s.s.s.s.s.s.s.s.s.s.s.s.s.s.s.s.s.s.s.s.s.s.s.s.s.s.s.s.s.s.s.s.s.s.s.s.s.s.s.s.s.s.s.s.s.s.s.s.s.s.s.s.s.s.s.s.s.s.s.s.s.s.s.s.s.s.s.s.s.s.s.s.s.s.s.s.s.s.s.s.s.s.s.s.s.s.s.s.s.",
"s.s.s.s.s.s.s.s.s.s.s.s.s.s.s.s.s.s.s.s.s.s.s.s.s.s.s.s.s.s.s.s.s.s.s.s.s.s.s.s.s.s.s.s.s.s.s.s.s.s.s.s.s.s.s.s.s.s.s.s.s.s.s.s.s.s.s.s.s.s.s.s.s.s.s.s.s.s.s.s.s.s.s.s.s.s.s.s.s.s.s.s.s.s.s.s.s.s.s.s.s.s.s.s.s.s.s.s.s.s.s.s.s.s.s.s.s.s.s.s.s.s.s.s.s.s.s.s.s.s.s.s.s.s.s.s.s.s.s.s.s.s.s.s.s.s.s.s.s.s.s.s.s.s.s.s.s.s.s.s.s.s.s.s.s.s.s.s.s.s.s.s.s.s.s.s.s.s.s.s.s.s.s.s.s.s.s.s.s.s.s.s.s.s.s.s.s.2.;.;.;.;.:.:.7.7.7.5.5.7.y.y.y.y.y.y.y.y.y.y.y.d.d.y.d.d.y.y.g.f.h.h.h.h.h.l.l.l.l.h.h.h.h.h.h.h.h.l.C.C.l.h.l.l.l.l.l.l.C.C.C.C.J.C.M.M.M.M.S.C.S.C.S.S.S.S.l.S.H.H.L.H.H.H.H.H.L.L.H.H.H.L.H.H.H.H.L.H.L.L.H.J.J.E.H.J.L.L.L.L.H.H.H.S.S.M.M.M.S.S.H.H.S.M.v.M.v.M.M.v.l.l.h.h.h.h.h.h.h.h.u.f.u.u.y.y.y.y.y.y.7.7.7.7.:.:.:.;.;.:.;.;.;.;.;.;.*.*.*.-.$.$.$.$.$.#.| | | | | ( ` ( / E E T T U U U U U U P U U F F P U U T T U Y U Y Y U U U U T T T E E E E E E E E E E ( R ( / ( ( ( ( ( | | | | | | | | ..#.#.#.#.$.$.*.$.*.*.*.$.$.*.$.$.*.*.=.$.=.$.$.....#.#...| | ..| | | | | | | | | ( ( ( ( E D s.s.s.s.s.s.s.s.s.s.s.s.s.s.s.s.s.s.s.s.s.s.s.s.s.s.s.s.s.s.s.s.s.s.s.s.s.s.s.s.s.s.s.s.s.s.s.s.s.s.s.s.s.s.s.s.s.s.s.s.s.s.s.s.s.s.s.s.s.s.s.s.s.s.s.s.s.s.s.s.s.s.s.s.s.s.s.s.s.s.s.s.s.s.s.s.s.s.s.s.s.s.s.s.s.s.s.s.s.",
"s.s.s.s.s.s.s.s.s.s.s.s.s.s.s.s.s.s.s.s.s.s.s.s.s.s.s.s.s.s.s.s.s.s.s.s.s.s.s.s.s.s.s.s.s.s.s.s.s.s.s.s.s.s.s.s.s.s.s.s.s.s.s.s.s.s.s.s.s.s.s.s.s.s.s.s.s.s.s.s.s.s.s.s.s.s.s.s.s.s.s.s.s.s.s.s.s.s.s.s.s.s.s.s.s.s.s.s.s.s.s.s.s.s.s.s.s.s.s.s.s.s.s.s.s.s.s.s.s.s.s.s.s.s.s.s.s.s.s.s.s.s.s.s.s.s.s.s.s.s.s.s.s.s.s.s.s.s.s.s.s.s.s.s.s.s.s.s.s.s.s.s.s.s.s.s.s.s.s.s.s.s.s.s.s.s.s.s.s.s.s.s.s.s.s.s.s.=.5.;.-.;.;.5.7.7.5.:.7.7.y.y.7.y.y.y.y.y.y.u.f.f.y.y.g.g.d.d.g.g.h.h.h.l.h.l.l.h.h.h.h.h.h.l.S.C.l.l.C.C.C.C.l.C.C.l.l.l.C.C.C.l.C.S.C.C.S.C.C.J.S.C.S.J.C.C.C.J.H.L.L.L.H.H.H.H.H.H.L.H.H.H.H.H.H.H.T.H.H.J.H.L.J.J.S.J.H.H.H.H.H.H.H.J.H.S.S.M.M.S.S.S.M.M.v.h.l.l.M.M.v.h.h.h.h.h.h.v.h.h.u.u.f.y.y.y.y.y.y.y.7.7.7.7.:.:.:.;.;.;.;.;.:.;.;.;.*.$.*.*.$.$.#.#.#...| | | | [ ( ` ( E R T U G G U U U U F F F P F F F F U U U P U U U P P U U U G U T T T T T T T T T T T E E E E R ( ( ( _ ( | | | | | | | ..#.#.#.#.$.#.*.*.$.$.*.$.$.*.$.$.*.=.;.$.=.$.#.$...#.#.........| | | | | | | | ( ( ( ( ( / P s.s.s.s.s.s.s.s.s.s.s.s.s.s.s.s.s.s.s.s.s.s.s.s.s.s.s.s.s.s.s.s.s.s.s.s.s.s.s.s.s.s.s.s.s.s.s.s.s.s.s.s.s.s.s.s.s.s.s.s.s.s.s.s.s.s.s.s.s.s.s.s.s.s.s.s.s.s.s.s.s.s.s.s.s.s.s.s.s.s.s.s.s.s.s.s.s.s.s.s.s.s.s.s.s.s.s.s.s.",
"s.s.s.s.s.s.s.s.s.s.s.s.s.s.s.s.s.s.s.s.s.s.s.s.s.s.s.s.s.s.s.s.s.s.s.s.s.s.s.s.s.s.s.s.s.s.s.s.s.s.s.s.s.s.s.s.s.s.s.s.s.s.s.s.s.s.s.s.s.s.s.s.s.s.s.s.s.s.s.s.s.s.s.s.s.s.s.s.s.s.s.s.s.s.s.s.s.s.s.s.s.s.s.s.s.s.s.s.s.s.s.s.s.s.s.s.s.s.s.s.s.s.s.s.s.s.s.s.s.s.s.s.s.s.s.s.s.s.s.s.s.s.s.s.s.s.s.s.s.s.s.s.s.s.s.s.s.s.s.s.s.s.s.s.s.s.s.s.s.s.s.s.s.s.s.s.s.s.s.s.s.s.s.s.s.s.s.s.s.s.s.s.s.s.s.s.;.;.:.5.5.5.7.y.5.5.5.7.y.y.y.y.y.y.y.y.d.f.f.f.f.f.g.g.d.g.g.g.f.d.f.h.f.h.h.h.h.h.h.l.h.h.h.h.l.l.l.l.l.l.C.l.l.C.C.l.l.l.l.l.C.C.C.l.C.C.l.l.l.C.C.S.J.C.S.S.l.C.H.H.H.H.H.H.H.H.H.H.H.H.H.H.H.T.L.H.H.H.H.J.J.L.J.S.J.H.H.J.J.J.J.H.H.H.H.H.H.H.M.M.S.S.M.v.h.h.M.M.l.M.M.M.l.h.h.f.f.f.f.f.y.y.y.y.y.y.7.5.7.y.7.7.7.7.5.7.-.;.;.;.;.;.;.;.;.;.;.*.$.$.$.#.@.#.#...| | | | [ ( ( / / E T U F G U U P F F F F F F F F F F F F F F F D D D D F F F F F G G G G U U U U U T T T R E R ( / ( ( ` | | | | ....#.#.$.#.#.#.#.$.$.$.*.$.$.*.*.$.$.$.$.$.$.$.$.$.#.#.................| | ..| ..| | | ( _ ( W E U s.s.s.s.s.s.s.s.s.s.s.s.s.s.s.s.s.s.s.s.s.s.s.s.s.s.s.s.s.s.s.s.s.s.s.s.s.s.s.s.s.s.s.s.s.s.s.s.s.s.s.s.s.s.s.s.s.s.s.s.s.s.s.s.s.s.s.s.s.s.s.s.s.s.s.s.s.s.s.s.s.s.s.s.s.s.s.s.s.s.s.s.s.s.s.s.s.s.s.s.s.s.s.s.s.s.s.s.s.",
"s.s.s.s.s.s.s.s.s.s.s.s.s.s.s.s.s.s.s.s.s.s.s.s.s.s.s.s.s.s.s.s.s.s.s.s.s.s.s.s.s.s.s.s.s.s.s.s.s.s.s.s.s.s.s.s.s.s.s.s.s.s.s.s.s.s.s.s.s.s.s.s.s.s.s.s.s.s.s.s.s.s.s.s.s.s.s.s.s.s.s.s.s.s.s.s.s.s.s.s.s.s.s.s.s.s.s.s.s.s.s.s.s.s.s.s.s.s.s.s.s.s.s.s.s.s.s.s.s.s.s.s.s.s.s.s.s.s.s.s.s.s.s.s.s.s.s.s.s.s.s.s.s.s.s.s.s.s.s.s.s.s.s.s.s.s.s.s.s.s.s.s.s.s.s.s.s.s.s.s.s.s.s.s.s.s.s.s.s.s.s.s.s.s.s.2.;.;.:.5.5.7.7.7.5.7.7.y.y.7.y.y.y.y.y.y.d.d.d.f.f.d.y.y.y.d.g.h.f.g.h.h.f.h.l.l.h.h.h.l.h.h.h.h.h.l.l.l.l.l.C.l.C.C.l.l.l.l.l.h.l.C.C.C.C.C.S.C.C.C.l.C.J.S.C.l.l.S.H.H.H.H.J.J.H.H.L.H.J.S.H.H.H.T.H.J.H.H.H.J.S.J.J.J.H.H.H.H.H.T.H.H.H.J.M.S.H.H.S.M.S.M.S.M.v.h.l.l.l.l.M.M.l.h.h.h.h.f.h.f.y.y.u.y.y.y.7.7.7.y.y.7.5.5.7.7.;.;.-.*.*.*.;.;.;.;.*.*.$.#.#.#.#.#.#...| | | | ` ( / / E E T U F P P U F D D D D F F F F F D D D D D S A Z Z Z S D F F F F F F F F U U U U U U U T E E R R ( ( ( | ` | | | | #.#.#.$.$.$.$.*.*.*.*.*.$.$.$.*.*.*.*.$.$.$.$.#.$.$.#.............| | | | | ..| | | | | _ ( R U s.s.s.s.s.s.s.s.s.s.s.s.s.s.s.s.s.s.s.s.s.s.s.s.s.s.s.s.s.s.s.s.s.s.s.s.s.s.s.s.s.s.s.s.s.s.s.s.s.s.s.s.s.s.s.s.s.s.s.s.s.s.s.s.s.s.s.s.s.s.s.s.s.s.s.s.s.s.s.s.s.s.s.s.s.s.s.s.s.s.s.s.s.s.s.s.s.s.s.s.s.s.s.s.s.s.s.s.s.",
"s.s.s.s.s.s.s.s.s.s.s.s.s.s.s.s.s.s.s.s.s.s.s.s.s.s.s.s.s.s.s.s.s.s.s.s.s.s.s.s.s.s.s.s.s.s.s.s.s.s.s.s.s.s.s.s.s.s.s.s.s.s.s.s.s.s.s.s.s.s.s.s.s.s.s.s.s.s.s.s.s.s.s.s.s.s.s.s.s.s.s.s.s.s.s.s.s.s.s.s.s.s.s.s.s.s.s.s.s.s.s.s.s.s.s.s.s.s.s.s.s.s.s.s.s.s.s.s.s.s.s.s.s.s.s.s.s.s.s.s.s.s.s.s.s.s.s.s.s.s.s.s.s.s.s.s.s.s.s.s.s.s.s.s.s.s.s.s.s.s.s.s.s.s.s.s.s.s.s.s.s.s.s.s.s.s.s.s.s.s.s.s.s.s.2.2.;.:.:.5.5.5.5.5.:.7.7.7.7.y.y.y.y.y.y.y.y.y.y.y.f.d.y.y.g.g.f.h.h.h.h.h.f.h.h.h.h.h.h.l.h.l.C.l.l.C.l.l.l.l.l.h.l.C.C.C.l.S.l.l.l.A.l.C.C.C.C.S.C.M.C.C.C.S.S.C.C.S.S.J.J.H.J.S.J.J.J.J.J.H.H.H.H.H.H.L.H.T.L.H.S.S.M.J.J.H.H.H.H.H.H.J.J.J.S.S.H.S.S.S.M.M.M.M.v.l.l.l.M.M.M.M.l.l.h.f.h.h.h.u.y.y.y.y.u.y.7.7.7.5.7.7.5.5.5.;.:.;.;.*.$.*.*.-.-.-.*.*.*.$.#.#.#.#.......| ` [ ` ( / E E T T T P U F F F D D D D F F F F F D D D S Z Z Z Z Z Z Z Z D D D D D D F F G G G U U U U T T T E R ( ( ( ' ` | | | | ..#.#.#.#.$.$.$.*.*.*.*.*.$.$.*.*.-.*.$.$.$.$.$.$.#...........| ....| | | ..| | | | | ( ( ( R T s.s.s.s.s.s.s.s.s.s.s.s.s.s.s.s.s.s.s.s.s.s.s.s.s.s.s.s.s.s.s.s.s.s.s.s.s.s.s.s.s.s.s.s.s.s.s.s.s.s.s.s.s.s.s.s.s.s.s.s.s.s.s.s.s.s.s.s.s.s.s.s.s.s.s.s.s.s.s.s.s.s.s.s.s.s.s.s.s.s.s.s.s.s.s.s.s.s.s.s.s.s.s.s.s.s.s.s.s.",
"s.s.s.s.s.s.s.s.s.s.s.s.s.s.s.s.s.s.s.s.s.s.s.s.s.s.s.s.s.s.s.s.s.s.s.s.s.s.s.s.s.s.s.s.s.s.s.s.s.s.s.s.s.s.s.s.s.s.s.s.s.s.s.s.s.s.s.s.s.s.s.s.s.s.s.s.s.s.s.s.s.s.s.s.s.s.s.s.s.s.s.s.s.s.s.s.s.s.s.s.s.s.s.s.s.s.s.s.s.s.s.s.s.s.s.s.s.s.s.s.s.s.s.s.s.s.s.s.s.s.s.s.s.s.s.s.s.s.s.s.s.s.s.s.s.s.s.s.s.s.s.s.s.s.s.s.s.s.s.s.s.s.s.s.s.s.s.s.s.s.s.s.s.s.s.s.s.s.s.s.s.s.s.s.s.s.s.s.s.s.s.s.s.5.;.;.$.;.:.5.5.5.5.:.:.7.7.7.7.y.y.u.y.y.y.d.y.y.y.y.d.y.y.f.g.f.f.f.h.h.h.h.f.h.h.h.h.h.h.l.h.h.h.C.l.C.l.l.l.C.l.l.l.S.C.A.C.A.C.l.l.C.l.l.l.l.C.S.S.M.C.C.l.S.C.C.l.S.J.H.H.H.S.S.S.J.H.H.L.L.J.J.H.H.L.S.S.H.L.H.S.J.J.H.H.S.H.H.J.J.J.J.S.H.S.S.S.S.S.M.S.M.M.M.M.M.S.l.M.M.M.M.l.h.h.f.u.f.u.y.u.y.y.y.y.y.7.y.5.5.5.:.5.:.:.;.5.;.;.*.*.$.$.*.-.-.$.$.$.$.#.@...........| ` [ ` ( / / E T T U U U F F D D D D D D D D F D D D Z Z V V V V V V V V Z Z Z Z Z S D D D D F F U U U U T T T E R / ( ` ( ` | | ....#.#.#.$.*.$.#.*.;.*.$.*.;.;.*.$.$.$.$.$.$.$.$.#.#.#.#.....| | | | | ..| #.| ..| | | [ ( ( / T C s.s.s.s.s.s.s.s.s.s.s.s.s.s.s.s.s.s.s.s.s.s.s.s.s.s.s.s.s.s.s.s.s.s.s.s.s.s.s.s.s.s.s.s.s.s.s.s.s.s.s.s.s.s.s.s.s.s.s.s.s.s.s.s.s.s.s.s.s.s.s.s.s.s.s.s.s.s.s.s.s.s.s.s.s.s.s.s.s.s.s.s.s.s.s.s.s.s.s.s.s.s.s.s.s.s.s.s.",
"s.s.s.s.s.s.s.s.s.s.s.s.s.s.s.s.s.s.s.s.s.s.s.s.s.s.s.s.s.s.s.s.s.s.s.s.s.s.s.s.s.s.s.s.s.s.s.s.s.s.s.s.s.s.s.s.s.s.s.s.s.s.s.s.s.s.s.s.s.s.s.s.s.s.s.s.s.s.s.s.s.s.s.s.s.s.s.s.s.s.s.s.s.s.s.s.s.s.s.s.s.s.s.s.s.s.s.s.s.s.s.s.s.s.s.s.s.s.s.s.s.s.s.s.s.s.s.s.s.s.s.s.s.s.s.s.s.s.s.s.s.s.s.s.s.s.s.s.s.s.s.s.s.s.s.s.s.s.s.s.s.s.s.s.s.s.s.s.s.s.s.s.s.s.s.s.s.s.s.s.s.s.s.s.s.s.s.s.s.s.s.s.s.7.;.;.;.;.:.:.:.:.:.5.:.5.7.7.y.y.y.y.y.y.d.y.y.y.y.f.f.g.f.d.g.f.g.f.h.l.h.h.h.g.h.h.h.h.h.l.h.g.h.h.h.l.h.h.h.C.C.C.l.C.A.C.C.A.C.C.l.l.h.l.l.C.C.S.J.S.C.l.l.C.C.C.C.S.J.H.H.S.J.H.M.H.L.H.L.T.T.H.H.H.H.J.H.H.J.J.S.M.J.H.H.J.L.T.J.S.M.J.H.H.J.M.M.M.v.M.S.v.v.M.M.M.M.l.M.l.h.h.h.l.h.f.u.f.f.f.u.y.y.y.y.y.y.5.5.7.5.;.;.:.7.5.;.;.;.;.;.*.*.*.*.-.*.$.$.$.#.@.@.@.....| | | ` ( R ( ( R T T U U P D D D D D D D D D D D D A V V V m m z z m m m M M V V Z Z Z A S D D D D F U P U T T T T E / ( ( ` ( | | | | #.#.#.$.$.#.$.*.*.*.*.*.*.*.*.*.*.*.$.$.$.$.$.#.#.#.#.......| | | | | ......| | ..| | | ( / R C s.s.s.s.s.s.s.s.s.s.s.s.s.s.s.s.s.s.s.s.s.s.s.s.s.s.s.s.s.s.s.s.s.s.s.s.s.s.s.s.s.s.s.s.s.s.s.s.s.s.s.s.s.s.s.s.s.s.s.s.s.s.s.s.s.s.s.s.s.s.s.s.s.s.s.s.s.s.s.s.s.s.s.s.s.s.s.s.s.s.s.s.s.s.s.s.s.s.s.s.s.s.s.s.s.s.s.s.",
"s.s.s.s.s.s.s.s.s.s.s.s.s.s.s.s.s.s.s.s.s.s.s.s.s.s.s.s.s.s.s.s.s.s.s.s.s.s.s.s.s.s.s.s.s.s.s.s.s.s.s.s.s.s.s.s.s.s.s.s.s.s.s.s.s.s.s.s.s.s.s.s.s.s.s.s.s.s.s.s.s.s.s.s.s.s.s.s.s.s.s.s.s.s.s.s.s.s.s.s.s.s.s.s.s.s.s.s.s.s.s.s.s.s.s.s.s.s.s.s.s.s.s.s.s.s.s.s.s.s.s.s.s.s.s.s.s.s.s.s.s.s.s.s.s.s.s.s.s.s.s.s.s.s.s.s.s.s.s.s.s.s.s.s.s.s.s.s.s.s.s.s.s.s.s.s.s.s.s.s.s.s.s.s.s.s.s.s.s.s.s.s.=.;.;.:.;.-.;.:.;.;.;.;.;.5.7.y.y.y.y.y.y.y.y.y.y.y.y.f.g.d.d.d.g.g.g.f.h.h.f.h.h.h.h.h.h.h.f.h.h.h.h.h.h.h.l.l.l.l.l.l.l.l.l.l.l.l.l.S.A.C.l.l.l.C.C.C.S.C.S.C.l.l.C.C.C.J.S.S.J.J.H.H.H.H.H.H.L.T.J.H.H.H.S.H.H.H.H.H.J.M.M.M.J.L.H.H.E.H.J.S.J.H.H.H.H.M.M.M.M.v.v.M.M.M.l.l.l.l.v.h.h.h.h.f.u.u.u.u.u.y.y.y.y.y.y.5.:.5.;.;.:.5.;.;.;.;.;.;.*.*.*.$.*.*.*.$.$.#.#...@.| ....| | | ` ` ( ( ( R E Y U U F D D D D S D D D S D D S Z V M z z z z k z z z z z m M V V V Z Z S D D D F F F P G U T T T / / ( ` ( ` | | | #.#.#.#.$.$.$.*.*.*.*.;.*.*.;.*.*.$.$.$.$.$.$.$.#.#.#.......| | | | ........| | | | ..| ( ( ( A s.s.s.s.s.s.s.s.s.s.s.s.s.s.s.s.s.s.s.s.s.s.s.s.s.s.s.s.s.s.s.s.s.s.s.s.s.s.s.s.s.s.s.s.s.s.s.s.s.s.s.s.s.s.s.s.s.s.s.s.s.s.s.s.s.s.s.s.s.s.s.s.s.s.s.s.s.s.s.s.s.s.s.s.s.s.s.s.s.s.s.s.s.s.s.s.s.s.s.s.s.s.s.s.s.s.s.s.",
"s.s.s.s.s.s.s.s.s.s.s.s.s.s.s.s.s.s.s.s.s.s.s.s.s.s.s.s.s.s.s.s.s.s.s.s.s.s.s.s.s.s.s.s.s.s.s.s.s.s.s.s.s.s.s.s.s.s.s.s.s.s.s.s.s.s.s.s.s.s.s.s.s.s.s.s.s.s.s.s.s.s.s.s.s.s.s.s.s.s.s.s.s.s.s.s.s.s.s.s.s.s.s.s.s.s.s.s.s.s.s.s.s.s.s.s.s.s.s.s.s.s.s.s.s.s.s.s.s.s.s.s.s.s.s.s.s.s.s.s.s.s.s.s.s.s.s.s.s.s.s.s.s.s.s.s.s.s.s.s.s.s.s.s.s.s.s.s.s.s.s.s.s.s.s.s.s.s.s.s.s.s.s.s.s.s.s.s.s.s.s.$.$.-.-.:.5.5.;.;.;.;.;.:.5.7.7.y.y.y.y.y.y.y.y.y.y.y.d.f.f.g.d.d.g.g.g.f.h.g.h.h.g.h.g.g.f.f.g.h.h.h.h.h.h.h.h.h.l.l.l.l.l.C.C.l.C.C.l.S.C.C.l.l.C.S.C.l.C.M.C.S.C.C.S.C.M.J.J.J.H.J.H.H.H.H.H.H.J.L.J.J.H.H.H.M.S.H.H.H.J.S.J.M.S.H.J.H.E.H.M.S.J.S.H.J.J.J.M.M.M.M.v.h.b.v.M.M.h.h.l.h.h.h.f.f.f.u.u.u.u.f.y.y.y.7.y.5.5.7.:.;.;.5.;.:.-.;.;.;.*.*.$.$.*.;.*.#.$.#.#.@...| ..| | | | ` ` / ( ( R T U U P F D D D D A S A Z A A A A V v h k f f f d k k k k z z m V V V Z Z Z Z S D D D F F G T T T T E E ( ( ( ` | | | ....#.#.#.$.*.*.*.*.*.;.*.$.;.;.*.*.=.$.$.$.$.$.#.#.........| | | | ........| | | ....' ` ( ( I s.s.s.s.s.s.s.s.s.s.s.s.s.s.s.s.s.s.s.s.s.s.s.s.s.s.s.s.s.s.s.s.s.s.s.s.s.s.s.s.s.s.s.s.s.s.s.s.s.s.s.s.s.s.s.s.s.s.s.s.s.s.s.s.s.s.s.s.s.s.s.s.s.s.s.s.s.s.s.s.s.s.s.s.s.s.s.s.s.s.s.s.s.s.s.s.s.s.s.s.s.s.s.s.s.s.s.s.",
"s.s.s.s.s.s.s.s.s.s.s.s.s.s.s.s.s.s.s.s.s.s.s.s.s.s.s.s.s.s.s.s.s.s.s.s.s.s.s.s.s.s.s.s.s.s.s.s.s.s.s.s.s.s.s.s.s.s.s.s.s.s.s.s.s.s.s.s.s.s.s.s.s.s.s.s.s.s.s.s.s.s.s.s.s.s.s.s.s.s.s.s.s.s.s.s.s.s.s.s.s.s.s.s.s.s.s.s.s.s.s.s.s.s.s.s.s.s.s.s.s.s.s.s.s.s.s.s.s.s.s.s.s.s.s.s.s.s.s.s.s.s.s.s.s.s.s.s.s.s.s.s.s.s.s.s.s.s.s.s.s.s.s.s.s.s.s.s.s.s.s.s.s.s.s.s.s.s.s.s.s.s.s.s.s.s.s.s.s.s.#.$.%.-.-.;.5.;.;.;.:.;.:.5.7.y.y.y.y.y.y.y.y.y.y.y.y.y.f.f.f.f.d.d.g.g.g.f.g.g.h.f.g.h.h.h.h.l.h.h.h.h.h.l.l.C.l.l.C.C.C.C.C.l.C.l.C.C.A.A.C.l.l.l.C.S.S.C.C.M.S.C.C.S.C.C.S.S.J.J.J.S.J.J.M.J.H.H.H.J.J.S.J.L.J.H.H.H.H.H.H.J.H.J.H.H.J.J.L.J.H.S.S.J.H.M.M.M.l.M.M.M.M.h.b.v.v.l.M.l.l.f.h.h.u.f.f.y.y.u.u.u.y.y.7.7.y.7.7.y.5.5.;.:.-.-.;.;.;.;.*.;.*.$.*.*.$.$.$.#.#.| ..| ..| ' | | ` ` ( ( ( E U U G U F S D D S Z Z V Z Z V V V m k k k d d d d d f f k z z z z m M V V Z Z Z S D D D F G U U T T E E ( / ( ` ' | | #.$.#.#.#.$.$.$.=.*.*.;.*.*.;.*.*.;.=.$.$.$.$.$.#.#.........| ....| | | ......| ....| | | ` ( U s.s.s.s.s.s.s.s.s.s.s.s.s.s.s.s.s.s.s.s.s.s.s.s.s.s.s.s.s.s.s.s.s.s.s.s.s.s.s.s.s.s.s.s.s.s.s.s.s.s.s.s.s.s.s.s.s.s.s.s.s.s.s.s.s.s.s.s.s.s.s.s.s.s.s.s.s.s.s.s.s.s.s.s.s.s.s.s.s.s.s.s.s.s.s.s.s.s.s.s.s.s.s.s.s.s.s.s.",
"s.s.s.s.s.s.s.s.s.s.s.s.s.s.s.s.s.s.s.s.s.s.s.s.s.s.s.s.s.s.s.s.s.s.s.s.s.s.s.s.s.s.s.s.s.s.s.s.s.s.s.s.s.s.s.s.s.s.s.s.s.s.s.s.s.s.s.s.s.s.s.s.s.s.s.s.s.s.s.s.s.s.s.s.s.s.s.s.s.s.s.s.s.s.s.s.s.s.s.s.s.s.s.s.s.s.s.s.s.s.s.s.s.s.s.s.s.s.s.s.s.s.s.s.s.s.s.s.s.s.s.s.s.s.s.s.s.s.s.s.s.s.s.s.s.s.s.s.s.s.s.s.s.s.s.s.s.s.s.s.s.s.s.s.s.s.s.s.s.s.s.s.s.s.s.s.s.s.s.s.s.s.s.s.s.s.s.s.s.$.*.-.*.;.;.;.;.;.;.:.7.7.7.7.y.y.7.y.y.y.y.y.y.y.y.y.y.d.f.f.f.g.d.d.g.d.d.g.g.h.h.g.h.l.l.l.l.h.h.h.l.l.l.C.C.C.l.C.C.l.l.l.l.v.C.l.l.J.A.J.S.l.l.l.C.S.H.H.M.C.S.C.C.l.C.S.C.C.C.C.C.l.C.C.S.M.S.J.S.M.J.M.S.H.J.H.H.H.L.H.J.J.H.H.H.H.H.S.T.J.H.H.H.L.H.J.M.M.l.v.S.M.M.l.h.v.h.h.h.h.h.f.h.h.y.y.u.f.y.y.y.u.y.y.5.7.y.y.5.5.5.5.:.;.;.-.;.;.;.;.;.;.;.#.$.*.#.#.#.$.#...........| | [ [ ` ( W ( R T U P D D S S A A Z V V V Z Z V M z j f d a a a a d d d j k k z z z z M V V Z Z D D D G G F G U T T E R ( ( / ( | | ....#...#.#.$.$.$.$.=.*.;.*.*.*.*.;.;.$.$.$.$.$.$.#.#.........| ....| | | ..............| | [ ` T s.s.s.s.s.s.s.s.s.s.s.s.s.s.s.s.s.s.s.s.s.s.s.s.s.s.s.s.s.s.s.s.s.s.s.s.s.s.s.s.s.s.s.s.s.s.s.s.s.s.s.s.s.s.s.s.s.s.s.s.s.s.s.s.s.s.s.s.s.s.s.s.s.s.s.s.s.s.s.s.s.s.s.s.s.s.s.s.s.s.s.s.s.s.s.s.s.s.s.s.s.s.s.s.s.s.s.s.",
"s.s.s.s.s.s.s.s.s.s.s.s.s.s.s.s.s.s.s.s.s.s.s.s.s.s.s.s.s.s.s.s.s.s.s.s.s.s.s.s.s.s.s.s.s.s.s.s.s.s.s.s.s.s.s.s.s.s.s.s.s.s.s.s.s.s.s.s.s.s.s.s.s.s.s.s.s.s.s.s.s.s.s.s.s.s.s.s.s.s.s.s.s.s.s.s.s.s.s.s.s.s.s.s.s.s.s.s.s.s.s.s.s.s.s.s.s.s.s.s.s.s.s.s.s.s.s.s.s.s.s.s.s.s.s.s.s.s.s.s.s.s.s.s.s.s.s.s.s.s.s.s.s.s.s.s.s.s.s.s.s.s.s.s.s.s.s.s.s.s.s.s.s.s.s.s.s.s.s.s.s.s.s.s.s.s.s.s.s.#.$.*.-.;.;.;.;.2.:.:.:.5.5.7.7.7.7.7.7.y.y.y.y.y.d.d.g.g.g.f.f.g.g.g.g.g.g.g.g.g.h.h.l.h.l.l.l.l.h.h.h.h.l.C.C.l.l.l.C.C.S.C.C.C.C.h.l.S.C.M.J.C.S.M.S.S.M.J.M.C.C.S.S.l.C.C.C.C.C.C.S.C.C.C.l.l.M.M.M.M.M.S.H.H.H.J.M.J.L.J.M.M.H.J.S.J.H.l.S.S.M.J.H.H.J.S.S.M.v.l.M.M.v.l.b.b.v.h.h.h.h.h.h.f.f.u.f.f.u.y.y.y.y.y.5.7.7.7.5.5.5.:.;.;.;.-.*.*.;.=.=.=.$.$.$.$.#.#.#.#.#...........| | [ [ ` ( W W R T U F D S D S S Z V V V V Z V V m k d a a y y a a d d j j k k k z z z M M V Z Z A D D D G F G T T T E R ( ( / ( ` | | ..#.#.@.#.$.$.$.$.$.*.*.*.*.;.;.*.*.$.$.$.$.$.$.#.#.............| | | | ............| | | [ ` R V s.s.s.s.s.s.s.s.s.s.s.s.s.s.s.s.s.s.s.s.s.s.s.s.s.s.s.s.s.s.s.s.s.s.s.s.s.s.s.s.s.s.s.s.s.s.s.s.s.s.s.s.s.s.s.s.s.s.s.s.s.s.s.s.s.s.s.s.s.s.s.s.s.s.s.s.s.s.s.s.s.s.s.s.s.s.s.s.s.s.s.s.s.s.s.s.s.s.s.s.s.s.s.s.s.s.s.",
"s.s.s.s.s.s.s.s.s.s.s.s.s.s.s.s.s.s.s.s.s.s.s.s.s.s.s.s.s.s.s.s.s.s.s.s.s.s.s.s.s.s.s.s.s.s.s.s.s.s.s.s.s.s.s.s.s.s.s.s.s.s.s.s.s.s.s.s.s.s.s.s.s.s.s.s.s.s.s.s.s.s.s.s.s.s.s.s.s.s.s.s.s.s.s.s.s.s.s.s.s.s.s.s.s.s.s.s.s.s.s.s.s.s.s.s.s.s.s.s.s.s.s.s.s.s.s.s.s.s.s.s.s.s.s.s.s.s.s.s.s.s.s.s.s.s.s.s.s.s.s.s.s.s.s.s.s.s.s.s.s.s.s.s.s.s.s.s.s.s.s.s.s.s.s.s.s.s.s.s.s.s.s.s.s.s.s.s...$.*.*.*.-.;.;.;.;.;.:.5.5.5.7.7.:.7.y.y.y.y.y.y.d.y.y.d.y.d.g.g.g.g.g.f.f.g.g.f.h.h.l.h.h.h.l.l.l.l.l.h.l.l.C.C.C.C.l.l.C.C.C.C.J.M.l.M.S.M.S.M.l.C.C.M.M.S.M.C.S.C.C.l.C.C.C.S.C.S.C.C.C.C.C.C.l.l.M.S.J.J.J.H.S.J.S.l.M.M.S.S.H.H.H.H.J.S.J.H.T.H.H.J.M.S.S.M.M.v.h.v.v.h.h.h.h.h.h.h.h.h.h.f.f.f.f.u.f.f.y.y.y.y.7.7.5.7.7.5.5.5.:.5.;.2.*.=.*.;.;.=.=.$.$.$.$.#.#.| ..............| [ [ [ ` ( ( W Q T U F D A D S S V V M M V V V M z j a y 0 0 y y a a d j j k k z z z z M V V Z Z A D D F F F G U U T E R ( ( ( ( ( ' | ......#.#.#.#.#.$.$.$.*.*.;.-.;.-.-.$.$.$.$.$.$.#.#...........| | ....| ........#...| | | [ ( R D s.s.s.s.s.s.s.s.s.s.s.s.s.s.s.s.s.s.s.s.s.s.s.s.s.s.s.s.s.s.s.s.s.s.s.s.s.s.s.s.s.s.s.s.s.s.s.s.s.s.s.s.s.s.s.s.s.s.s.s.s.s.s.s.s.s.s.s.s.s.s.s.s.s.s.s.s.s.s.s.s.s.s.s.s.s.s.s.s.s.s.s.s.s.s.s.s.s.s.s.s.s.s.s.s.s.s.",
"s.s.s.s.s.s.s.s.s.s.s.s.s.s.s.s.s.s.s.s.s.s.s.s.s.s.s.s.s.s.s.s.s.s.s.s.s.s.s.s.s.s.s.s.s.s.s.s.s.s.s.s.s.s.s.s.s.s.s.s.s.s.s.s.s.s.s.s.s.s.s.s.s.s.s.s.s.s.s.s.s.s.s.s.s.s.s.s.s.s.s.s.s.s.s.s.s.s.s.s.s.s.s.s.s.s.s.s.s.s.s.s.s.s.s.s.s.s.s.s.s.s.s.s.s.s.s.s.s.s.s.s.s.s.s.s.s.s.s.s.s.s.s.s.s.s.s.s.s.s.s.s.s.s.s.s.s.s.s.s.s.s.s.s.s.s.s.s.s.s.s.s.s.s.s.s.s.s.s.s.s.s.s.s.s.s.s...$.*.*.;.;.;.;.;.;.;.;.:.5.5.5.7.7.7.y.y.y.y.y.f.f.d.y.y.y.d.d.g.g.g.g.g.g.g.g.f.h.h.l.l.h.h.h.g.h.h.h.l.l.l.l.C.C.l.l.l.l.C.C.C.C.C.S.M.J.C.M.M.S.M.C.M.M.M.C.l.C.C.C.l.C.l.l.l.S.S.J.S.C.l.C.C.C.S.J.M.M.M.S.S.H.S.H.H.M.J.M.M.J.H.H.J.L.H.J.M.M.E.H.J.M.M.S.M.M.M.M.h.h.v.v.v.h.h.h.h.h.h.h.h.h.f.h.f.y.u.u.y.y.y.y.7.7.5.5.:.;.;.7.:.;.;.;.;.;.=.=.=.;.$.$.$.$.X...#.....#.....| ....| [ [ [ ( ( W W Y T U F D A S D Z V M M M V V V m h d a 0 0 0 0 y a a d d j k z z z z z M V Z Z Z D D F F G G G U T T E R R ( / ( ( ` | | ....@.#.#.#.#.#.#.$.$.*.;.*.*.-.;.$.$.$.$.$.$.#.#.#.#.....| | ..............#.$.#.....| | | ( J s.s.s.s.s.s.s.s.s.s.s.s.s.s.s.s.s.s.s.s.s.s.s.s.s.s.s.s.s.s.s.s.s.s.s.s.s.s.s.s.s.s.s.s.s.s.s.s.s.s.s.s.s.s.s.s.s.s.s.s.s.s.s.s.s.s.s.s.s.s.s.s.s.s.s.s.s.s.s.s.s.s.s.s.s.s.s.s.s.s.s.s.s.s.s.s.s.s.s.s.s.s.s.s.s.s.s.",
"s.s.s.s.s.s.s.s.s.s.s.s.s.s.s.s.s.s.s.s.s.s.s.s.s.s.s.s.s.s.s.s.s.s.s.s.s.s.s.s.s.s.s.s.s.s.s.s.s.s.s.s.s.s.s.s.s.s.s.s.s.s.s.s.s.s.s.s.s.s.s.s.s.s.s.s.s.s.s.s.s.s.s.s.s.s.s.s.s.s.s.s.s.s.s.s.s.s.s.s.s.s.s.s.s.s.s.s.s.s.s.s.s.s.s.s.s.s.s.s.s.s.s.s.s.s.s.s.s.s.s.s.s.s.s.s.s.s.s.s.s.s.s.s.s.s.s.s.s.s.s.s.s.s.s.s.s.s.s.s.s.s.s.s.s.s.s.s.s.s.s.s.s.s.s.s.s.s.s.s.s.s.s.s.s.s.$.#.$.-.;.;.-.*.;.;.;.;.;.;.:.5.7.7.7.y.y.y.y.y.y.d.f.y.y.d.d.d.d.g.g.g.y.y.g.h.h.h.h.h.h.h.h.h.h.h.h.h.l.l.l.h.l.l.l.l.l.l.C.l.C.C.C.l.S.l.J.M.C.M.M.M.J.M.C.S.S.M.C.l.l.l.C.h.l.l.l.C.J.S.S.C.l.l.S.S.S.M.M.M.J.M.M.J.J.L.J.H.M.M.M.M.H.J.H.H.J.M.S.J.S.S.M.M.S.M.M.l.M.S.v.M.l.h.h.h.h.h.h.h.h.f.f.f.f.f.u.y.u.u.u.y.y.y.y.5.;.5.;.;.5.;.;.;.-.;.-.*.$.$.$.$.#.#.......#.#...#...........| | ` ` ( ( W W Q T U D D A A A Z V m M M V V V M k y 0 0 0 0 0 y d d d d j k z z z z m V V Z Z S D D G G G G G U T T E R ( W ( ( ( ` | | ....| | #.#.#.#.#.$.$.*.;.$.*.;.$.=.$.$.$.#.#.#.#.$.#...#.....#...........#...$.#....... .| / U s.s.s.s.s.s.s.s.s.s.s.s.s.s.s.s.s.s.s.s.s.s.s.s.s.s.s.s.s.s.s.s.s.s.s.s.s.s.s.s.s.s.s.s.s.s.s.s.s.s.s.s.s.s.s.s.s.s.s.s.s.s.s.s.s.s.s.s.s.s.s.s.s.s.s.s.s.s.s.s.s.s.s.s.s.s.s.s.s.s.s.s.s.s.s.s.s.s.s.s.s.s.s.s.s.s.s.",
"s.s.s.s.s.s.s.s.s.s.s.s.s.s.s.s.s.s.s.s.s.s.s.s.s.s.s.s.s.s.s.s.s.s.s.s.s.s.s.s.s.s.s.s.s.s.s.s.s.s.s.s.s.s.s.s.s.s.s.s.s.s.s.s.s.s.s.s.s.s.s.s.s.s.s.s.s.s.s.s.s.s.s.s.s.s.s.s.s.s.s.s.s.s.s.s.s.s.s.s.s.s.s.s.s.s.s.s.s.s.s.s.s.s.s.s.s.s.s.s.s.s.s.s.s.s.s.s.s.s.s.s.s.s.s.s.s.s.s.s.s.s.s.s.s.s.s.s.s.s.s.s.s.s.s.s.s.s.s.s.s.s.s.s.s.s.s.s.s.s.s.s.s.s.s.s.s.s.s.s.s.s.s.s.s...#.#.-.;.*.*.;.;.;.;.;.5.:.;.5.7.7.7.7.y.y.y.y.y.y.d.f.d.d.g.y.d.g.g.g.g.d.g.g.h.h.h.f.h.h.h.h.h.h.h.l.l.l.l.l.h.h.l.C.C.l.C.C.C.C.C.C.l.J.C.M.S.J.C.J.S.S.C.C.M.S.J.J.M.C.l.C.C.l.l.S.C.C.C.C.C.C.l.h.l.M.S.M.M.J.S.M.M.J.H.H.H.M.M.M.l.H.H.H.H.H.J.S.J.M.M.l.h.l.M.M.M.v.M.v.v.l.l.l.h.h.v.b.h.h.h.f.f.f.f.u.u.u.u.y.y.y.y.y.7.:.5.;.;.;.;.;.;.-.;.-.*.$.$.$.$.#.#.....#.#.#.#.#.........| | | ` ` ( ( W W Q T P F S A A Z V m z M M M M M M f y 0 9 0 0 y y a d d d j k z z z m M V A Z Z S D F U U U U U T T T R E ( R / ( ( ` ` | | | | | #.#.#.#.#.#.$.*.*.*.-.-.*.$.$.$.$.$.#.#...$.#.....#...............#.#.#.#.#.........` W s.s.s.s.s.s.s.s.s.s.s.s.s.s.s.s.s.s.s.s.s.s.s.s.s.s.s.s.s.s.s.s.s.s.s.s.s.s.s.s.s.s.s.s.s.s.s.s.s.s.s.s.s.s.s.s.s.s.s.s.s.s.s.s.s.s.s.s.s.s.s.s.s.s.s.s.s.s.s.s.s.s.s.s.s.s.s.s.s.s.s.s.s.s.s.s.s.s.s.s.s.s.s.s.s.s.s.",
"s.s.s.s.s.s.s.s.s.s.s.s.s.s.s.s.s.s.s.s.s.s.s.s.s.s.s.s.s.s.s.s.s.s.s.s.s.s.s.s.s.s.s.s.s.s.s.s.s.s.s.s.s.s.s.s.s.s.s.s.s.s.s.s.s.s.s.s.s.s.s.s.s.s.s.s.s.s.s.s.s.s.s.s.s.s.s.s.s.s.s.s.s.s.s.s.s.s.s.s.s.s.s.s.s.s.s.s.s.s.s.s.s.s.s.s.s.s.s.s.s.s.s.s.s.s.s.s.s.s.s.s.s.s.s.s.s.s.s.s.s.s.s.s.s.s.s.s.s.s.s.s.s.s.s.s.s.s.s.s.s.s.s.s.s.s.s.s.s.s.s.s.s.s.s.s.s.s.s.s.s.s.s.s.s.$.*.*.;.;.*.-.;.;.;.;.;.:.:.5.7.7.7.y.y.y.y.y.y.y.y.d.d.d.d.d.d.d.d.g.g.g.f.f.g.g.f.f.f.h.h.h.l.h.h.C.l.h.l.l.l.h.h.l.C.l.l.C.C.C.C.l.C.C.S.S.l.C.l.M.S.J.M.C.C.l.l.S.S.M.l.C.C.C.l.C.S.C.C.C.C.l.l.h.h.M.S.J.J.H.H.H.H.S.M.M.H.H.S.M.S.M.M.J.J.J.H.H.S.S.M.M.l.h.h.l.M.M.v.M.v.v.h.l.v.h.h.h.h.h.h.h.h.f.u.u.u.y.y.y.y.y.y.y.7.7.5.5.2.5.;.;.;.-.-.;.-.*.$.$.$.$.$.#...........#.#.......| | | [ ` ` ( ( W R Y U F F A C Z Z V z z m m M M m h d 0 0 9 9 0 y a a d d j k z z m m V V A S S S D F P U U U T T T E E R ( ( ( / / ( ( ` ' | ' ' | | #.#.#.#.$.$.*.$.*.*.*.*.$.$.$.$.$.$.#.#.#.#.#.#.#.#.............#.$.$.$.$.$.$...| | W s.s.s.s.s.s.s.s.s.s.s.s.s.s.s.s.s.s.s.s.s.s.s.s.s.s.s.s.s.s.s.s.s.s.s.s.s.s.s.s.s.s.s.s.s.s.s.s.s.s.s.s.s.s.s.s.s.s.s.s.s.s.s.s.s.s.s.s.s.s.s.s.s.s.s.s.s.s.s.s.s.s.s.s.s.s.s.s.s.s.s.s.s.s.s.s.s.s.s.s.s.s.s.s.s.s.s.",
"s.s.s.s.s.s.s.s.s.s.s.s.s.s.s.s.s.s.s.s.s.s.s.s.s.s.s.s.s.s.s.s.s.s.s.s.s.s.s.s.s.s.s.s.s.s.s.s.s.s.s.s.s.s.s.s.s.s.s.s.s.s.s.s.s.s.s.s.s.s.s.s.s.s.s.s.s.s.s.s.s.s.s.s.s.s.s.s.s.s.s.s.s.s.s.s.s.s.s.s.s.s.s.s.s.s.s.s.s.s.s.s.s.s.s.s.s.s.s.s.s.s.s.s.s.s.s.s.s.s.s.s.s.s.s.s.s.s.s.s.s.s.s.s.s.s.s.s.s.s.s.s.s.s.s.s.s.s.s.s.s.s.s.s.s.s.s.s.s.s.s.s.s.s.s.s.s.s.s.s.s.s.s.s.#.#.*.*.-.*.-.;.;.;.;.;.;.:.5.y.7.7.y.y.y.y.y.y.y.y.y.d.y.d.g.f.g.g.d.d.g.g.f.h.f.g.f.h.h.h.h.h.h.h.h.l.h.h.h.h.h.h.h.h.h.g.h.C.l.C.C.l.C.C.S.L.M.M.C.l.l.M.M.C.l.l.C.M.S.S.C.C.C.C.C.C.l.S.C.l.l.l.C.l.l.M.S.S.J.H.S.J.J.S.M.l.H.H.J.l.M.H.H.H.S.M.J.J.S.M.M.v.h.h.h.l.l.l.v.M.v.h.h.h.h.h.h.h.f.f.f.h.h.f.u.u.f.y.y.y.y.y.7.y.y.7.7.:.5.5.5.;.$.*.=.*.*.$.$.$.$.$.$.#.#.#.....#.#.#.......| | [ | ` ` ( ( W Q T U F D Z A Z V m z z m M M M M z a 9 9 9 0 y y a d d d j k z z M M V Z S D D F F U U U U T T T E E E R ( ( ( / ( ( ` ` | | ' | | | | #.#.#.#.$.$.$.$.$.=.$.$.$.$.#.$.$.#.#.#.#.#.$.#.#.#...........$.$.#.$.$.=.$.....| ( v s.s.s.s.s.s.s.s.s.s.s.s.s.s.s.s.s.s.s.s.s.s.s.s.s.s.s.s.s.s.s.s.s.s.s.s.s.s.s.s.s.s.s.s.s.s.s.s.s.s.s.s.s.s.s.s.s.s.s.s.s.s.s.s.s.s.s.s.s.s.s.s.s.s.s.s.s.s.s.s.s.s.s.s.s.s.s.s.s.s.s.s.s.s.s.s.s.s.s.s.s.s.s.s.s.s.",
"s.s.s.s.s.s.s.s.s.s.s.s.s.s.s.s.s.s.s.s.s.s.s.s.s.s.s.s.s.s.s.s.s.s.s.s.s.s.s.s.s.s.s.s.s.s.s.s.s.s.s.s.s.s.s.s.s.s.s.s.s.s.s.s.s.s.s.s.s.s.s.s.s.s.s.s.s.s.s.s.s.s.s.s.s.s.s.s.s.s.s.s.s.s.s.s.s.s.s.s.s.s.s.s.s.s.s.s.s.s.s.s.s.s.s.s.s.s.s.s.s.s.s.s.s.s.s.s.s.s.s.s.s.s.s.s.s.s.s.s.s.s.s.s.s.s.s.s.s.s.s.s.s.s.s.s.s.s.s.s.s.s.s.s.s.s.s.s.s.s.s.s.s.s.s.s.s.s.s.s.s.s.s.X.$.$.$.*.*.;.;.;.;.;.;.;.:.:.:.:.y.y.y.y.y.y.y.y.y.d.g.g.d.d.d.y.d.f.g.g.g.h.h.h.h.h.g.g.g.h.h.h.f.h.h.f.h.l.h.h.h.h.h.l.h.g.h.h.h.l.l.C.l.C.C.S.C.h.l.l.l.C.C.M.l.h.l.l.l.C.M.M.M.l.M.S.M.S.J.M.M.l.l.l.M.S.J.J.J.H.S.M.J.M.M.M.J.H.H.M.S.S.J.H.J.H.J.J.S.l.v.M.h.h.l.l.v.M.l.l.M.l.l.M.h.h.f.h.f.f.f.h.f.f.u.u.f.f.y.y.y.y.5.5.;.5.5.:.5.5.;.$.$.#.=.$.#.$.$.$.$.$.#.#.#.#.#.....#...| ..| | | [ [ ` ( ( W R T T U F D A A V M z z z z m M M m z y 9 7 9 0 y a a d d j k z z m V V Z D D D F F G U U U T E T T T T E R R ( ( ( ` ( ` ` | | | | | | | ..#.#.#.$.$.$.$.$.$.$.$.$.$.$.#.#.#...#...#.#.$.$.$.#.#.#...$.$.$.$.$.=.=.$.$.#...[ Y s.s.s.s.s.s.s.s.s.s.s.s.s.s.s.s.s.s.s.s.s.s.s.s.s.s.s.s.s.s.s.s.s.s.s.s.s.s.s.s.s.s.s.s.s.s.s.s.s.s.s.s.s.s.s.s.s.s.s.s.s.s.s.s.s.s.s.s.s.s.s.s.s.s.s.s.s.s.s.s.s.s.s.s.s.s.s.s.s.s.s.s.s.s.s.s.s.s.s.s.s.s.s.s.s.s.",
"s.s.s.s.s.s.s.s.s.s.s.s.s.s.s.s.s.s.s.s.s.s.s.s.s.s.s.s.s.s.s.s.s.s.s.s.s.s.s.s.s.s.s.s.s.s.s.s.s.s.s.s.s.s.s.s.s.s.s.s.s.s.s.s.s.s.s.s.s.s.s.s.s.s.s.s.s.s.s.s.s.s.s.s.s.s.s.s.s.s.s.s.s.s.s.s.s.s.s.s.s.s.s.s.s.s.s.s.s.s.s.s.s.s.s.s.s.s.s.s.s.s.s.s.s.s.s.s.s.s.s.s.s.s.s.s.s.s.s.s.s.s.s.s.s.s.s.s.s.s.s.s.s.s.s.s.s.s.s.s.s.s.s.s.s.s.s.s.s.s.s.s.s.s.s.s.s.s.s.s.s.s.X...$.$.*.-.*.;.;.;.;.;.:.:.:.y.y.y.y.y.y.y.y.y.y.y.y.y.y.y.g.d.d.d.g.g.g.i.g.g.g.g.g.g.g.h.h.l.l.h.h.h.h.g.g.h.h.l.l.h.h.h.l.l.h.h.h.h.l.l.C.C.h.l.l.h.h.h.l.Z.C.l.l.l.l.C.M.S.M.M.M.l.M.M.M.l.l.S.S.M.M.M.S.J.J.M.M.M.S.M.J.S.M.J.J.M.M.M.S.M.l.J.M.M.M.M.M.h.l.M.v.v.l.l.h.M.M.l.M.M.M.h.h.h.u.f.f.u.u.u.f.u.y.y.u.u.y.u.y.y.y.:.7.:.5.:.5.5.5.;.$.$.$.$.$.#.$.$.$.$.#.#...| #...| ....| ....| [ [ [ ` ( ( W Y T T P D D Z A M m z z z z z m M z k 0 9 9 0 y y a d d d k k z m M Z Z D D D F G U U T E R W R E E R W ( ( ( ( ( ` ` ` ` ` | | ' | | | | | ..#.#.#.#.#.$.$.=.$.$.$.$.$.#.#.#...#...#.#.#.$.$.$.#.#.$.$.$.=.=.=.=.=.=.=.#...{ D s.s.s.s.s.s.s.s.s.s.s.s.s.s.s.s.s.s.s.s.s.s.s.s.s.s.s.s.s.s.s.s.s.s.s.s.s.s.s.s.s.s.s.s.s.s.s.s.s.s.s.s.s.s.s.s.s.s.s.s.s.s.s.s.s.s.s.s.s.s.s.s.s.s.s.s.s.s.s.s.s.s.s.s.s.s.s.s.s.s.s.s.s.s.s.s.s.s.s.s.s.s.s.s.s.s.",
"s.s.s.s.s.s.s.s.s.s.s.s.s.s.s.s.s.s.s.s.s.s.s.s.s.s.s.s.s.s.s.s.s.s.s.s.s.s.s.s.s.s.s.s.s.s.s.s.s.s.s.s.s.s.s.s.s.s.s.s.s.s.s.s.s.s.s.s.s.s.s.s.s.s.s.s.s.s.s.s.s.s.s.s.s.s.s.s.s.s.s.s.s.s.s.s.s.s.s.s.s.s.s.s.s.s.s.s.s.s.s.s.s.s.s.s.s.s.s.s.s.s.s.s.s.s.s.s.s.s.s.s.s.s.s.s.s.s.s.s.s.s.s.s.s.s.s.s.s.s.s.s.s.s.s.s.s.s.s.s.s.s.s.s.s.s.s.s.s.s.s.s.s.s.s.s.s.s.s.s.s.| X.$.#.-.-.-.=.;.;.;.;.;.:.:.7.7.y.y.y.y.y.y.y.y.y.y.y.y.y.g.g.g.d.g.g.d.y.y.g.h.g.g.g.g.g.g.g.g.g.h.h.f.h.h.f.g.l.l.l.l.h.h.C.l.h.h.h.h.h.h.l.C.l.h.l.l.C.h.h.l.l.l.v.C.J.M.h.l.l.M.M.M.S.J.S.M.M.l.M.M.S.S.S.H.S.M.M.M.S.M.J.S.S.M.M.J.H.M.M.l.S.J.S.J.M.M.M.h.h.v.b.b.l.v.h.l.M.l.l.l.l.h.h.h.h.f.f.u.y.u.f.u.u.f.f.u.u.u.y.y.y.:.7.:.:.;.5.5.5.5.;.$.#.$.$.$.$.$.$.$.#.| ....#...| | ..| | | | [ ` ` ` ( ( W T U U F D S Z V m z z k z z z z z z d 9 0 9 0 y a d d k k z m m V V S D D F F U U T T R E R R R R ( ( ( ` ` ( ` ` ` ` ` ` ' ' ' ' | | | | | | ..#.#.#.#.#.$.$.$.$.$.$.$.#.#.#.#.#.#.#.#.$.$.#.#.$.$.$.$.$.=.=.=.;.;.=.=.$. .| Y s.s.s.s.s.s.s.s.s.s.s.s.s.s.s.s.s.s.s.s.s.s.s.s.s.s.s.s.s.s.s.s.s.s.s.s.s.s.s.s.s.s.s.s.s.s.s.s.s.s.s.s.s.s.s.s.s.s.s.s.s.s.s.s.s.s.s.s.s.s.s.s.s.s.s.s.s.s.s.s.s.s.s.s.s.s.s.s.s.s.s.s.s.s.s.s.s.s.s.s.s.s.s.s.s.s.",
"s.s.s.s.s.s.s.s.s.s.s.s.s.s.s.s.s.s.s.s.s.s.s.s.s.s.s.s.s.s.s.s.s.s.s.s.s.s.s.s.s.s.s.s.s.s.s.s.s.s.s.s.s.s.s.s.s.s.s.s.s.s.s.s.s.s.s.s.s.s.s.s.s.s.s.s.s.s.s.s.s.s.s.s.s.s.s.s.s.s.s.s.s.s.s.s.s.s.s.s.s.s.s.s.s.s.s.s.s.s.s.s.s.s.s.s.s.s.s.s.s.s.s.s.s.s.s.s.s.s.s.s.s.s.s.s.s.s.s.s.s.s.s.s.s.s.s.s.s.s.s.s.s.s.s.s.s.s.s.s.s.s.s.s.s.s.s.s.s.s.s.s.s.s.s.s.s.s.s.s._ ..$.#.;.;.;.;.;.;.;.;.;.;.;.5.7.7.y.y.y.y.y.y.y.y.y.y.y.y.d.g.g.g.g.g.d.y.y.y.g.g.d.g.g.g.g.g.g.g.g.f.h.f.h.h.h.h.h.h.h.h.h.l.h.h.h.g.h.h.h.h.h.h.h.h.l.l.J.S.h.h.C.S.l.l.S.S.M.C.l.M.M.M.M.M.M.l.l.M.M.M.M.M.M.S.S.M.S.J.J.M.J.M.M.M.S.M.H.M.H.S.S.J.S.J.M.S.H.M.v.M.v.v.l.v.f.h.M.l.l.f.l.l.h.h.f.y.f.y.f.f.f.y.y.u.u.y.y.y.7.7.:.5.;.:.:.;.5.5.;.;.;.$.#.#.#.$.$.#.#.#.#.#.....#...| | ..| | | | [ ` ` ` ( W W T U U D D S Z M M z k j k z z z z z y 9 9 0 y a d d d k z z m M Z D D F P G P U T T E W ( ( ( ` ( ( ( ` ` ` ` ` ` ` ` ' ' ' ' ` ` | | | | | ' | #.#.#.#.#.$.$.$.$.$.#.#.#.#.#.#.#.#.#.#.$.#...$.$.$.*.$.*.=.=.5.;.;.=.=.*.X.[ ( v s.s.s.s.s.s.s.s.s.s.s.s.s.s.s.s.s.s.s.s.s.s.s.s.s.s.s.s.s.s.s.s.s.s.s.s.s.s.s.s.s.s.s.s.s.s.s.s.s.s.s.s.s.s.s.s.s.s.s.s.s.s.s.s.s.s.s.s.s.s.s.s.s.s.s.s.s.s.s.s.s.s.s.s.s.s.s.s.s.s.s.s.s.s.s.s.s.s.s.s.s.s.s.s.s.",
"s.s.s.s.s.s.s.s.s.s.s.s.s.s.s.s.s.s.s.s.s.s.s.s.s.s.s.s.s.s.s.s.s.s.s.s.s.s.s.s.s.s.s.s.s.s.s.s.s.s.s.s.s.s.s.s.s.s.s.s.s.s.s.s.s.s.s.s.s.s.s.s.s.s.s.s.s.s.s.s.s.s.s.s.s.s.s.s.s.s.s.s.s.s.s.s.s.s.s.s.s.s.s.s.s.s.s.s.s.s.s.s.s.s.s.s.s.s.s.s.s.s.s.s.s.s.s.s.s.s.s.s.s.s.s.s.s.s.s.s.s.s.s.s.s.s.s.s.s.s.s.s.s.s.s.s.s.s.s.s.s.s.s.s.s.s.s.s.s.s.s.s.s.s.s.s.s.s.s.s...$.*.-.-.-.;.;.;.;.;.;.;.5.5.y.y.y.y.y.y.y.y.y.y.y.y.y.g.g.g.g.g.g.g.d.y.y.y.d.g.g.g.g.g.g.g.g.g.h.f.h.f.h.h.h.l.l.l.l.h.f.h.h.h.h.h.h.h.h.h.h.V.C.l.l.V.h.l.h.h.l.M.C.C.l.l.C.h.C.M.S.S.M.M.M.l.M.S.l.M.l.M.S.J.S.S.M.M.S.J.M.l.M.M.S.M.M.M.S.M.M.S.M.M.l.S.S.M.M.v.h.v.M.h.h.h.h.h.l.l.h.h.h.f.f.f.f.f.f.f.y.f.y.y.y.y.y.y.7.y.5.5.:.5.;.;.;.5.;.$.$.$.$.$.#.$.#.$.$.#.#.......| ..| | | | | | | [ ` ` ` ( ( _ W T U T D A Z V M v z j j k z z z z f y 9 9 0 a d d d f z z m V Z D D P U P U T Q R R ( ( ( ( ( ` ` [ [ | | [ [ [ ` | | | ' ` ` ' | | | | | | | | | #.#.$.$.$.#.$.$.$.#.#.#.#.#.#.#.$.#.#.#.#.$.$.$.$.$.*.=.=.;.5.2.;.=.2.=...| [ v s.s.s.s.s.s.s.s.s.s.s.s.s.s.s.s.s.s.s.s.s.s.s.s.s.s.s.s.s.s.s.s.s.s.s.s.s.s.s.s.s.s.s.s.s.s.s.s.s.s.s.s.s.s.s.s.s.s.s.s.s.s.s.s.s.s.s.s.s.s.s.s.s.s.s.s.s.s.s.s.s.s.s.s.s.s.s.s.s.s.s.s.s.s.s.s.s.s.s.s.s.s.s.s.s.",
"s.s.s.s.s.s.s.s.s.s.s.s.s.s.s.s.s.s.s.s.s.s.s.s.s.s.s.s.s.s.s.s.s.s.s.s.s.s.s.s.s.s.s.s.s.s.s.s.s.s.s.s.s.s.s.s.s.s.s.s.s.s.s.s.s.s.s.s.s.s.s.s.s.s.s.s.s.s.s.s.s.s.s.s.s.s.s.s.s.s.s.s.s.s.s.s.s.s.s.s.s.s.s.s.s.s.s.s.s.s.s.s.s.s.s.s.s.s.s.s.s.s.s.s.s.s.s.s.s.s.s.s.s.s.s.s.s.s.s.s.s.s.s.s.s.s.s.s.s.s.s.s.s.s.s.s.s.s.s.s.s.s.s.s.s.s.s.s.s.s.s.s.s.s.s.s.s.s.s.#.| $.$.-.-.;.-.;.-.;.;.:.:.7.5.5.y.y.y.y.y.y.y.y.y.y.y.i.d.y.y.y.y.g.h.f.f.g.d.g.g.g.g.g.g.g.g.h.g.f.f.h.h.h.h.h.h.l.C.l.h.h.h.f.g.h.g.g.V.V.h.V.V.h.l.l.h.g.h.h.h.h.l.l.C.C.l.V.h.l.M.M.M.H.J.l.h.h.l.h.h.h.l.h.M.S.S.M.M.J.S.M.l.M.M.M.l.l.M.S.S.M.M.M.H.S.M.M.J.M.v.M.M.v.h.v.h.h.h.h.h.h.f.h.f.f.u.y.u.u.f.f.y.u.y.y.y.y.y.7.y.7.y.:.;.;.;.;.5.;.$.$.$.$.$.#.$.#.#.#.#.#.......| ..| | | | | | | [ ` ` ` ` ( W W U U U D A Z V M z z j d j z z z z d 0 9 8 0 a d j j z z m V Z A D F G U U U E R R ( ( ( ` ` ` [ | [ | | | | | | [ | | | | | | | | | | | | | | | | ..#.#.#.#.#.$.$.$.#.#.#.#...#.#.#.#...#.#...$.$.$.$.*.=.=.=.;.2.2.;.=.=.$.X.[ U s.s.s.s.s.s.s.s.s.s.s.s.s.s.s.s.s.s.s.s.s.s.s.s.s.s.s.s.s.s.s.s.s.s.s.s.s.s.s.s.s.s.s.s.s.s.s.s.s.s.s.s.s.s.s.s.s.s.s.s.s.s.s.s.s.s.s.s.s.s.s.s.s.s.s.s.s.s.s.s.s.s.s.s.s.s.s.s.s.s.s.s.s.s.s.s.s.s.s.s.s.s.s.s.s.",
"s.s.s.s.s.s.s.s.s.s.s.s.s.s.s.s.s.s.s.s.s.s.s.s.s.s.s.s.s.s.s.s.s.s.s.s.s.s.s.s.s.s.s.s.s.s.s.s.s.s.s.s.s.s.s.s.s.s.s.s.s.s.s.s.s.s.s.s.s.s.s.s.s.s.s.s.s.s.s.s.s.s.s.s.s.s.s.s.s.s.s.s.s.s.s.s.s.s.s.s.s.s.s.s.s.s.s.s.s.s.s.s.s.s.s.s.s.s.s.s.s.s.s.s.s.s.s.s.s.s.s.s.s.s.s.s.s.s.s.s.s.s.s.s.s.s.s.s.s.s.s.s.s.s.s.s.s.s.s.s.s.s.s.s.s.s.s.s.s.s.s.s.s.s.s.s.s.s.#.#.$.*.*.-.*.-.-.-.;.;.:.5.7.7.7.5.y.y.y.y.y.y.y.y.y.y.d.y.y.y.y.y.y.d.g.g.g.g.g.g.g.g.g.g.g.g.g.g.h.h.f.h.h.h.h.h.f.l.l.l.h.h.g.g.g.h.h.h.h.h.h.h.V.h.C.h.l.f.h.C.l.h.l.l.C.C.l.l.l.C.v.l.M.M.M.h.l.M.M.S.l.l.l.h.l.M.M.S.S.J.M.H.H.M.S.M.M.M.l.M.M.l.h.l.l.M.l.M.M.l.v.v.M.v.v.v.h.f.h.h.h.f.h.h.h.f.u.y.y.u.u.f.y.u.y.y.y.y.y.y.y.5.5.;.;.5.;.;.5.;.$.$.$.#.$.#.#.#.#.#.#.#.....| | ..| | | | | | | [ ` ` ` [ ( R Y U U U D A Z V v z k d d j j z z k a 8 7 9 a a d j k z z V V S D F G U U T E W ( ( ( ` ` ` ` [ [ |  ....... ...| | | | | | | | | | | | | | | | | | ..#.#.#.#.#.#.#.#.$.$.#.$.#.#.#.....#.#.#.#.$.$.$.*.=.=.=.=.5.5.5.2.=.=.$...{ U s.s.s.s.s.s.s.s.s.s.s.s.s.s.s.s.s.s.s.s.s.s.s.s.s.s.s.s.s.s.s.s.s.s.s.s.s.s.s.s.s.s.s.s.s.s.s.s.s.s.s.s.s.s.s.s.s.s.s.s.s.s.s.s.s.s.s.s.s.s.s.s.s.s.s.s.s.s.s.s.s.s.s.s.s.s.s.s.s.s.s.s.s.s.s.s.s.s.s.s.s.s.s.s.s.",
"s.s.s.s.s.s.s.s.s.s.s.s.s.s.s.s.s.s.s.s.s.s.s.s.s.s.s.s.s.s.s.s.s.s.s.s.s.s.s.s.s.s.s.s.s.s.s.s.s.s.s.s.s.s.s.s.s.s.s.s.s.s.s.s.s.s.s.s.s.s.s.s.s.s.s.s.s.s.s.s.s.s.s.s.s.s.s.s.s.s.s.s.s.s.s.s.s.s.s.s.s.s.s.s.s.s.s.s.s.s.s.s.s.s.s.s.s.s.s.s.s.s.s.s.s.s.s.s.s.s.s.s.s.s.s.s.s.s.s.s.s.s.s.s.s.s.s.s.s.s.s.s.s.s.s.s.s.s.s.s.s.s.s.s.s.s.s.s.s.s.s.s.s.s.s.s.s.#.#.*.*.-.$.*.-.*.-.-.-.:.5.7.7.7.7.y.y.y.y.y.y.y.d.y.y.y.d.d.y.y.g.g.d.d.g.g.g.g.g.g.g.g.g.g.h.h.g.g.h.h.g.h.h.h.g.h.f.l.f.h.l.l.h.h.h.h.f.g.f.g.g.h.h.h.C.f.l.g.h.h.h.h.h.h.l.l.C.l.h.h.h.l.l.M.M.M.l.l.l.J.J.M.l.h.h.h.h.S.M.M.l.h.M.M.M.h.l.M.M.S.M.l.l.M.J.M.M.M.h.M.h.h.h.v.v.h.h.f.b.h.h.f.h.f.f.y.u.u.f.u.y.u.u.u.y.y.y.7.y.y.u.y.:.;.;.;.;.;.5.;.$.$.#.#.#.#.#.#.#.#.#.#...| ....| | | | | | | [ [ ` ` ` ` ( R Y U P P D A V m v z j d d j k k k f y 7 8 0 y d d j k z v V Z D D G U U Y R W W ` ` ` ` [ | | | | ..............| | | | | | | ......| | | | | | | | | | #.#.#.#.#.#.#.$.$.$.$.#.#.#.#...#.$.$.$.$.$.=.=.=.;.5.5.5.5.5.;.;.;.$.$. .W s.s.s.s.s.s.s.s.s.s.s.s.s.s.s.s.s.s.s.s.s.s.s.s.s.s.s.s.s.s.s.s.s.s.s.s.s.s.s.s.s.s.s.s.s.s.s.s.s.s.s.s.s.s.s.s.s.s.s.s.s.s.s.s.s.s.s.s.s.s.s.s.s.s.s.s.s.s.s.s.s.s.s.s.s.s.s.s.s.s.s.s.s.s.s.s.s.s.s.s.s.s.s.s.s.",
"s.s.s.s.s.s.s.s.s.s.s.s.s.s.s.s.s.s.s.s.s.s.s.s.s.s.s.s.s.s.s.s.s.s.s.s.s.s.s.s.s.s.s.s.s.s.s.s.s.s.s.s.s.s.s.s.s.s.s.s.s.s.s.s.s.s.s.s.s.s.s.s.s.s.s.s.s.s.s.s.s.s.s.s.s.s.s.s.s.s.s.s.s.s.s.s.s.s.s.s.s.s.s.s.s.s.s.s.s.s.s.s.s.s.s.s.s.s.s.s.s.s.s.s.s.s.s.s.s.s.s.s.s.s.s.s.s.s.s.s.s.s.s.s.s.s.s.s.s.s.s.s.s.s.s.s.s.s.s.s.s.s.s.s.s.s.s.s.s.s.s.s.s.s.s.s.| #.#.*.*.*.;.*.;.;.;.;.;.:.:.7.7.7.y.y.y.y.y.y.y.y.y.y.y.y.y.y.y.f.f.g.g.y.y.y.d.g.g.g.g.g.g.g.g.y.d.d.g.g.g.g.h.h.h.h.h.h.h.h.h.V.h.V.g.h.h.h.h.h.g.h.h.l.h.l.h.h.C.l.h.l.f.f.h.l.l.l.M.M.C.M.l.l.l.M.M.M.l.h.l.h.l.l.M.M.S.h.h.M.M.h.h.l.M.M.l.M.M.v.v.l.h.h.v.M.M.M.h.v.v.h.h.h.v.h.h.f.h.h.f.u.u.u.u.u.y.y.y.u.y.y.y.y.y.y.y.y.y.y.7.y.5.:.;.;.;.:.;.;.$.$.$.#.#.#.#.#...#.............| | [ ` ` ` ` | ` ` ` ` ( ( R T T P F D A V M z z j d d j z z j f 0 7 9 0 y d f z z m M Z D D F U U U E ( ( ` ` ` | | | ........#.#.......#.#.................| ........................#.$.$.$.#.#.$.#.#.$.$.$.#.#.$.#.#.$.$.$.$.=.=.;.5.5.5.7.7.7.5.5.=.2.$.| ( D s.s.s.s.s.s.s.s.s.s.s.s.s.s.s.s.s.s.s.s.s.s.s.s.s.s.s.s.s.s.s.s.s.s.s.s.s.s.s.s.s.s.s.s.s.s.s.s.s.s.s.s.s.s.s.s.s.s.s.s.s.s.s.s.s.s.s.s.s.s.s.s.s.s.s.s.s.s.s.s.s.s.s.s.s.s.s.s.s.s.s.s.s.s.s.s.s.s.s.s.s.s.s.s.",
"s.s.s.s.s.s.s.s.s.s.s.s.s.s.s.s.s.s.s.s.s.s.s.s.s.s.s.s.s.s.s.s.s.s.s.s.s.s.s.s.s.s.s.s.s.s.s.s.s.s.s.s.s.s.s.s.s.s.s.s.s.s.s.s.s.s.s.s.s.s.s.s.s.s.s.s.s.s.s.s.s.s.s.s.s.s.s.s.s.s.s.s.s.s.s.s.s.s.s.s.s.s.s.s.s.s.s.s.s.s.s.s.s.s.s.s.s.s.s.s.s.s.s.s.s.s.s.s.s.s.s.s.s.s.s.s.s.s.s.s.s.s.s.s.s.s.s.s.s.s.s.s.s.s.s.s.s.s.s.s.s.s.s.s.s.s.s.s.s.s.s.s.a.s.s.{ | $.$.-.*.;.;.*.;.;.;.:.:.7.y.y.y.y.y.y.y.y.y.y.y.y.y.y.y.y.y.y.y.d.d.d.d.y.y.d.d.g.g.g.d.d.d.y.g.g.g.g.g.g.h.h.g.h.h.h.h.h.h.h.V.V.V.V.h.h.l.l.h.h.h.h.h.l.l.l.h.h.h.h.h.h.h.h.f.f.h.h.h.l.S.M.M.M.S.M.M.h.l.h.h.l.M.l.M.l.M.l.h.M.l.h.l.v.l.M.M.M.M.v.l.h.h.h.h.v.l.h.h.l.h.h.h.h.f.h.h.u.f.f.u.y.y.u.f.f.y.y.y.y.y.y.y.y.y.y.y.y.y.y.7.7.5.;.;.-.;.:.;.;.=.$.$.#.#.#.#.................| | | [ ` ` ` ` ` ( ` ` ( ( ( R T U P F D A V v z k d d d j j z j a 7 7 7 0 y d j z z m V Z S F U U T E ` ( ` [ ` | | | | ......#.#.#.#.#.#.#.......................................| | | ..#.#.$.#.#.$.#.#.#.#.#.#.#.#.$.#.$.$.$.=.=.=.5.5.5.5.5.7.7.5.7.5.2.$...[ I s.s.s.s.s.s.s.s.s.s.s.s.s.s.s.s.s.s.s.s.s.s.s.s.s.s.s.s.s.s.s.s.s.s.s.s.s.s.s.s.s.s.s.s.s.s.s.s.s.s.s.s.s.s.s.s.s.s.s.s.s.s.s.s.s.s.s.s.s.s.s.s.s.s.s.s.s.s.s.s.s.s.s.s.s.s.s.s.s.s.s.s.s.s.s.s.s.s.s.s.s.s.s.s.",
"s.s.s.s.s.s.s.s.s.s.s.s.s.s.s.s.s.s.s.s.s.s.s.s.s.s.s.s.s.s.s.s.s.s.s.s.s.s.s.s.s.s.s.s.s.s.s.s.s.s.s.s.s.s.s.s.s.s.s.s.s.s.s.s.s.s.s.s.s.s.s.s.s.s.s.s.s.s.s.s.s.s.s.s.s.s.s.s.s.s.s.s.s.s.s.s.s.s.s.s.s.s.s.s.s.s.s.s.s.s.s.s.s.s.s.s.s.s.s.s.s.s.s.s.s.s.s.s.s.s.s.s.s.s.s.s.s.s.s.s.s.s.s.s.s.s.s.s.s.s.s.s.s.s.s.s.s.s.s.s.s.s.s.s.s.s.s.s.s.s.s.s.s.v [ ..#.$.*.-.*.-.;.-.;.;.;.;.:.7.7.7.y.7.7.y.y.d.y.y.y.y.y.y.g.y.y.y.y.y.d.d.g.y.y.g.g.g.g.d.d.g.g.d.g.d.g.g.f.g.h.h.g.h.h.h.h.h.h.h.V.h.h.h.V.h.h.h.h.h.h.f.l.h.h.h.h.h.h.l.h.f.f.l.l.h.l.l.l.l.M.M.M.S.S.S.l.h.h.h.h.S.S.M.M.M.l.l.M.M.M.l.l.M.h.v.M.M.M.v.h.h.b.b.l.v.l.M.b.h.h.h.h.h.f.h.h.h.u.u.f.y.u.y.y.f.y.y.y.y.y.y.y.y.y.y.y.y.y.7.7.7.:.;.;.:.-.5.2.$.2.$.$.#.#.#...| ..............| | | ` ` ` ` ` ( ( ` ( ( ( R Q T U F D D Z V h z k d a a d d j d y 7 7 9 0 0 d d k m M V S D G U U E E ` [ [ [ [ | ........#.#.#.#.#.$.$.#.$.$...#.#.#.#.#.#...............#.#.#.............#.#.#.#.$.#.#.$.$.$.$.$.$.$.$.$.$.$.&.=.;.5.5.5.5.7.y.y.7.5.5.;.=.$.| Y s.s.s.s.s.s.s.s.s.s.s.s.s.s.s.s.s.s.s.s.s.s.s.s.s.s.s.s.s.s.s.s.s.s.s.s.s.s.s.s.s.s.s.s.s.s.s.s.s.s.s.s.s.s.s.s.s.s.s.s.s.s.s.s.s.s.s.s.s.s.s.s.s.s.s.s.s.s.s.s.s.s.s.s.s.s.s.s.s.s.s.s.s.s.s.s.s.s.s.s.s.s.s.s.",
"s.s.s.s.s.s.s.s.s.s.s.s.s.s.s.s.s.s.s.s.s.s.s.s.s.s.s.s.s.s.s.s.s.s.s.s.s.s.s.s.s.s.s.s.s.s.s.s.s.s.s.s.s.s.s.s.s.s.s.s.s.s.s.s.s.s.s.s.s.s.s.s.s.s.s.s.s.s.s.s.s.s.s.s.s.s.s.s.s.s.s.s.s.s.s.s.s.s.s.s.s.s.s.s.s.s.s.s.s.s.s.s.s.s.s.s.s.s.s.s.s.s.s.s.s.s.s.s.s.s.s.s.s.s.s.s.s.s.s.s.s.s.s.s.s.s.s.s.s.s.s.s.s.s.s.s.s.s.s.s.s.s.s.s.s.s.s.s.s.s.s.a.b | #.@.$.$.-.*.*.-.;.-.;.;.;.;.;.7.7.7.y.y.y.y.y.y.y.y.y.y.y.y.d.d.y.g.y.y.g.g.g.y.d.f.g.d.d.g.g.d.d.g.g.d.g.g.f.g.g.h.h.h.h.h.V.V.g.V.C.h.V.g.V.h.C.C.h.h.l.f.l.f.h.h.h.h.l.C.l.h.f.l.l.h.h.l.M.M.l.l.l.M.M.S.S.J.M.l.l.l.M.l.l.l.l.M.M.M.M.M.l.l.v.h.M.v.v.v.h.b.h.h.h.h.l.h.f.b.h.h.v.h.f.h.f.h.u.u.h.u.u.y.y.y.y.y.y.y.y.y.y.y.y.y.7.y.7.5.5.7.:.:.;.;.;.;.$.;.;.$.#.#.#.#...| ......| | ....| | [ ` ` ` ` ( ( ( ` ( ( ( R Q T U F D D Z V z f d d y d d d d d 9 4 7 7 9 0 a d z z V Z D F U U Y E E ( [ [ | | ......X.$.#.#.#.$.$.$.$.$.$.$.$.$.#.#.#...#.#.#.#.#.#.#.#.#.#.#...| | | | ....#.#.#.$.#.#.......#.$.$.$.$.$.$.*.;.=.;.5.5.7.7.7.7.5.5.7.5.5.=.$...[ s.s.s.s.s.s.s.s.s.s.s.s.s.s.s.s.s.s.s.s.s.s.s.s.s.s.s.s.s.s.s.s.s.s.s.s.s.s.s.s.s.s.s.s.s.s.s.s.s.s.s.s.s.s.s.s.s.s.s.s.s.s.s.s.s.s.s.s.s.s.s.s.s.s.s.s.s.s.s.s.s.s.s.s.s.s.s.s.s.s.s.s.s.s.s.s.s.s.s.s.s.s.s.s.",
"s.s.s.s.s.s.s.s.s.s.s.s.s.s.s.s.s.s.s.s.s.s.s.s.s.s.s.s.s.s.s.s.s.s.s.s.s.s.s.s.s.s.s.s.s.s.s.s.s.s.s.s.s.s.s.s.s.s.s.s.s.s.s.s.s.s.s.s.s.s.s.s.s.s.s.s.s.s.s.s.s.s.s.s.s.s.s.s.s.s.s.s.s.s.s.s.s.s.s.s.s.s.s.s.s.s.s.s.s.s.s.s.s.s.s.s.s.s.s.s.s.s.s.s.s.s.s.s.s.s.s.s.s.s.s.s.s.s.s.s.s.s.s.s.s.s.s.s.s.s.s.s.s.s.s.s.s.s.s.s.s.s.s.s.s.s.s.s.s.s.s.c { ..#.#.$.$.$.*.*.*.-.;.;.-.;.;.5.7.:.:.r.r.y.y.y.y.y.y.y.d.y.y.d.y.g.y.y.g.g.g.g.y.d.g.g.d.g.g.g.g.f.f.g.f.f.f.h.h.h.h.h.h.g.g.g.g.h.V.h.V.h.h.h.h.C.C.l.l.C.h.h.l.h.f.h.h.g.C.h.l.l.f.h.h.f.l.l.l.M.l.l.S.M.l.M.S.S.M.M.M.M.J.M.M.h.h.M.M.h.M.h.l.v.M.v.l.h.v.b.h.h.h.h.h.h.h.h.v.h.h.h.h.h.f.f.f.u.f.f.y.y.u.y.u.y.y.y.y.y.y.y.y.7.7.7.7.y.y.7.5.-.-.*.$.*.-.;.;.$.$.#.#.#.#.........| | ..| | | | | ` ` ` ` ( ( ( ` ` ( ( R E T P F D Z V m k j y y y y a a a a 7 1 7 7 0 y a d z z V Z D P U Y E W ( [ | | | | ..$.X.X.$.#.#.$.$.$.$.$.$.$.$.$.$.$.$.$...#.#.#.....#.#.$.#.#.#.....| | ................#.#.#.$.#.$.$.#.$.$.$.*.;.;.;.5.5.5.7.7.7.7.7.7.5.5.;.*.$.| s.s.s.s.s.s.s.s.s.s.s.s.s.s.s.s.s.s.s.s.s.s.s.s.s.s.s.s.s.s.s.s.s.s.s.s.s.s.s.s.s.s.s.s.s.s.s.s.s.s.s.s.s.s.s.s.s.s.s.s.s.s.s.s.s.s.s.s.s.s.s.s.s.s.s.s.s.s.s.s.s.s.s.s.s.s.s.s.s.s.s.s.s.s.s.s.s.s.s.s.s.s.s.s.",
"s.s.s.s.s.s.s.s.s.s.s.s.s.s.s.s.s.s.s.s.s.s.s.s.s.s.s.s.s.s.s.s.s.s.s.s.s.s.s.s.s.s.s.s.s.s.s.s.s.s.s.s.s.s.s.s.s.s.s.s.s.s.s.s.s.s.s.s.s.s.s.s.s.s.s.s.s.s.s.s.s.s.s.s.s.s.s.s.s.s.s.s.s.s.s.s.s.s.s.s.s.s.s.s.s.s.s.s.s.s.s.s.s.s.s.s.s.s.s.s.s.s.s.s.s.s.s.s.s.s.s.s.s.s.s.s.s.s.s.s.s.s.s.s.s.s.s.s.s.s.s.s.s.s.s.s.s.s.s.s.s.s.s.s.s.s.s.s.s.s.d U $.#.#.*.$.$.-.*.$.;.;.;.-.-.;.:.5.7.r.r.y.y.y.y.y.d.y.y.d.g.d.y.d.y.y.d.g.g.g.y.y.y.y.y.y.y.g.f.g.d.g.f.f.f.f.h.f.g.g.h.h.h.h.h.h.h.h.h.h.h.h.g.h.h.h.l.l.h.h.h.f.l.h.h.h.l.g.h.g.l.l.h.h.h.h.h.M.M.M.M.M.S.l.h.l.S.J.M.M.M.l.M.M.M.M.h.h.M.l.l.h.l.v.M.M.l.h.v.v.v.v.h.h.v.h.h.h.v.h.h.f.h.h.f.f.f.f.u.f.u.u.y.y.y.y.y.y.y.y.y.7.7.:.5.5.:.7.y.5.5.-.-.;.*.;.;.;.;.=.$.#.#.#.....#.....| | | | | | [ [ ` ( ` ` ( ( ` ` ( W ( E Y Y P F D Z V z k j a y y a a a a 0 7 1 7 7 0 0 a d z m V C D U U Y R ( ` [ | |  . ...X.$.$.$.$.$.$.$.$.$.$.$.$.$.$.$.$.$.$.$.$.$.$.$.$.$.$.$.#.#.#.....| | | | | | | ........#.#.$.$.$.$.$.$.=.*.=.;.5.5.5.5.5.7.7.y.y.7.5.5.:.5.=.=.| [ s.s.s.s.s.s.s.s.s.s.s.s.s.s.s.s.s.s.s.s.s.s.s.s.s.s.s.s.s.s.s.s.s.s.s.s.s.s.s.s.s.s.s.s.s.s.s.s.s.s.s.s.s.s.s.s.s.s.s.s.s.s.s.s.s.s.s.s.s.s.s.s.s.s.s.s.s.s.s.s.s.s.s.s.s.s.s.s.s.s.s.s.s.s.s.s.s.s.s.s.s.s.s.",
"s.s.s.s.s.s.s.s.s.s.s.s.s.s.s.s.s.s.s.s.s.s.s.s.s.s.s.s.s.s.s.s.s.s.s.s.s.s.s.s.s.s.s.s.s.s.s.s.s.s.s.s.s.s.s.s.s.s.s.s.s.s.s.s.s.s.s.s.s.s.s.s.s.s.s.s.s.s.s.s.s.s.s.s.s.s.s.s.s.s.s.s.s.s.s.s.s.s.s.s.s.s.s.s.s.s.s.s.s.s.s.s.s.s.s.s.s.s.s.s.s.s.s.s.s.s.s.s.s.s.s.s.s.s.s.s.s.s.s.s.s.s.s.s.s.s.s.s.s.s.s.s.s.s.s.s.s.s.s.s.s.s.s.s.s.s.s.s.s.f Y $.@.*.$.*.*.*.$.*.$.=.;.*.;.;.:.7.7.:.:.r.r.r.y.y.y.y.y.d.y.g.g.g.g.g.y.d.g.g.d.y.y.g.g.g.g.g.g.g.g.g.g.h.h.f.g.h.h.g.g.h.h.h.V.V.h.h.V.h.h.h.h.h.g.h.l.C.l.h.f.g.g.g.h.C.l.h.h.f.f.l.l.h.h.h.f.f.l.M.l.M.M.M.M.l.l.M.M.l.l.M.S.J.M.M.M.l.h.l.M.J.h.f.h.v.h.h.h.h.h.h.h.h.h.h.h.h.h.h.h.h.f.f.u.f.f.f.f.y.u.f.u.y.y.y.y.y.y.7.7.y.y.y.:.5.5.5.5.5.5.;.-.-.$.#.*.;.;.;.$.$.#.#.#.........| | | | | | | | [ ` ( ( ( ( ( ( ` ( W ( E T U F F S V m z f d a 0 y y y y 0 7 < < 7 7 9 0 y d z m V S D U Y R ( ` [ [ | | ......X.$.$.X.$.$.$.$.$.$.$.$.$.$.$.$.$.$.$.$.$.$.$.$.$.$.$.$.#.#.#...| | | | | | | | | ........#.#.#.#.$.$.$.*.*.=.;.5.5.5.7.7.7.7.y.y.y.7.7.7.7.=.*.=.[ s.s.s.s.s.s.s.s.s.s.s.s.s.s.s.s.s.s.s.s.s.s.s.s.s.s.s.s.s.s.s.s.s.s.s.s.s.s.s.s.s.s.s.s.s.s.s.s.s.s.s.s.s.s.s.s.s.s.s.s.s.s.s.s.s.s.s.s.s.s.s.s.s.s.s.s.s.s.s.s.s.s.s.s.s.s.s.s.s.s.s.s.s.s.s.s.s.s.s.s.s.s.s.",
"s.s.s.s.s.s.s.s.s.s.s.s.s.s.s.s.s.s.s.s.s.s.s.s.s.s.s.s.s.s.s.s.s.s.s.s.s.s.s.s.s.s.s.s.s.s.s.s.s.s.s.s.s.s.s.s.s.s.s.s.s.s.s.s.s.s.s.s.s.s.s.s.s.s.s.s.s.s.s.s.s.s.s.s.s.s.s.s.s.s.s.s.s.s.s.s.s.s.s.s.s.s.s.s.s.s.s.s.s.s.s.s.s.s.s.s.s.s.s.s.s.s.s.s.s.s.s.s.s.s.s.s.s.s.s.s.s.s.s.s.s.s.s.s.s.s.s.s.s.s.s.s.s.s.s.s.s.s.s.s.s.s.s.s.s.s.s.s.s.Y X.$.#.*.*.*.*.*.&.&.$.*.*.*.;.5.7.7.:.;.:.:.:.r.y.y.y.y.y.f.y.y.y.d.f.g.y.f.g.g.g.g.g.y.g.g.d.g.g.y.g.h.g.h.h.f.g.g.h.h.h.h.h.g.h.C.h.h.V.h.h.h.h.h.h.h.l.l.l.h.h.l.l.g.f.h.h.l.l.l.C.l.l.h.h.h.l.h.l.h.h.l.M.h.M.M.h.M.l.h.h.h.l.M.h.M.M.l.h.h.h.l.h.M.b.v.v.l.v.h.h.h.h.h.h.h.h.h.h.f.h.h.f.f.f.h.f.y.y.y.y.y.y.y.y.y.y.y.y.y.7.7.y.7.7.7.5.5.;.;.:.;.$.-.$.| #.;.;.;.$.$.#.#.....| | ....| ..| | | | [ ` ` ( ( ( ( ` ( ( ( ( R T Y U F F A V m z j a y 0 0 y y y 0 7 : < 6 7 9 0 y d z v Z D F Y T R ` [ [ | | ......X.$.X.$.$.$.$.=.$.$.$.$.$.$.$.=.$.$.$.$.=.$.$.$.$.$.$.$.$.#.#.#...| | | | | | | ' | | | ....#.#.#.#.$.$.$.=.;.=.;.5.5.5.7.7.5.7.7.7.y.y.7.7.7.;.;.=.X.s.s.s.s.s.s.s.s.s.s.s.s.s.s.s.s.s.s.s.s.s.s.s.s.s.s.s.s.s.s.s.s.s.s.s.s.s.s.s.s.s.s.s.s.s.s.s.s.s.s.s.s.s.s.s.s.s.s.s.s.s.s.s.s.s.s.s.s.s.s.s.s.s.s.s.s.s.s.s.s.s.s.s.s.s.s.s.s.s.s.s.s.s.s.s.s.s.s.s.s.s.s.s.",
"s.s.s.s.s.s.s.s.s.s.s.s.s.s.s.s.s.s.s.s.s.s.s.s.s.s.s.s.s.s.s.s.s.s.s.s.s.s.s.s.s.s.s.s.s.s.s.s.s.s.s.s.s.s.s.s.s.s.s.s.s.s.s.s.s.s.s.s.s.s.s.s.s.s.s.s.s.s.s.s.s.s.s.s.s.s.s.s.s.s.s.s.s.s.s.s.s.s.s.s.s.s.s.s.s.s.s.s.s.s.s.s.s.s.s.s.s.s.s.s.s.s.s.s.s.s.s.s.s.s.s.s.s.s.s.s.s.s.s.s.s.s.s.s.s.s.s.s.s.s.s.s.s.s.s.s.s.s.s.s.s.s.s.s.s.s.s.s.T ..#.$.$.-.-.-.-.*.*.-.*.;.;.:.:.:.:.:.:.r.r.r.y.y.y.y.y.y.y.y.y.y.g.y.d.d.g.g.g.g.f.f.g.g.g.h.g.h.g.g.g.h.f.f.g.g.h.h.h.V.h.l.h.h.h.h.h.h.h.h.h.h.g.l.C.l.l.l.h.h.f.h.h.h.h.h.h.h.h.l.l.l.h.h.h.f.h.h.f.h.h.h.h.f.h.h.h.l.l.h.h.h.l.M.l.l.h.h.h.l.h.h.h.h.v.v.h.h.h.v.h.h.h.b.h.h.f.f.f.f.h.h.h.f.f.f.d.y.f.f.f.y.f.u.y.y.y.y.y.y.5.7.5.y.y.5.:.5.;.;.;.;.;.;.*.+.#.*.;.$.$.=.$.#.#...| | | | | | | | ' ` [ ` ` ( R ( ` ( W ( ( W W Y T U F D A M k d a y 0 0 0 y y y 7 4 : < 4 5 7 0 a d k m V S F U T R [ [ [  .....X.X.X.$.$.$.=.=.=.=.$.$.$.$.$.$.$.$.$.$.$.$.$.$.$.$.$.$.$.$.$.#.#.......#.......| | | | | ......$.$.$.#.#.$.$.$.=.;.;.;.;.:.5.7.7.y.y.y.y.y.y.7.5.;.5.=.=.X.s.s.s.s.s.s.s.s.s.s.s.s.s.s.s.s.s.s.s.s.s.s.s.s.s.s.s.s.s.s.s.s.s.s.s.s.s.s.s.s.s.s.s.s.s.s.s.s.s.s.s.s.s.s.s.s.s.s.s.s.s.s.s.s.s.s.s.s.s.s.s.s.s.s.s.s.s.s.s.s.s.s.s.s.s.s.s.s.s.s.s.s.s.s.s.s.s.s.s.s.s.s.",
"s.s.s.s.s.s.s.s.s.s.s.s.s.s.s.s.s.s.s.s.s.s.s.s.s.s.s.s.s.s.s.s.s.s.s.s.s.s.s.s.s.s.s.s.s.s.s.s.s.s.s.s.s.s.s.s.s.s.s.s.s.s.s.s.s.s.s.s.s.s.s.s.s.s.s.s.s.s.s.s.s.s.s.s.s.s.s.s.s.s.s.s.s.s.s.s.s.s.s.s.s.s.s.s.s.s.s.s.s.s.s.s.s.s.s.s.s.s.s.s.s.s.s.s.s.s.s.s.s.s.s.s.s.s.s.s.s.s.s.s.s.s.s.s.s.s.s.s.s.s.s.s.s.s.s.s.s.s.s.s.s.s.s.s.s.s.s.Q X.$.$.$.-.-.-.-.*.-.-.-.-.;.;.:.5.:.7.7.y.r.r.r.y.y.y.y.y.y.y.y.y.y.d.g.g.g.g.d.y.y.y.d.y.g.g.g.g.g.h.g.g.h.l.h.h.h.h.h.h.h.h.l.h.l.C.C.h.h.h.h.h.h.h.h.h.h.l.l.h.h.h.h.h.h.h.f.f.g.d.f.h.h.h.h.h.h.h.h.f.h.f.h.h.g.h.l.f.f.l.l.l.h.h.h.h.v.M.h.h.l.h.v.v.l.v.h.h.h.h.v.v.h.v.h.h.h.l.f.f.f.h.h.h.h.f.y.y.y.f.f.f.y.y.y.y.y.7.y.7.7.5.5.:.:.5.7.7.;.:.;.;.;.*.-.;.' ' *.*.$.$.=.$.$.#...| | | | | | | | ' ` [ ` ( ( ( ( ( W W W W W R Y T U F S Z M k d y 0 0 0 0 0 0 0 7 < , 1 4 5 7 9 y j z m V D F U T W [ [ [  .....X.X.$.X.X.=.=.=.*.=.$.$.$.$.$.$.$.$.$.$.$.$.$.=.$.$.$.$.$.$.$.$.#.......#.......| | | ......| ..#.$.#...#.$.$.$.$.;.;.;.;.5.7.7.7.y.y.y.y.y.y.y.7.;.;.;.;.=. .s.s.s.s.s.s.s.s.s.s.s.s.s.s.s.s.s.s.s.s.s.s.s.s.s.s.s.s.s.s.s.s.s.s.s.s.s.s.s.s.s.s.s.s.s.s.s.s.s.s.s.s.s.s.s.s.s.s.s.s.s.s.s.s.s.s.s.s.s.s.s.s.s.s.s.s.s.s.s.s.s.s.s.s.s.s.s.s.s.s.s.s.s.s.s.s.s.s.s.s.s.",
"s.s.s.s.s.s.s.s.s.s.s.s.s.s.s.s.s.s.s.s.s.s.s.s.s.s.s.s.s.s.s.s.s.s.s.s.s.s.s.s.s.s.s.s.s.s.s.s.s.s.s.s.s.s.s.s.s.s.s.s.s.s.s.s.s.s.s.s.s.s.s.s.s.s.s.s.s.s.s.s.s.s.s.s.s.s.s.s.s.s.s.s.s.s.s.s.s.s.s.s.s.s.s.s.s.s.s.s.s.s.s.s.s.s.s.s.s.s.s.s.s.s.s.s.s.s.s.s.s.s.s.s.s.s.s.s.s.s.s.s.s.s.s.s.s.s.s.s.s.s.s.s.s.s.s.s.s.s.s.s.s.s.s.s.s.s.Q ..#.$.-.-.*.-.-.-.-.-.-.-.;.-.;.:.7.7.7.7.y.y.y.r.y.y.y.y.y.y.y.g.f.g.d.g.g.g.d.d.g.g.g.f.g.h.h.g.g.g.g.g.h.h.h.h.h.h.l.h.h.h.h.h.h.h.h.h.h.h.h.h.h.g.g.l.h.h.h.h.h.l.h.h.h.h.h.h.h.f.f.h.h.h.h.h.h.h.h.l.l.h.g.f.h.h.h.h.h.l.l.h.h.M.h.h.l.h.M.v.h.h.v.v.v.h.h.h.h.v.h.h.h.h.h.v.l.h.l.f.f.h.h.f.f.h.f.y.y.y.d.d.f.y.y.y.y.y.7.7.y.7.5.:.:.;.;.7.7.;.:.;.;.;.-.*.;.' ' #.$.$.$.$.$.$.#...| | | ' ' | | | ` ` ` ` ( ( ( ( ( ( W R R W R T U P D S V z j a y 0 9 0 0 0 9 0 6 : , 1 5 5 7 0 y j z M V D P Y Y W [ [ [  ...X.$.$.$.$.$.=.=.=.=.=.$.$.$.$.$.=.$.$.$.$.$.$.=.=.$.=.=.$.$.$.$.#.#.X.#...............| ....| | ..#...#.#.#.$.$.=.;.;.;.;.:.5.7.7.7.y.y.y.y.y.y.y.y.7.5.;.;.;.=._ s.s.s.s.s.s.s.s.s.s.s.s.s.s.s.s.s.s.s.s.s.s.s.s.s.s.s.s.s.s.s.s.s.s.s.s.s.s.s.s.s.s.s.s.s.s.s.s.s.s.s.s.s.s.s.s.s.s.s.s.s.s.s.s.s.s.s.s.s.s.s.s.s.s.s.s.s.s.s.s.s.s.s.s.s.s.s.s.s.s.s.s.s.s.s.s.s.s.s.s.",
"s.s.s.s.s.s.s.s.s.s.s.s.s.s.s.s.s.s.s.s.s.s.s.s.s.s.s.s.s.s.s.s.s.s.s.s.s.s.s.s.s.s.s.s.s.s.s.s.s.s.s.s.s.s.s.s.s.s.s.s.s.s.s.s.s.s.s.s.s.s.s.s.s.s.s.s.s.s.s.s.s.s.s.s.s.s.s.s.s.s.s.s.s.s.s.s.s.s.s.s.s.s.s.s.s.s.s.s.s.s.s.s.s.s.s.s.s.s.s.s.s.s.s.s.s.s.s.s.s.s.s.s.s.s.s.s.s.s.s.s.s.s.s.s.s.s.s.s.s.s.s.s.s.s.s.s.s.s.s.s.s.s.s.s.s.D ..$.$.*.-.-.*.*.*.-.*.-.-.;.-.-.;.:.7.y.y.y.y.y.r.y.y.y.y.y.d.y.y.y.d.g.g.y.d.g.g.y.g.g.g.f.f.g.g.g.g.h.h.g.g.h.g.h.l.h.l.h.h.h.g.h.h.h.h.g.g.h.h.h.h.h.g.d.g.h.h.h.h.h.l.l.h.f.f.h.h.h.h.h.f.g.g.f.f.f.h.h.h.h.g.f.h.d.f.h.h.h.l.M.M.M.M.M.v.h.M.l.v.h.v.h.h.h.h.v.h.h.h.h.h.h.h.h.l.h.f.d.f.l.h.h.f.d.d.d.y.y.y.y.y.y.y.y.y.y.7.7.y.y.5.:.7.;.;.5.5.:.;.;.;.;.;.;.;.#.' #.$.$.$.$.#.$.#.#...| | ` ' | | [ ` ( ( ( ( ( ( ( R W W R R W R T U U D Z V z d a y 9 9 9 0 0 9 7 < ; < 1 4 5 7 0 y j z M Z D P Y Y W [ [ [  ...X.X.$.$.$.=.=.=.=.=.=.$.$.$.=.$.$.$.$.$.$.$.=.=.=.$.$.=.=.$.$.$.$.#...#...#.......| | ....| | ....#.#.#.#.#.$.$.=.;.;.;.;.:.7.7.7.7.y.y.u.u.y.y.y.y.7.7.y.y.;.*...{ s.s.s.s.s.s.s.s.s.s.s.s.s.s.s.s.s.s.s.s.s.s.s.s.s.s.s.s.s.s.s.s.s.s.s.s.s.s.s.s.s.s.s.s.s.s.s.s.s.s.s.s.s.s.s.s.s.s.s.s.s.s.s.s.s.s.s.s.s.s.s.s.s.s.s.s.s.s.s.s.s.s.s.s.s.s.s.s.s.s.s.s.s.s.s.s.s.s.s.",
"s.s.s.s.s.s.s.s.s.s.s.s.s.s.s.s.s.s.s.s.s.s.s.s.s.s.s.s.s.s.s.s.s.s.s.s.s.s.s.s.s.s.s.s.s.s.s.s.s.s.s.s.s.s.s.s.s.s.s.s.s.s.s.s.s.s.s.s.s.s.s.s.s.s.s.s.s.s.s.s.s.s.s.s.s.s.s.s.s.s.s.s.s.s.s.s.s.s.s.s.s.s.s.s.s.s.s.s.s.s.s.s.s.s.s.s.s.s.s.s.s.s.s.s.s.s.s.s.s.s.s.s.s.s.s.s.s.s.s.s.s.s.s.s.s.s.s.s.s.s.s.s.s.s.s.s.s.s.s.s.s.s.s.s.V | #.$.$.*.$.$.*.-.-.-.-.-.-.-.-.;.:.:.y.y.y.y.7.y.y.y.y.y.y.y.y.y.g.d.y.g.g.g.g.g.d.d.g.g.g.f.f.g.g.g.g.g.h.g.g.C.l.l.h.l.l.h.h.h.h.h.l.h.h.l.h.h.h.h.h.l.h.g.h.h.f.f.h.l.h.h.h.h.h.f.g.h.h.h.h.f.f.h.h.l.h.h.h.h.h.h.h.f.f.l.l.h.h.l.l.h.l.M.M.h.l.l.h.h.h.b.v.h.h.h.h.h.h.h.h.f.h.h.h.h.f.f.y.f.h.h.f.f.f.y.y.y.f.f.y.y.y.y.7.7.7.y.y.y.y.:.5.7.7.;.;.;.;.;.*.*.*.*.-.;.@.#.$.#.$.$.$.$.#.#.#.| | ' ' | ( [ ` ` ( ( ( ( ( ( R R R R W R T T U P D Z V z d y y 9 7 7 9 9 7 6 ; - < 1 1 4 6 9 y f z M Z D F T Y ( ` [ [  .X...$.=.$.$.=.=.=.=.=.=.$.$.$.=.$.$.$.$.$.$.$.=.=.=.$.=.=.=.$.$.$.$.$.$.#.#.#.........| | | ..| ......#.#.$.$.$.$.=.$.;.:.5.7.7.7.y.y.y.y.y.y.y.y.y.y.y.y.y.y.:.;.;.X. .s.s.s.s.s.s.s.s.s.s.s.s.s.s.s.s.s.s.s.s.s.s.s.s.s.s.s.s.s.s.s.s.s.s.s.s.s.s.s.s.s.s.s.s.s.s.s.s.s.s.s.s.s.s.s.s.s.s.s.s.s.s.s.s.s.s.s.s.s.s.s.s.s.s.s.s.s.s.s.s.s.s.s.s.s.s.s.s.s.s.s.s.s.s.s.s.s.s.",
"s.s.s.s.s.s.s.s.s.s.s.s.s.s.s.s.s.s.s.s.s.s.s.s.s.s.s.s.s.s.s.s.s.s.s.s.s.s.s.s.s.s.s.s.s.s.s.s.s.s.s.s.s.s.s.s.s.s.s.s.s.s.s.s.s.s.s.s.s.s.s.s.s.s.s.s.s.s.s.s.s.s.s.s.s.s.s.s.s.s.s.s.s.s.s.s.s.s.s.s.s.s.s.s.s.s.s.s.s.s.s.s.s.s.s.s.s.s.s.s.s.s.s.s.s.s.s.s.s.s.s.s.s.s.s.s.s.s.s.s.s.s.s.s.s.s.s.s.s.s.s.s.s.s.s.s.s.s.s.s.s.s.s.M [ @.$.$.-.$.-.*.#.*.-.-.-.-.-.-.;.:.:.7.7.7.7.y.y.y.y.y.y.y.y.d.d.g.g.g.g.g.g.g.g.g.d.g.g.g.f.g.f.g.g.g.g.g.g.g.g.h.l.C.l.l.l.l.h.h.h.h.l.l.h.g.l.C.l.h.h.g.g.h.h.h.h.h.h.h.h.h.h.h.h.h.h.l.h.h.h.h.h.h.h.h.g.g.f.h.C.C.h.h.h.h.h.l.l.h.M.M.h.l.l.h.h.f.h.v.h.h.h.h.h.h.h.h.h.h.f.h.h.h.h.h.h.f.f.f.h.h.h.h.d.y.y.y.f.f.f.y.y.y.y.7.7.y.y.y.7.:.;.5.7.;.;.;.;.;.*.*.*.*.*.*.$.$.$.#.#.#.#.#.#.#.| | | ( ( | ( ` ` ( ( ( ( ( ( ( R R R R R R T Y U F A V m k d 0 9 8 7 7 7 7 7 < = - < < < < 6 9 y f z M V D P T R _ ` [ |  .X...X.$.$.$.=.=.=.=.=.=.$.$.$.=.$.$.$.$.$.$.$.=.*.=.$.=.=.$.$.$.$.$.$.#.........................| ....#...#.$.$.$.;.;.;.5.7.7.y.7.y.y.y.y.y.y.y.y.y.y.y.y.d.y.7.5.7.5.X.X.s.s.s.s.s.s.s.s.s.s.s.s.s.s.s.s.s.s.s.s.s.s.s.s.s.s.s.s.s.s.s.s.s.s.s.s.s.s.s.s.s.s.s.s.s.s.s.s.s.s.s.s.s.s.s.s.s.s.s.s.s.s.s.s.s.s.s.s.s.s.s.s.s.s.s.s.s.s.s.s.s.s.s.s.s.s.s.s.s.s.s.s.s.s.s.s.s.",
"s.s.s.s.s.s.s.s.s.s.s.s.s.s.s.s.s.s.s.s.s.s.s.s.s.s.s.s.s.s.s.s.s.s.s.s.s.s.s.s.s.s.s.s.s.s.s.s.s.s.s.s.s.s.s.s.s.s.s.s.s.s.s.s.s.s.s.s.s.s.s.s.s.s.s.s.s.s.s.s.s.s.s.s.s.s.s.s.s.s.s.s.s.s.s.s.s.s.s.s.s.s.s.s.s.s.s.s.s.s.s.s.s.s.s.s.s.s.s.s.s.s.s.s.s.s.s.s.s.s.s.s.s.s.s.s.s.s.s.s.s.s.s.s.s.s.s.s.s.s.s.s.s.s.s.s.s.s.s.s.s.s.V | #.#.#.$.-.*.$.*.$.-.-.-.-.-.;.:.:.7.7.7.y.y.y.y.y.y.y.y.y.y.y.y.y.d.g.g.g.y.y.y.g.g.g.f.h.h.f.h.h.h.g.g.g.g.g.g.g.l.h.h.h.l.l.l.C.h.g.h.h.l.l.h.l.l.h.h.h.h.h.h.l.C.l.h.h.h.h.h.h.h.l.h.l.h.h.h.h.h.l.h.f.f.g.g.h.h.h.f.l.l.l.h.h.l.l.h.h.h.h.h.h.l.h.h.h.v.v.h.h.h.h.h.h.h.h.h.f.h.l.h.f.h.f.f.f.d.h.h.f.f.f.d.y.y.y.y.y.y.y.7.y.y.7.y.y.y.7.5.;.;.;.;.;.;.;.;.*.*.*.*.*.*.$.@.#...$.$.#.#.....| | ' ' ` ` ( ( ( ( ( ( ( R R R E E Q R R Q T Y U F S V m f y 0 9 7 7 7 7 6 4 = = - , , , < 6 9 y f z M Z D P Y Y _ ` [  ...X...X.X.$.$.=.=.=.=.=.=.=.$.$.=.$.$.$.$.$.$.$.=.=.=.$.=.=.=.$.$.$.$.$.......#.......................#.#.#.#.$.$.$.;.;.;.;.:.5.5.7.y.y.y.y.y.u.y.y.y.y.u.y.f.y.y.y.;.7.=.$.$.D s.s.s.s.s.s.s.s.s.s.s.s.s.s.s.s.s.s.s.s.s.s.s.s.s.s.s.s.s.s.s.s.s.s.s.s.s.s.s.s.s.s.s.s.s.s.s.s.s.s.s.s.s.s.s.s.s.s.s.s.s.s.s.s.s.s.s.s.s.s.s.s.s.s.s.s.s.s.s.s.s.s.s.s.s.s.s.s.s.s.s.s.s.s.s.",
"s.s.s.s.s.s.s.s.s.s.s.s.s.s.s.s.s.s.s.s.s.s.s.s.s.s.s.s.s.s.s.s.s.s.s.s.s.s.s.s.s.s.s.s.s.s.s.s.s.s.s.s.s.s.s.s.s.s.s.s.s.s.s.s.s.s.s.s.s.s.s.s.s.s.s.s.s.s.s.s.s.s.s.s.s.s.s.s.s.s.s.s.s.s.s.s.s.s.s.s.s.s.s.s.s.s.s.s.s.s.s.s.s.s.s.s.s.s.s.s.s.s.s.s.s.s.s.s.s.s.s.s.s.s.s.s.s.s.s.s.s.s.s.s.s.s.s.s.s.s.s.s.s.s.s.s.s.s.s.s.s.s.[ #.#.$.$.*.*.*.$.$.-.-.*.-.-.-.;.:.:.:.7.y.y.y.y.y.y.y.y.y.y.y.y.y.y.u.y.g.y.y.y.d.f.g.g.g.g.g.g.g.f.h.g.g.g.g.g.g.g.h.h.l.l.l.l.C.C.l.l.l.A.C.l.h.l.l.h.h.h.l.l.h.h.C.C.h.h.h.h.h.h.l.h.h.l.h.f.h.l.l.l.l.h.h.h.h.C.h.h.h.h.h.l.l.h.h.l.l.h.f.h.M.M.l.l.v.v.h.h.h.h.h.f.h.h.v.h.f.f.h.h.f.f.h.f.f.y.f.l.h.f.f.y.y.y.y.y.g.y.f.y.y.y.y.y.y.5.5.y.7.5.;.;.5.5.;.;.;.*.*.*.*.$.*.$.#.#.#.#.#.#.#.| ..| | ' ` ( ( ( ( ( ( ( ( ( R R R R E Q R Q R T Y U F Z M z d y 9 8 7 7 7 6 6 < o = = : ; ; < 6 9 y f z M Z D U U R _ [ [ | ......X.$.$.$.=.=.=.=.=.=.=.$.$.=.$.$.$.$.$.$.$.=.=.=.$.=.=.=.$.$.$.$.$...#.#.$.#.................#.#.#.#...#.$.$.$.;.;.;.5.5.7.7.7.y.y.y.u.y.y.u.y.y.y.y.f.f.y.y.y.y.7.5.*.$.X.R s.s.s.s.s.s.s.s.s.s.s.s.s.s.s.s.s.s.s.s.s.s.s.s.s.s.s.s.s.s.s.s.s.s.s.s.s.s.s.s.s.s.s.s.s.s.s.s.s.s.s.s.s.s.s.s.s.s.s.s.s.s.s.s.s.s.s.s.s.s.s.s.s.s.s.s.s.s.s.s.s.s.s.s.s.s.s.s.s.s.s.s.s.s.",
"s.s.s.s.s.s.s.s.s.s.s.s.s.s.s.s.s.s.s.s.s.s.s.s.s.s.s.s.s.s.s.s.s.s.s.s.s.s.s.s.s.s.s.s.s.s.s.s.s.s.s.s.s.s.s.s.s.s.s.s.s.s.s.s.s.s.s.s.s.s.s.s.s.s.s.s.s.s.s.s.s.s.s.s.s.s.s.s.s.s.s.s.s.s.s.s.s.s.s.s.s.s.s.s.s.s.s.s.s.s.s.s.s.s.s.s.s.s.s.s.s.s.s.s.s.s.s.s.s.s.s.s.s.s.s.s.s.s.s.s.s.s.s.s.s.s.s.s.s.s.s.s.s.s.s.s.s.s.s.s.s.| $.*.$.$.*.$.$.%.*.-.-.-.-.-.-.-.;.;.;.:.r.r.y.r.y.y.y.y.y.d.d.d.g.d.d.g.g.g.g.g.g.g.g.g.g.g.g.g.g.g.h.h.l.h.g.h.h.h.h.h.h.h.l.l.h.h.l.C.l.l.C.l.C.C.l.l.l.l.l.h.l.l.l.h.C.C.h.h.l.l.h.h.f.h.h.h.h.h.h.h.M.S.M.M.l.l.S.M.h.l.l.l.l.l.l.h.l.l.l.l.l.h.l.f.f.f.f.f.h.h.v.v.h.f.h.h.h.f.h.h.h.h.f.h.f.f.y.d.f.d.f.f.d.y.y.y.y.y.r.y.y.y.y.y.5.7.7.5.5.7.5.;.;.;.*.*.*.$.*.;.*.$.$.$.$.#.#.#.#.#.#.| ....| | | | ( ( ( ( ( ( ( ( / R E E T T Q R R T U U F D C v z d 0 0 7 7 7 7 7 6 , * - - - - , < 6 9 a f z V A D U Y R W ` [ |  . . .X.$.$.$.$.=.=.=.=.=.=.2.=.=.2.=.$.=.=.=.=.=.2.2.=.=.=.$.$.$.$.$.$.$.#.#.#.#.#...#.#.............#...$.$.$.=.=.;.;.5.5.5.7.7.7.y.y.y.y.y.y.y.7.y.y.y.y.y.y.y.f.y.7.;.;.*.=.2.[ s.s.s.s.s.s.s.s.s.s.s.s.s.s.s.s.s.s.s.s.s.s.s.s.s.s.s.s.s.s.s.s.s.s.s.s.s.s.s.s.s.s.s.s.s.s.s.s.s.s.s.s.s.s.s.s.s.s.s.s.s.s.s.s.s.s.s.s.s.s.s.s.s.s.s.s.s.s.s.s.s.s.s.s.s.s.s.s.s.s.s.s.s.",
"s.s.s.s.s.s.s.s.s.s.s.s.s.s.s.s.s.s.s.s.s.s.s.s.s.s.s.s.s.s.s.s.s.s.s.s.s.s.s.s.s.s.s.s.s.s.s.s.s.s.s.s.s.s.s.s.s.s.s.s.s.s.s.s.s.s.s.s.s.s.s.s.s.s.s.s.s.s.s.s.s.s.s.s.s.s.s.s.s.s.s.s.s.s.s.s.s.s.s.s.s.s.s.s.s.s.s.s.s.s.s.s.s.s.s.s.s.s.s.s.s.s.s.s.s.s.s.s.s.s.s.s.s.s.s.s.s.s.s.s.s.s.s.s.s.s.s.s.s.s.s.s.s.s.s.s.s.s.s.s.[ #.$.$.*.*.*.*.$.*.*.-.-.-.-.-.;.;.:.:.:.r.r.r.r.y.y.y.y.y.y.d.y.y.d.y.y.g.g.g.h.g.d.d.g.g.g.g.g.g.g.g.g.h.h.h.h.g.h.l.h.V.h.h.h.h.h.h.l.S.C.C.C.C.l.C.C.l.h.l.l.l.l.l.l.C.h.h.C.l.l.C.l.h.h.h.g.h.f.h.h.h.l.h.l.M.l.l.l.l.l.M.l.h.h.l.l.h.h.h.f.f.l.h.h.h.h.f.f.f.f.l.M.h.h.h.h.h.h.f.f.f.h.h.f.h.f.f.y.i.f.d.d.d.u.d.y.y.y.y.t.y.y.y.:.7.7.5.5.5.;.5.5.:.;.;.;.*.;.*.*.*.*.*.$.$.$.#.#.#.#.#.#...#...| | | [ ( ( ( ( ( ( R R R R E T T T T T T T U F D A Z v z a 9 7 7 6 7 6 7 6 = = = = = - ; < 6 0 a f z V Z D P Y Q W ` [ [ {  . .X.$.$.$.=.=.=.=.=.=.=.2.=.=.=.=.=.=.=.=.=.=.2.=.=.=.=.$.$.$.$.$.$.$.#.#.#.#.#.$.#.#.............$.$.$.*.*.;.;.;.5.5.5.5.5.7.7.y.y.y.y.y.y.y.y.y.y.y.y.y.u.y.u.y.y.y.y.7.;.5.2.2.s.s.s.s.s.s.s.s.s.s.s.s.s.s.s.s.s.s.s.s.s.s.s.s.s.s.s.s.s.s.s.s.s.s.s.s.s.s.s.s.s.s.s.s.s.s.s.s.s.s.s.s.s.s.s.s.s.s.s.s.s.s.s.s.s.s.s.s.s.s.s.s.s.s.s.s.s.s.s.s.s.s.s.s.s.s.s.s.s.s.s.s.",
"s.s.s.s.s.s.s.s.s.s.s.s.s.s.s.s.s.s.s.s.s.s.s.s.s.s.s.s.s.s.s.s.s.s.s.s.s.s.s.s.s.s.s.s.s.s.s.s.s.s.s.s.s.s.s.s.s.s.s.s.s.s.s.s.s.s.s.s.s.s.s.s.s.s.s.s.s.s.s.s.s.s.s.s.s.s.s.s.s.s.s.s.s.s.s.s.s.s.s.s.s.s.s.s.s.s.s.s.s.s.s.s.s.s.s.s.s.s.s.s.s.s.s.s.s.s.s.s.s.s.s.s.s.s.s.s.s.s.s.s.s.s.s.s.s.s.s.s.s.s.s.s.s.s.s.s.s.s.s.U #.#.$.*.*.-.*.*.*.*.*.-.-.-.-.;.;.;.:.:.:.r.r.r.y.y.y.y.y.y.d.u.d.d.f.d.d.y.d.g.g.g.g.g.g.g.g.h.h.h.h.g.g.g.h.h.h.h.h.l.C.l.l.l.h.h.h.h.l.l.h.h.h.h.l.C.l.h.h.h.l.l.l.h.h.h.h.l.l.h.h.h.h.h.V.h.g.h.h.h.l.h.h.h.l.M.l.l.h.h.l.M.M.h.h.h.l.l.l.l.h.f.h.h.h.l.f.g.u.f.f.y.h.l.h.f.h.f.h.h.f.u.h.h.f.f.f.f.d.f.f.f.f.d.d.d.y.y.y.y.y.y.y.r.:.:.:.:.7.:.;.;.;.;.;.;.;.*.;.*.$.$.$.*.*.$.#.$.#.#...#...| ....| | | ' ( ( ( ( ( R R R E E E T T T T Y T U U P F A Z z j y 7 7 6 6 6 6 6 , o = = % % = ; < 6 9 a f z V Z D P T R W ` [ [ | ....X.#.$.$.$.=.=.=.=.=.=.2.=.=.=.=.=.=.=.=.=.=.2.=.=.=.=.=.$.$.$.$.#.$.#.#.#.#.........#.#.X.$.$.$.*.=.=.=.=.5.;.5.5.5.5.7.7.y.y.y.y.y.y.y.y.y.y.y.y.y.y.u.y.u.u.u.y.y.y.7.5.5.2.2.1.s.s.s.s.s.s.s.s.s.s.s.s.s.s.s.s.s.s.s.s.s.s.s.s.s.s.s.s.s.s.s.s.s.s.s.s.s.s.s.s.s.s.s.s.s.s.s.s.s.s.s.s.s.s.s.s.s.s.s.s.s.s.s.s.s.s.s.s.s.s.s.s.s.s.s.s.s.s.s.s.s.s.s.s.s.s.s.s.s.s.s.",
"s.s.s.s.s.s.s.s.s.s.s.s.s.s.s.s.s.s.s.s.s.s.s.s.s.s.s.s.s.s.s.s.s.s.s.s.s.s.s.s.s.s.s.s.s.s.s.s.s.s.s.s.s.s.s.s.s.s.s.s.s.s.s.s.s.s.s.s.s.s.s.s.s.s.s.s.s.s.s.s.s.s.s.s.s.s.s.s.s.s.s.s.s.s.s.s.s.s.s.s.s.s.s.s.s.s.s.s.s.s.s.s.s.s.s.s.s.s.s.s.s.s.s.s.s.s.s.s.s.s.s.s.s.s.s.s.s.s.s.s.s.s.s.s.s.s.s.s.s.s.s.s.s.s.s.s.s.s.U $...$.*.*.*.*.*.*.*.*.*.-.-.-.;.;.;.;.;.;.:.r.r.r.r.y.y.d.g.y.y.g.g.g.h.g.g.g.g.g.g.g.g.g.h.h.g.h.h.h.g.g.g.g.h.h.h.h.g.g.h.l.l.l.l.l.h.h.l.l.l.l.l.l.C.C.h.h.h.h.h.h.h.h.h.h.f.g.f.h.l.h.h.g.h.h.l.h.l.l.l.h.h.h.l.M.h.h.h.l.h.l.S.M.M.h.l.l.h.f.f.f.f.l.h.f.f.f.f.f.f.y.f.l.h.f.h.f.f.h.h.f.h.h.f.f.y.y.y.f.f.f.f.y.y.y.y.y.y.y.y.y.r.y.:.:.:.:.5.5.5.;.*.;.;.;.*.*.*.*.*.*.$.#.#.$.#.$.$.#.#.#.| | ....| | | ( ( ( ( ( ( R E E E E T T T T T Y Y U F D D Z V h f 0 7 7 6 4 4 4 1 O o o o o o = ; < 6 9 a k v V S D F Y R W ( ` [ | ....X.$.$.$.$.=.=.=.=.=.=.2.=.=.=.2.2.=.=.=.=.=.=.=.=.=.=.$.$.$.$.$.$.$...#.#.#.#...#.#.$.$.$.$.$.$.$.=.=.*.$.;.;.5.5.5.7.7.7.y.y.y.y.y.7.7.y.y.y.y.y.y.u.u.u.u.f.f.y.y.y.y.y.7.7.7.7.2.[ s.s.s.s.s.s.s.a.s.s.s.s.s.s.s.s.s.s.s.s.s.s.s.s.s.s.s.s.s.s.s.s.s.s.s.s.s.s.s.s.s.s.s.s.s.s.s.s.s.s.s.s.s.s.s.s.s.s.s.s.s.s.s.s.s.s.s.s.s.s.s.s.s.s.s.s.s.s.s.s.s.s.s.s.s.s.s.s.s.",
"s.s.s.s.s.s.s.s.s.s.s.s.s.s.s.s.s.s.s.s.s.s.s.s.s.s.s.s.s.s.s.s.s.s.s.s.s.s.s.s.s.s.s.s.s.s.s.s.s.s.s.s.s.s.s.s.s.s.s.s.s.s.s.s.s.s.s.s.s.s.s.s.s.s.s.s.s.s.s.s.s.s.s.s.s.s.s.s.s.s.s.s.s.s.s.s.s.s.s.s.s.s.s.s.s.s.s.s.s.s.s.s.s.s.s.s.s.s.s.s.s.s.s.s.s.s.s.s.s.s.s.s.s.s.s.s.s.s.s.s.s.s.s.s.s.s.s.s.s.s.s.s.s.s.s.s.s.U ..| #.#.$.#.$.*.*.$.$.-.-.-.-.;.;.;.;.;.;.:.r.y.y.y.y.y.y.y.y.g.g.d.g.g.f.f.d.g.g.h.g.g.g.h.g.h.g.g.h.l.h.h.h.h.l.h.h.h.l.l.l.l.h.l.C.l.l.h.l.l.l.l.l.C.l.l.l.h.l.h.g.h.h.l.h.l.h.h.h.h.l.l.h.h.h.h.M.l.l.l.h.l.h.M.l.M.S.M.h.h.l.l.M.l.M.M.l.l.S.l.l.f.f.f.f.f.y.f.f.h.f.y.f.h.l.h.y.u.h.f.f.f.h.f.f.f.y.y.y.y.f.f.f.y.y.d.f.y.y.y.:.:.y.y.r.5.:.5.:.:.;.-.;.;.;.;.-.*.*.*.*.$.*.#.#.#.#.$.#.#.#.#.#.......| | | ( ( ( / ( ( R E T E E T T T U T Y T U F D A V M k d 0 6 6 1 1 4 1 , o .   . X o = , 4 7 0 a f z V Z D D U Q W W ` [ | ..| $.X.$.$.$.=.=.=.=.=.=.2.=.=.2.=.=.=.=.5.=.=.=.=.=.=.$.$.$.$.$.$...$.$.X.$.$.$.$.$.$.*.*.*.*.*.*.;.*.=.=.=.5.5.5.7.7.7.7.y.y.y.y.y.y.y.y.y.y.y.y.y.y.y.f.f.f.f.f.u.y.y.y.y.y.y.5.7.5.5.4.s.s.s.s.s.s.s.s.s.s.s.s.s.s.s.s.s.s.s.s.s.s.s.s.s.s.s.s.s.s.s.s.s.s.s.s.s.s.s.s.s.s.s.s.s.s.s.s.s.s.s.s.s.s.s.s.s.s.s.s.s.s.s.s.s.s.s.s.s.s.s.s.s.s.s.s.s.s.s.s.s.s.s.s.s.s.s.s.",
"s.s.s.s.s.s.s.s.s.s.s.s.s.s.s.s.s.s.s.s.s.s.s.s.s.s.s.s.s.s.s.s.s.s.s.s.s.s.s.s.s.s.s.s.s.s.s.s.s.s.s.s.s.s.s.s.s.s.s.s.s.s.s.s.s.s.s.s.s.s.s.s.s.s.s.s.s.s.s.s.s.s.s.s.s.s.s.s.s.s.s.s.s.s.s.s.s.s.s.s.s.s.s.s.s.s.s.s.s.s.s.s.s.s.s.s.s.s.s.s.s.s.s.s.s.s.s.s.s.s.s.s.s.s.s.s.s.s.s.s.s.s.s.s.s.s.s.s.s.s.s.s.s.s.s.s.P ..@.$.*.#.$.#.$.$.*.-.-.-.-.-.;.;.;.;.;.;.:.:.r.r.r.y.y.y.y.y.d.g.g.g.g.f.h.f.f.f.g.h.h.h.h.g.g.g.g.g.h.l.h.g.g.h.h.l.g.g.h.h.h.h.h.h.C.C.l.h.h.l.l.l.l.C.C.l.h.l.l.h.g.h.h.h.h.h.h.C.l.h.M.h.h.h.h.h.h.l.M.l.h.l.l.l.l.M.M.l.h.h.l.M.M.l.h.h.M.l.l.l.f.h.h.f.f.f.y.f.f.f.f.f.h.h.h.h.f.u.u.f.f.f.f.f.f.f.y.y.f.y.y.f.f.d.y.y.y.y.y.y.y.y.y.y.y.;.:.7.5.;.;.;.;.;.;.;.;.;.*.*.$.$.*.$.#.#.#.#.#.#.#.#.....| ..| | | ( ( ( ( R R R T T T T T T U U T Y T U F D A V M f y 7 7 1 < < < 1 O           o ; < 4 7 0 a f h V Z D F U Y R W ` [ [  .| ..X.$.$.$.=.$.$.=.=.=.=.2.=.=.=.=.=.=.2.=.=.=.=.=.=.$.$.$.$.$.$.$.$.....$.$.$.$.$.$.*.*.*.;.*.*.;.*.;.=.=.5.5.5.5.7.7.7.y.y.y.y.y.y.y.y.y.y.y.y.y.y.y.u.f.f.h.f.f.f.u.y.y.d.y.y.y.7.7.7.4.s.s.s.s.s.s.s.s.s.s.s.s.s.s.s.s.s.s.s.s.s.s.s.s.s.s.s.s.s.s.s.s.s.s.s.s.s.s.s.s.s.s.s.s.s.s.s.s.s.s.s.s.s.s.s.s.s.s.s.s.s.s.s.s.s.s.s.s.s.s.s.s.s.s.s.s.s.s.s.s.s.s.s.s.s.s.s.",
"s.s.s.s.s.s.s.s.s.s.s.s.s.s.s.s.s.s.s.s.s.s.s.s.s.s.s.s.s.s.s.s.s.s.s.s.s.s.s.s.s.s.s.s.s.s.s.s.s.s.s.s.s.s.s.s.s.s.s.s.s.s.s.s.s.s.s.s.s.s.s.s.s.s.s.s.s.s.s.s.s.s.s.s.s.s.s.s.s.s.s.s.s.s.s.s.s.s.s.s.s.s.s.s.s.s.s.s.s.s.s.s.s.s.s.s.s.s.s.s.s.s.s.s.s.s.s.s.s.s.s.s.s.s.s.s.s.s.s.s.s.s.s.s.s.s.s.s.s.s.s.s.s.s.s.s...#.*.*.$.$.#.$.$.$.*.-.-.-.-.-.;.;.;.:.;.;.r.r.r.r.y.y.y.y.y.y.d.y.y.y.y.g.f.f.g.f.h.h.h.h.g.h.h.h.h.h.h.g.g.h.h.h.l.h.g.h.h.h.h.h.h.h.l.C.l.l.h.l.l.l.C.h.h.h.l.l.l.h.l.h.l.l.h.l.l.h.C.C.l.h.h.h.l.h.h.l.l.h.h.h.M.f.f.h.l.l.h.l.h.l.M.M.M.h.h.h.M.l.f.h.l.h.l.f.f.f.f.f.f.h.h.f.f.f.y.y.y.f.f.f.f.f.f.f.y.y.y.y.y.y.d.f.y.y.y.y.y.y.y.:.y.y.:.;.;.5.;.-.;.;.;.;.*.*.-.;.*.$.$.*.$.$.#.#.#.#.#.#.#.#...| ....| | | ( ( ( R ( R R E T T T U U U U T U U P F D Z V v d 0 7 4 1 < ; < :         X o = , 1 6 7 0 a f z M Z S D U Y Q W ( [ [ |  .....$.$.$.$.=.=.=.=.=.=.=.=.=.=.=.=.=.2.=.=.=.=.=.=.$.$.$.$.$.$.$.$.....$.$.$.$.$.$.*.*.*.*.;.;.;.;.;.;.;.5.5.5.7.7.7.y.y.y.y.y.y.y.y.y.y.y.y.y.y.y.u.f.f.u.f.f.f.f.u.u.y.f.d.d.y.7.y.y.5.5.s.s.s.s.s.s.s.s.s.s.s.s.s.s.s.s.s.s.s.s.s.s.s.s.s.s.s.s.s.s.s.s.s.s.s.s.s.s.s.s.s.s.s.s.s.s.s.s.s.s.s.s.s.s.s.s.s.s.s.s.s.s.s.s.s.s.s.s.s.s.s.s.s.s.s.s.s.s.s.s.s.s.s.s.s.s.",
"s.s.s.s.s.s.s.s.s.s.s.s.s.s.s.s.s.s.s.s.s.s.s.s.s.s.s.s.s.s.s.s.s.s.s.s.s.s.s.s.s.s.s.s.s.s.s.s.s.s.s.s.s.s.s.s.s.s.s.s.s.s.s.s.s.s.s.s.s.s.s.s.s.s.s.s.s.s.s.s.s.s.s.s.s.s.s.s.s.s.s.s.s.s.s.s.s.s.s.s.s.s.s.s.s.s.s.s.s.s.s.s.s.s.s.s.s.s.s.s.s.s.s.s.s.s.s.s.s.s.s.s.s.s.s.s.s.s.s.s.s.s.s.s.s.s.s.s.s.s.s.s.s.s.s...| #.*.*.*.$.$.$.$.-.-.-.-.-.-.-.;.;.:.r.;.r.r.r.r.y.y.y.g.g.y.y.y.g.g.g.g.g.h.h.h.h.h.h.h.h.h.h.h.h.g.h.h.g.g.g.h.h.h.h.g.g.g.g.h.h.h.h.l.l.l.h.h.h.l.l.l.C.h.h.h.l.h.l.C.l.l.l.l.l.h.l.l.l.l.h.h.h.l.l.l.M.h.h.l.h.M.h.M.h.l.l.h.l.h.M.M.l.M.M.l.h.l.v.l.l.l.l.l.l.l.l.f.f.f.f.f.f.u.f.f.u.f.f.f.f.f.f.h.f.f.y.y.y.y.y.y.y.y.y.y.y.y.y.:.y.:.:.:.5.;.:.;.:.-.*.*.*.;.*.*.*.*.$.$.*.$.$.#.@.@.#.#.#.#.@.| | ....| | | ( ` ( R R R E E T T U U G G U U U U F F A Z V z a 9 4 6 1 ; , , O         o = = , < 6 7 0 a f h M Z S D U T Y R ( [ [ |  .....$.$.X.$.$.=.=.=.2.=.=.=.2.=.=.2.=.2.=.=.=.=.=.=.$.$.$.$.$.$.$...#.#.$.$.$.$.$.$.*.*.*.=.;.;.;.;.;.5.5.;.5.7.7.7.y.y.y.y.y.y.y.y.y.y.y.y.y.y.y.y.u.u.f.f.h.f.f.h.f.y.u.f.h.f.f.y.y.y.y.7.5.s.s.s.s.s.s.s.s.s.s.s.s.s.s.s.s.s.s.s.s.s.s.s.s.s.s.s.s.s.s.s.s.s.s.s.s.s.s.s.s.s.s.s.s.s.s.s.s.s.s.s.s.s.s.s.s.s.s.s.s.s.s.s.s.s.s.s.s.s.s.s.s.s.s.s.s.s.s.s.s.s.s.s.s.s.",
"s.s.s.s.s.s.s.s.s.s.s.s.s.s.s.s.s.s.s.s.s.s.s.s.s.s.s.s.s.s.s.s.s.s.s.s.s.s.s.s.s.s.s.s.s.s.s.s.s.s.s.s.s.s.s.s.s.s.s.s.s.s.s.s.s.s.s.s.s.s.s.s.s.s.s.s.s.s.s.s.s.s.s.s.s.s.s.s.s.s.s.s.s.s.s.s.s.s.s.s.s.s.s.s.s.s.s.s.s.s.s.s.s.s.s.s.s.s.s.s.s.s.s.s.s.s.s.s.s.s.s.s.s.s.s.s.s.s.s.s.s.s.s.s.s.s.s.s.s.s.s.s.s.s.[ ..#.#.$.$.$.*.$.$.*.*.-.-.-.;.;.;.;.;.;.:.r.r.r.r.y.y.y.y.y.d.d.u.d.g.d.g.g.h.g.g.g.h.g.g.g.g.g.g.g.f.g.h.l.h.g.g.h.h.h.h.h.g.h.h.h.h.l.C.l.l.l.l.l.h.C.C.l.C.l.h.h.h.l.l.l.l.h.h.l.l.l.l.l.l.h.h.h.h.h.l.h.h.h.f.h.h.l.M.h.h.h.h.l.h.f.f.h.h.h.l.M.h.h.v.v.l.l.l.h.f.b.h.f.f.f.h.h.f.u.u.f.f.h.u.u.u.y.y.f.f.y.u.y.y.y.y.y.y.y.y.y.y.y.y.y.5.7.5.;.5.5.;.7.;.-.-.;.*.*.;.-.*.*.*.$.*.$.$.#.#.#.#.....| | ....| | | | | [ ` ( ( E R R Y T Y U U U U U U F P D D S A M z y 9 6 4 < , , =         X O = = ; < 6 7 0 d f h m V S D U T T R W ( [ ` | | | ..$.X.X.$.$.$.$.=.=.2.2.=.=.=.=.=.2.=.=.=.=.=.=.=.=.$.$.=.$.$.$.$.$.$.$.=.$.$.$.=.=.=.;.;.;.;.;.;.7.5.5.7.7.y.y.y.y.y.u.y.u.y.y.y.u.u.y.y.y.y.y.y.u.u.f.f.h.f.f.f.f.h.f.f.f.f.f.u.y.y.7.5.2.W s.s.s.s.s.s.s.s.s.s.s.s.s.s.s.s.s.s.s.s.s.s.s.s.s.s.s.s.s.s.s.s.s.s.s.s.s.s.s.s.s.s.s.s.s.s.s.s.s.s.s.s.s.s.s.s.s.s.s.s.s.s.s.s.s.s.s.s.s.s.s.s.s.s.s.s.s.s.s.s.s.s.s.",
"s.s.s.s.s.s.s.s.s.s.s.s.s.s.s.s.s.s.s.s.s.s.s.s.s.s.s.s.s.s.s.s.s.s.s.s.s.s.s.s.s.s.s.s.s.s.s.s.s.s.s.s.s.s.s.s.s.s.s.s.s.s.s.s.s.s.s.s.s.s.s.s.s.s.s.s.s.s.s.s.s.s.s.s.s.s.s.s.s.s.s.s.s.s.s.s.s.s.s.s.s.s.s.s.s.s.s.s.s.s.s.s.s.s.s.s.s.s.s.s.s.s.s.s.s.s.s.s.s.s.s.s.s.s.s.s.s.s.s.s.s.s.s.s.s.s.s.s.s.s.s.s.s.[ #.$.$.$.#.$.$.*.*.*.*.-.-.-.-.;.;.;.;.:.r.r.r.r.r.r.y.y.y.y.y.d.u.d.d.g.d.g.g.h.h.g.g.f.g.g.g.g.g.g.g.h.g.g.h.h.h.l.l.l.h.h.h.h.h.l.h.h.h.h.h.h.h.h.l.h.l.l.h.C.l.h.h.h.l.l.h.C.l.l.h.h.l.l.l.l.l.h.h.h.h.h.f.h.h.h.h.f.l.l.h.h.h.h.h.M.l.h.h.M.h.h.l.h.h.M.l.h.l.l.b.b.h.h.f.h.h.h.f.u.u.u.f.u.u.u.u.f.u.y.u.y.f.f.y.f.d.y.y.y.y.y.y.y.:.7.7.7.7.5.;.7.:.;.7.;.;.-.*.*.;.*.*.$.*.$.$.;.$.#.#.#...#.#.#.#.| ....| | | | [ ` ` ( ( ( R Q T Y Y U U U U G F F F D S A C v k 0 7 6 4 < , ,           . o O = , < 4 7 0 d k h z V S D U U Q W W W ` ` | | |  ...X.X.X.$.$.$.=.=.2.2.2.2.2.2.2.2.=.=.=.=.$.=.=.=.$.=.$.$.$.$.X.X.$.=.=.$.=.=.=.;.;.;.;.;.;.;.7.7.7.7.7.y.y.y.y.y.y.u.y.u.u.u.u.y.y.y.y.y.y.y.u.u.f.f.f.h.f.f.h.h.h.f.f.f.f.f.f.f.y.y.y.5.5.! s.s.s.s.s.s.s.s.s.s.s.s.s.s.s.s.s.s.s.s.s.s.s.s.s.s.s.s.s.s.s.s.s.s.s.s.s.s.s.s.s.s.s.s.s.s.s.s.s.s.s.s.s.s.s.s.s.s.s.s.s.s.s.s.s.s.s.s.s.s.s.s.s.s.s.s.s.s.s.s.s.s.",
"s.s.s.s.s.s.s.s.s.s.s.s.s.s.s.s.s.s.s.s.s.s.s.s.s.s.s.s.s.s.s.s.s.s.s.s.s.s.s.s.s.s.s.s.s.s.s.s.s.s.s.s.s.s.s.s.s.s.s.s.s.s.s.s.s.s.s.s.s.s.s.s.s.s.s.s.s.s.s.s.s.s.s.s.s.s.s.s.s.s.s.s.s.s.s.s.s.s.s.s.s.s.s.s.s.s.s.s.s.s.s.s.s.s.s.s.s.s.s.s.s.s.s.s.s.s.s.s.s.s.s.s.s.s.s.s.s.s.s.s.s.s.s.s.s.s.s.s.s.s.s.s._ #.#.#.$.$.$.$.$.*.*.*.*.-.-.;.;.;.;.;.;.r.r.r.y.r.y.y.y.y.y.y.d.d.d.d.d.g.g.h.g.h.h.h.g.g.g.g.g.g.h.g.h.h.l.l.l.l.h.h.l.C.C.h.h.h.h.h.h.h.h.h.h.h.h.h.h.h.l.l.l.l.l.l.l.l.l.l.h.h.h.C.C.l.l.l.h.h.h.h.h.h.h.h.h.V.h.h.l.h.l.l.h.h.h.h.h.M.l.h.h.h.h.h.h.h.h.b.h.h.h.h.h.h.h.h.f.h.h.h.f.f.f.u.f.f.f.f.u.u.u.y.f.u.u.u.y.u.d.y.y.y.y.y.y.7.5.;.:.5.7.5.:.:.:.;.:.;.;.;.*.*.*.*.*.$.*.*.$.-.$.#.#.#...| #.#.#.| ....| | | | | ` ` ( ( R R Q T U U U U P F P F F F D D S Z v d 0 6 4 < ; - &           X o O = , < 4 6 0 a f h m V A D F G Y R W ( ` [ [ | | | ....X.X.$.$.$.$.=.2.2.5.2.2.2.=.=.=.=.=.=.$.$.=.=.$.$.$.$.$.$.$.$.$.$.=.=.=.=.=.;.;.>.;.;.;.;.7.7.7.7.7.y.y.y.y.y.y.y.y.y.y.y.y.y.y.y.y.y.y.y.u.f.f.f.f.h.f.f.h.h.h.h.h.f.f.f.f.f.u.y.7.7.;.5.! s.s.s.s.s.s.s.s.s.s.s.s.s.s.s.s.s.s.s.s.s.s.s.s.s.s.s.s.s.s.s.s.s.s.s.s.s.s.s.s.s.s.s.s.s.s.s.s.s.s.s.s.s.s.s.s.s.s.s.s.s.s.s.s.s.s.s.s.s.s.s.s.s.s.s.s.s.s.s.s.s.",
"s.s.s.s.s.s.s.s.s.s.s.s.s.s.s.s.s.s.s.s.s.s.s.s.s.s.s.s.s.s.s.s.s.s.s.s.s.s.s.s.s.s.s.s.s.s.s.s.s.s.s.s.s.s.s.s.s.s.s.s.s.s.s.s.s.s.s.s.s.s.s.s.s.s.s.s.s.s.s.s.s.s.s.s.s.s.s.s.s.s.s.s.s.s.s.s.s.s.s.s.s.s.s.s.s.s.s.s.s.s.s.s.s.s.s.s.s.s.s.s.s.s.s.s.s.s.s.s.s.s.s.s.s.s.s.s.s.s.s.s.s.s.s.s.s.s.s.s.s.s.s.[ #.#.%.$.$.*.-.-.*.-.-.-.*.-.;.-.;.;.;.;.;.r.r.r.y.r.y.y.y.y.d.d.d.f.d.d.y.f.h.h.g.g.h.h.h.h.g.g.g.h.h.h.h.h.h.h.l.l.h.g.l.J.l.h.h.l.h.h.l.l.C.C.l.h.h.l.C.l.C.C.C.C.h.l.l.l.h.l.C.l.l.h.l.l.l.h.h.h.h.h.l.l.h.h.h.h.h.h.M.l.l.l.M.h.f.f.h.l.l.l.h.h.h.h.f.f.h.h.v.h.h.b.v.h.h.h.u.h.f.h.f.h.f.y.f.f.y.f.f.u.y.y.u.u.y.y.y.y.y.y.y.y.y.y.y.7.5.;.5.7.7.5.:.:.5.:.;.;.;.;.;.*.$.*.*.*.*.*.$.*.$.#.#.#.#...| | #.| ....| | | | ` ` ` ( R E R T Y U U U P F F F F F F A S Z V h a 7 6 6 < ; - o           o o = = ; 1 6 7 0 a d k z V C S F U T E W ( ` [ ` | | | | ....X.$.X.$.$.=.=.2.2.=.=.=.=.=.=.=.=.$.X.$.=.$.$.$.$.$.$.$.$.$.=.=.=.=.=.=.=.;.7.;.;.7.7.7.7.y.y.y.y.y.y.y.y.y.y.y.u.u.u.u.u.y.y.y.y.y.y.u.u.f.f.u.u.f.f.f.h.h.h.h.h.f.h.f.f.f.f.y.y.y.7.;.5.[ s.s.s.s.s.s.s.s.s.s.s.s.s.s.s.s.s.s.s.s.s.s.s.s.s.s.s.s.s.s.s.s.s.s.s.s.s.s.s.s.s.s.s.s.s.s.s.s.s.s.s.s.s.s.s.s.s.s.s.s.s.s.s.s.s.s.s.s.s.s.s.s.s.s.s.s.s.s.s.s.",
"s.s.s.s.s.s.s.s.s.s.s.s.s.s.s.s.s.s.s.s.s.s.s.s.s.s.s.s.s.s.s.s.s.s.s.s.s.s.s.s.s.s.s.s.s.s.s.s.s.s.s.s.s.s.s.s.s.s.s.s.s.s.s.s.s.s.s.s.s.s.s.s.s.s.s.s.s.s.s.s.s.s.s.s.s.s.s.s.s.s.s.s.s.s.s.s.s.s.s.s.s.s.s.s.s.s.s.s.s.s.s.s.s.s.s.s.s.s.s.s.s.s.s.s.s.s.s.s.s.s.s.s.s.s.s.s.s.s.s.s.s.s.s.s.s.s.s.s.s.s.U $.#.#.-.$.$.$.-.*.$.$.-.-.-.-.;.;.;.;.:.:.r.r.r.r.y.y.y.y.y.y.d.y.y.d.d.d.y.f.h.h.h.g.g.h.h.g.h.g.h.h.l.l.l.h.g.g.h.h.h.h.h.h.h.h.l.l.l.l.h.h.f.C.l.l.C.l.l.l.l.C.C.l.l.l.C.l.l.l.l.C.l.l.l.l.M.C.l.l.l.h.h.h.h.h.h.h.M.f.S.l.l.M.M.h.h.h.h.h.h.h.l.h.h.l.h.h.h.h.h.h.f.h.h.h.h.h.h.h.l.h.f.f.f.f.f.f.f.f.f.f.u.y.y.y.u.y.y.y.y.y.y.y.7.y.y.7.7.5.5.:.5.5.:.:.;.;.;.;.*.;.;.;.*.$.$.*.$.*.$.#.#.#...| | | #.#.| | ..| ' | ` ( ` ( ` ( R E Y T Y U U P F F F D D F F S A Z v k y 7 6 1 - = O         X X X o = = ; < 6 7 9 y f z m V Z A F U Y E R W ` ` [ [ [ | ......X.X.X.$.$.$.=.=.=.=.=.2.2.=.=.=.=.=.$.$.$.$.$.=.$.X.X.$.$.=.=.=.=.=.=.=.=.;.;.7.7.7.;.7.7.7.7.y.y.y.y.u.y.y.y.y.f.u.u.u.u.y.y.y.y.y.y.y.y.f.f.f.f.f.f.h.f.h.h.h.h.f.f.f.h.h.h.d.y.y.7.:.;.5.! s.s.s.s.s.s.s.s.s.s.s.s.s.s.s.s.s.s.s.s.s.s.s.s.s.s.s.s.s.s.s.s.s.s.s.s.s.s.s.s.s.s.s.s.s.s.s.s.s.s.s.s.s.s.s.s.s.s.s.s.s.s.s.s.s.s.s.s.s.s.s.s.s.s.s.s.s.s.s.",
"s.s.s.s.s.s.s.s.s.s.s.s.s.s.s.s.s.s.s.s.s.s.s.s.s.s.s.s.s.s.s.s.s.s.s.s.s.s.s.s.s.s.s.s.s.s.s.s.s.s.s.s.s.s.s.s.s.s.s.s.s.s.s.s.s.s.s.s.s.s.s.s.s.s.s.s.s.s.s.s.s.s.s.s.s.s.s.s.s.s.s.s.s.s.s.s.s.s.s.s.s.s.s.s.s.s.s.s.s.s.s.s.s.s.s.s.s.s.s.s.s.s.s.s.s.s.s.s.s.s.s.s.s.s.s.s.s.s.s.s.s.s.s.s.s.s.s.s.s.s.$.#.$.-.$.$.$.-.*.*.*.-.-.;.;.-.;.;.;.:.:.:.r.r.r.r.y.y.y.y.y.y.y.y.y.g.g.g.g.d.g.h.h.g.g.h.h.g.g.g.h.l.l.l.l.h.l.h.h.h.h.h.h.h.l.h.h.l.l.l.h.l.h.l.h.h.h.h.l.h.h.l.l.h.h.l.C.C.C.S.C.C.C.l.l.C.l.l.l.l.M.l.h.h.V.h.l.h.l.g.l.l.l.h.l.l.l.h.h.h.h.l.h.l.h.h.h.h.h.h.h.h.u.y.f.h.h.h.h.h.h.h.f.u.f.f.y.f.u.u.u.f.u.y.y.y.y.y.y.y.y.y.y.y.7.y.y.7.y.5.:.5.:.;.5.7.;.;.;.;.;.;.;.-.*.$.$.*.*.$.$.#.#.#...| ..| | | | | | | ' | ` ( ` ` ( ( R T T Y U U P P D D D D D D D A A V v k y 7 4 < = = . X X X     X o o % = : 1 6 7 0 a d k m V V D F P Y E R W ` ` [ | [ | | | .. .X.X.$.$.$.$.=.=.=.=.=.=.=.=.=.=.$.$.$.$.$.$.$.$.X.X.X.$.=.=.=.=.=.=.=.2.;.7.7.7.7.7.7.7.7.y.y.y.y.u.f.u.u.u.u.f.u.y.y.y.y.y.y.y.y.y.y.y.u.f.h.h.f.h.h.h.h.h.h.h.h.h.h.h.h.h.f.d.y.7.:.;.5.$.W s.s.s.s.s.s.s.s.s.s.s.s.s.s.s.s.s.s.s.s.s.s.s.s.s.s.s.s.s.s.s.s.s.s.s.s.s.s.s.s.s.s.s.s.s.s.s.s.s.s.s.s.s.s.s.s.s.s.s.s.s.s.s.s.s.s.s.s.s.s.s.s.s.s.s.s.s.s.",
"s.s.s.s.s.s.s.s.s.s.s.s.s.s.s.s.s.s.s.s.s.s.s.s.s.s.s.s.s.s.s.s.s.s.s.s.s.s.s.s.s.s.s.s.s.s.s.s.s.s.s.s.s.s.s.s.s.s.s.s.s.s.s.s.s.s.s.s.s.s.s.s.s.s.s.s.s.s.s.s.s.s.s.s.s.s.s.s.s.s.s.s.s.s.s.s.s.s.s.s.s.s.s.s.s.s.s.s.s.s.s.s.s.s.s.s.s.s.s.s.s.s.s.s.s.s.s.s.s.s.s.s.s.s.s.s.s.s.s.s.s.s.s.s.s.s.s.s.s.#.$.$.$.$.$.$.$.-.*.*.*.;.;.;.;.;.;.;.;.;.;.:.:.:.r.r.y.y.y.y.y.y.y.y.u.d.g.g.g.g.h.h.h.g.g.g.h.h.h.h.h.h.h.g.g.g.g.h.h.h.h.h.l.h.l.C.h.l.l.l.l.h.h.h.g.h.h.l.l.l.h.h.h.l.h.h.l.l.C.C.l.C.C.h.l.l.l.h.h.h.h.h.h.h.h.l.l.h.h.g.f.h.h.h.h.h.h.f.h.h.h.h.h.l.l.h.h.h.h.h.h.h.f.f.h.h.f.f.h.h.f.f.u.u.f.u.f.y.y.u.u.u.y.y.u.y.y.y.u.y.y.y.y.y.y.y.y.7.y.5.:.:.;.:.5.;.;.;.;.*.*.-.-.-.*.$.$.*.*.$.#.#...........| | | | | | | ' | ( ( ` ( ( R E T U U U U F F D D D F S D D Z A M z d 9 6 4 - = o o o o o o o o o o = = , < 4 7 9 y d f z B V Z U U Y E R W ` ` [ ' [ | ..| | | ..$.X.$.$.$.=.=.=.=.$.=.=.=.=.=.$.X.$.X.X.$.$.$.X.$.$.$.=.=.=.=.=.=.2.5.7.7.7.7.7.7.7.y.y.u.y.y.f.f.f.f.y.u.f.u.y.y.y.y.y.y.y.y.y.u.u.u.f.f.f.f.f.h.h.h.h.h.h.h.h.h.f.f.h.h.h.f.y.y.7.:.:.$.$.J s.s.s.s.s.s.s.s.s.s.s.s.s.s.s.s.s.s.s.s.s.s.s.s.s.s.s.s.s.s.s.s.s.s.s.s.s.s.s.s.s.s.s.s.s.s.s.s.s.s.s.s.s.s.s.s.s.s.s.s.s.s.s.s.s.s.s.s.s.s.s.s.s.s.s.s.s.",
"s.s.s.s.s.s.s.s.s.s.s.s.s.s.s.s.s.s.s.s.s.s.s.s.s.s.s.s.s.s.s.s.s.s.s.s.s.s.s.s.s.s.s.s.s.s.s.s.s.s.s.s.s.s.s.s.s.s.s.s.s.s.s.s.s.s.s.s.s.s.s.s.s.s.s.s.s.s.s.s.s.s.s.s.s.s.s.s.s.s.s.s.s.s.s.s.s.s.s.s.s.s.s.s.s.s.s.s.s.s.s.s.s.s.s.s.s.s.s.s.s.s.s.s.s.s.s.s.s.s.s.s.s.s.s.s.s.s.s.s.s.s.s.s.s.s.s.s.X.#.$.$.$.=.=.$.$.*.*.*.*.-.;.;.;.;.;.:.;.;.;.:.:.r.r.r.y.r.y.y.y.y.y.d.g.g.f.h.h.h.g.g.h.h.g.g.h.h.h.h.h.h.g.g.l.l.h.h.l.h.h.h.l.l.h.h.l.l.l.l.l.l.l.h.h.l.l.l.C.C.l.l.h.l.h.h.C.J.C.C.C.C.l.l.l.l.h.l.h.h.h.h.l.l.l.l.l.h.h.h.h.f.h.l.h.h.h.h.h.h.h.h.l.h.h.h.h.h.h.h.h.h.u.f.h.h.f.h.h.h.u.u.u.u.y.f.f.y.y.f.u.f.y.y.y.y.y.y.y.y.y.y.y.y.y.y.y.y.7.y.7.;.5.;.;.;.;.;.*.-.;.-.*.*.;.$.$.$.$.*.$.#.| | ....| | | | | | | | ) ( ` ( ` ( ( E E T Y U U P F D D D D D Z S S Z Z z k a 8 4 < = o o o O O o @ * * % % = - , < 4 7 9 y d k h B Z S D G Y E R W ` ( ( ` ` | | | | | | ..X.$.$.$.$.$.$.$.=.=.=.=.=.=.X.$.$.$.X.X.X.$.X.$.$.=.=.=.=.=.=.=.2.5.7.7.7.7.7.7.y.y.y.f.u.y.f.f.f.f.y.y.u.y.u.u.u.u.y.y.y.y.y.u.f.y.f.f.f.f.h.h.h.h.h.h.h.h.h.h.h.l.h.h.f.f.f.y.7.;.:.;.=.X.s.s.s.s.s.s.s.s.s.s.s.s.s.s.s.s.s.s.s.s.s.s.s.s.s.s.s.s.s.s.s.s.s.s.s.s.s.s.s.s.s.s.s.s.s.s.s.s.s.s.s.s.s.s.s.s.s.s.s.s.s.s.s.s.s.s.s.s.s.s.s.s.s.s.s.s.s.",
"s.s.s.s.s.s.s.s.s.s.s.s.s.s.s.s.s.s.s.s.s.s.s.s.s.s.s.s.s.s.s.s.s.s.s.s.s.s.s.s.s.s.s.s.s.s.s.s.s.s.s.s.s.s.s.s.s.s.s.s.s.s.s.s.s.s.s.s.s.s.s.s.s.s.s.s.s.s.s.s.s.s.s.s.s.s.s.s.s.s.s.s.s.s.s.s.s.s.s.s.s.s.s.s.s.s.s.s.s.s.s.s.s.s.s.s.s.s.s.s.s.s.s.s.s.s.s.s.s.s.s.s.s.s.s.s.s.s.s.s.s.s.s.s.s.s.s.#.#.#.$.*.*.*.*.-.-.*.*.-.-.-.-.;.;.;.:.:.:.r.r.r.y.y.y.y.y.y.y.y.y.y.y.d.g.h.f.h.g.h.g.g.g.l.h.h.h.h.h.h.h.h.h.h.l.C.l.l.l.l.h.h.h.h.l.A.A.C.l.h.C.l.C.C.l.h.l.C.C.S.S.l.h.l.h.l.l.h.h.l.h.C.l.h.l.l.l.l.l.h.f.h.l.l.l.l.l.h.f.h.f.h.h.h.h.h.h.h.h.h.f.f.M.h.f.f.M.M.h.f.h.l.f.f.h.f.h.f.h.f.f.f.u.u.u.y.y.f.y.y.y.y.y.y.y.y.y.y.y.y.y.7.7.7.7.y.y.y.5.:.;.;.:.:.7.;.5.;.;.*.;.*.*.;.;.*.$.$.$.$.*.@.| ..#.#.| | | | ..| | | | [ [ ` ( R R R E T U F F D D D D D D S F D D S V z f y 6 1 ; * % * @ % % % % & = * = = ; , < 1 6 7 0 a j z V Z D D U Y T Q W W ` ` ` [ [ [ |  . ... .X...X.$.$.$.$.$.$.$.$.$.X.X.X.X...X.$.$.$.X.X.$.$.$.=.=.2.5.5.6.7.7.7.7.7.y.y.y.f.y.y.f.f.u.f.f.u.u.u.f.u.u.y.y.y.u.u.u.u.f.u.u.u.f.f.f.f.f.f.h.h.h.M.h.h.h.h.h.h.h.h.h.h.f.f.y.y.7.7.5.;.$.[ s.s.s.s.s.s.s.s.s.s.s.s.s.s.s.s.s.s.s.s.s.s.s.s.s.s.s.s.s.s.s.s.s.s.s.s.s.s.s.s.s.s.s.s.s.s.s.s.s.s.s.s.s.s.s.s.s.s.s.s.s.s.s.s.s.s.s.s.s.s.s.s.s.s.s.s.",
"s.s.s.s.s.s.s.s.s.s.s.s.s.s.s.s.s.s.s.s.s.s.s.s.s.s.s.s.s.s.s.s.s.s.s.s.s.s.s.s.s.s.s.s.s.s.s.s.s.s.s.s.s.s.s.s.s.s.s.s.s.s.s.s.s.s.s.s.s.s.s.s.s.s.s.s.s.s.s.s.s.s.s.s.s.s.s.s.s.s.s.s.s.s.s.s.s.s.s.s.s.s.s.s.s.s.s.s.s.s.s.s.s.s.s.s.s.s.s.s.s.s.s.s.s.s.s.s.s.s.s.s.s.s.s.s.s.s.s.s.s.s.s.s.s.s.[ #.#.*.*.-.-.-.-.-.-.-.-.-.-.-.;.;.;.:.:.:.r.r.r.r.r.y.y.y.y.y.y.y.y.y.y.y.d.h.h.h.h.h.l.h.h.h.h.l.l.h.g.g.g.g.g.h.h.l.g.h.h.h.h.h.h.h.h.g.l.C.C.h.l.l.h.h.h.l.h.l.S.C.C.l.C.l.h.h.h.h.l.h.h.l.M.J.M.C.M.M.l.h.h.h.h.h.l.h.l.l.l.h.h.l.h.h.h.h.M.h.h.h.h.h.h.h.h.h.h.l.h.h.h.f.f.f.d.h.h.f.f.f.f.f.u.u.y.y.y.u.y.y.y.y.y.y.y.y.y.y.y.7.y.y.y.7.:.7.7.y.5.;.;.7.:.:.7.;.;.;.;.*.*.-.*.*.-.*.$.$.#.#.$.#.#.#.#.| | | | ..| | | | | [ ` ( ( R E R E T U F P D D S D D S A D D D A M k d 9 6 < = @ = = * * % * * * * * = ; ; < < 6 7 7 y d f h V Z D D U U Y Q W W ( ` ` [ [ [ [  . . . .....X.X.$.$.$.$.$.$.X.$.X.X.X.X.$.$.$.$.$.$.$.=.=.=.=.2.2.5.5.5.5.7.7.7.7.7.y.f.f.y.y.y.u.f.u.y.f.f.u.u.u.u.u.f.f.u.y.y.y.u.u.u.u.f.f.f.h.f.f.h.h.h.l.l.l.M.h.h.h.h.h.h.f.d.y.y.7.7.5.;.*.$.X.W s.s.s.s.s.s.s.s.s.s.s.s.s.s.s.s.s.s.s.s.s.s.s.s.s.s.s.s.s.s.s.s.s.s.s.s.s.s.s.s.s.s.s.s.s.s.s.s.s.s.s.s.s.s.s.s.s.s.s.s.s.s.s.s.s.s.s.s.s.s.s.s.s.s.s.",
"s.s.s.s.s.s.s.s.s.s.s.s.s.s.s.s.s.s.s.s.s.s.s.s.s.s.s.s.s.s.s.s.s.s.s.s.s.s.s.s.s.s.s.s.s.s.s.s.s.s.s.s.s.s.s.s.s.s.s.s.s.s.s.s.s.s.s.s.s.s.s.s.s.s.s.s.s.s.s.s.s.s.s.s.s.s.s.s.s.s.s.s.s.s.s.s.s.s.s.s.s.s.s.s.s.s.s.s.s.s.s.s.s.s.s.s.s.s.s.s.s.s.s.s.s.s.s.s.s.s.s.s.s.s.s.s.s.s.s.s.s.s.s.s.s.[ #.$.$.$.-.-.;.-.-.-.-.-.-.-.-.;.;.;.;.:.r.r.r.r.r.r.y.y.y.y.y.y.y.y.y.d.d.d.g.f.f.g.h.h.g.g.h.h.g.h.g.g.g.g.h.g.g.h.g.g.g.h.h.g.h.h.l.h.h.h.h.h.h.h.h.l.l.h.l.M.C.l.l.l.l.h.h.h.l.l.C.h.h.h.l.M.C.l.M.C.h.l.l.h.h.h.l.C.M.l.h.h.M.M.h.h.h.h.h.h.h.h.M.M.h.f.f.h.f.f.h.h.h.h.h.f.h.f.y.f.u.f.u.u.h.f.y.y.y.y.y.y.y.y.y.y.y.y.y.y.y.y.y.y.y.y.7.7.7.y.y.7.;.:.7.:.:.:.5.;.;.;.-.*.*.*.*.$.$.*.$.$.$.@.#.#.#.#...| | | | | | | | | ( ` ( ( ( R E E E U U F F D D S D D S Z A A S Z v k d 9 4 ; % = = = = * = * = * * = = ; , < 4 6 7 9 y d j h M Z D F U U T T R W W ( ` ` [ ` [ [ |  . . . ...X.X.X.X.$.$.$...X.$.X...X.$.$.$.$.$.$.$.$.$.=.=.2.5.5.5.5.5.7.7.y.y.7.y.u.f.f.f.f.f.f.u.y.f.f.u.u.u.y.y.f.u.u.f.y.y.u.y.u.f.u.f.f.h.h.h.h.v.l.M.l.h.l.l.h.h.h.h.h.f.f.d.y.y.7.5.;.*.*.$.$.s.s.s.s.s.s.s.s.s.s.s.s.s.s.s.s.s.s.s.s.s.s.s.s.s.s.s.s.s.s.s.s.s.s.s.s.s.s.s.s.s.s.s.s.s.s.s.s.s.s.s.s.s.s.s.s.s.s.s.s.s.s.s.s.s.s.s.s.s.s.s.s.s.s.s.",
"s.s.s.s.s.s.s.s.s.s.s.s.s.s.s.s.s.s.s.s.s.s.s.s.s.s.s.s.s.s.s.s.s.s.s.s.s.s.s.s.s.s.s.s.s.s.s.s.s.s.s.s.s.s.s.s.s.s.s.s.s.s.s.s.s.s.s.s.s.s.s.s.s.s.s.s.s.s.s.s.s.s.s.s.s.s.s.s.s.s.s.s.s.s.s.s.s.s.s.s.s.s.s.s.s.s.s.s.s.s.s.s.s.s.s.s.s.s.s.s.s.s.s.s.s.s.s.s.s.s.s.s.s.s.s.s.s.s.s.s.s.s.s.s.[ #.$.$.$.$.$.-.-.-.-.-.-.-.;.;.;.;.;.;.;.:.r.r.r.r.r.r.y.y.y.y.y.y.y.y.y.y.y.g.h.g.h.f.h.h.h.h.h.g.g.g.h.g.g.g.g.g.g.h.h.h.h.l.h.h.h.h.h.h.h.h.g.h.h.l.l.h.h.l.l.l.l.C.M.h.h.l.h.l.h.l.l.h.h.h.f.l.C.C.M.l.f.h.h.h.C.l.h.l.l.h.h.h.h.h.h.l.l.h.f.f.h.h.l.M.M.h.f.h.h.f.f.h.f.f.h.h.f.h.h.f.f.f.u.u.u.f.u.f.y.y.y.y.u.y.y.y.y.y.y.y.y.y.y.y.y.7.:.7.y.7.y.:.:.:.5.:.:.:.7.:.;.;.;.*.*.$.*.*.$.*.$.$.$.#.#.#.#.$.#.| | | | | | | ' | ( ( ( R ( R E E T U U F D D D D S D S Z Z A Z M h f 0 7 1 = % - - = = = = = = = = = = : < < 6 7 9 0 y d z z V A D D U U T Y R R W W W ` [ ` [ [ [ | |  .|  ...X.X.X.X.$.$.....$.X.....$.$.$.$.$.$.$.=.$.=.2.5.5.5.6.6.7.7.7.y.y.7.d.u.f.u.u.f.f.u.f.f.f.y.f.u.u.u.y.u.y.y.u.y.y.y.y.f.f.u.f.f.h.h.h.h.h.h.l.M.l.M.h.f.h.h.h.h.f.f.f.d.y.7.;.-.*.*.$.X.{ s.s.s.s.s.s.s.s.s.s.s.s.s.s.s.s.s.s.s.s.s.s.s.s.s.s.s.s.s.s.s.s.s.s.s.s.s.s.s.s.s.s.s.s.s.s.s.s.s.s.s.s.s.s.s.s.s.s.s.s.s.s.s.s.s.s.s.s.s.s.s.s.s.s.",
"s.s.s.s.s.s.s.s.s.s.s.s.s.s.s.s.s.s.s.s.s.s.s.s.s.s.s.s.s.s.s.s.s.s.s.s.s.s.s.s.s.s.s.s.s.s.s.s.s.s.s.s.s.s.s.s.s.s.s.s.s.s.s.s.s.s.s.s.s.s.s.s.s.s.s.s.s.s.s.s.s.s.s.s.s.s.s.s.s.s.s.s.s.s.s.s.s.s.s.s.s.s.s.s.s.s.s.s.s.s.s.s.s.s.s.s.s.s.s.s.s.s.s.s.s.s.s.s.s.s.s.s.s.s.s.s.s.s.s.s.s.s.s.s.#.#.#.*.-.-.-.-.-.-.-.-.-.-.-.;.;.;.;.;.;.:.:.r.r.:.:.:.:.r.r.r.y.y.y.d.g.d.y.f.f.h.h.h.h.g.g.g.g.g.h.h.g.h.h.l.l.l.h.g.h.l.h.h.h.h.g.h.h.l.l.l.l.h.h.l.l.l.g.h.C.h.f.f.h.h.l.l.l.l.h.h.h.h.h.l.l.h.C.C.l.l.f.f.h.h.h.h.l.C.l.h.l.h.h.h.h.h.l.l.h.h.h.h.h.h.h.f.h.l.h.h.f.f.f.f.f.f.y.d.f.f.f.f.f.u.u.u.f.u.y.y.y.y.y.y.y.y.y.y.y.y.y.y.:.:.:.7.7.7.7.7.7.:.:.;.;.5.;.7.7.;.;.;.-.$.$.#.$.*.$.$.*.$.#.#.....#.#...| | | ' | | | ' | ( ( ` ( ( R E E T U P F D D S A S A Z Z A V M z k d 0 6 < - = - ; ; = = = = = = = = : : < 6 7 9 9 0 d j z M Z S D J F P U Y T Q R W W W ` [ ` ` [ [ [  .........X.X...$.....X.........X.$.$.$.$.$.$.$.=.=.2.2.5.5.5.5.7.7.y.y.y.y.y.y.f.f.u.f.f.f.u.f.u.f.u.u.u.f.u.u.u.u.y.y.y.y.y.y.y.y.f.f.f.h.h.f.f.h.l.h.h.h.h.h.h.b.h.h.f.f.y.y.y.7.;.;.*.$.#.=.X.s.s.s.s.s.s.s.s.s.s.s.s.s.s.s.s.s.s.s.s.s.s.s.s.s.s.s.s.s.s.s.s.s.s.s.s.s.s.s.s.s.s.s.s.s.s.s.s.s.s.s.s.s.s.s.s.s.s.s.s.s.s.s.s.s.s.s.s.s.s.s.s.s.s.",
"s.s.s.s.s.s.s.s.s.s.s.s.s.s.s.s.s.s.s.s.s.s.s.s.s.s.s.s.s.s.s.s.s.s.s.s.s.s.s.s.s.s.s.s.s.s.s.s.s.s.s.s.s.s.s.s.s.s.s.s.s.s.s.s.s.s.s.s.s.s.s.s.s.s.s.s.s.s.s.s.s.s.s.s.s.s.s.s.s.s.s.s.s.s.s.s.s.s.s.s.s.s.s.s.s.s.s.s.s.s.s.s.s.s.s.s.s.s.s.s.s.s.s.s.s.s.s.s.s.s.s.s.s.s.s.s.s.s.s.s.s.s.s.X.$.#.#.*.$.$.-.-.-.-.-.-.-.;.;.;.;.;.;.;.;.:.r.r.r.r.r.r.r.y.y.y.y.y.y.f.d.f.g.g.f.g.f.f.h.g.g.g.g.g.g.g.h.h.g.h.l.h.l.h.h.l.l.h.h.h.g.g.g.h.l.l.l.l.h.h.l.C.M.M.C.l.h.h.h.h.l.l.l.l.h.h.h.h.h.h.h.h.h.l.l.l.h.h.h.h.h.f.g.h.l.h.l.h.l.M.h.h.h.l.h.h.h.h.h.h.h.l.h.h.h.h.h.d.y.f.f.f.d.d.f.f.f.h.f.y.f.f.f.f.y.y.y.y.y.y.y.y.y.y.y.y.y.:.:.:.7.7.7.7.:.7.7.y.:.:.;.:.:.5.7.;.;.;.;.*.$.$.$.*.$.$.*.#.$.#.@.#.#.#.| | | | | | | ' | | ( ( ( ( ( R E T T U F F D S A S A S S Z Z M v z j y 9 4 , % = ; ; ; = = : : : : : < 2 6 6 6 7 0 0 a d z v M Z A D D D F U U U T R R R W W ` ( ` ` [ ( [ | | | ..X.X...X.X...X.........X.X.$.$.$.$.=.=.2.=.2.2.5.5.6.7.7.7.y.y.y.y.y.f.f.y.f.f.f.f.f.u.y.y.u.u.u.u.u.u.f.u.y.y.y.y.u.u.u.f.f.u.f.f.f.f.h.h.f.f.h.h.h.h.h.h.h.f.f.f.f.d.y.7.;.;.*.#.#.$.X. .s.s.s.s.s.s.s.s.s.s.s.s.s.s.s.s.s.s.s.s.s.s.s.s.s.s.s.s.s.s.s.s.s.s.s.s.s.s.s.s.s.s.s.s.s.s.s.s.s.s.s.s.s.s.s.s.s.s.s.s.s.s.s.s.s.s.s.s.s.s.s.s.s.",
"s.s.s.s.s.s.s.s.s.s.s.s.s.s.s.s.s.s.s.s.s.s.s.s.s.s.s.s.s.s.s.s.s.s.s.s.s.s.s.s.s.s.s.s.s.s.s.s.s.s.s.s.s.s.s.s.s.s.s.s.s.s.s.s.s.s.s.s.s.s.s.s.s.s.s.s.s.s.s.s.s.s.s.s.s.s.s.s.s.s.s.s.s.s.s.s.s.s.s.s.s.s.s.s.s.s.s.s.s.s.s.s.s.s.s.s.s.s.s.s.s.s.s.s.s.s.s.s.s.s.s.s.s.s.s.s.s.s.s.s.s.s.$.$.*.*.*.*.-.-.-.-.-.;.-.-.;.-.-.-.-.;.;.-.;.r.r.r.r.y.y.y.r.y.r.r.y.d.u.y.y.y.f.h.f.h.h.f.f.h.h.h.h.h.g.g.h.V.l.l.h.h.h.l.l.l.l.l.l.l.l.l.l.h.h.l.l.h.l.C.C.C.l.h.l.l.h.h.l.h.h.h.h.l.h.g.h.h.h.h.l.l.M.l.l.l.h.h.l.l.h.h.h.h.l.h.h.h.h.M.l.l.l.l.h.h.h.h.h.h.M.M.h.h.f.f.f.h.f.d.d.d.f.f.f.h.h.f.f.f.f.f.f.f.y.y.y.y.y.y.y.y.y.y.y.y.y.:.:.:.7.7.y.:.:.:.7.:.:.:.:.;.:.5.5.;.*.$.*.$.*.$.*.*.*.$.$.#.#.@.@.#.#.#.@.| | | | ' | ' ' | ( ( ( R R E E T T U F D D A A A Z A S V V m z k d y 7 4 = = = - = = - - : : : : < < 6 6 7 7 0 0 a a k z v V Z C A D D F P P U U T R R R W W W ` ( ` ( [ | | | | ......X.........X.....X.X.$.$.$.$.$.$.2.=.2.5.5.5.7.7.7.7.7.y.y.u.y.y.f.f.f.f.f.y.y.u.u.u.u.u.u.u.y.u.u.y.y.y.y.u.f.f.f.f.f.u.f.f.f.h.h.h.h.f.h.h.f.f.h.h.h.f.f.f.f.d.y.7.5.=.=.$.X.X.X...[ s.s.s.s.s.s.s.s.s.s.s.s.s.s.s.s.s.s.s.s.s.s.s.s.s.s.s.s.s.s.s.s.s.s.s.s.s.s.s.s.s.s.s.s.s.s.s.s.s.s.s.s.s.s.s.s.s.s.s.s.s.s.s.s.s.s.s.s.s.s.s.s.",
"s.s.s.s.s.s.s.s.s.s.s.s.s.s.s.s.s.s.s.s.s.s.s.s.s.s.s.s.s.s.s.s.s.s.s.s.s.s.s.s.s.s.s.s.s.s.s.s.s.s.s.s.s.s.s.s.s.s.s.s.s.s.s.s.s.s.s.s.s.s.s.s.s.s.s.s.s.s.s.s.s.s.s.s.s.s.s.s.s.s.s.s.s.s.s.s.s.s.s.s.s.s.s.s.s.s.s.s.s.s.s.s.s.s.s.s.s.s.s.s.s.s.s.s.s.s.s.s.s.s.s.s.s.s.s.s.s.s.s.s.s.$.$.$.$.$.$.*.-.;.-.;.;.-.;.;.-.-.-.-.;.;.;.;.:.r.r.r.y.r.r.r.r.y.y.y.d.g.d.d.y.i.d.g.f.g.g.g.g.h.h.h.h.h.h.l.h.h.h.h.g.g.l.C.l.l.l.l.l.l.l.h.h.h.h.h.h.h.l.C.C.C.C.C.l.h.f.h.l.h.h.h.h.l.h.h.h.l.h.l.M.l.l.l.l.f.h.h.h.l.h.l.h.h.l.h.h.h.h.h.l.l.h.h.f.f.l.h.h.h.l.l.l.h.h.f.f.h.h.f.f.f.f.f.f.f.f.f.f.f.f.h.f.u.y.y.y.y.y.y.y.y.y.y.y.y.y.y.y.y.7.7.7.:.:.:.:.;.:.:.:.;.:.;.7.;.*.*.*.$.#.$.$.$.*.#.#.#.#.@.#.#.#.#.| | | ' | ' ' ` ' | ( ` ( ( E T T T T P D D S A Z A Z V V V M z z f a 0 6 < o ; = ; : : , < < 4 6 4 4 6 7 9 0 y y d d f z m M v V V Z C S D F P U U U T Q R W R W ` ` [ ` [ | | | | | | ..................X.$.$.X.$.$.=.$.=.=.;.2.5.5.7.7.7.7.y.u.u.u.y.f.f.f.f.y.f.f.u.u.y.y.u.u.u.y.y.u.y.y.y.y.y.u.u.u.u.f.f.u.f.h.f.h.h.h.M.h.f.f.f.f.f.h.f.f.f.f.y.y.y.7.5.=.=.=. .X. .$.| $.s.s.s.s.s.s.s.s.s.s.s.s.s.s.s.s.s.s.s.s.s.s.s.s.s.s.s.s.s.s.s.s.s.s.s.s.s.s.s.s.s.s.s.s.s.s.s.s.s.s.s.s.s.s.s.s.s.s.s.s.s.s.s.s.s.s.s.s.s.s.s.",
"s.s.s.s.s.s.s.s.s.s.s.s.s.s.s.s.s.s.s.s.s.s.s.s.s.s.s.s.s.s.s.s.s.s.s.s.s.s.s.s.s.s.s.s.s.s.s.s.s.s.s.s.s.s.s.s.s.s.s.s.s.s.s.s.s.s.s.s.s.s.s.s.s.s.s.s.s.s.s.s.s.s.s.s.s.s.s.s.s.s.s.s.s.s.s.s.s.s.s.s.s.s.s.s.s.s.s.s.s.s.s.s.s.s.s.s.s.s.s.s.s.s.s.s.s.s.s.s.s.s.s.s.s.s.s.s.s.s.s.s.#.$.$.$.*.$.*.-.;.-.-.-.*.-.-.-.*.;.;.;.;.;.;.r.r.r.r.r.r.y.y.y.y.y.y.y.y.d.y.y.y.y.f.y.y.y.f.f.f.h.h.g.h.h.h.l.h.h.h.l.h.h.h.l.l.g.h.l.C.l.h.h.C.l.l.h.h.l.l.h.l.l.l.l.l.l.l.l.l.l.h.h.h.f.g.f.f.h.l.h.h.h.l.h.h.f.h.f.g.h.h.h.l.l.h.l.M.l.l.l.h.h.l.S.M.h.f.h.h.h.h.h.h.M.h.h.h.f.f.f.f.f.f.f.d.y.f.d.f.f.y.y.y.y.y.y.y.7.y.y.y.y.7.y.y.7.y.y.y.y.y.;.;.:.;.;.:.:.:.:.5.-.;.;.;.;.*.$.*.*.#.$.$.$.$.$.#.#.#...| #.......| | | ' ' | ` ( ( ( ( ( R R T T T U F F D A S A V V V M z m z k d y 0 4 : - : < < 6 6 6 7 6 7 7 7 0 0 y a d d j k z v z v v V V V M V S D D J P U U U Y Q R R W W ( W _ [  .[  . . . .X. . .....X... .X.X.X.=.=.=.=.=.2.2.2.=.5.5.5.5.7.7.f.u.u.u.7.u.u.y.h.h.f.f.f.f.f.f.f.y.f.f.y.u.u.u.f.u.u.u.u.u.u.u.u.u.u.u.y.y.f.f.f.h.h.f.f.f.f.f.y.y.u.y.y.y.y.7.7.2.=.=.#.| | ....X.` | 5.8.s.s.s.s.s.s.s.s.s.s.s.s.s.s.s.s.s.s.s.s.s.s.s.s.s.s.s.s.s.s.s.s.s.s.s.s.s.s.s.s.s.s.s.s.s.s.s.s.s.s.s.s.s.s.s.s.s.s.s.s.s.s.s.s.s.s.s.s.",
"s.s.s.s.s.s.s.s.s.s.s.s.s.s.s.s.s.s.s.s.s.s.s.s.s.s.s.s.s.s.s.s.s.s.s.s.s.s.s.s.s.s.s.s.s.s.s.s.s.s.s.s.s.s.s.s.s.s.s.s.s.s.s.s.s.s.s.s.s.s.s.s.s.s.s.s.s.s.s.s.s.s.s.s.s.s.s.s.s.s.s.s.s.s.s.s.s.s.s.s.s.s.s.s.s.s.s.s.s.s.s.s.s.s.s.s.s.s.s.s.s.s.s.s.s.s.s.s.s.s.s.s.s.s.s.s.s.s.s.$.#.$.$.$.*.-.-.-.-.-.-.-.*.-.-.-.-.;.;.:.;.;.;.r.r.r.:.r.r.r.y.y.y.y.y.d.d.d.y.y.y.y.f.d.g.y.y.g.g.g.g.g.g.h.l.l.h.h.h.l.h.h.h.h.l.l.h.h.h.l.C.l.l.l.l.l.h.h.h.h.l.l.l.h.h.h.h.h.h.h.h.l.h.h.g.g.h.l.l.l.h.h.l.l.l.h.h.g.d.f.h.f.g.l.l.h.h.l.l.h.h.l.h.h.h.h.h.h.l.h.h.h.h.h.h.l.h.f.h.f.f.f.d.d.d.d.f.f.f.f.d.y.y.y.y.y.y.y.y.y.y.y.y.5.y.7.7.y.y.y.:.-.:.:.:.:.:.;.;.:.:.;.;.;.;.;.*.*.$.$.$.$.*.$.$.$.#.....#.............| | ' | ' ` ( ( ( ( ( E Y T T T U F D D Z Z V V V V m z z z k a y 7 4 = , < 4 6 7 9 0 y y d d d d j f z h z z z z z v v M z V M V V A S D D F U U U Y Y E Q W ( ( W _ [ {  . .|  . . . . . . . . . .X.X.X.X.=.=.=.=.2.;.=.2.5.5.6.6.8.7.u.u.u.u.8.y.y.y.h.h.f.f.f.f.f.f.f.u.f.u.y.u.u.f.y.y.y.y.y.u.u.u.u.y.y.y.y.y.f.f.f.f.f.f.f.d.y.f.y.y.y.y.y.7.7.7.5.=.$.#.....| | | ..| ( =.5.7.f.f.s.s.s.s.s.s.s.s.s.s.s.s.s.s.s.s.s.s.s.s.s.s.s.s.s.s.s.s.s.s.s.s.s.s.s.s.s.s.s.s.s.s.s.s.s.s.s.s.s.s.s.s.s.s.s.s.s.s.s.s.s.s.s.s.s.",
"s.s.s.s.s.s.s.s.s.s.s.s.s.s.s.s.s.s.s.s.s.s.s.s.s.s.s.s.s.s.s.s.s.s.s.s.s.s.s.s.s.s.s.s.s.s.s.s.s.s.s.s.s.s.s.s.s.s.s.s.s.s.s.s.s.s.s.s.s.s.s.s.s.s.s.s.s.s.s.s.s.s.s.s.s.s.s.s.s.s.s.s.s.s.s.s.s.s.s.s.s.s.s.s.s.s.s.s.s.s.s.s.s.s.s.s.s.s.s.s.s.s.s.s.s.s.s.s.s.s.s.s.s.s.s.s.s.s.{ $.| *.$.$.-.;.;.-.-.*.*.*.-.-.-.-.-.;.;.;.:.;.;.:.:.:.:.:.r.r.y.y.y.y.y.y.y.f.y.d.f.y.i.u.d.d.g.f.f.g.g.g.g.g.h.h.h.h.l.l.h.h.l.h.l.A.l.h.l.C.C.C.l.l.h.h.h.l.h.l.l.h.h.f.h.h.h.h.h.h.l.l.h.g.h.h.h.h.l.l.l.l.M.M.M.l.l.l.d.d.f.f.g.h.h.h.h.f.h.h.h.H.M.h.h.h.h.h.h.h.l.h.h.l.h.h.h.f.f.f.f.f.y.f.f.f.f.y.y.y.f.y.y.y.y.y.y.y.y.y.y.y.7.y.y.7.7.y.y.:.:.:.:.:.:.;.:.;.;.;.:.:.;.-.*.*.*.*.*.*.*.$.$.$.$.#.#...| ..| | ........| | | | ` ` ( ( / R R T T T U T G F D S S Z V V V M z z z k k a 0 7 4 - , < 4 4 7 0 0 a d k f k h h v z z z k z z z z z v v v M M M Z A A D D P P U U T Y T W _ ( W ( [ [  .[ [ |  . .|  . . . . . . .X.X.X.=.=.=.=.2.2.5.2.5.5.7.7.8.5.y.u.u.u.u.7.u.f.f.h.f.f.f.f.f.f.f.u.y.y.y.u.u.u.y.y.u.u.u.u.u.y.y.u.u.u.u.y.u.u.f.h.h.h.f.f.d.f.y.y.y.y.7.7.7.5.5.=.$...| | | ` | |  .` [ =.5.u.f.h.f.s.s.s.s.s.s.s.s.s.s.s.s.s.s.s.s.s.s.s.s.s.s.s.s.s.s.s.s.s.s.s.s.s.s.s.s.s.s.s.s.s.s.s.s.s.s.s.s.s.s.s.s.s.s.s.s.s.s.s.s.s.s.s.",
"s.s.s.s.s.s.s.s.s.s.s.s.s.s.s.s.s.s.s.s.s.s.s.s.s.s.s.s.s.s.s.s.s.s.s.s.s.s.s.s.s.s.s.s.s.s.s.s.s.s.s.s.s.s.s.s.s.s.s.s.s.s.s.s.s.s.s.s.s.s.s.s.s.s.s.s.s.s.s.s.s.s.s.s.s.s.s.s.s.s.s.s.s.s.s.s.s.s.s.s.s.s.s.s.s.s.s.s.s.s.s.s.s.s.s.s.s.s.s.s.s.s.s.s.s.s.s.s.s.s.s.s.s.s.s.s.s.s.#.#.@.$.%.*.-.-.-.-.*.$.$.*.-.-.-.;.-.;.:.:.:.;.;.:.:.r.r.r.r.r.y.y.y.y.y.y.y.u.y.d.g.d.y.d.d.d.y.d.d.g.g.g.g.g.g.g.g.g.h.h.h.g.h.h.h.h.l.l.l.h.l.l.l.h.h.h.h.l.h.l.l.l.h.h.h.h.h.h.h.l.l.h.h.h.h.h.h.f.h.l.h.h.l.l.M.l.l.h.h.f.y.g.h.g.f.f.h.f.h.h.h.M.M.h.h.h.f.f.h.h.h.h.h.h.h.h.h.f.f.d.f.y.y.d.f.f.f.d.y.y.y.f.y.y.y.y.7.y.y.y.7.y.7.5.7.7.y.y.7.:.:.:.;.;.;.;.;.;.#.*.-.:.;.*.*.-.;.*.*.*.$.#.#.#.#.#.#.#...| | ..#.......| | | | ( ( ( ( / R R T T T U G G F D D A V V M M M z z k f d y 0 7 ; = : 1 4 6 7 0 y d f h h h z v v h z h z z h h z z v v v v n M V A A A D D D U U U T T W W W W ( [ [ [ | [ [  . . .|  . . . . . .X...$.=.=.=.=.2.2.5.2.5.5.7.7.8.7.y.u.y.u.u.f.7.f.f.f.f.f.f.f.f.f.f.y.y.y.u.u.u.u.y.y.u.u.y.u.y.y.u.u.u.y.y.u.y.u.f.f.f.f.f.d.y.y.y.y.y.y.y.7.7.5.=.=.X...| | | [ |  .| | ( X.=.7.y.h.k.8.X.s.s.s.s.s.s.s.s.s.s.s.s.s.s.s.s.s.s.s.s.s.s.s.s.s.s.s.s.s.s.s.s.s.s.s.s.s.s.s.s.s.s.s.s.s.s.s.s.s.s.s.s.s.s.s.s.s.s.s.s.s.",
"s.s.s.s.s.s.s.s.s.s.s.s.s.s.s.s.s.s.s.s.s.s.s.s.s.s.s.s.s.s.s.s.s.s.s.s.s.s.s.s.s.s.s.s.s.s.s.s.s.s.s.s.s.s.s.s.s.s.s.s.s.s.s.s.s.s.s.s.s.s.s.s.s.s.s.s.s.s.s.s.s.s.s.s.s.s.s.s.s.s.s.s.s.s.s.s.s.s.s.s.s.s.s.s.s.s.s.s.s.s.s.s.s.s.s.s.s.s.s.s.s.s.s.s.s.s.s.s.s.s.s.s.s.s.s.s.s.$.$.#.@.*.*.-.-.-.*.*.*.*.*.-.;.:.-.-.;.;.:.:.:.:.:.:.:.:.r.r.y.y.y.y.y.y.y.d.d.y.d.d.g.y.y.y.y.g.g.g.g.g.g.g.h.h.g.g.h.g.g.h.h.g.g.g.g.h.l.l.l.h.h.h.h.l.h.h.h.l.C.l.l.C.l.l.l.l.l.l.C.C.h.h.h.h.h.h.h.h.h.h.l.M.l.h.l.h.h.h.h.f.g.f.g.g.h.h.h.f.f.h.f.h.l.h.f.h.h.h.f.f.h.h.h.h.h.f.h.h.f.y.y.d.d.d.f.f.f.f.y.y.y.y.y.y.u.y.7.y.7.7.7.7.y.7.7.y.y.y.y.:.:.;.;.;.;.;.;.-.#.] *.:.;.*.$.$.*.*.$.*.#.#.#.#.@.#.#.| | | | | ..#...| | | | | ' ( ( ( ( R R T T U U G F F D Z Z V M M M M z z k d a y 7 6 - = - < 1 6 8 0 y d f f f f h h h h h k z z k k h h h v v v M v V V V A D D D P U U Y Y R W W W W [ [ [ [ [ [ | | | |  . .|  .|  .X. .X.X.=.=.2.2.2.5.2.5.5.7.7.u.y.y.u.u.8.f.u.f.f.f.h.f.f.f.f.f.f.f.u.y.u.u.u.u.y.y.y.y.y.y.y.y.y.y.y.u.u.u.y.y.y.f.f.f.y.y.u.y.y.y.y.y.7.7.7.5.5.*.#...| ' ` ` ' ' | [ ` ( ` =.5.7.y.y.f.u.8.X.s.s.s.s.s.s.s.s.s.s.s.s.s.s.s.s.s.s.s.s.s.s.s.s.s.s.s.s.s.s.s.s.s.s.s.s.s.s.s.s.s.s.s.s.s.s.s.s.s.s.s.s.s.s.s.s.s.s.s.",
"s.s.s.s.s.s.s.s.s.s.s.s.s.s.s.s.s.s.s.s.s.s.s.s.s.s.s.s.s.s.s.s.s.s.s.s.s.s.s.s.s.s.s.s.s.s.s.s.s.s.s.s.s.s.s.s.s.s.s.s.s.s.s.s.s.s.s.s.s.s.s.s.s.s.s.s.s.s.s.s.s.s.s.s.s.s.s.s.s.s.s.s.s.s.s.s.s.s.s.s.s.s.s.s.s.s.s.s.s.s.s.s.s.s.s.s.s.s.s.s.s.s.s.s.s.s.s.s.s.s.s.s.s.s.s.s.$.$.*.$.$.*.*.-.-.-.*.*.-.$.-.-.;.-.-.;.;.;.:.:.:.:.r.r.r.y.r.y.y.y.y.y.y.y.y.y.y.d.d.g.g.d.g.y.d.f.g.y.g.g.g.g.g.g.g.g.h.h.h.h.h.g.g.g.h.h.h.l.h.h.l.C.l.l.h.h.h.h.C.C.l.l.l.l.l.h.h.h.h.l.h.h.h.h.h.h.h.h.l.l.h.h.h.h.l.h.h.h.f.f.h.g.f.h.f.f.f.f.f.h.h.h.h.f.h.h.h.f.f.f.f.h.l.l.l.f.h.h.f.y.y.f.y.y.d.y.y.d.y.y.y.y.y.y.y.y.7.y.y.y.y.7.7.5.5.7.y.y.y.7.:.;.;.;.;.;.;.;.#.@.$.-.;.;.-.*.*.*.$.$.$.$.$.#.#...#.| | | | | ......| | | | | ' ( / ( / R E E T U U F F D A Z V M M M m z z z k d a 0 7 1 o = , , < 6 7 7 0 y d d f f f f f f f k h f k k h h h h v v V v V V V A D D S D F U U U Q R R W ( [ [ [ [ [ [ | [ | }  . .[ | | | X...X.O.=.=.=.=.2.5.5.5.5.7.7.7.y.u.u.u.7.u.u.u.f.f.f.f.f.f.f.f.f.u.u.u.u.y.y.y.y.y.u.u.u.u.y.y.y.y.y.y.u.u.y.y.y.f.f.f.y.y.y.y.y.y.y.y.7.7.5.=.5.$.X...| ' ` ` ` ' [ [ ` ( (  .=.5.2.5.y.f.y.f.7.X.s.s.s.s.s.s.s.s.s.s.s.s.s.s.s.s.s.s.s.s.s.s.s.s.s.s.s.s.s.s.s.s.s.s.s.s.s.s.s.s.s.s.s.s.s.s.s.s.s.s.s.s.s.s.s.s.s.",
"s.s.s.s.s.s.s.s.s.s.s.s.s.s.s.s.s.s.s.s.s.s.s.s.s.s.s.s.s.s.s.s.s.s.s.s.s.s.s.s.s.s.s.s.s.s.s.s.s.s.s.s.s.s.s.s.s.s.s.s.s.s.s.s.s.s.s.s.s.s.s.s.s.s.s.s.s.s.s.s.s.s.s.s.s.s.s.s.s.s.s.s.s.s.s.s.s.s.s.s.s.s.s.s.s.s.s.s.s.s.s.s.s.s.s.s.s.s.s.s.s.s.s.s.s.s.s.s.s.s.s.s.s.s.s.$.@.#.*.-.*.*.*.-.-.-.-.-.-.$.-.-.-.-.-.;.:.:.:.:.r.r.r.r.r.y.y.y.y.y.y.y.y.y.y.y.y.d.y.d.d.g.g.d.g.g.g.g.g.g.g.g.h.g.g.g.g.g.l.g.g.h.g.g.h.h.h.h.h.h.l.C.l.l.l.l.h.h.h.C.l.h.l.l.l.h.h.g.g.h.h.h.l.h.h.h.h.h.l.l.h.h.l.h.h.h.h.h.h.h.h.h.h.h.h.h.h.f.f.h.l.h.f.h.h.f.f.f.h.f.f.y.f.h.h.f.f.f.f.f.f.f.f.d.f.y.y.d.y.y.y.d.y.y.y.y.y.y.7.7.7.5.7.5.7.5.7.y.y.7.r.:.:.;.;.:.:.;.-.-.$.-.$.*.-.*.*.*.$.$.$.$.$.#.#.| | | | | | | ....| | | | | | ' ( / / / R E T T U U F F D S Z V M M m z z z z d a y 9 6 > o & = , , 1 6 7 9 0 y y d d y d d d d d f d f f f h h h z v M M V V Z V Z S D D F U U U Q R R W [ { [ [ [ ` [ | [ [ | | [ [ | [  ... .X.O.O.=.=.2.2.2.5.5.5.7.7.7.7.8.f.u.8.u.y.f.f.f.f.u.f.f.u.f.f.f.u.f.y.y.y.y.y.u.u.y.y.y.y.u.u.u.y.y.y.y.y.y.y.y.f.u.y.y.y.y.7.7.7.7.7.7.;.=.=.$...| ` ` ` ' ` ` ` ` ` ` ( ` X.2.5.7.y.f.d.y.h.8.7.6.s.s.s.s.s.s.s.s.s.s.s.s.s.s.s.s.s.s.s.s.s.s.s.s.s.s.s.s.s.s.s.s.s.s.s.s.s.s.s.s.s.s.s.s.s.s.s.s.s.s.s.s.s.s.s.",
"s.s.s.s.s.s.s.s.s.s.s.s.s.s.s.s.s.s.s.s.s.s.s.s.s.s.s.s.s.s.s.s.s.s.s.s.s.s.s.s.s.s.s.s.s.s.s.s.s.s.s.s.s.s.s.s.s.s.s.s.s.s.s.s.s.s.s.s.s.s.s.s.s.s.s.s.s.s.s.s.s.s.s.s.s.s.s.s.s.s.s.s.s.s.s.s.s.s.s.s.s.s.s.s.s.s.s.s.s.s.s.s.s.s.s.s.s.s.s.s.s.s.s.s.s.s.s.s.s.s.s.s.s.s...@.@.@.$.*.*.*.*.-.-.-.-.-.-.-.*.-.-.:.:.-.:.:.:.r.r.r.r.y.y.y.y.y.y.y.y.y.d.g.g.d.d.d.d.d.u.d.d.y.d.g.g.g.g.h.h.h.h.h.g.h.g.g.g.g.g.h.h.g.g.h.h.l.l.l.h.h.h.h.l.l.h.l.h.h.h.h.h.l.l.h.f.h.h.h.h.h.C.h.f.h.f.f.l.h.h.h.h.h.h.h.g.g.h.h.f.g.h.h.h.h.h.f.h.f.l.M.h.h.l.h.f.f.f.f.h.f.f.f.h.h.f.f.f.f.f.f.f.d.y.d.y.y.y.y.y.d.y.y.y.y.y.y.7.7.y.7.7.7.:.7.7.y.y.7.r.:.;.-.;.:.:.;.-.-.;.*.*.*.*.-.*.*.#.$.$.#.#.#.#.| | | | | | | ..| | | | | | ' ' ( / / / R E T T U P F F D A Z V M m z z z k k d y 0 7 2 = o o = = - , 4 6 7 7 8 9 0 0 y y y y d a d d f f f f h h h v v M M V Z M C Z S D P U U U Q T R _ [ [ [ [ [ ` [ [ [ [ [  .[ [ [ [ | .. .X.=.O.=.=.=.2.2.2.5.5.7.6.7.y.6.f.y.u.8.u.f.f.f.f.u.f.u.f.f.f.f.u.u.u.y.y.y.y.y.y.y.y.y.y.y.u.u.y.y.y.y.y.y.y.u.y.u.y.y.y.y.y.7.7.7.5.=.=.=.$.X...[ ` ` ( ( ( ` [ [ ` ( ( ( ..=.5.7.y.y.d.y.u.u.d.y.u.=.s.s.s.s.s.s.s.s.s.s.s.s.s.s.s.s.s.s.s.s.s.s.s.s.s.s.s.s.s.s.s.s.s.s.s.s.s.s.s.s.s.s.s.s.s.s.s.s.s.s.s.s.s.",
"s.s.s.s.s.s.s.s.s.s.s.s.s.s.s.s.s.s.s.s.s.s.s.s.s.s.s.s.s.s.s.s.s.s.s.s.s.s.s.s.s.s.s.s.s.s.s.s.s.s.s.s.s.s.s.s.s.s.s.s.s.s.s.s.s.s.s.s.s.s.s.s.s.s.s.s.s.s.s.s.s.s.s.s.s.s.s.s.s.s.s.s.s.s.s.s.s.s.s.s.s.s.s.s.s.s.s.s.s.s.s.s.s.s.s.s.s.s.s.s.s.s.s.s.s.s.s.s.s.s.s.s.s.#.#.$.#.$.$.$.*.*.$.*.*.-.-.;.;.-.-.-.-.-.:.;.:.:.:.:.y.r.r.y.y.y.y.y.y.y.y.d.y.y.y.d.g.g.f.f.g.g.g.g.d.d.d.g.h.g.g.h.h.g.h.g.f.g.h.h.h.h.h.h.l.C.C.l.h.h.h.h.h.h.l.l.h.l.l.l.l.C.l.h.h.l.h.h.h.h.h.h.h.f.h.h.f.h.h.g.g.g.g.f.f.h.d.g.g.g.h.d.g.l.h.f.f.f.f.f.h.h.l.h.h.h.f.f.h.h.f.h.h.f.f.h.h.f.f.d.f.f.f.d.d.f.d.y.y.y.y.y.y.y.y.y.y.y.y.y.5.7.7.7.7.y.7.5.:.7.7.;.;.;.;.:.:.;.;.-.;.;.;.*.*.*.$.*.$.$.$.#.#.@.#.#.#...| | | | ..| | | ( ' ` ( ( ( ( / / ( E T U U U F F D A V m z z z z z k j a 0 9 7 1 o X o o o O = - < 4 5 7 8 8 9 9 0 0 y y y y a d f f f h h h z z z M V M C A Z S D P U U Y Q Y R W [ [ ` [ [ [ ` [ [ [ [ [ [ [ [ [ [ |  . .X.X.X.=.=.2.2.5.6.6.6.8.7.u.8.f.u.u.u.f.u.f.f.f.y.f.f.f.f.f.f.u.u.u.y.y.y.y.y.y.y.y.y.y.y.y.u.u.y.y.y.y.y.u.u.y.u.u.y.y.y.y.7.7.;.;.=.;.$.#... .[ ` ( ( ( R W ` ` [ ` ` ( [ $.=.6.7.u.f.f.f.f.h.f.d.d.y.=.s.s.s.s.s.s.s.s.s.s.s.s.s.s.s.s.s.s.s.s.s.s.s.s.s.s.s.s.s.s.s.s.s.s.s.s.s.s.s.s.s.s.s.s.s.s.s.s.s.s.s.",
"s.s.s.s.s.s.s.s.s.s.s.s.s.s.s.s.s.s.s.s.s.s.s.s.s.s.s.s.s.s.s.s.s.s.s.s.s.s.s.s.s.s.s.s.s.s.s.s.s.s.s.s.s.s.s.s.s.s.s.s.s.s.s.s.s.s.s.s.s.s.s.s.s.s.s.s.s.s.s.s.s.s.s.s.s.s.s.s.s.s.s.s.s.s.s.s.s.s.s.s.s.s.s.s.s.s.s.s.s.s.s.s.s.s.s.s.s.s.s.s.s.s.s.s.s.s.s.s.s.s.s.s.s.#.#.#.$.*.$.$.*.$.$.$.*.-.;.;.;.-.-.;.;.;.:.:.:.:.:.:.y.y.r.y.r.y.y.y.y.y.y.y.y.y.y.y.d.d.g.g.g.g.g.d.d.d.g.g.g.d.d.d.g.g.g.g.h.h.h.l.l.l.h.h.l.C.l.l.h.h.h.f.f.h.h.h.h.l.l.l.l.l.l.h.h.l.h.h.l.h.h.h.h.h.h.f.h.h.h.h.h.g.g.f.f.g.d.d.g.y.g.g.g.l.h.h.h.h.h.f.f.f.h.h.l.h.h.f.f.h.h.f.f.f.y.f.h.f.h.f.f.f.y.y.d.d.f.d.y.y.y.y.y.y.y.y.y.y.y.y.y.y.:.7.7.7.:.;.5.:.:.;.:.;.;.;.:.:.:.-.*.;.*.-.*.$.$.$.$.#.#.#.#.#.#.#.#.#.| | | | ..| | | ( ( ( ( / / ( E R ( E T T U P F D S Z V m z z z h k d a y 0 9 6 = X X o o o o o % = ; , 1 4 6 6 7 7 7 9 8 9 y 0 y y d f f f h k h h z M M C C V S D J U U U T Y Y R W [ ` ` ` ( ` [ [ ` [ [ [ [ [ [ [ | |  . .X.X.$.2.2.2.6.6.6.6.6.7.8.u.f.u.u.f.f.f.f.f.f.y.f.f.f.f.u.f.f.f.f.y.y.f.y.y.y.y.y.y.y.y.y.y.y.y.y.y.7.7.y.7.u.y.y.y.7.7.7.7.;.;.=.*.*.$...| | ` ` ( ( R R W ~ ` [ [ ` ( [ X.$.5.6.u.f.f.f.f.h.h.h.h.h.7.f.s.s.s.s.s.s.s.s.s.s.s.s.s.s.s.s.s.s.s.s.s.s.s.s.s.s.s.s.s.s.s.s.s.s.s.s.s.s.s.s.s.s.s.s.s.s.s.s.s.s.",
"s.s.s.s.s.s.s.s.s.s.s.s.s.s.s.s.s.s.s.s.s.s.s.s.s.s.s.s.s.s.s.s.s.s.s.s.s.s.s.s.s.s.s.s.s.s.s.s.s.s.s.s.s.s.s.s.s.s.s.s.s.s.s.s.s.s.s.s.s.s.s.s.s.s.s.s.s.s.s.s.s.s.s.s.s.s.s.s.s.s.s.s.s.s.s.s.s.s.s.s.s.s.s.s.s.s.s.s.s.s.s.s.s.s.s.s.s.s.s.s.s.s.s.s.s.s.s.s.s.s.s.s...$.$.$.$.$.$.$.$.$.$.$.-.-.;.;.;.-.;.;.;.;.;.;.r.r.r.r.y.r.y.y.y.y.y.y.y.y.y.y.y.y.y.y.y.d.g.g.g.g.d.d.d.g.g.g.g.i.g.h.g.g.g.h.h.h.h.V.h.l.h.g.g.h.l.l.h.h.h.h.h.h.h.g.h.l.l.C.l.l.l.h.h.h.h.C.l.h.h.f.h.h.h.h.f.h.f.f.f.g.f.f.f.g.g.g.g.y.d.g.f.f.h.h.h.l.h.f.f.d.h.h.l.h.h.h.f.f.f.f.h.f.f.f.f.d.f.f.f.f.f.d.y.y.d.f.y.y.y.y.y.y.y.y.y.y.:.r.:.y.5.7.5.5.:.;.5.5.;.;.:.;.;.;.;.;.;.*.*.-.*.*.*.$.#.#.$.#.#.#.#.#.#.#...#.| | | | | | | | ( ( ( ( ( / / E R R E T U F F D D S Z V m z z z h k d a a 9 7 5 o   X o o o o o o o @ = : : < < 4 6 6 7 7 7 9 0 0 y y a d f f f h z z z M M C V S D P U U U Y T T W ~ ~ ` ( ( ( [ [ ` [ [ [ [ [ [ [ [ { |  . .X.X.X.=.2.5.5.5.6.7.7.8.q.u.f.u.u.f.f.f.f.f.f.y.f.f.u.u.u.f.f.f.u.y.y.d.y.y.y.y.y.y.7.7.7.y.y.7.7.y.y.y.y.y.y.y.7.y.7.7.7.7.;.;.*.$.$.X.| | [ ` ` ( R E W E ` ` ` ` ` ` [  .X.2.6.8.f.h.f.f.h.h.h.h.h.h.y.f.2.s.s.s.s.s.s.s.s.s.s.s.s.s.s.s.s.s.s.s.s.s.s.s.s.s.s.s.s.s.s.s.s.s.s.s.s.s.s.s.s.s.s.s.s.s.s.s.s.",
"s.s.s.s.s.s.s.s.s.s.s.s.s.s.s.s.s.s.s.s.s.s.s.s.s.s.s.s.s.s.s.s.s.s.s.s.s.s.s.s.s.s.s.s.s.s.s.s.s.s.s.s.s.s.s.s.s.s.s.s.s.s.s.s.s.s.s.s.s.s.s.s.s.s.s.s.s.s.s.s.s.s.s.s.s.s.s.s.s.s.s.s.s.s.s.s.s.s.s.s.s.s.s.s.s.s.s.s.s.s.s.s.s.s.s.s.s.s.s.s.s.s.s.s.s.s.s.s.s.s.s.#.*.$.$.*.$.#.$.$.-.$.$.$.*.-.-.;.;.-.;.;.;.;.;.;.r.r.r.r.r.r.r.y.y.y.y.y.y.y.y.y.y.y.d.g.g.g.g.g.d.d.d.g.g.g.d.d.g.g.g.g.g.g.g.g.g.h.h.h.g.h.g.g.g.h.l.l.h.h.g.g.h.l.h.h.h.l.h.h.h.h.h.h.h.g.f.C.l.h.l.h.h.h.h.h.h.h.h.h.h.g.g.f.h.f.g.g.h.g.g.y.g.g.f.f.h.h.h.h.h.f.h.f.h.h.h.h.f.f.f.f.f.f.d.d.f.y.f.f.f.f.f.f.y.y.y.y.y.y.y.y.y.7.y.y.y.:.y.r.:.:.7.5.:.:.5.;.;.5.-.:.:.-.-.-.-.-.*.*.*.-.-.$.#.$.$.*.$.$.$.#.#.#.......#.| ..| | | | | | ( ( ( ( ( / E T E E T T P F D D D Z Z V M z z k k f a y 0 9 6 ,     X . X o o o o o o o * = - - , < 1 2 6 6 7 8 8 8 0 y a a d f f f h z v v V Z A D P U P J U T T Q W W ( W W W [ [ [ [ [ [ [ _ _ [ [ [ |  . .X.X.X.O.=.2.2.5.5.7.7.8.8.u.u.u.u.f.f.f.f.f.f.y.f.u.u.u.f.f.f.u.u.y.f.f.f.f.7.y.y.y.7.7.7.7.7.7.7.7.7.7.y.7.7.7.7.7.7.7.7.;.;.;.=.*.$...| | ` ` ` W E E E W W ` ` ` ` ` ` } X.=.5.7.8.f.d.f.h.f.f.h.h.h.f.f.f.7.s.s.s.s.s.s.s.s.s.s.s.s.s.s.s.s.s.s.s.s.s.s.s.s.s.s.s.s.s.s.s.s.s.s.s.s.s.s.s.s.s.s.s.s.s.s.s.",
"s.s.s.s.s.s.s.s.s.s.s.s.s.s.s.s.s.s.s.s.s.s.s.s.s.s.s.s.s.s.s.s.s.s.s.s.s.s.s.s.s.s.s.s.s.s.s.s.s.s.s.s.s.s.s.s.s.s.s.s.s.s.s.s.s.s.s.s.s.s.s.s.s.s.s.s.s.s.s.s.s.s.s.s.s.s.s.s.s.s.s.s.s.s.s.s.s.s.s.s.s.s.s.s.s.s.s.s.s.s.s.s.s.s.s.s.s.s.s.s.s.s.s.s.s.s.s.s.s.s...$.$.$.$.$.$.$.*.*.*.*.*.*.-.-.-.;.:.;.;.;.;.;.:.r.:.r.r.r.r.r.r.y.y.y.d.d.d.y.y.y.d.d.d.g.g.g.g.g.g.g.g.g.g.d.g.g.g.h.h.h.h.h.g.g.h.V.h.h.g.g.h.h.h.g.l.h.g.h.h.g.h.l.h.h.g.g.h.h.h.h.h.h.f.g.g.h.l.h.h.h.h.h.h.g.f.h.h.h.g.f.g.f.h.h.h.g.f.h.g.d.y.d.f.f.f.f.h.h.f.h.f.d.f.f.h.l.h.f.h.f.f.d.y.y.d.f.f.f.f.f.f.f.d.y.y.y.y.y.y.y.y.7.:.y.y.y.y.y.y.5.5.:.:.:.:.5.;.5.;.:.:.;.;.:.-.*.;.;.*.*.$.$.$.$.$.$.$.#.#.#.#.#.#.....#.| | | | | | | ' ( ( ( / / ( / E E T T T F F D D D S V M m z z k j d a 0 0 7 7 s.s.        o o o o o o o o o = = = - - , < 1 4 6 7 7 8 9 0 y y d f f f h v v V Z S D P D D U U U Y Y Q W W W W W W [ [ [ ` [ [ _ [ ( [ { { |  .X.X.X.=.=.=.2.2.2.5.6.7.8.7.u.u.u.u.u.f.f.f.u.y.f.f.f.f.u.f.f.y.f.y.y.f.y.y.y.y.y.y.y.y.y.7.7.7.7.7.7.7.7.y.7.7.7.7.7.;.;.;.;.;.*.$.$...| ` ( W ( W E E E W ` ` ` [ ` ` [ [  .#.=.5.7.f.d.f.f.f.h.h.h.h.h.d.h.d.7.=.s.s.s.s.s.s.s.s.s.s.s.s.s.s.s.s.s.s.s.s.s.s.s.s.s.s.s.s.s.s.s.s.s.s.s.s.s.s.s.s.s.s.s.s.s.",
"s.s.s.s.s.s.s.s.s.s.s.s.s.s.s.s.s.s.s.s.s.s.s.s.s.s.s.s.s.s.s.s.s.s.s.s.s.s.s.s.s.s.s.s.s.s.s.s.s.s.s.s.s.s.s.s.s.s.s.s.s.s.s.s.s.s.s.s.s.s.s.s.s.s.s.s.s.s.s.s.s.s.s.s.s.s.s.s.s.s.s.s.s.s.s.s.s.s.s.s.s.s.s.s.s.s.s.s.s.s.s.s.s.s.s.s.s.s.s.s.s.s.s.s.s.s.s.s.s...#.$.*.$.$.$.$.$.*.*.*.$.*.*.;.;.;.:.:.;.;.;.;.r.:.:.:.r.r.r.r.r.r.y.y.y.d.d.d.y.d.g.g.d.d.g.g.g.g.g.g.g.g.g.d.d.d.g.d.g.g.g.g.h.g.g.g.h.h.g.g.h.h.h.g.g.h.h.h.h.g.g.h.l.h.h.g.g.l.l.h.h.h.h.f.g.g.h.l.h.h.h.h.h.f.g.f.h.f.g.g.g.g.g.f.g.g.g.f.f.g.g.y.f.f.f.f.f.f.h.h.h.f.f.f.h.h.h.h.h.f.f.f.f.d.f.f.f.f.f.f.f.y.y.y.y.7.y.y.y.y.y.y.y.:.:.:.:.:.y.y.:.5.5.5.5.;.:.7.:.;.-.-.;.-.;.-.*.*.;.-.$.$.#.#.$.#.$.$.#.#.#.#.@.#.......| | | | ' | | ' ( ( ( / / / / E T T T T F F D D S Z V m z z z j f d y 0 0 7 1 s.s.s.s.        X X o X o o o o o o & = = = ; , < 1 4 6 7 8 y y y y d d f h v V C C D D U D U U U U Y W R R R W W W _ _ _ _ [ _ _ _ _ [ [ [ [ | X. .X.O.=.=.=.=.2.6.6.6.7.7.y.u.u.u.8.f.f.f.u.u.u.u.f.u.u.f.f.y.f.y.y.d.y.f.y.y.7.7.y.7.7.7.7.7.7.7.7.7.7.7.7.7.7.5.;.;.*.;.;.*.*.$.X.| [ ` W Q W E E U E E ` ` ` [ ` ` [ }  .X.=.5.7.y.f.y.h.f.f.x.h.h.h.d.h.h.f.7.5.s.s.s.s.s.s.s.s.a.s.s.s.s.s.s.s.s.s.s.s.s.s.s.s.s.s.s.s.s.s.s.s.s.s.s.s.s.s.s.s.s.s.s.s.",
"s.s.s.s.s.s.s.s.s.s.s.s.s.s.s.s.s.s.s.s.s.s.s.s.s.s.s.s.s.s.s.s.s.s.s.s.s.s.s.s.s.s.s.s.s.s.s.s.s.s.s.s.s.s.s.s.s.s.s.s.s.s.s.s.s.s.s.s.s.s.s.s.s.s.s.s.s.s.s.s.s.s.s.s.s.s.s.s.s.s.s.s.s.s.s.s.s.s.s.s.s.s.s.s.s.s.s.s.s.s.s.s.s.s.s.s.s.s.s.s.s.s.s.s.s.s.s.s.#.@.$.$.#.$.$.*.*.*.*.*.*.*.*.-.;.:.;.;.:.;.:.:.:.r.r.r.r.y.r.r.y.y.y.y.y.d.d.y.d.g.g.g.g.d.d.g.g.g.g.g.g.d.d.d.d.d.d.d.d.g.h.g.g.g.h.g.g.g.g.g.h.h.h.h.h.h.h.h.h.h.f.f.l.h.g.h.h.h.h.l.l.h.f.h.f.g.g.f.h.h.h.l.h.h.h.f.f.h.h.g.g.h.g.g.g.g.g.f.f.g.g.f.d.f.f.f.f.f.f.f.h.h.f.f.f.h.h.f.f.h.h.h.f.d.d.f.f.f.f.d.f.f.f.d.u.7.y.y.y.y.y.y.y.7.:.:.:.y.:.:.:.:.:.:.:.:.;.;.5.;.-.;.;.;.;.*.*.*.$.*.*.*.*.#.#.$.#.#.#.#.#.#.@.@.#.......| | | | | ' ' ' ( ( ( / / / E E T T T T F F D D D Z V m z z k j d a 9 0 7 6 s.s.s.s.s.s.          X X o o X o o o o & & = = - , , 1 2 6 7 8 y y y y d k z v V Z C D D L D J I U U Y R Y W Q W W W ( W W ( ( _ ( _ _ [ [ [ [ |  . .X.X.X.=.=.=.2.4.4.4.6.7.7.8.8.u.8.u.u.u.y.u.y.u.u.u.f.u.u.y.f.y.y.y.y.y.7.7.7.7.7.7.7.7.7.7.7.7.7.7.;.7.y.7.5.5.;.*.=.*.*.*.#.X...| ` ` W E E E U U E R ` ` ` ' ` ` [ [ ....=.;.5.y.u.y.f.h.u.f.f.h.h.h.h.h.y.y.7.5.2.s.s.s.s.s.s.s.s.s.s.s.s.s.s.s.s.s.s.s.s.s.s.s.s.s.s.s.s.s.s.s.s.s.s.s.s.s.s.s.s.s.s.",
"s.s.s.s.s.s.s.s.s.s.s.s.s.s.s.s.s.s.s.s.s.s.s.s.s.s.s.s.s.s.s.s.s.s.s.s.s.s.s.s.s.s.s.s.s.s.s.s.s.s.s.s.s.s.s.s.s.s.s.s.s.s.s.s.s.s.s.s.s.s.s.s.s.s.s.s.s.s.s.s.s.s.s.s.s.s.s.s.s.s.s.s.s.s.s.s.s.s.s.s.s.s.s.s.s.s.s.s.s.s.s.s.s.s.s.s.s.s.s.s.s.s.s.s.s.s.s.s.@.@.#.#.$.$.*.*.;.*.*.*.*.-.-.-.;.;.;.:.:.:.:.:.:.r.r.r.y.y.y.r.y.y.y.y.y.y.y.d.y.g.g.g.g.d.d.g.g.g.g.g.h.g.g.g.d.g.d.d.g.g.g.g.g.g.g.h.g.g.g.g.g.g.h.h.g.h.h.h.g.g.f.h.g.g.h.h.h.g.g.h.h.h.f.f.f.g.g.g.h.l.C.l.h.h.h.h.f.g.f.g.g.h.g.g.g.y.d.g.g.f.g.h.y.f.f.d.f.h.f.f.h.f.f.f.f.h.f.f.f.f.f.f.f.f.f.h.f.f.f.y.y.f.f.d.f.y.y.y.y.y.y.y.y.y.7.7.y.y.:.:.:.5.5.5.5.:.;.;.;.:.-.-.*.*.*.*.*.;.$.$.*.*.$.$.$.#.#.$.#.#.@.@.@...#...| ..| | | | | ` ` ' ( ( / / / E E E T T T U F F D S Z Z V m z k j d a a 9 9 7 2 s.s.s.s.s.s.s.s.          X X X o o o o o o o @ = = - : , 1 6 6 7 8 0 0 y f f v v V D S D D D J U J U U Y Y Q Q W Q Y Q W W W ( ( W W _ [ _ [ [ |  . . .X.X.X.=.=.2.2.2.5.4.7.7.6.8.u.8.u.8.u.u.u.u.u.u.u.f.y.y.7.f.y.y.d.y.7.7.7.7.7.7.7.7.7.7.7.;.5.5.7.;.7.7.5.=.;.;.;.;.*.*.$.X...| ` ( W R E T T U T E W ` ' ' ' ' ` [ | ..X.$.=.;.7.y.y.y.y.f.8.u.f.h.h.h.h.y.:.y.7.=.=.s.s.s.s.s.s.s.s.s.s.s.s.s.s.s.s.s.s.s.s.s.s.s.s.s.s.s.s.s.s.s.s.s.s.s.s.s.s.s.s.s.",
"s.s.s.s.s.s.s.s.s.s.s.s.s.s.s.s.s.s.s.s.s.s.s.s.s.s.s.s.s.s.s.s.s.s.s.s.s.s.s.s.s.s.s.s.s.s.s.s.s.s.s.s.s.s.s.s.s.s.s.s.s.s.s.s.s.s.s.s.s.s.s.s.s.s.s.s.s.s.s.s.s.s.s.s.s.s.s.s.s.s.s.s.s.s.s.s.s.s.s.s.s.s.s.s.s.s.s.s.s.s.s.s.s.s.s.s.s.s.s.s.s.s.s.s.s.s.s.$.#.#.#.#.$.$.$.$.$.*.-.*.-.-.-.-.-.;.;.:.;.:.:.r.r.r.r.y.r.r.r.y.y.d.r.r.y.y.d.d.d.g.d.d.d.d.d.g.g.g.d.d.g.g.g.g.g.g.g.g.g.g.g.g.g.g.g.g.g.d.g.g.g.g.g.g.g.h.g.g.g.h.h.h.h.g.g.g.h.h.g.g.h.l.h.f.g.g.f.f.f.h.h.h.h.h.h.l.l.g.g.g.f.g.f.y.y.y.y.d.g.g.g.g.y.g.f.f.h.h.f.f.f.f.f.f.f.f.f.h.f.f.d.f.d.d.d.f.h.f.f.u.y.y.y.y.y.y.y.y.y.y.y.y.y.y.y.7.y.:.:.:.:.:.7.7.;.;.;.;.;.;.-.;.;.;.;.*.*.*.*.*.*.$.$.#.#.$.#.#.$.#.| ......#...| | | | | ' | ' ` ` ( ( ( ( ( R E E T T T G F D D Z V V M m z k j d d a 9 7 7 s.s.s.s.s.s.s.s.s.s.            X o o o o o o o % % * = = = ; < < 4 7 7 8 y d j h v V A C D C D S D J P J Y Y Y Y Y Y U R Q W R W R ( Q ( ` [ [ [ [ [ [  .X. .X.=.=.=.=.2.2.2.6.6.7.7.f.8.8.8.8.f.y.f.7.y.y.f.y.y.y.y.y.y.y.y.7.7.7.7.7.7.7.7.7.7.7.7.7.;.7.7.5.7.;.;.;.;.*.*.#.$.#...| ` ` R E E U U U U U T W ` ' ` ' [ [ |  .X.$.$.=.=.5.y.7.7.u.u.u.f.h.f.k.b.k.f.7.;.y.7.=.=.s.s.s.s.s.s.s.s.s.s.s.s.s.s.s.s.s.s.s.s.s.s.s.s.s.s.s.s.s.s.s.s.s.s.s.s.s.s.s.s.",
"s.s.s.s.s.s.s.s.s.s.s.s.s.s.s.s.s.s.s.s.s.s.s.s.s.s.s.s.s.s.s.s.s.s.s.s.s.s.s.s.s.s.s.s.s.s.s.s.s.s.s.s.s.s.s.s.s.s.s.s.s.s.s.s.s.s.s.s.s.s.s.s.s.s.s.s.s.s.s.s.s.s.s.s.s.s.s.s.s.s.s.s.s.s.s.s.s.s.s.s.s.s.s.s.s.s.s.s.s.s.s.s.s.s.s.s.s.s.s.s.s.s.s.s.s.s.$.$.$.$.$.#.$.$.$.$.-.$.;.-.;.-.-.;.;.;.;.;.;.;.:.r.r.y.r.r.r.y.y.y.d.y.y.y.y.d.d.d.y.y.y.y.d.y.d.g.g.g.d.d.d.g.g.g.h.g.g.g.g.g.g.g.h.g.g.g.g.g.g.g.g.g.d.g.g.g.h.h.h.h.h.h.h.g.g.f.g.h.g.g.h.h.h.g.g.g.f.h.h.f.h.h.h.h.h.h.h.f.y.y.g.f.y.d.g.f.y.y.y.y.g.y.d.g.f.f.f.h.f.f.f.f.f.f.f.f.f.d.h.h.h.h.f.y.y.f.f.u.f.f.u.y.y.y.y.y.y.y.y.y.y.7.7.7.y.y.y.:.:.:.:.:.:.:.:.:.;.;.;.;.;.;.;.;.;.;.*.*.;.*.$.$.$.#.#.$.#.#.#.#.| | ..| ....| | | | ' ` | ' ( ( ( ( ( ( R E E E T T U G F D S Z Z V M v z f f d a y 7 7 < s.s.s.s.s.s.s.s.s.s.s.s.          X X o o o o O o % % % % = = - ; , 4 6 7 0 y d h h v V V C C C C D D S D U U U U P U Y Y Y Y Q Q Q Q Q W W [ [ [ [ [ [  . . .X.=.=.=.=.=.2.2.2.6.6.6.8.8.8.8.8.u.7.f.f.y.y.y.y.y.7.7.y.y.7.7.y.7.7.7.7.7.7.7.7.7.7.7.7.5.7.5.;.5.;.;.=.=.$.=.$.#...| | ( E T E T U U U U U T R ` ' ' [ [ [  .X...X.=.=.$.;.7.5.7.u.f.f.f.f.f.k.m.h.d.y.7.>.7.5.=.=.! s.s.s.s.s.s.s.s.s.s.s.s.s.s.s.s.s.s.s.s.s.s.s.s.s.s.s.s.s.s.s.s.s.s.s.s.s.s.",
"s.s.s.s.s.s.s.s.s.s.s.s.s.s.s.s.s.s.s.s.s.s.s.s.s.s.s.s.s.s.s.s.s.s.s.s.s.s.s.s.s.s.s.s.s.s.s.s.s.s.s.s.s.s.s.s.s.s.s.s.s.s.s.s.s.s.s.s.s.s.s.s.s.s.s.s.s.s.s.s.s.s.s.s.s.s.s.s.s.s.s.s.s.s.s.s.s.s.s.s.s.s.s.s.s.s.s.s.s.s.s.s.s.s.s.s.s.s.s.s.s.s.s.s.s.#.#.$.*.$.$.@.#.$.$.$.-.-.;.-.;.-.;.;.;.;.;.:.:.:.r.r.r.y.r.r.r.r.y.y.d.y.y.y.y.y.d.d.d.d.y.y.y.d.d.g.d.d.d.g.g.g.g.g.g.g.g.g.h.h.h.g.g.g.g.d.d.g.g.g.g.g.g.h.g.g.h.h.g.g.g.g.h.g.g.g.g.g.g.g.h.h.g.h.g.y.f.h.f.g.h.h.h.h.h.h.h.h.f.d.y.y.y.d.f.d.g.g.d.y.d.d.y.d.f.d.y.f.f.f.d.d.f.d.d.f.f.f.f.f.f.d.f.f.d.d.d.y.y.f.u.y.y.u.u.y.y.y.y.y.y.7.y.7.y.:.:.y.:.:.:.:.;.:.:.:.;.;.;.;.;.;.;.;.;.;.*.*.*.*.$.$.*.#.#.#.#.| #.#.| | | | ....| | | | ' ( ' ' ( ( ( ( ( R E E E E T U U F D S S Z Z V v z k d d d y 0 7 4 s.s.s.s.s.s.s.s.s.s.s.s.s.s.s.            . X X o o o o o o o % = = - < 1 4 7 9 y d f f h v M M V Z C C Z A D J D D D F U U U U Y Y Y Y U Q ~ W _ [ [ [ [ { |  . .X.X.X.X.$.=.=.2.2.5.6.6.6.7.8.7.u.7.y.7.7.7.y.y.y.7.7.y.7.7.y.y.y.7.7.7.7.7.7.7.7.7.7.7.5.5.5.=.5.;.=.=.$.$.#.X...| ` ` ( E T U U G G F G U Q W ` [ [ } } | | X...X.=.*.*.=.5.5.7.u.u.u.y.8.u.h.m.m.h.y.7.:.7.7.=.=.$.[ s.s.s.s.s.s.s.s.s.s.s.s.s.s.s.s.s.s.s.s.s.s.s.s.s.s.s.s.s.s.s.s.s.s.s.s.s.",
"s.s.s.s.s.s.s.s.s.s.s.s.s.s.s.s.s.s.s.s.s.s.s.s.s.s.s.s.s.s.s.s.s.s.s.s.s.s.s.s.s.s.s.s.s.s.s.s.s.s.s.s.s.s.s.s.s.s.s.s.s.s.s.s.s.s.s.s.s.s.s.s.s.s.s.s.s.s.s.s.s.s.s.s.s.s.s.s.s.s.s.s.s.s.s.s.s.s.s.s.s.s.s.s.s.s.s.s.s.s.s.s.s.s.s.s.s.s.s.s.s.s.s.s.#.$.$.*.$.#.$.#.#.#.$.$.-.-.;.;.;.;.;.;.;.;.;.:.r.r.r.r.y.y.y.y.r.y.y.y.d.d.d.d.d.y.d.d.d.d.d.d.d.g.g.g.g.g.g.g.g.g.g.g.g.g.g.g.g.g.g.g.g.g.g.d.d.g.g.g.g.g.h.h.g.g.g.g.g.h.h.g.g.h.h.g.g.h.h.g.g.f.f.f.g.g.f.h.f.g.f.g.g.g.h.h.h.h.h.g.y.y.y.d.d.d.g.d.y.y.d.y.y.f.f.f.f.f.f.h.h.f.f.f.f.f.f.h.h.f.f.f.f.f.f.f.d.y.y.y.y.y.y.y.y.u.y.y.y.y.y.y.y.y.y.:.:.y.:.-.y.:.;.;.:.:.;.;.;.;.:.;.;.;.*.*.*.*.*.$.$.$.$.$.#.#.#.| #.#.| | | | ....| ' | | ) ' ' ' ( ( ( ( R R R E E T T U U F D S Z Z Z V z h d d d 0 0 0 7 1 s.s.s.s.s.s.s.s.s.s.s.s.s.s.s.s.                X X o o o o o o % & = - , 1 6 8 8 y y y f j f h h v v v M C C C C C D J J J J U U J U U U Y W W ( ( [ [ [ | | |  . .X.X.X.X.$.=.=.2.2.2.2.5.6.7.7.7.7.u.7.5.7.7.y.7.7.7.7.7.7.7.y.y.y.7.7.7.7.7.7.7.7.7.7.;.5.;.=.2.=.=.=.=.X.X...| | ` ( R Y Y U U F F F G U E W ` [ [ |  . .| X.X.$.=.=.*.;.5.;.7.u.8.7.8.7.8.f.F.T.h.7.h.d.d.7.4.=.=.X. .s.s.s.s.s.s.s.s.s.s.s.s.s.s.s.s.s.s.s.s.s.s.s.s.s.s.s.s.s.s.s.s.s.s.s.s.",
"s.s.s.s.s.s.s.s.s.s.s.s.s.s.s.s.s.s.s.s.s.s.s.s.s.s.s.s.s.s.s.s.s.s.s.s.s.s.s.s.s.s.s.s.s.s.s.s.s.s.s.s.s.s.s.s.s.s.s.s.s.s.s.s.s.s.s.s.s.s.s.s.s.s.s.s.s.s.s.s.s.s.s.s.s.s.s.s.s.s.s.s.s.s.s.s.s.s.s.s.s.s.s.s.s.s.s.s.s.s.s.s.s.s.s.s.s.s.s.s.s.s.s...| $.$.$.$.*.$.#.#.$.$.*.-.-.;.;.;.-.;.;.;.;.:.:.r.r.r.r.r.y.y.y.y.y.y.y.y.y.d.d.d.y.y.y.y.d.g.g.g.g.g.g.g.g.g.g.g.g.g.g.g.d.g.h.g.g.g.g.d.g.g.d.g.g.g.g.g.g.g.g.h.h.h.g.g.h.d.g.g.g.g.g.g.g.g.g.g.g.g.g.f.f.f.g.f.f.g.g.d.y.d.f.h.f.g.d.g.g.y.g.g.d.y.y.y.y.y.y.y.y.d.f.f.f.f.h.f.h.f.f.f.f.f.f.f.f.f.f.f.y.y.h.f.y.y.y.y.7.y.y.y.y.u.y.y.y.y.y.y.y.y.y.:.:.:.:.:.:.:.:.;.-.;.;.;.;.;.;.*.;.*.*.*.*.*.*.$.$.$.$.#.@.#...#.#...| | | ..| | ' ' ` ( ( ' ' ( ( / ( ( E R E E T T U G F D D Z Z V z z h d d d y 0 7 4 s.s.s.s.s.s.s.s.s.s.s.s.s.s.s.s.s.s.s.                    X o o o o o & = - , 4 6 7 6 9 y y y a f f f f f h v v V M V C D A A D K J D D D J Y Q Q W W ( [ [ [ [ [  . .X.X. .X.X.X.=.=.2.2.2.2.5.6.7.5.7.8.u.5.7.7.7.7.7.7.7.7.7.7.7.7.7.7.7.5.7.7.7.7.7.5.5.5.5.;.=.=.=.=.*.$.....| | [ ` ( T Y U U F U F D G U E W ' ' } }  .X. .X.X.=.=.=.=.2.5.;.5.7.7.7.7.u.f.7.k.T.h.7.h.h.k.d.6.=.*...X.| J s.s.s.s.s.s.s.s.s.s.s.s.s.s.s.s.s.s.s.s.s.s.s.s.s.s.s.s.s.s.s.s.s.s.",
"s.s.s.s.s.s.s.s.s.s.s.s.s.s.s.s.s.s.s.s.s.s.s.s.s.s.s.s.s.s.s.s.s.s.s.s.s.s.s.s.s.s.s.s.s.s.s.s.s.s.s.s.s.s.s.s.s.s.s.s.s.s.s.s.s.s.s.s.s.s.s.s.s.s.s.s.s.s.s.s.s.s.s.s.s.s.s.s.s.s.s.s.s.s.s.s.s.s.s.s.s.s.s.s.s.s.s.s.s.s.s.s.s.s.s.s.s.s.s.s.s.s.X.@.#.#.$.$.$.$.$.#.$.$.$.*.;.-.;.;.;.;.;.;.;.;.:.r.r.r.r.y.r.r.y.y.y.y.y.y.d.y.y.d.d.d.d.d.d.d.g.g.d.d.d.d.d.g.d.g.h.g.g.g.g.g.g.g.g.g.g.g.g.g.g.g.g.d.d.g.g.g.g.g.h.h.h.g.g.g.g.g.g.g.h.g.g.g.g.g.g.d.g.g.f.g.f.f.g.g.f.g.g.g.g.f.f.g.y.y.g.f.f.g.g.g.g.g.y.y.y.y.y.d.f.f.y.y.f.d.f.h.f.h.f.d.f.f.f.f.f.f.y.y.y.d.y.d.y.u.y.7.y.y.y.y.y.y.y.7.7.y.y.7.y.:.:.:.:.:.:.:.;.;.;.;.-.-.;.;.;.*.;.-.*.*.*.*.$.$.*.*.$.$.#.#.#...#.#...| | | ..| ' ' ' ` ( ( ` ` ( ( / R ( E E E E T T G G F D S Z V V z z k d d a y 9 8 < s.s.s.s.s.s.s.s.s.s.s.s.s.s.s.s.s.s.s.s.s.                  . o o o o o % = - ; , , < 4 7 8 8 9 0 y y y y y f h h h v V C V V C C A D J D J Y Q Q Q Y W ( [ [ [ {  .| |  . . . .X.X.=.=.=.=.=.5.5.5.5.5.5.7.5.7.7.7.7.7.7.7.7.7.7.7.7.7.7.7.7.7.7.6.6.5.5.5.5.5.=.2.2.=.=.=.$..... .[ ` ` W U U U F D D D D G U E ` ' [ } }  .X.X.X.X.=.=.=.5.5.5.;.5.5.7.u.f.f.7.7.k.I.h.2.8.f.I.h.>.7.*...|  .[ J s.s.s.s.s.s.s.s.s.s.s.s.s.s.s.s.s.s.s.s.s.s.s.s.s.s.s.s.s.s.s.s.s.",
"s.s.s.s.s.s.s.s.s.s.s.s.s.s.s.s.s.s.s.s.s.s.s.s.s.s.s.s.s.s.s.s.s.s.s.s.s.s.s.s.s.s.s.s.s.s.s.s.s.s.s.s.s.s.s.s.s.s.s.s.s.s.s.s.s.s.s.s.s.s.s.s.s.s.s.s.s.s.s.s.s.s.s.s.s.s.s.s.s.s.s.s.s.s.s.s.s.s.s.s.s.s.s.s.s.s.s.s.s.s.s.s.s.s.s.s.s.s.s.s.s.s...#.#.$.$.$.*.$.*.$.*.*.*.*.-.-.:.;.:.;.;.;.;.;.:.:.r.r.y.y.r.r.y.y.y.y.d.y.y.y.y.d.d.d.d.d.d.d.g.g.g.g.g.g.g.d.d.g.h.d.g.g.g.g.g.g.h.g.g.g.g.g.g.g.g.g.g.g.g.d.g.g.g.g.h.g.d.g.g.g.g.g.g.g.g.g.g.g.g.g.g.g.g.g.d.g.d.y.g.d.g.f.f.g.f.d.f.g.h.h.h.h.f.f.d.d.g.g.g.y.y.d.f.f.f.d.f.f.f.h.f.f.h.f.f.f.f.h.f.f.y.y.y.y.y.f.u.u.y.7.7.7.7.7.y.y.y.7.7.y.y.7.:.:.:.:.:.:.:.:.;.;.-.*.-.*.*.;.;.;.*.*.*.*.*.*.*.*.$.$.$.#.#.#.#.| | | ..| | | | | ' ' ' ` ( ( ` ` ( / / R R E E E E T U G F F S Z Z V M z z k d a a 0 9 6 < s.s.s.s.s.s.s.s.s.s.s.s.s.s.s.s.s.s.s.s.s.s.s.                . X o o o o @ * = - - , , 1 4 4 6 7 7 7 9 0 y y y f f f h v v v V C C D D D D U Y Y Y Y Q W W ( [ [ [ [ [ | | |  .X.X.X.X.X.=.=.2.2.2.2.5.5.5.5.7.5.7.5.7.7.7.7.7.7.7.7.7.7.7.8.7.7.7.5.5.5.5.2.2.=.=.2.=.$.X.X.| | [ ` ` W T U U J D D D D D G U W ` ' [ |  . .X. .X.=.$.=.2.4.5.2.=.5.5.7.f.u.7.5.7.P.Y.b.4.f.h.J.h.;.=.=...| | [ ` D s.s.s.s.s.s.s.s.s.s.s.s.s.s.s.s.s.s.s.s.s.s.s.s.s.s.s.s.s.s.s.s.",
"s.s.s.s.s.s.s.s.s.s.s.s.s.s.s.s.s.s.s.s.s.s.s.s.s.s.s.s.s.s.s.s.s.s.s.s.s.s.s.s.s.s.s.s.s.s.s.s.s.s.s.s.s.s.s.s.s.s.s.s.s.s.s.s.s.s.s.s.s.s.s.s.s.s.s.s.s.s.s.s.s.s.s.s.s.s.s.s.s.s.s.s.s.s.s.s.s.s.s.s.s.s.s.s.s.s.s.s.s.s.s.s.s.s.s.s.s.s.s.s.s.| #.#.$.*.$.$.$.$.*.*.$.*.*.;.;.;.;.:.:.;.;.:.:.r.r.r.:.r.y.y.y.y.y.y.r.r.d.y.y.y.y.d.d.d.d.d.d.d.g.g.g.d.g.g.d.y.d.g.g.g.g.g.g.g.g.g.g.g.d.g.h.h.h.g.g.g.g.g.d.d.d.g.g.h.h.g.g.g.h.h.g.g.g.g.g.g.g.g.g.g.g.g.d.d.y.y.d.d.y.g.g.g.y.y.f.f.f.f.f.d.f.h.f.y.y.y.y.y.g.y.y.y.f.f.f.d.f.f.f.f.f.f.f.f.f.f.f.f.f.y.f.d.y.d.y.f.f.u.y.y.y.7.y.7.y.7.7.7.y.7.7.y.:.:.:.y.:.:.:.:.;.;.;.*.-.-.$.;.;.;.*.;.*.*.*.*.*.*.$.$.$.#.#.#.| | | | | | | ' ..| | ' | ` ( ( ( ( / / / E E E E E E T U G G F S Z Z V z z z d d d a 0 7 1 s.s.s.s.s.s.s.s.s.s.s.s.s.s.s.s.s.s.s.s.s.s.s.s.s.s.                X X X X o X o O O O = = - - , 1 1 4 7 7 7 8 0 y y d f f f h v V C C A A A P U U U Y Y Q W W ( [ [ [ [ [ [ | |  . .X.X.X.X.=.=.=.2.=.2.5.5.;.5.5.5.5.5.5.7.7.7.7.7.6.7.6.6.7.7.7.7.5.5.5.=.=.2.2.=.=.$.$... .| | [ ` ( R U U P D D D S S D G E W ` ' | |  . .X. .X.=.=.X.=.2.2.=.5.5.5.7.u.7.2.=.d.I.T.N.6.f.h.J.k.y.*.7. . .' ' ( ( A s.s.s.s.s.s.s.s.s.s.s.s.s.s.s.s.s.s.s.s.s.s.s.s.s.s.s.s.s.s.s.",
"s.s.s.s.s.s.s.s.s.s.s.s.s.s.s.s.s.s.s.s.s.s.s.s.s.s.s.s.s.s.s.s.s.s.s.s.s.s.s.s.s.s.s.s.s.s.s.s.s.s.s.s.s.s.s.s.s.s.s.s.s.s.s.s.s.s.s.s.s.s.s.s.s.s.s.s.s.s.s.s.s.s.s.s.s.s.s.s.s.s.s.s.s.s.s.s.s.s.s.s.s.s.s.s.s.s.s.s.s.s.s.s.s.s.s.s.s.s.s.s...#.@.$.=.*.$.$.*.$.*.*.*.-.;.;.;.;.:.:.:.:.:.:.r.r.r.r.r.r.r.r.r.r.r.r.r.y.d.d.d.d.d.d.d.d.d.d.d.d.d.d.d.g.g.g.g.g.g.g.d.d.g.g.g.g.g.g.d.d.g.g.g.h.g.g.g.g.h.g.g.g.g.g.g.g.g.h.h.g.g.g.g.g.g.g.g.g.g.g.i.d.g.f.d.y.d.g.g.g.g.g.g.g.d.y.d.d.y.y.y.y.y.g.g.y.d.f.f.y.y.y.d.y.d.f.f.d.d.f.f.f.d.d.d.f.f.f.f.d.f.f.f.f.y.y.d.d.f.f.y.y.y.y.y.y.y.y.y.7.7.y.y.7.y.:.:.:.:.-.:.;.;.;.;.;.;.-.*.*.*.;.;.*.*.*.*.*.*.*.$.$.*.$.#.@.| | | | | | | | | | | ' ' ` ` ( ` ` ( ( ( R R R T E T U G F F D D A Z V z z h d d y 0 7 7 < s.s.s.s.s.s.s.s.s.s.s.s.s.s.s.s.s.s.s.s.s.s.s.s.s.s.s.s.                              X o o O o = = - ; < 1 4 6 6 8 9 y a d f f h v v V V C C D D D J U U Y E R Q W W ( _ [ { { [ { {  .X.X.$.$.=.=.=.=.=.=.2.=.2.2.;.5.5.5.5.5.5.7.7.7.6.5.5.5.5.5.5.5.5.5.5.5.5.5.=.=.$.X.....| | ` W E U G G F A S A Z D D U E W ` [ | ..X. .X. .X.=.=.X.=.2.2.2.=.2.2.8.6.6.=.=.h.Y.E.N.7.f.N.m.k.h.>.;.=.` ` ( ( ` ` J s.s.s.s.s.s.s.s.s.s.s.s.s.s.s.s.s.s.s.s.s.s.s.s.s.s.s.s.s.s.",
"s.s.s.s.s.s.s.s.s.s.s.s.s.s.s.s.s.s.s.s.s.s.s.s.s.s.s.s.s.s.s.s.s.s.s.s.s.s.s.s.s.s.s.s.s.s.s.s.s.s.s.s.s.s.s.s.s.s.s.s.s.s.s.s.s.s.s.s.s.s.s.s.s.s.s.s.s.s.s.s.s.s.s.s.s.s.s.s.s.s.s.s.s.s.s.s.s.s.s.s.s.s.s.s.s.s.s.s.s.s.s.s.s.s.s.s.s.s.s.| #.@.*.$.*.$.$.#.$.$.$.*.-.;.;.:.;.:.:.:.:.:.:.:.r.r.r.r.r.r.r.y.r.r.r.y.y.y.d.d.y.y.y.y.y.d.y.d.d.g.g.d.d.d.g.d.g.g.g.h.g.d.d.g.g.g.g.g.g.d.g.g.g.g.g.g.g.g.g.g.g.g.g.g.d.g.h.h.g.g.d.d.d.g.g.g.g.g.g.g.g.d.g.d.y.d.g.y.g.y.g.g.g.g.d.y.u.g.g.y.y.y.y.y.y.y.f.f.f.f.y.y.d.f.f.y.y.d.d.d.f.f.f.d.d.f.f.f.f.f.f.y.y.y.d.y.y.d.f.d.d.y.y.y.y.y.7.7.y.7.7.y.7.7.:.:.:.:.:.:.-.:.;.-.;.;.*.*.*.*.;.;.*.*.*.*.*.*.*.*.$.$.$.#.#.@.| | | | | | | | | | ' ' ' ` ` ( ` ` ( ( ( R R R E T T T G F F S Z Z Z V z z f d d y 0 7 1 s.s.s.s.s.s.s.s.s.s.s.s.s.s.s.s.s.s.s.s.s.s.s.s.s.s.s.s.s.s.s.> O                               X o o o % = - : , < 5 7 8 9 y y d f h c v v M V C A D J D J U U Y Y Q R R R W [ [ [ [ {  . .X.X.$.X.=.=.=.=.=.=.2.2.2.2.5.2.5.5.5.5.5.5.6.5.5.5.5.2.2.2.5.5.2.5.5.5.=.5.$.X...| | | [ ` R T U P D D Z C A Z S F U E ` ` } | X.X. .X. .X.=.X.X.X.=.=.=.$.=.4.8.6.2.=.=.h.B.E.z.8.f.b.b.h.b.7.=.*.` ( ( ( / `  .J s.s.s.s.s.s.s.s.s.s.s.s.s.s.s.s.s.s.s.s.s.s.s.s.s.s.s.s.s.",
"s.s.s.s.s.s.s.s.s.s.s.s.s.s.s.s.s.s.s.s.s.s.s.s.s.s.s.s.s.s.s.s.s.s.s.s.s.s.s.s.s.s.s.s.s.s.s.s.s.s.s.s.s.s.s.s.s.s.s.s.s.s.s.s.s.s.s.s.s.s.s.s.s.s.s.s.s.s.s.s.s.s.s.s.s.s.s.s.s.s.s.s.s.s.s.s.s.s.s.s.s.s.s.s.s.s.s.s.s.s.s.s.s.s.s.s.s.s.| #.#.#.$.$.*.$.$.$.$.$.*.*.-.;.;.:.;.:.:.7.7.:.:.:.r.r.r.r.r.y.y.y.y.r.y.d.d.d.d.d.y.y.y.y.d.d.d.d.g.g.g.g.d.g.g.d.d.d.g.g.g.g.g.g.g.g.g.g.g.g.g.g.g.g.g.g.g.g.g.g.d.d.g.g.g.h.h.h.g.g.g.g.g.g.g.g.g.g.g.y.y.d.d.d.g.d.g.y.y.y.g.g.g.d.d.g.d.y.g.y.y.y.y.y.y.y.d.y.y.y.d.y.d.f.f.y.y.d.f.d.f.f.f.f.f.f.f.f.f.h.d.y.y.y.y.y.y.f.y.y.y.y.y.y.y.y.y.y.y.7.7.7.7.:.:.:.y.:.:.;.-.:.;.;.;.;.*.*.*.-.*.*.*.*.$.*.*.*.$.$.$.$.$.$.#.#.| | | | | | | | | ' ' ' ' ' ` ( ` ( / ( W R R R T T U T G F F S Z Z V M z h d d a 0 9 7 , s.s.s.s.s.s.s.s.s.s.s.s.s.s.s.s.s.s.s.s.s.s.s.s.s.s.s.s.s.s.s.s.s.s.$                               X X o o % = - ; , 1 6 7 8 0 y d f h h h v M V V A D S D D U U Y Y T Y E R ( ( _ [ [ |  . . .X.X.$.$.$.$.=.=.=.=.=.=.=.=.=.2.5.2.2.2.5.5.5.5.5.2.2.2.5.2.2.=.2.2.=.=.$.X. .| [ [ ( R E U G F S S Z Z Z Z S G U W ` ` } | X. .| X. . .X.X.X.X.X.X.X.X.2.7.8.2.=.=.;.h.E.M.h.8.f.q.k.m.M.h.=.7.[ ( E W ( ` |  .J s.s.s.s.s.s.s.s.s.s.s.s.s.s.s.s.s.s.s.s.s.s.s.s.s.s.s.s.",
"s.s.s.s.s.s.s.s.s.s.s.s.s.s.s.s.s.s.s.s.s.s.s.s.s.s.s.s.s.s.s.s.s.s.s.s.s.s.s.s.s.s.s.s.s.s.s.s.s.s.s.s.s.s.s.s.s.s.s.s.s.s.s.s.s.s.s.s.s.s.s.s.s.s.s.s.s.s.s.s.s.s.s.s.s.s.s.s.s.s.s.s.s.s.s.s.s.s.s.s.s.s.s.s.s.s.s.s.s.s.s.s.s.s.s.s.s.| #.#.#.*.$.$.$.$.$.$.$.*.*.-.;.:.;.;.:.:.:.7.:.:.:.:.r.r.r.r.y.r.r.r.y.r.y.y.d.d.y.d.d.y.d.d.d.d.d.g.g.g.d.d.d.d.g.g.d.d.g.g.g.g.g.g.g.g.g.g.d.d.g.d.d.g.g.g.g.g.g.d.d.g.g.g.g.g.g.h.g.g.g.g.g.g.g.g.g.d.g.y.y.d.y.y.y.y.y.g.y.y.g.g.y.g.d.y.d.g.g.y.y.g.d.y.y.y.y.y.y.y.d.y.y.f.f.y.y.y.f.f.f.f.f.f.f.h.f.f.d.f.f.d.y.y.y.y.y.y.f.y.y.y.y.y.7.y.7.7.y.7.7.7.5.5.:.:.:.:.:.:.:.;.;.;.;.;.;.*.*.;.*.$.*.*.$.$.$.$.$.$.$.$.$.$.#.#...| | | | | | | ' ' ' ' ' ' ` ( ` ( / ( ( R R E T T T U G F D S Z V V z z k d d y 0 7 4 s.s.s.s.s.s.s.s.s.s.s.s.s.s.s.s.s.s.s.s.s.s.s.s.s.s.s.s.s.s.s.s.s.s.s.s.s.O                               X X X o o = = - , 1 4 7 9 0 y d f f h h z M V C C A D D U U U Y Y T Y Q W _ _ [ { | | { X.X.$.X.$.$.X.$.$.$.$.$.$.=.2.2.=.2.5.5.5.5.2.5.5.=.=.=.2.2.2.=.2.=.$.$.$... .| [ ` W E T F D S S Z V V V V D U U ` ` ` }  .X. .| X. .|  .X.X.X.X.X.X.X.5.6.6.2.=.X.7.k.M.N.z.f.x.h.h.m.M.b.>.f. .U T T E E ' |  .D s.s.s.s.s.s.s.s.s.s.s.s.s.s.s.s.s.s.s.s.s.s.s.s.s.s.s.",
"s.s.s.s.s.s.s.s.s.s.s.s.s.s.s.s.s.s.s.s.s.s.s.s.s.s.s.s.s.s.s.s.s.s.s.s.s.s.s.s.s.s.s.s.s.s.s.s.s.s.s.s.s.s.s.s.s.s.s.s.s.s.s.s.s.s.s.s.s.s.s.s.s.s.s.s.s.s.s.s.s.s.s.s.s.s.s.s.s.s.s.s.s.s.s.s.s.s.s.s.s.s.s.s.s.s.s.s.s.s.s.s.s.s.s.s.s...#.$.$.$.$.$.*.$.$.$.*.-.-.-.;.;.;.:.:.:.:.:.:.r.r.r.r.y.y.y.y.y.r.r.r.r.y.y.y.y.y.y.y.d.d.g.g.g.g.d.g.g.d.y.d.d.g.g.h.g.h.h.h.g.g.g.g.g.g.g.g.d.d.d.g.g.g.g.g.g.g.g.g.g.g.g.g.g.g.g.h.h.g.g.g.d.g.g.d.y.y.d.g.y.g.y.y.y.y.y.y.y.g.g.g.g.y.y.y.d.y.y.y.y.y.y.y.d.f.f.f.d.y.y.y.f.y.y.y.y.y.f.f.f.h.f.d.y.f.f.f.d.f.y.f.f.y.y.y.y.y.y.y.y.y.y.y.7.7.7.7.7.y.7.5.5.y.:.:.:.:.:.:.;.-.;.;.-.;.;.-.-.*.#.#.$.$.$.$.*.$.$.$.#.#.#.#.#.#.| | | ' ' ' ' ' ' ' ' ' ' ( ( ( ( / ( E E T E T T T F G F S Z Z V V z z k d y y 9 7 1 s.s.s.s.s.s.s.s.s.s.s.s.s.s.s.s.s.s.s.s.s.s.s.s.s.s.s.s.s.s.s.s.s.s.s.s.s.s.s.                            X X X X o o % = - , 1 6 7 8 8 y y f f f h h v M V C C D D D U U U Y Y R Q R ! [ [ { | | X... .X.X.X.X.$.$.$.X.X.$.$.$.=.=.=.2.5.5.=.5.=.2.2.=.=.=.=.=.=.=.$.$.$.$. .| | [ ( R U U D D S Z V V V V Z D U E W ` [ [  . .| | } [  .[  .[ | |  .X.=.5.6.5.=.=.| >.z.z.z.u.b.M.z.k.m.M.N.4.2.$.E T U R E ` ' .. .D s.s.s.s.s.s.s.s.s.s.s.s.s.s.s.s.s.s.s.s.s.s.s.s.s.s.",
"s.s.s.s.s.s.s.s.s.s.s.s.s.s.s.s.s.s.s.s.s.s.s.s.s.s.s.s.s.s.s.s.s.s.s.s.s.s.s.s.s.s.s.s.s.s.s.s.s.s.s.s.s.s.s.s.s.s.s.s.s.s.s.s.s.s.s.s.s.s.s.s.s.s.s.s.s.s.s.s.s.s.s.s.s.s.s.s.s.s.s.s.s.s.s.s.s.s.s.s.s.s.s.s.s.s.s.s.s.s.s.s.s.s.s.s.| #.#.#.$.$.$.$.$.$.*.$.$.;.-.-.;.;.:.:.:.:.:.:.7.:.r.r.r.r.y.y.r.r.r.r.r.r.y.d.y.d.d.g.d.d.d.g.g.g.g.g.d.d.d.d.d.d.d.d.g.g.g.g.g.g.d.d.d.g.g.h.g.g.g.g.g.g.g.h.g.g.g.h.g.g.g.g.g.g.g.g.g.g.h.h.g.g.d.d.d.g.g.g.g.g.g.g.y.y.y.y.y.g.y.y.g.g.y.y.g.y.y.y.y.y.y.y.y.d.f.y.y.d.y.y.f.f.d.d.f.d.y.y.f.f.h.f.f.d.f.f.d.y.f.y.d.f.f.y.y.y.y.y.y.y.y.y.y.y.7.y.y.y.5.;.:.5.y.:.:.:.:.:.:.:.-.;.;.;.;.-.-.*.-.$.$.$.$.#.$.$.$.$.$.#.#.#.@.#.| | | ' ' ' ' ' ' ' ' ' ' ` ( ` ` ( / R R E T T T U U F F F S S Z V M z h k d y 9 7 6 s.s.s.s.s.s.s.s.s.s.s.s.s.s.s.s.s.s.s.s.s.s.s.s.s.s.s.s.s.s.s.s.s.s.s.s.s.s.s.s.s.s.s.                    X X X X o o o @ % & = - < 1 6 8 8 0 y y y d f f z v v V C D S J J J U U Y Y R ! ( _ [ [ | | |  .{ X. . .X.X.X.#.X.X.X.X.$.$.=.=.=.=.=.2.=.=.=.=.=.=.=.=.=.$.$.X.X...| [ [ ( R U U D S S Z V V M V V C D U E W ` ` [  . .| [ [ [ [ [ [ [ [ [ |  .X.2.6.=.X.[ | 7.h.8.6.f.N.b.h.z.m.N.b.6.$.=.U U U T H E ` X.=.W v s.s.s.s.s.s.s.s.s.s.s.s.s.s.s.s.s.s.s.s.s.s.s.s.s.",
"s.s.s.s.s.s.s.s.s.s.s.s.s.s.s.s.s.s.s.s.s.s.s.s.s.s.s.s.s.s.s.s.s.s.s.s.s.s.s.s.s.s.s.s.s.s.s.s.s.s.s.s.s.s.s.s.s.s.s.s.s.s.s.s.s.s.s.s.s.s.s.s.s.s.s.s.s.s.s.s.s.s.s.s.s.s.s.s.s.s.s.s.s.s.s.s.s.s.s.s.s.s.s.s.s.s.s.s.s.s.s.s.s.s.s.| #.#.$.$.*.$.$.$.$.$.*.*.*.;.;.;.;.:.:.:.:.:.7.7.7.r.r.y.y.y.y.y.r.y.d.d.y.d.y.d.g.g.d.d.d.d.d.d.d.d.d.d.y.y.d.d.d.d.d.d.d.g.d.d.g.g.d.d.d.d.g.h.h.g.g.g.g.g.g.h.g.g.h.g.h.h.g.d.g.g.d.g.g.d.g.g.d.y.g.h.f.g.g.g.g.g.f.g.y.g.d.y.y.y.g.g.f.d.y.y.y.d.y.y.y.y.y.y.y.y.d.y.f.f.f.y.y.y.y.y.y.y.f.y.f.y.d.f.f.f.f.y.y.y.y.y.y.f.d.y.y.y.y.y.y.y.7.y.y.7.5.7.7.7.7.5.5.7.:.:.:.:.-.:.;.;.;.;.;.;.;.*.*.*.$.$.$.$.$.$.*.$.$.#.$.$.#.#.#...| | | ' ' ' ' ' ' ' ' ' ( ` ( ` ( / / R ( E T T T T G F F S S S Z M m z k d a y 0 8 < s.s.s.s.s.s.s.s.s.s.s.s.s.s.s.s.s.s.s.s.s.s.s.s.s.s.s.s.s.s.s.s.s.s.s.s.s.s.s.s.s.s.s.s.s.s.                X X o o o o o o O = = > , < 1 5 7 8 9 8 y y d d f h v M C C D D S D U U Y Y Q W W _ [ [ [ | | | |  . . . .X. ...X.X.X.X.$.=.=.=.=.=.=.=.=.=.=.$.$.$.$.$.X.X.....| | ` ( R Q U F D S V V v z z z V S P U T W ` ` ` |  .[ ' ` ` ` [ [ ` ` [ [ | X.5.2.X. .W =.d.f.=.2.z.b.d.d.z.b.M.h.=.X.=.W U U T H T E | =.2.W s.s.s.s.s.s.s.s.s.s.s.s.s.s.s.s.s.s.s.s.s.s.s.s.s.",
"s.s.s.s.s.s.s.s.s.s.s.s.s.s.s.s.s.s.s.s.s.s.s.s.s.s.s.s.s.s.s.s.s.s.s.s.s.s.s.s.s.s.s.s.s.s.s.s.s.s.s.s.s.s.s.s.s.s.s.s.s.s.s.s.s.s.s.s.s.s.s.s.s.s.s.s.s.s.s.s.s.s.s.s.s.s.s.s.s.s.s.s.s.s.s.s.s.s.s.s.s.s.s.s.s.s.s.s.s.s.s.s.s.s...#.#.$.=.$.$.$.$.$.$.*.*.*.*.;.;.;.;.:.:.:.7.7.7.7.7.r.y.y.y.y.r.y.y.r.r.d.g.d.d.g.g.d.d.d.y.d.d.d.d.g.d.d.d.y.d.d.g.g.d.d.d.g.g.d.g.g.g.g.d.d.g.h.h.g.g.h.h.h.g.h.h.h.g.g.g.g.g.g.y.g.g.g.g.d.y.d.g.f.g.g.f.f.g.g.f.g.g.y.y.y.d.g.y.d.g.g.g.g.y.y.y.y.y.y.y.y.y.g.y.y.y.y.d.d.y.f.f.y.y.d.d.y.y.y.y.y.y.f.y.f.f.y.y.y.y.y.y.y.y.y.y.y.y.y.y.y.y.y.y.7.7.5.5.5.y.5.;.:.:.:.:.:.-.:.:.:.;.;.;.*.;.*.*.*.$.$.$.$.#.$.$.#.$.#.#.#.#.#.@...| | | | ' ' ' ' ' ' ' ' ` ` ` ` ( / / E R E T E T U G F F S Z Z V m z z k d a 0 9 7 5 s.s.s.s.s.s.s.s.s.s.s.s.s.s.s.s.s.s.s.s.s.s.s.s.s.s.s.s.s.s.s.s.s.s.s.s.s.s.s.s.s.s.s.s.s.s.s.s.s.            X X X X o X o o O o * = - - , < 1 6 6 7 0 y y y d h z v v Z C C S D D U U Y W W W W ( [ [ [ [ | { } | |  . .| |  .X.X.X.X.$.=.$.=.$.=.=.=.$.$.X.$.$.X.X.X...| | [ ( W E Y F D S V V M z h z m V D P U E W ( ` ` [ [ ' ` W ` ( ( ` W ` ` [ [ X.=.$. .` W 5.f.=.X.8.x.h.d.f.h.z.q.0.5.X.=.E Z T T G G U [ X.O.X.Y s.s.s.s.s.s.s.s.s.s.s.s.s.s.s.s.s.s.s.s.s.s.s.s.",
"s.s.s.s.s.s.s.s.s.s.s.s.s.s.s.s.s.s.s.s.s.s.s.s.s.s.s.s.s.s.s.s.s.s.s.s.s.s.s.s.s.s.s.s.s.s.s.s.s.s.s.s.s.s.s.s.s.s.s.s.s.s.s.s.s.s.s.s.s.s.s.s.s.s.s.s.s.s.s.s.s.s.s.s.s.s.s.s.s.s.s.s.s.s.s.s.s.s.s.s.s.s.s.s.s.s.s.s.s.s.s.s.s...#.#.$.*.*.*.*.$.*.$.$.-.-.-.-.;.;.:.:.;.:.:.r.r.:.:.y.r.r.r.r.r.r.r.y.d.y.y.y.d.y.y.y.g.d.d.y.y.y.d.d.d.g.d.d.y.d.d.d.g.g.g.g.g.f.g.g.d.g.g.g.d.d.d.g.g.g.g.g.g.g.g.h.g.h.f.g.g.d.y.y.y.g.g.g.f.y.y.d.g.f.g.g.f.g.d.d.g.y.d.g.y.g.g.y.g.g.h.h.d.y.y.y.y.y.y.y.r.y.g.y.y.y.y.y.y.y.y.y.y.y.y.y.y.y.y.y.y.y.f.f.f.f.f.y.y.y.y.f.d.y.d.f.y.f.f.y.y.y.y.y.y.7.;.:.5.7.;.:.;.:.:.5.5.;.;.5.;.;.-.;.-.*.*.*.$.$.$.*.*.$.$.#.#...#.#.#...#...| | | | | ' ' | ' ` ' | ` ( ( ( / / E / E T E T T U G G D D D S Z V m z k k a y 0 9 < s.s.s.s.s.s.s.s.s.s.s.s.s.s.s.s.s.s.s.s.s.s.s.s.s.s.s.s.s.s.s.s.s.s.s.s.s.s.s.s.s.s.s.s.s.s.s.s.s.s.s.s.s.                  o     o o o o O O # > > ; < 1 6 7 9 y y d z h v V C C D J U U Y Y R W Q _ ` [ [ | { { { { { | | | | | | ....X.$.X.X.X.X.$.$.$.$.$.$.$.$.X.....| [ [ ` W Q Y U D C V M v z z z z M Z D U Y E E ( ` ` ` ` ` W W ( W ( ( ( W W ` [ X.$. . .E | 7.8.[ X.z.f.d.f.7.5.5.2.=.=.E X.U Z G T G D S Y `  . .{ D s.s.s.s.s.s.s.s.s.s.s.s.s.s.s.s.s.s.s.s.s.s.s.",
"s.s.s.s.s.s.s.s.s.s.s.s.s.s.s.s.s.s.s.s.s.s.s.s.s.s.s.s.s.s.s.s.s.s.s.s.s.s.s.s.s.s.s.s.s.s.s.s.s.s.s.s.s.s.s.s.s.s.s.s.s.s.s.s.s.s.s.s.s.s.s.s.s.s.s.s.s.s.s.s.s.s.s.s.s.s.s.s.s.s.s.s.s.s.s.s.s.s.s.s.s.s.s.s.s.s.s.s.s.s.s.s.s.#.#.$.$.;.*.*.*.*.*.$.$.-.-.-.-.;.;.:.:.;.:.:.:.:.r.r.r.r.r.r.r.r.r.r.y.d.d.d.d.d.y.y.y.d.d.d.y.y.y.d.d.d.d.d.d.y.d.g.g.g.g.g.g.g.y.g.g.f.d.d.g.g.d.g.g.d.d.g.g.g.g.g.g.f.h.g.g.g.f.g.g.y.g.g.g.g.g.g.g.g.g.g.g.f.g.g.f.g.y.y.d.y.y.g.y.g.g.g.g.g.d.y.y.y.y.y.y.y.g.y.y.y.y.d.y.y.y.r.y.y.y.y.y.y.y.y.d.y.y.y.y.y.y.d.d.y.d.y.d.f.y.d.f.y.y.d.f.y.y.y.y.7.5.;.:.7.7.5.5.:.7.:.;.:.:.;.;.5.;.-.;.;.*.=.$.#.$.$.$.*.$.$.#.#.| #.#.| #.| | | | | | | ' | | | | ' ` ` ( / / E / / / T T T T T U G F F D S A Z V m z k d y y 9 7 1 s.s.s.s.s.s.s.s.s.s.s.s.s.s.s.s.s.s.s.s.s.s.s.s.s.s.s.s.s.s.s.s.s.s.s.s.s.s.s.s.s.s.s.s.s.s.s.s.s.s.s.s.s.s.s.s.s.                            . o O O = - , 1 6 6 0 y d h z v V C D J J U U Y Y Y Y W W [ [ _ [ _ _ [ | [ [ [ [ | | | |  .......X.X.X.X.$.$.X.....X.| | | [ [ [ W Q U U D C Z M z h k k k z M S D G U E E ( W W ` ` W E E Q Q W ( W R ( ` | X.|  .' H *.7.X.` 2.f.7.f.k.5.=.=.=.=.[ ` X.F M D H H F Z Z G Q [ | | s.s.s.s.s.s.s.s.s.s.s.s.s.s.s.s.s.s.s.s.s.s.s.",
"s.s.s.s.s.s.s.s.s.s.s.s.s.s.s.s.s.s.s.s.s.s.s.s.s.s.s.s.s.s.s.s.s.s.s.s.s.s.s.s.s.s.s.s.s.s.s.s.s.s.s.s.s.s.s.s.s.s.s.s.s.s.s.s.s.s.s.s.s.s.s.s.s.s.s.s.s.s.s.s.s.s.s.s.s.s.s.s.s.s.s.s.s.s.s.s.s.s.s.s.s.s.s.s.s.s.s.s.s.s.s.s...#.$.$.*.*.*.*.;.*.*.$.$.-.-.;.:.;.;.:.;.;.;.:.:.:.y.y.r.:.r.r.r.r.r.r.y.y.d.y.d.d.d.d.g.d.d.y.y.d.d.y.y.d.d.g.d.d.g.g.h.h.g.g.g.g.g.g.f.g.g.g.g.g.g.g.g.g.g.g.g.g.g.d.g.g.f.g.g.g.g.g.g.y.g.g.g.g.y.y.g.f.h.g.y.g.g.h.h.f.g.g.g.y.g.g.y.d.f.y.d.g.d.y.y.y.y.r.y.g.g.y.g.g.y.y.y.y.r.r.r.y.y.y.y.y.y.y.y.d.d.y.y.y.y.y.y.f.f.y.y.d.d.y.f.f.y.d.d.y.y.y.y.7.:.:.5.5.5.:.5.;.;.5.5.7.5.;.;.:.;.-.*.*.*.=.$.$.$.$.$.$.$.#.#.#.....#.#...| | | | | | | ' | ' ' ` ` ` ' / / / / / E / T T T T T U G F F D A A Z M z z k d y 0 7 6 s.s.s.s.s.s.s.s.s.s.s.s.s.s.s.s.s.s.s.s.s.s.s.s.s.s.s.s.s.s.s.s.s.s.s.s.s.s.s.s.s.s.s.s.s.s.s.s.s.s.s.s.s.s.s.s.s.s.s.s.s.s.                          X o O = = , 4 6 0 y d z z v V C A D D P U U Y U W Q W W ( ( ( _ _ _ [ [ [ { { [ [ { | .. . ........... .X. . ...| | [ [ ( W Q Y U D A Z V c k f k k z z V S F G G U E E W W W E E E E E E E W R R ( `  . .[ ..R T =.2.` [ 7.7.7.f.0.=.=.=.O.[ R [  .D V F U F D l 0 z S E [ [ W s.s.s.s.s.s.s.s.s.s.s.s.s.s.s.s.s.s.s.s.s.s.",
"s.s.s.s.s.s.s.s.s.s.s.s.s.s.s.s.s.s.s.s.s.s.s.s.s.s.s.s.s.s.s.s.s.s.s.s.s.s.s.s.s.s.s.s.s.s.s.s.s.s.s.s.s.s.s.s.s.s.s.s.s.s.s.s.s.s.s.s.s.s.s.s.s.s.s.s.s.s.s.s.s.s.s.s.s.s.s.s.s.s.s.s.s.s.s.s.s.s.s.s.s.s.s.s.s.s.s.s.s.s.s.#.| #.$.*.=.;.*.*.*.*.*.$.$.;.;.;.;.;.;.:.;.;.;.;.:.r.r.r.r.r.r.r.r.r.r.r.y.y.y.d.g.y.y.y.y.y.d.y.y.d.d.y.y.y.y.d.g.y.y.d.d.g.g.g.h.g.g.d.d.g.g.g.g.g.g.g.g.g.g.g.d.d.g.g.d.g.g.g.g.g.g.g.g.y.y.d.y.d.d.g.f.h.h.d.y.y.g.h.h.h.g.g.y.y.d.y.y.g.y.y.d.g.g.y.y.g.y.y.y.y.g.y.y.g.g.g.y.y.r.y.y.y.y.y.y.y.y.y.y.f.f.d.y.y.y.y.y.y.y.y.y.d.f.f.y.y.d.d.y.y.y.y.y.7.5.5.5.:.5.:.5.;.;.:.5.:.5.5.;.;.;.-.$.*.$.=.$.$.$.$.$.$.$.$.#.#...| ..#...| | | | | | | | | ' ' ` ` ` ` / / / E E E / T T T T T F G F F S A A Z m z k f a y 8 7 4 s.s.s.s.s.s.s.s.s.s.s.s.s.s.s.s.s.s.s.s.s.s.s.s.s.s.s.s.s.s.s.s.s.s.s.s.s.s.s.s.s.s.s.s.s.s.s.s.s.s.s.s.s.s.s.s.s.s.s.s.s.s.s.s.s.s.s.s.                  X o O = , < 6 8 y d f h v M Z A D J J P U U Q Q W W W W W W ( ( _ _ _ [ [ [ [ [ [ [ | | | | ..| | | | |  . .[ ` ` W R Y U F S A V M v f f f k h z m V S D F G T E T E R E U Y T T U U T R T R R ` X.[ [ [ G ' =.$.` =.5.5.5.7.6.=.=.=.=.X.` [ ` m j D G G D Z G n g V T ` [ s.s.s.s.s.s.s.s.s.s.s.s.s.s.s.s.s.s.s.s.s.s.",
"s.s.s.s.s.s.s.s.s.s.s.s.s.s.s.s.s.s.s.s.s.s.s.s.s.s.s.s.s.s.s.s.s.s.s.s.s.s.s.s.s.s.s.s.s.s.s.s.s.s.s.s.s.s.s.s.s.s.s.s.s.s.s.s.s.s.s.s.s.s.s.s.s.s.s.s.s.s.s.s.s.s.s.s.s.s.s.s.s.s.s.s.s.s.s.s.s.s.s.s.s.s.s.s.s.s.s.s.s.s.#.#.$.$.$.*.$.;.*.*.=.*.*.*.*.-.;.;.;.;.;.:.:.;.;.;.:.r.r.r.r.r.r.r.r.r.d.y.d.y.y.y.y.y.y.y.y.d.y.r.d.d.d.y.y.y.y.d.d.d.d.d.d.g.g.g.h.h.C.g.g.g.d.g.g.g.g.g.g.g.g.y.d.g.d.d.d.g.f.f.f.f.g.g.g.g.y.y.y.y.g.f.g.g.g.y.y.y.d.g.g.g.d.d.g.y.y.y.g.g.d.d.g.y.y.d.y.y.y.g.y.y.y.g.y.y.y.r.r.y.y.y.y.:.y.y.y.y.y.y.y.y.f.f.y.y.y.d.y.y.d.f.d.y.y.f.y.y.y.y.y.y.y.y.y.7.5.5.:.:.5.:.5.5.;.;.;.:.;.:.;.;.-.*.*.*.*.$.$.$.$.$.$.$.*.$.$.#.#.......#.#.| | | | | ' | ' | ' ' ` ` ( ( / / E E E E T T T T U F F F F S Z Z V z k k f a y 7 6 s.s.s.s.s.s.s.s.s.s.s.s.s.s.s.s.s.s.s.s.s.s.s.s.s.s.s.s.s.s.s.s.s.s.s.s.s.s.s.s.s.s.s.s.s.s.s.s.s.s.s.s.s.s.s.s.s.s.s.s.s.s.s.s.s.s.s.s.s.s.s.s.s.s.s.s.        X o @ - < 6 8 y y f h v v V C D D D D P U Y Q Q R W W W W ( _ [ [ _ [ [ [ [ [ [ [ [ | |  . .| | [ | [ [ ` _ W Q T U D S V V v h f f d f f z z m V S D F G U T T T E U U U U U U U U T U E E [  .` ` W H X.2.| | =.*.5.6.6.2.O.>.5.2.=. .[ E z z D G G D [ 8.8.X.D D E [ s.s.s.s.s.s.s.s.s.s.s.s.s.s.s.s.s.s.s.s.s.s.",
"s.s.s.s.s.s.s.s.s.s.s.s.s.s.s.s.s.s.s.s.s.s.s.s.s.s.s.s.s.s.s.s.s.s.s.s.s.s.s.s.s.s.s.s.s.s.s.s.s.s.s.s.s.s.s.s.s.s.s.s.s.s.s.s.s.s.s.s.s.s.s.s.s.s.s.s.s.s.s.s.s.s.s.s.s.s.s.s.s.s.s.s.s.s.s.s.s.s.s.s.s.s.s.s.s.s.s.s.s.#.$.*.$.$.$.$.$.;.=.*.=.*.*.*.*.-.-.;.;.;.;.:.r.;.;.;.:.r.:.r.r.r.r.r.y.r.r.r.r.y.r.y.y.y.d.d.g.d.y.d.g.g.g.d.y.g.g.g.g.g.g.g.g.g.g.g.g.h.h.h.h.h.h.g.g.g.g.g.g.g.g.g.g.g.g.d.y.d.y.d.y.y.y.y.y.y.d.y.y.y.y.g.g.g.f.y.y.y.d.d.g.f.i.d.g.y.y.g.g.g.d.d.d.g.d.d.d.f.g.y.y.y.y.y.y.y.y.y.y.y.y.y.y.7.y.y.y.y.y.y.y.y.f.f.y.d.y.y.y.y.y.y.y.y.y.y.y.y.y.y.y.y.y.y.7.y.5.5.5.5.5.;.:.5.:.;.;.;.;.;.;.;.*.;.-.*.*.$.$.$.$.$.$.#.$.$.$.#.#.....#.#...| | | | | | | ' ' ' ` ` ` ( / / / E E E T T T T T U F F F D D A Z V z h j d y 9 9 6 s.s.s.s.s.s.s.s.s.s.s.s.s.s.s.s.s.s.s.s.s.s.s.s.s.s.s.s.s.s.s.s.s.s.s.s.s.s.s.s.s.s.s.s.s.s.s.s.s.s.s.s.s.s.s.s.s.s.s.s.s.s.s.s.s.s.s.s.s.s.s.s.s.s.s.s.s.s.s.s.      O = > 1 7 0 y a f h v M V V A A D J U U Y Y T Y R R Q W ( ( _ _ [ _ [ [ [ [ ` [ [ [ [ [ ( [ [ ` [ W Y Y U D S Z V v v h f d d i d f h z M V S S D P G U G U T U G G G G G G U T T E W  .[ ` ( G W =.X.[ ....=.7.7.2.X.O.4.5.=.2.[ W U z z Z G G S W w.c.B.N.2.R [ s.s.s.s.s.s.s.s.s.s.s.s.s.s.s.s.s.s.s.s.s.s.",
"s.s.s.s.s.s.s.s.s.s.s.s.s.s.s.s.s.s.s.s.s.s.s.s.s.s.s.s.s.s.s.s.s.s.s.s.s.s.s.s.s.s.s.s.s.s.s.s.s.s.s.s.s.s.s.s.s.s.s.s.s.s.s.s.s.s.s.s.s.s.s.s.s.s.s.s.s.s.s.s.s.s.s.s.s.s.s.s.s.s.s.s.s.s.s.s.s.s.s.s.s.s.s.s.s.s.s.s.| $.=.=.$.*.$.#.$.;.=.=.*.*.*.$.$.-.-.;.;.-.;.:.:.:.r.r.r.r.r.r.r.r.r.y.d.d.y.y.r.y.y.y.y.y.d.y.y.y.d.g.g.d.g.g.g.g.g.d.d.g.g.g.g.g.g.g.g.g.g.g.f.h.g.g.g.g.g.g.g.g.g.g.g.g.g.g.g.g.g.g.g.g.g.y.y.y.y.g.g.g.y.y.g.g.g.d.y.y.d.d.u.d.y.y.g.y.y.g.d.g.f.g.g.g.d.y.y.y.y.y.y.y.y.r.y.y.y.y.y.y.y.y.r.y.y.y.y.y.y.y.y.y.y.y.y.f.f.y.y.y.y.y.d.y.y.y.y.y.y.y.y.y.y.y.y.7.5.7.7.7.5.;.;.:.5.:.;.;.;.;.;.;.*.*.*.*.*.$.#.$.$.$.#.#.#.$.$.$.#.....#...| | | ' ' ' ' ' ' ' ' ` ` ( ( / / E E E E T T T T U G F F F D S Z Z M z h d a y 7 6 6 s.s.s.s.s.s.s.s.s.s.s.s.s.s.s.s.s.s.s.s.s.s.s.s.s.s.s.s.s.s.s.s.s.s.s.s.s.s.s.s.s.s.s.s.s.s.s.s.s.s.s.s.s.s.s.s.s.s.s.s.s.s.s.s.s.s.s.s.s.s.s.s.s.s.s.s.s.s.s.s.s.s.s.  o O = , 2 8 0 d f f h v v V V C A D J J U P U U Y Y Q R R W ( ( ( _ [ ` ` ` ` ` ` ` ( ( ` W W R Q Y U F A M v v h f y y y y y d d h z V V Z A D F G G G U G P P F F D D D U U U U ( [ W W T G  .=. .| X...;.7.5... .2.6.6.2.2.` ` D d z Z D D B Q w.x.E.E.N.M.5.2.s.s.s.s.s.s.s.s.s.s.s.s.s.s.s.s.s.s.s.s.s.",
"s.s.s.s.s.s.s.s.s.s.s.s.s.s.s.s.s.s.s.s.s.s.s.s.s.s.s.s.s.s.s.s.s.s.s.s.s.s.s.s.s.s.s.s.s.s.s.s.s.s.s.s.s.s.s.s.s.s.s.s.s.s.s.s.s.s.s.s.s.s.s.s.s.s.s.s.s.s.s.s.s.s.s.s.s.s.s.s.s.s.s.s.s.s.s.s.s.s.s.s.s.s.s.s.s.s.s.| #.$.*.=.=.$.$.$.$.=.=.=.*.$.*.*.*.-.-.;.;.;.;.:.:.r.r.r.r.y.r.r.y.r.r.y.y.d.d.d.d.d.y.y.d.y.y.d.d.d.d.d.d.d.d.g.g.g.g.g.g.g.g.g.g.d.g.g.g.d.y.d.g.g.g.g.g.d.d.g.d.g.g.d.d.g.h.g.g.d.g.g.g.g.y.y.g.g.g.g.g.g.d.y.y.y.g.g.g.d.y.y.d.d.y.i.y.y.y.g.g.f.g.g.g.g.y.y.y.y.y.y.r.y.y.y.y.y.y.y.y.y.y.y.y.y.y.y.y.y.y.y.y.y.y.y.y.y.f.y.y.y.y.y.y.y.y.y.y.y.y.y.y.y.y.y.y.y.y.7.5.:.5.;.;.;.;.;.;.;.*.-.;.;.;.*.*.;.*.$.$.$.$.$.$.$.#.#.#.#.#.......| | ' ' ' ' ' ' ' ' ' ` ` ( ( ( / E E E E E T T U T U G F F F S Z V V z z k d a 0 9 1 s.s.s.s.s.s.s.s.s.s.s.s.s.s.s.s.s.s.s.s.s.s.s.s.s.s.s.s.s.s.s.s.s.s.s.s.s.s.s.s.s.s.s.s.s.s.s.s.s.s.s.s.s.s.s.s.s.s.s.s.s.s.s.s.s.s.s.s.s.s.s.s.s.s.s.s.s.s.s.s.s.s.s.s.s.s.    o = , 1 7 0 y y f f h h M V Z S D D D D P U Y Y Y Y R W R W W ( ( W W W W W W R W W Q Q T U P D Z M h f f a y y 0 0 y y a d h z v V C Z Z D D F D D D D D D D D D D G U U U ` W E E T ( =.O.`  .[ ..=.5.$.[ 2.q.8.6.2.$.E ( M 0 k V S S S 2.f.n.E.E.N.N.M.f.s.s.s.s.s.s.s.s.s.s.s.s.s.s.s.s.s.s.s.s.s.",
"s.s.s.s.s.s.s.s.s.s.s.s.s.s.s.s.s.s.s.s.s.s.s.s.s.s.s.s.s.s.s.s.s.s.s.s.s.s.s.s.s.s.s.s.s.s.s.s.s.s.s.s.s.s.s.s.s.s.s.s.s.s.s.s.s.s.s.s.s.s.s.s.s.s.s.s.s.s.s.s.s.s.s.s.s.s.s.s.s.s.s.s.s.s.s.s.s.s.s.s.s.s.s.s.s.s.s.#.#.*.;.*.*.*.$.$.$.*.$.$.*.*.-.;.;.-.-.;.;.;.;.;.:.:.7.r.r.y.y.y.y.r.y.r.r.d.g.g.d.d.d.y.d.y.y.d.g.g.g.g.g.g.g.g.g.g.g.g.g.g.g.g.d.g.g.g.d.g.d.d.d.g.g.h.g.g.g.g.g.g.d.d.d.d.g.d.g.g.g.g.f.h.f.g.g.g.d.y.d.g.g.f.d.y.g.g.y.y.y.y.y.y.y.y.y.y.y.y.d.g.g.g.g.g.y.y.y.y.y.y.r.r.y.r.r.y.y.y.y.y.y.d.f.y.y.7.y.y.y.y.y.y.y.y.y.y.y.d.d.y.y.y.y.y.d.y.y.y.y.y.y.y.y.y.y.7.5.5.:.:.:.:.;.;.;.:.;.;.;.;.;.;.-.*.;.;.;.#.#.#.#.#.#.#.#.#.#.#.#.#.....| | | | | | ' ' ` ` ' ` ' ` ( ( ( ( / R E E T T T U U P F D D Z A Z M z z j d y 0 6 < s.s.s.s.s.s.s.s.s.s.s.s.s.s.s.s.s.s.s.s.s.s.s.s.s.s.s.s.s.s.s.s.s.s.s.s.s.s.s.s.s.s.s.s.s.s.s.s.s.s.s.s.s.s.s.s.s.s.s.s.s.s.s.s.s.s.s.s.s.s.s.s.s.s.s.s.s.s.s.s.s.s.s.s.s.s.s.s.      O - < 4 e e y y d f h v V Z C A D J J U U U Y Y R Q Q R R R R Q R Q Q Q Y T T T U U U S Z v h f a y y 9 9 9 9 0 y y d f h z m V V Z S S S D D S D S S S S D D U U U E W R U W G [ X.| ` | ` X.$.2.` =.h.f.7.6.=.[ U Q f 6 z Z S Z z 2.f.n.E.].B.K.N.N.n.s.s.s.s.s.s.s.s.s.s.s.s.s.s.s.s.s.s.s.s.",
"s.s.s.s.s.s.s.s.s.s.s.s.s.s.s.s.s.s.s.s.s.s.s.s.s.s.s.s.s.s.s.s.s.s.s.s.s.s.s.s.s.s.s.s.s.s.s.s.s.s.s.s.s.s.s.s.s.s.s.s.s.s.s.s.s.s.s.s.s.s.s.s.s.s.s.s.s.s.s.s.s.s.s.s.s.s.s.s.s.s.s.s.s.s.s.s.s.s.s.s.s.s.s.s.s.s.$.#.#.*.*.*.*.$.*.$.*.$.$.*.*.-.-.;.;.;.-.-.;.;.;.:.y.:.7.r.r.r.y.r.y.y.y.y.y.d.d.g.g.d.d.d.y.r.d.d.d.g.g.g.h.g.g.g.g.g.g.g.g.g.g.g.d.g.g.g.d.d.g.h.g.g.g.f.g.g.g.g.g.g.g.d.y.d.d.g.g.h.h.g.g.h.f.f.f.g.g.d.g.g.g.f.d.y.y.g.f.g.y.y.y.y.y.y.y.y.y.y.y.d.d.y.d.d.y.y.y.y.y.y.r.r.y.y.y.y.y.y.y.y.y.y.f.y.y.y.y.y.y.y.y.y.y.y.y.y.7.y.y.y.y.y.y.y.y.y.y.y.y.y.y.7.7.y.y.7.:.:.:.:.:.:.:.;.;.:.;.;.;.;.;.;.;.*.*.*.*.#.#.$.#.#.#.......#.#.#.....| | | ' ' | ' ' ' ` ` ( ( ` ( ( ( ( ( R / E T T T T P P P F D D Z A Z M m k j d y 9 6 s.s.s.s.s.s.s.s.s.s.s.s.s.s.s.s.s.s.s.s.s.s.s.s.s.s.s.s.s.s.s.s.s.s.s.s.s.s.s.s.s.s.s.s.s.s.s.s.s.s.s.s.s.s.s.s.s.s.s.s.s.s.s.s.s.s.s.s.s.s.s.s.s.s.s.s.s.s.s.s.s.s.s.s.s.s.s.s.s.s.s.    X o o - 1 1 5 8 0 y f h v v V C A D J J J P U U U U Y Y T T Y Y T Y Y Y U U U P D A V M k a y 8 8 8 7 7 8 7 7 0 y d d k z z m M V V V V S Z Z Z Z Z Z S D D D F U E T U T E E  . .W ` / ` =.2.| ' 5.0.h.f.6.X.( W U y 9 z Z S V U 2.u.N.K.K.E.E.N.n.N.p.K s.s.s.s.s.s.s.s.s.s.s.s.s.s.s.s.s.s.",
"s.s.s.s.s.s.s.s.s.s.s.s.s.s.s.s.s.s.s.s.s.s.s.s.s.s.s.s.s.s.s.s.s.s.s.s.s.s.s.s.s.s.s.s.s.s.s.s.s.s.s.s.s.s.s.s.s.s.s.s.s.s.s.s.s.s.s.s.s.s.s.s.s.s.s.s.s.s.s.s.s.s.s.s.s.s.s.s.s.s.s.s.s.s.s.s.s.s.s.s.s.s.s.s.s.X.$.=.=.*.$.$.$.$.$.*.*.$.$.*.;.-.;.;.;.-.;.;.;.;.;.:.r.:.:.r.r.r.r.r.y.r.y.y.y.d.y.g.g.d.d.d.d.y.g.d.d.d.d.d.d.g.g.g.g.g.g.g.g.d.g.d.g.g.g.g.d.y.g.g.g.g.h.g.g.g.h.h.g.g.d.d.d.d.d.d.g.g.g.f.h.h.g.f.h.g.g.d.d.y.g.g.d.y.y.y.y.f.d.y.y.f.d.y.y.y.y.y.y.g.y.y.y.y.y.y.y.y.y.y.y.y.i.y.y.y.y.y.r.y.y.y.f.y.y.y.y.y.y.y.y.y.y.y.y.y.y.y.y.y.y.7.y.y.y.y.y.y.y.7.y.7.7.y.y.7.:.:.:.:.:.:.;.;.;.:.;.;.;.;.;.;.;.*.*.*.$.$.$.$.#.#.#...#.| | #.....| | ' ' ' ' | | ' ' ` ` ( ( ` ( ( ( ( ( ( ( E T T T T U F F D D S A A Z v z d d 0 0 7 1 s.s.s.s.s.s.s.s.s.s.s.s.s.s.s.s.s.s.s.s.s.s.s.s.s.s.s.s.s.s.s.s.s.s.s.s.s.s.s.s.s.s.s.s.s.s.s.s.s.s.s.s.s.s.s.s.s.s.s.s.s.s.s.s.s.s.s.s.s.s.s.s.s.s.s.s.s.s.s.s.s.s.s.s.s.s.s.s.s.s.s.s.s.        o O = < 7 7 0 a d f f v v V Z A D J D D D J P U U U Y Y U U U P P J D Z V v h d y 9 8 7 6 6 6 7 7 8 9 8 0 y d j f z k z z z n V V V V V V V V Z A D D F U Q T U T U [ X.` U W ( X.=...R =.d.h.k.f.2.[ U Y V 7 y m V V l G 2.f.N.E.E.K.B.N.N.N.c.c.3.s.s.s.s.s.s.s.s.s.s.s.s.s.s.s.s.s.",
"s.s.s.s.s.s.s.s.s.s.s.s.s.s.s.s.s.s.s.s.s.s.s.s.s.s.s.s.s.s.s.s.s.s.s.s.s.s.s.s.s.s.s.s.s.s.s.s.s.s.s.s.s.s.s.s.s.s.s.s.s.s.s.s.s.s.s.s.s.s.s.s.s.s.s.s.s.s.s.s.s.s.s.s.s.s.s.s.s.s.s.s.s.s.s.s.s.s.s.s.s.s.s.s.#.*.*.=.$.$.$.$.$.*.$.$.$.$.*.*.*.-.;.;.:.:.;.;.;.:.;.r.r.7.:.r.r.r.r.r.r.r.y.y.y.d.y.d.g.y.r.y.d.d.g.g.d.g.d.g.g.g.g.g.g.g.g.d.d.d.d.d.g.g.g.g.d.y.d.d.d.g.d.g.h.g.g.g.g.g.d.d.d.d.d.d.g.g.g.f.f.f.g.g.h.f.g.d.g.d.g.g.y.y.d.g.g.g.f.g.f.g.g.g.g.y.y.y.y.g.g.y.i.y.y.y.y.y.y.y.y.y.y.y.y.y.y.y.y.y.y.y.f.y.y.y.y.y.y.7.y.y.y.7.y.7.y.y.7.y.y.y.y.y.y.y.y.y.y.7.y.y.y.y.7.7.7.:.:.-.:.:.:.:.:.;.;.;.-.;.;.;.;.;.*.*.$.*.$.#.#.#.#...| #.....| | | | | | ' ' | ' ' ' ` ` ( ( ( ( ( ( E ( ( ( T U U T T P F F D D Z A Z M z h d a 0 9 7 6 s.s.s.s.s.s.s.s.s.s.s.s.s.s.s.s.s.s.s.s.s.s.s.s.s.s.s.s.s.s.s.s.s.s.s.s.s.s.s.s.s.s.s.s.s.s.s.s.s.s.s.s.s.s.s.s.s.s.s.s.s.s.s.s.s.s.s.s.s.s.s.s.s.s.s.s.s.s.s.s.s.s.s.s.s.s.s.s.s.s.s.s.s.s.s.      X o O = , 4 7 0 y y f h h v v M C A A D D J J J J P J J J D D C C M h f d y 9 7 6 4 1 4 1 1 4 6 6 7 7 7 0 y a d d d f k k h z z v z h v M V V Z D D P U Q U U T E X.[ E T E ..*.$.E | 7.h.h.u.5.X.W F U j 6 d M V B z ..2.u.N.N.E.N.N.N.E.M.n.x._.9.s.s.s.s.s.s.s.s.s.s.s.s.s.s.s.s.",
"s.s.s.s.s.s.s.s.s.s.s.s.s.s.s.s.s.s.s.s.s.s.s.s.s.s.s.s.s.s.s.s.s.s.s.s.s.s.s.s.s.s.s.s.s.s.s.s.s.s.s.s.s.s.s.s.s.s.s.s.s.s.s.s.s.s.s.s.s.s.s.s.s.s.s.s.s.s.s.s.s.s.s.s.s.s.s.s.s.s.s.s.s.s.s.s.a.s.s.s.s.s.s.X.$.-.*.=.=.*.#.$.*.*.$.*.*.$.*.*.*.;.;.:.:.;.;.;.;.;.;.r.r.y.y.y.y.y.r.r.y.r.y.d.y.y.y.d.d.d.y.y.d.d.g.g.d.d.d.g.g.d.d.d.d.g.d.d.d.d.d.d.g.d.d.d.d.d.g.d.d.g.g.d.g.d.d.g.d.g.d.d.d.d.d.g.g.h.g.i.d.g.d.d.f.h.g.g.g.g.d.g.g.y.y.y.g.g.g.y.g.f.g.g.g.g.y.y.g.g.d.y.d.d.y.y.y.y.y.y.y.y.y.y.y.y.y.y.y.y.y.y.d.y.y.y.y.y.y.7.7.y.7.y.y.y.7.y.y.y.7.y.y.y.y.y.y.y.y.7.7.y.y.y.y.7.7.y.:.-.:.-.-.:.;.;.;.;.;.;.;.;.-.*.*.$.*.$.$.$.#.#.#.#.| ..#.....| | | | | ' ' | ' ` ' ` ' ( ( ` ` ( ( / R R E E T T T G P F F D D S Z V M z k a y 0 7 6 s.s.s.s.s.s.s.s.s.s.s.s.s.s.s.s.s.s.s.s.s.s.s.s.s.s.s.s.s.s.s.s.s.s.s.s.s.s.s.s.s.s.s.s.s.s.s.s.s.s.s.s.s.s.s.s.s.s.s.s.s.s.s.s.s.s.s.s.s.s.s.s.s.s.s.s.s.s.s.s.s.s.s.s.s.s.s.s.s.s.s.s.s.s.s.s.s.s.          o = , 2 7 9 y y s f h h v M M V V C C C C C C C V M v h f f a 0 9 7 6 < < , , , < < 1 1 4 6 6 7 7 9 9 0 0 y y a a d d d f j f z m M V Z Z D F T T G E U [ $.( F E ` =.;.` / 2.y.f.u.8.=.( P D C 0 0 j B z m g X.6.8.x.N.N.E.K.N.N.M.c.x.x.'.s.s.s.s.s.s.s.s.s.s.s.s.s.s.s.s.",
"s.s.s.s.s.s.s.s.s.s.s.s.s.s.s.s.s.s.s.s.s.s.s.s.s.s.s.s.s.s.s.s.s.s.s.s.s.s.s.s.s.s.s.s.s.s.s.s.s.s.s.s.s.s.s.s.s.s.s.s.s.s.s.s.s.s.s.s.s.s.s.s.s.s.s.s.s.s.s.s.s.s.s.s.s.s.s.s.s.s.s.s.s.s.s.s.s.s.s.s.s.s.$.$.*.-.*.*.=.#.#.$.$.*.$.$.*.$.*.$.;.;.;.:.:.;.;.;.;.;.;.r.r.y.r.r.y.y.r.r.y.y.y.d.d.g.d.d.g.d.y.d.d.d.d.d.d.d.d.d.g.d.d.d.d.g.d.d.d.d.d.d.d.d.y.d.g.g.g.g.g.d.g.g.g.d.d.g.d.d.d.d.d.d.g.g.g.h.g.g.g.f.g.y.g.g.g.d.g.f.h.g.y.y.y.y.y.y.y.g.y.d.y.y.y.y.d.y.g.y.y.y.g.y.y.y.y.y.r.y.y.y.y.y.y.y.y.y.y.y.y.y.y.y.y.y.7.y.y.y.y.y.y.y.y.y.y.7.y.y.y.y.y.y.y.y.y.y.y.7.7.7.7.y.y.7.7.7.:.:.:.;.;.-.;.;.;.;.;.;.*.;.;.*.$.$.*.$.$.#.$...#.#.| | ....| | | #.| ' | ' | ' ' ` ( ` ( ( ` ( ( ( / / E E T T U T G F F F D Z Z Z V m z d a 0 9 7 < s.s.s.s.s.s.s.s.s.s.s.s.s.s.s.s.s.s.s.s.s.s.s.s.s.s.s.s.s.s.s.s.s.s.s.s.s.s.s.s.s.s.s.s.s.s.s.s.s.s.s.s.s.s.s.s.s.s.s.s.s.s.s.s.s.s.s.s.s.s.s.s.s.s.s.s.s.s.s.s.s.s.s.s.s.s.s.s.s.s.s.s.s.s.s.s.s.s.s.        X o & > 1 6 7 0 0 y a f f f h h h h h z h h h h f f d y 0 9 6 4 < , , - - = - , , , , , < < 1 4 4 6 6 7 7 7 9 9 0 0 y y a a d z z m V Z A D U Y D G T E X.[ P G ` $.;.*.E #.7.y.h.u.2.[ U Z S f < 0 z m z d Z 2.8.x.c.N.N.N.N.n.N.N.N.x.x.x.].s.s.s.s.s.s.s.s.s.s.s.s.s.s.s.",
"s.s.s.s.s.s.s.s.s.s.s.s.s.s.s.s.s.s.s.s.s.s.s.s.s.s.s.s.s.s.s.s.s.s.s.s.s.s.s.s.s.s.s.s.s.s.s.s.s.s.s.s.s.s.s.s.s.s.s.s.s.s.s.s.s.s.s.s.s.s.s.s.s.s.s.s.s.s.s.s.s.s.s.s.s.s.s.s.s.s.s.s.s.s.s.s.s.s.s.s.s.s.$.*.$.$.$.$.$.#.$.$.$.$.$.$.$.*.*.*.;.;.;.:.:.:.;.;.;.;.:.r.r.y.y.y.r.y.r.r.y.y.y.d.d.g.d.g.g.d.g.g.g.d.d.d.d.g.h.g.g.g.g.g.g.g.d.g.y.d.g.d.d.y.y.d.g.d.d.d.d.g.g.g.g.g.g.g.d.g.y.d.y.d.d.d.g.g.g.f.g.f.g.g.g.g.g.g.g.g.h.g.y.y.y.y.y.y.y.y.y.d.d.d.y.y.g.y.g.y.y.d.y.y.d.y.y.y.y.y.y.d.y.y.y.y.y.r.y.y.y.y.y.y.y.y.y.y.y.y.u.y.7.7.7.7.y.7.y.y.y.y.y.y.y.y.y.y.y.y.7.7.7.7.7.:.:.:.:.:.;.:.:.;.;.;.;.;.;.-.-.-.;.*.$.$.$.$.$.#.#.#.#.#.#.| | #.| | | | | ' ' ' ' ' ( ` ` ` ( ( ` ( ( ( / R E E T T U U U F F F D Z Z Z M z h d y 0 7 6 s.s.s.s.s.s.s.s.s.s.s.s.s.s.s.s.s.s.s.s.s.s.s.s.s.s.s.s.s.s.s.s.s.s.s.s.s.s.s.s.s.s.s.s.s.s.s.s.s.s.s.s.s.s.s.s.s.s.s.s.s.s.s.s.s.s.s.s.s.s.s.s.s.s.s.s.s.s.s.s.s.s.s.s.s.s.s.s.s.s.s.s.s.s.s.s.s.s.s.s.s.s.      o O = > , 1 4 6 7 8 9 y y y y y a a a a y y y y 8 7 6 1 < , = = & = = = = = = = = - = , , , 1 < < < < 1 4 6 7 6 7 7 0 0 0 y j z z V V Z D U F D T T `  .W D W $.:.;.( ` >.7.y.7.=.| U z S M 7 7 d m l j a W 2.6.x.x.n.N.N.N.N.c.c.c.x.f.f.N.].s.s.s.s.s.s.s.s.s.s.s.s.s.s.",
"s.s.s.s.s.s.s.s.s.s.s.s.s.s.s.s.s.s.s.s.s.s.s.s.s.s.s.s.s.s.s.s.s.s.s.s.s.s.s.s.s.s.s.s.s.s.s.s.s.s.s.s.s.s.s.s.s.s.s.s.s.s.s.s.s.s.s.s.s.s.s.s.s.s.s.s.s.s.s.s.s.s.s.s.s.s.s.s.s.s.s.s.s.s.s.s.s.s.s.s.s.#.*.$.$.$.$.$.*.*.#.#.$.$.#.$.$.*.*.;.;.;.;.:.:.:.;.;.:.;.:.r.r.y.y.r.r.y.r.r.y.y.y.y.g.g.d.g.g.g.g.g.g.g.d.d.g.g.g.g.g.g.g.g.g.g.d.d.d.d.d.d.d.d.d.d.d.d.d.d.d.d.g.g.g.g.g.g.d.d.d.y.y.y.d.d.g.f.g.g.h.f.f.f.f.g.g.g.g.d.d.g.d.y.y.y.g.g.d.r.y.d.d.g.y.y.y.y.d.y.y.g.y.y.d.y.y.y.y.y.y.d.y.y.:.y.y.y.y.y.y.y.y.y.y.y.y.7.7.y.y.y.7.7.y.7.7.y.y.y.y.y.y.y.y.y.7.7.y.y.:.7.7.7.7.:.:.:.:.:.:.;.;.;.;.;.;.;.;.;.;.;.*.*.*.*.$.$.#.#.#.#.#.| #.| | | | | | | | ' ' ' ' ` ' ' ( ( ( ( ( ( ( / / R E R T T U U G F F F S Z Z V M z k a 0 8 6 < s.s.s.s.s.s.s.s.s.s.s.s.s.s.s.s.s.s.s.s.s.s.s.s.s.s.s.s.s.s.s.s.s.s.s.s.s.s.s.s.s.s.s.s.s.s.s.s.s.s.s.s.s.s.s.s.s.s.s.s.s.s.s.s.s.s.s.s.s.s.s.s.s.s.s.s.s.s.s.s.s.s.s.s.s.s.s.s.s.s.s.s.s.s.s.s.s.s.s.s.s.s.s.s.        o O = , , < < < 2 6 7 7 8 8 7 7 7 6 6 1 < , - = % & o O o o o O O O o o o o O & & = = - > > ; , : < < < 4 6 6 8 0 9 0 a k z M V Z D F Z F U T [ ` F U | ;.;.' H *.7.7.;.=. .E v Z D y < 9 j l j q y ! 1.8.x.x.n.n.n.N.c.x.x.c.x.f.f.x.`.s.s.s.s.s.s.s.s.s.s.s.s.s.s.",
"s.s.s.s.s.s.s.s.s.s.s.s.s.s.s.s.s.s.s.s.s.s.s.s.s.s.s.s.s.s.s.s.s.s.s.s.s.s.s.s.s.s.s.s.s.s.s.s.s.s.s.s.s.s.s.s.s.s.s.s.s.s.s.s.s.s.s.s.s.s.s.s.s.s.s.s.s.s.s.s.s.s.s.s.s.s.s.s.s.s.s.s.s.s.s.s.s.s.s.s.*.*.$.$.$.$.$.#.$.$.$.*.*.$.$.$.*.*.*.;.;.;.;.:.;.:.;.:.r.:.r.r.r.r.r.r.r.d.y.y.y.y.y.d.d.d.d.d.g.d.d.g.g.d.g.g.d.d.g.g.g.g.g.g.g.g.g.g.d.g.d.d.d.g.y.y.d.d.d.d.g.g.g.g.g.g.g.y.g.d.g.d.d.g.g.g.d.g.g.g.h.g.h.h.g.h.h.g.d.y.i.g.g.y.y.y.d.y.y.d.y.y.d.d.d.d.d.g.d.y.y.d.y.y.y.y.y.y.y.y.y.y.y.r.r.r.y.y.y.y.y.y.y.y.y.y.y.y.7.y.y.y.7.7.y.y.y.y.7.7.7.y.y.7.y.y.7.7.y.7.5.:.;.:.5.5.:.:.;.:.:.;.;.:.;.;.;.;.;.*.;.;.;.$.*.*.$.$.$.#.#...| #.#.| | | | | | | | ' ' ' ' ' ' ' ( ( ( ( ( ( / / / / E E T T U G G F F D A A A Z z k j d 0 7 5 1 s.s.s.s.s.s.s.s.s.s.s.s.s.s.s.s.s.s.s.s.s.s.s.s.s.s.s.s.s.s.s.s.s.s.s.s.s.s.s.s.s.s.s.s.s.s.s.s.s.s.s.s.s.s.s.s.s.s.s.s.s.s.s.s.s.s.s.s.s.s.s.s.s.s.s.s.s.s.s.s.s.s.s.s.s.s.s.s.s.s.s.s.s.s.s.s.s.s.s.s.s.s.s.s.s.s.+     o o O O # # > - = - - > > > - - - - = = O o X o +                           o O O = = = = & = = - , , < 1 4 4 7 9 y y k z z M Z D A V D F Q ( T S W $.=...G ..;.;.=.X.[ R V B F h < 4 0 g g d 7 Z { 2.8.8.x.n.N.N.M.c.c.x.c.x.x.u.f.n.].s.s.s.s.s.s.s.s.s.s.s.s.s.",
"s.s.s.s.s.s.s.s.s.s.s.s.s.s.s.s.s.s.s.s.s.s.s.s.s.s.s.s.s.s.s.s.s.s.s.s.s.s.s.s.s.s.s.s.s.s.s.s.s.s.s.s.s.s.s.s.s.s.s.s.s.s.s.s.s.s.s.s.s.s.s.s.s.s.s.s.s.s.s.s.s.s.s.s.s.s.s.s.s.s.s.s.s.s.s.s.s.s.s.$.;.*.*.*.*.$.$.$.$.$.*.*.#.$.$.*.;.*.-.-.;.-.;.;.-.:.;.r.r.;.y.r.r.r.r.r.r.r.y.y.y.y.y.d.d.g.g.g.g.d.d.g.g.d.g.g.g.g.g.g.g.g.g.g.g.g.g.d.d.d.g.d.d.g.d.d.d.d.d.d.g.d.g.g.d.g.d.d.d.g.g.g.g.d.y.g.g.g.g.d.g.g.h.g.g.g.g.g.y.y.y.g.d.y.d.y.y.d.y.y.y.y.y.y.y.y.y.y.d.g.d.y.y.y.y.y.y.y.y.y.y.r.y.y.y.y.y.r.r.y.y.y.y.y.y.y.y.7.7.7.7.7.7.7.y.7.y.y.y.y.y.y.y.y.7.y.y.7.7.7.7.:.;.:.:.:.;.;.;.;.-.;.-.-.*.;.-.;.;.*.;.-.*.$.*.*.$.$.$.#.#.| | #.#.| | | | | | | | ' ' ' ' ' ' ` ( ( ( ( ( ( E E E E T T E T U G F F F S Z Z Z V z z j a 9 7 < s.s.s.s.s.s.s.s.s.s.s.s.s.s.s.s.s.s.s.s.s.s.s.s.s.s.s.s.s.s.s.s.s.s.s.s.s.s.s.s.s.s.s.s.s.s.s.s.s.s.s.s.s.s.s.s.s.s.s.s.s.s.s.s.s.s.s.s.s.s.s.s.s.s.s.s.s.s.s.s.s.s.s.s.s.s.s.s.s.s.s.s.s.s.s.s.s.s.s.s.s.s.s.s.s.s.s.s.s.s.O O   . +         X o   X X   X                                               . o o o o o o o & = = - ; : < 1 6 8 0 y f k z B Z V V V D P Q Y S G X.X. .G ( =.;.=. .[ E V Z E m 7 ; 6 q g j d y Y o.4.8.w.x.x.x.N.M.N.c.c.c.x.x.x.8.x.N.s.s.s.s.s.s.s.s.s.s.s.s.s.",
"s.s.s.s.s.s.s.s.s.s.s.s.s.s.s.s.s.s.s.s.s.s.s.s.s.s.s.s.s.s.s.s.s.s.s.s.s.s.s.s.s.s.s.s.s.s.s.s.s.s.s.s.s.s.s.s.s.s.s.s.s.s.s.s.s.s.s.s.s.s.s.s.s.s.s.s.s.s.s.s.s.s.s.s.s.s.s.s.s.s.s.s.s.s.s.s.s.s.$.*.-.$.*.*.$.$.$.$.$.*.*.$.$.$.*.*.;.;.-.*.-.-.;.;.-.;.:.:.:.r.r.r.r.r.r.r.r.y.y.y.r.r.y.d.d.d.d.d.d.g.g.g.g.g.d.g.g.g.g.g.g.g.g.g.g.g.d.y.d.d.d.d.y.d.d.d.g.d.d.d.g.d.d.g.d.d.d.d.d.g.d.h.g.g.g.g.g.g.d.g.g.h.g.g.g.y.y.g.d.y.y.g.d.y.g.d.i.g.g.d.d.y.y.y.y.y.y.y.d.d.y.y.y.y.y.y.y.y.y.d.y.r.y.y.y.y.r.r.y.y.7.y.y.y.y.y.y.5.7.y.7.7.5.5.7.7.y.y.y.7.5.7.7.7.y.y.y.7.5.5.7.:.:.:.:.:.;.;.;.;.;.;.;.-.*.;.;.;.;.;.-.-.$.*.*.$.$.$.$.#.#...| ....| | | | | | | | ' ' ' ' ' ' ( ( ( ( ( ( / T E E E T T T T U G F D D D S Z Z m z f d y 9 4 < s.s.s.s.s.s.s.s.s.s.s.s.s.s.s.s.s.s.s.s.s.s.s.s.s.s.s.s.s.s.s.s.s.s.s.s.s.s.s.s.s.s.s.s.s.s.s.s.s.s.s.s.s.s.s.s.s.s.s.s.s.s.s.s.s.s.s.s.s.s.s.s.s.s.s.s.s.s.s.s.s.s.s.s.s.s.s.s.s.s.s.s.s.s.s.s.s.s.s.s.s.s.s.s.s.s.s.s.s.s.s.s.s.s.s.s.O O O o                                                                     X X o o o & = = ; < 1 6 7 9 y d j j M V V V V D U Q D S `  . .T T $.=.=. .| W F B ( S y : : 9 w w l 9 v _  .2.8.x.x.x.x.N.N.N.N.x.x.x.x.x.8.u.c.].s.s.s.s.s.s.s.s.s.s.s.s.",
"s.s.s.s.s.s.s.s.s.s.s.s.s.s.s.s.s.s.s.s.s.s.s.s.s.s.s.s.s.s.s.s.s.s.s.s.s.s.s.s.s.s.s.s.s.s.s.s.s.s.s.s.s.s.s.s.s.s.s.s.s.s.s.s.s.s.s.s.s.s.s.s.s.s.s.s.s.s.s.s.s.s.s.s.s.s.s.s.s.s.s.s.s.s.s.s.s.s.$.=.#.*.*.$.$.$.$.$.$.$.*.$.$.$.;.;.*.;.;.-.-.;.;.;.;.:.:.:.r.r.y.y.r.r.r.r.r.y.d.d.y.d.d.y.y.y.y.y.y.g.g.g.g.d.g.g.g.g.g.g.g.g.g.g.g.g.g.g.d.g.d.d.d.d.d.g.g.g.g.d.d.d.d.d.d.y.d.g.d.g.g.h.h.g.d.g.g.d.d.d.d.g.g.g.g.y.y.g.y.y.y.y.g.y.y.d.d.y.d.g.d.y.y.y.d.y.y.y.d.y.y.y.y.y.y.y.y.y.y.y.y.y.y.y.y.y.r.y.y.y.7.y.y.y.y.y.y.y.y.y.y.y.7.7.7.y.y.y.y.7.7.7.7.y.y.7.7.7.7.5.:.;.5.:.;.;.;.;.;.;.;.;.;.;.;.;.;.;.;.;.-.*.$.*.$.$.$.$.$.#.#...| #...| | | | | | | ' ' ' ' ' ' ' ( ( ( ( ( ( / E E E T T T T U G F F D D A A C V z h d y 0 7 < s.s.s.s.s.s.s.s.s.s.s.s.s.s.s.s.s.s.s.s.s.s.s.s.s.s.s.s.s.s.s.s.s.s.s.s.s.s.s.s.s.s.s.s.s.s.s.s.s.s.s.s.s.s.s.s.s.s.s.s.s.s.s.s.s.s.s.s.s.s.s.s.s.s.s.s.s.s.s.s.s.s.s.s.s.s.s.s.s.s.s.s.s.s.s.s.s.s.s.s.s.s.s.s.s.s.s.s.s.s.s.s.s.s.s.s.s.s.s.s.s.s.s.s.s.s.s.s.s.s.s.s.r r r O +                                         X X o O O = - , < 6 7 9 9 y d f M m m V Z D U D V U [  .E G | #.$... .[ T Z [ Y d 1 = 6 0 w g a 6 A { ,.4.8.x.x.x.x.x.b.x.x.x.x.x.x.x.x.f.x._.s.a.s.a.s.s.s.s.s.s.s.s.",
"s.s.s.s.s.s.s.s.s.s.s.s.s.s.s.s.s.s.s.s.s.s.s.s.s.s.s.s.s.s.s.s.s.s.s.s.s.s.s.s.s.s.s.s.s.s.s.s.s.s.s.s.s.s.s.s.s.s.s.s.s.s.s.s.s.s.s.s.s.s.s.s.s.s.s.s.s.s.s.s.s.s.s.s.s.s.s.s.s.s.s.s.s.s.s.s.s.=.*.#.$.$.$.$.$.$.#.$.$.#.$.$.*.*.*.-.;.-.;.-.:.-.;.;.;.:.:.r.r.r.r.r.r.d.d.y.d.y.d.y.g.g.d.d.g.d.d.d.d.d.g.d.d.g.g.g.g.g.g.g.g.d.g.g.g.g.g.h.g.g.d.d.d.d.g.g.g.g.g.g.g.d.d.d.d.d.d.g.d.d.g.g.g.g.d.d.d.d.y.d.g.g.g.g.g.y.y.y.g.y.y.y.d.y.y.d.g.y.y.d.d.d.y.i.f.g.d.y.y.d.y.y.y.y.y.y.y.y.y.y.y.y.y.y.r.r.y.r.y.y.y.y.y.y.y.y.y.y.y.y.y.y.y.y.y.y.y.5.7.y.5.7.7.7.y.y.7.7.7.:.5.:.5.5.;.;.;.;.;.;.;.;.;.;.-.;.;.;.*.*.*.-.*.$.$.#.$.$.#.#...| | #.#...| | | | ' ' ' ' ' ' ` ` ' ' ( ( ( ( ( / E E E T T T T U G F F D S A Z V M k k d y 9 7 5 s.s.s.s.s.s.s.s.s.s.s.s.s.s.s.s.s.s.s.s.s.s.s.s.s.s.s.s.s.s.s.s.s.s.s.s.s.s.s.s.s.s.s.s.s.s.s.s.s.s.s.s.s.s.s.s.s.s.s.s.s.s.s.s.s.s.s.s.s.s.s.s.s.s.s.s.s.s.s.s.s.s.s.s.s.s.s.s.s.s.s.s.s.s.s.s.s.s.s.s.s.s.s.s.s.s.s.s.s.s.s.s.s.s.s.s.s.s.s.s.s.s.s.s.s.s.s.s.s.s.s.s.s.s.s.s.s.s.1 +                                   X X o o & = = : < 4 7 7 9 y d h z z z V Z D G V D [ [ R S `  .....X.{ W Z E E f 7 , < 6 0 d j 0 y R { <.3.8.x.x.x.x.x.f.x.x.x.x.x.x.x.x.f.u.c.s.s.s.s.s.s.s.s.s.s.s.s.",
"s.s.s.s.s.s.s.s.s.s.s.s.s.s.s.s.s.s.s.s.s.s.s.s.s.s.s.s.s.s.s.s.s.s.s.s.s.s.s.s.s.s.s.s.s.s.s.s.s.s.s.s.s.s.s.s.s.s.s.s.s.s.s.s.s.s.s.s.s.s.s.s.s.s.s.s.s.s.s.s.s.s.s.s.s.s.s.s.s.s.s.s.s.s.s.s.2.;.*.#.#.$.$.$.$.$.#.$.#.$.$.*.*.;.*.*.;.-.;.;.;.;.;.;.;.r.:.:.r.r.r.r.y.y.y.y.y.d.g.d.y.g.d.d.g.d.g.g.g.g.g.g.g.g.g.g.g.g.h.g.g.g.g.h.g.g.g.h.g.g.g.g.g.g.g.g.d.g.g.g.g.d.d.d.g.d.d.g.d.g.g.g.d.g.g.g.g.g.d.d.d.d.g.g.g.g.g.g.y.y.y.y.y.y.y.d.y.y.y.y.y.y.y.y.y.y.y.y.y.y.y.y.y.y.y.g.y.y.y.y.y.y.y.y.y.y.y.y.y.y.y.y.y.y.y.y.7.y.y.y.y.y.y.y.y.7.7.y.7.y.y.7.5.5.y.y.7.7.7.5.5.5.;.:.;.;.-.-.;.;.;.;.*.;.;.;.;.;.;.*.*.-.*.*.*.*.$.#.#.#.| ..#.| ..| | | | | ' ' ' ' ' ' ' ` ' ` ( ( / / ( / E E E T T T T U G G F D S Z Z V v k k a 0 7 < 1 s.s.s.s.s.s.s.s.s.s.s.s.s.s.s.s.s.s.s.s.s.s.s.s.s.s.s.s.s.s.s.s.s.s.s.s.s.s.s.s.s.s.s.s.s.s.s.s.s.s.s.s.s.s.s.s.s.s.s.s.s.s.s.s.s.s.s.s.s.s.s.s.s.s.s.s.s.s.s.s.s.s.s.s.s.s.s.s.s.s.s.s.s.s.s.s.s.s.s.s.s.s.s.s.s.s.s.s.s.s.s.s.s.s.s.s.s.s.s.s.s.s.s.s.s.s.s.s.s.s.s.s.s.s.s.s.s.s.s.s.s.r 1                           X o o o o & = = ; , < 4 7 8 0 y d d d k z V V V V E W R Z U [  .X.$.X.[ G U ( m 7 : = 6 0 d g d 6 V ! { ,.3.8.x.x.x.x.x.f.f.f.f.f.f.x.x.x.f.u.x.c.s.s.s.s.s.s.s.s.s.s.s.",
"s.s.s.s.s.s.s.s.s.s.s.s.s.s.s.s.s.s.s.s.s.s.s.s.s.s.s.s.s.s.s.s.s.s.s.s.s.s.s.s.s.s.s.s.s.s.s.s.s.s.s.s.s.s.s.s.s.s.s.s.s.s.s.s.s.s.s.s.s.s.s.s.s.s.s.s.s.s.s.s.s.s.s.s.s.s.s.s.s.s.s.s.s.s.s.$.$.*.$.#.#.$.$.$.$.#.#.#.#.$.$.*.*.-.*.*.-.;.;.;.;.;.;.;.:.r.:.:.r.r.r.y.y.y.r.r.y.d.d.y.d.d.d.d.g.g.g.g.g.g.g.g.g.g.g.h.h.h.h.h.g.g.h.h.g.g.g.h.g.g.g.g.g.g.h.g.g.g.g.g.g.d.d.d.d.d.d.g.d.g.d.g.g.g.g.g.d.d.d.g.g.d.d.d.d.y.y.y.y.y.y.y.d.y.y.y.y.y.y.y.y.y.y.y.y.y.y.y.y.y.y.d.y.y.y.y.d.y.y.y.y.y.y.y.y.y.y.y.y.y.y.y.f.y.y.y.7.y.7.7.y.y.y.5.7.7.5.7.:.7.y.7.5.5.7.y.7.7.5.5.:.5.:.5.7.;.;.;.;.;.;.*.$.;.;.;.;.;.;.-.;.*.$.$.$.$.$.#.#.@.....#.| | | | | | | ' ' ' ' ` ' ' ` ' ' ( ( / ( / / E E E T T T T U G F F D S A V M z k d y 9 6 1 s.s.s.s.s.s.s.s.s.s.s.s.s.s.s.s.s.s.s.s.s.s.s.s.s.s.s.s.s.s.s.s.s.s.s.s.s.s.s.s.s.s.s.s.s.s.s.s.s.s.s.s.s.s.s.s.s.s.s.s.s.s.s.s.s.s.s.s.s.s.s.s.s.s.s.s.s.s.s.s.s.s.s.s.s.s.s.s.s.s.s.s.s.s.s.s.s.s.s.s.s.s.s.s.s.s.s.s.s.s.s.s.s.s.s.s.s.s.s.s.s.s.s.s.s.s.s.s.s.s.s.s.s.s.s.s.s.s.s.s.s.s.s.s.s.> +                       X X o o o @ = ; : < < 4 6 7 0 y 0 y d j f k z S U U S Z E ` |  .X.| G S W V 0 4 = : 6 0 d d 0 7 D R { 2.3.8.x.x.x.x.x.x.u.u.u.u.u.f.x.f.f.f.p.n.s.s.s.s.s.s.s.s.s.s.s.",
"s.s.s.s.s.s.s.s.s.s.s.s.s.s.s.s.s.s.s.s.s.s.s.s.s.s.s.s.s.s.s.s.s.s.s.s.s.s.s.s.s.s.s.s.s.s.s.s.s.s.s.s.s.s.s.s.s.s.s.s.s.s.s.s.s.s.s.s.s.s.s.s.s.s.s.s.s.s.s.s.s.s.s.s.s.s.s.s.s.s.s.s.s.s.X.#.$.$.$.*.#.$.$.$.$.#.#.#.#.$.$.*.*.*.*.-.;.;.;.;.;.;.:.:.;.r.:.:.r.y.y.y.y.d.y.y.y.y.d.d.g.g.g.g.g.g.h.g.g.g.g.g.g.g.h.h.h.h.h.h.g.g.g.g.g.g.g.g.g.g.g.g.g.g.g.g.g.d.g.g.g.y.d.d.d.d.y.d.d.g.d.g.g.g.d.d.d.d.d.g.g.d.g.d.d.y.y.y.y.y.y.y.y.d.y.y.y.y.y.y.d.y.y.y.y.y.d.y.y.g.y.y.y.y.y.y.y.y.y.y.y.y.y.y.y.y.y.y.y.y.y.y.d.y.y.y.y.y.7.7.7.y.y.7.7.7.7.:.;.7.7.7.5.5.7.y.7.5.5.5.:.;.:.;.;.5.:.;.;.;.;.*.*.;.;.;.;.;.-.-.*.$.$.$.$.$.$.#.#.#...| #.| | | | | | | | ' ' ' ( ` ' ` ' ' ( ( ( ( / / E E E T T U U G G F F S S Z V v h k a 0 7 4 6 s.s.s.s.s.s.s.s.s.s.s.s.s.s.s.s.s.s.s.s.s.s.s.s.s.s.s.s.s.s.s.s.s.s.s.s.s.s.s.s.s.s.s.s.s.s.s.s.s.s.s.s.s.s.s.s.s.s.s.s.s.s.s.s.s.s.s.s.s.s.s.s.s.s.s.s.s.s.s.s.s.s.s.s.s.s.s.s.s.s.s.s.s.s.s.s.s.s.s.s.s.s.s.s.s.s.s.s.s.s.s.s.s.s.s.s.s.s.s.s.s.s.s.s.s.s.s.s.s.s.s.s.s.s.s.s.s.s.s.s.s.s.s.s.s.s.s.>                     X X X o o o % = = ; : 4 4 6 7 7 7 0 9 y a d z Z V V V G U W | [ [ G B G z 0 8 - = 6 0 a d d 6 d Y ! { 2.4.8.9.x.x.x.x.f.u.u.8.8.u.f.8.8.u.u.8.c.s.s.s.s.s.s.s.s.s.s.s.",
"s.s.s.s.s.s.s.s.s.s.s.s.s.s.s.s.s.s.s.s.s.s.s.s.s.s.s.s.s.s.s.s.s.s.s.s.s.s.s.s.s.s.s.s.s.s.s.s.s.s.s.s.s.s.s.s.s.s.s.s.s.s.s.s.s.s.s.s.s.s.s.s.s.s.s.s.s.s.s.s.s.s.s.s.s.s.s.s.s.s.s.s.s.$.$.$.$.$.$.$.$.$.-.$.#.$.#.#.#.*.*.*.-.*.;.;.:.;.;.;.;.;.:.:.r.r.r.r.y.y.y.y.r.d.y.y.y.d.g.g.g.g.g.g.g.g.g.g.g.g.g.g.h.h.g.g.g.h.g.g.g.g.g.g.g.g.g.g.g.g.g.g.g.g.g.g.g.g.g.d.d.y.d.d.d.d.d.d.d.g.g.g.g.g.y.y.d.g.g.h.g.y.r.r.y.i.y.y.y.y.y.y.y.y.d.y.y.y.y.d.f.g.g.y.y.y.y.y.f.g.y.y.y.y.y.d.d.d.y.y.y.y.y.y.y.y.y.y.y.y.y.y.y.y.f.y.y.y.7.7.y.y.7.7.5.7.y.7.5.5.5.7.7.7.7.7.5.:.:.:.;.5.:.;.-.5.5.5.;.;.;.*.*.*.;.;.;.;.-.;.$.$.*.*.$.#.#.#.#.#.#.| ..#.| | | | #.| | ' ' ' ' ' ' ` ` ` ( ( / E E E E E E E T U U G F F D S S Z V z k f a 9 7 < s.s.s.s.s.s.s.s.s.s.s.s.s.s.s.s.s.s.s.s.s.s.s.s.s.s.s.s.s.s.s.s.s.s.s.s.s.s.s.s.s.s.s.s.s.s.s.s.s.s.s.s.s.s.s.s.s.s.s.s.s.s.s.s.s.s.s.s.s.s.s.s.s.s.s.s.s.s.s.s.s.s.s.s.s.s.s.s.s.s.s.s.s.s.s.s.s.s.s.s.s.s.s.s.s.s.s.s.s.s.s.s.s.s.s.s.s.s.s.s.s.s.s.s.s.s.s.s.s.s.s.s.s.s.s.a.s.s.s.s.s.s.s.s.s.s.s.s.s.1                       X o o o & % * = - < < 1 1 < 6 7 7 0 y f h h h V P U G E ` R S B T m y y < O 1 7 9 0 0 7 6 V Y _  .2.4.8.9.f.w.w.u.w.8.8.8.8.8.8.8.8.8.8.8.p.s.s.s.s.s.s.s.s.s.s.s.",
"s.s.s.s.s.s.s.s.s.s.s.s.s.s.s.s.s.s.s.s.s.s.s.s.s.s.s.s.s.s.s.s.s.s.s.s.s.s.s.s.s.s.s.s.s.s.s.s.s.s.s.s.s.s.s.s.s.s.s.s.s.s.s.s.s.s.s.s.s.s.s.s.s.s.s.s.s.s.s.s.s.s.s.s.s.s.s.s.s.s.s.s.1.$.$.*.$.$.$.#.#.$.$.$.#.#.$.$.$.*.-.*.;.;.;.;.;.;.;.;.;.;.:.r.r.r.r.r.y.r.y.y.y.d.y.y.d.g.g.g.g.h.g.g.g.g.h.h.h.h.h.h.h.h.h.h.h.h.g.g.g.g.g.g.g.g.g.g.g.g.g.g.g.g.g.g.g.g.g.g.g.d.g.g.d.g.g.g.g.g.g.g.g.g.g.g.g.f.g.g.d.r.r.r.y.y.y.y.y.y.y.y.y.y.i.y.d.y.y.y.y.f.u.y.y.y.y.y.d.y.y.y.y.y.y.y.y.y.y.y.y.y.d.f.d.y.y.y.y.y.y.y.y.y.y.y.y.y.y.y.y.5.5.7.5.5.y.y.7.7.5.7.7.7.7.5.:.:.5.:.;.5.5.;.-.;.:.5.:.;.;.-.*.*.*.;.;.*.*.;.*.$.*.*.$.#.#.#.#.@.@.| ........| | ..| | ' ' ' ` ` ' ` ` ` / / / E E E E T T E T G P G F F D A A C M z j d y 7 5 < s.s.s.s.s.s.s.s.s.s.s.s.s.s.s.s.s.s.s.s.s.s.s.s.s.s.s.s.s.s.s.s.s.s.s.s.s.s.s.s.s.s.s.s.s.s.s.s.s.s.s.s.s.s.s.s.s.s.s.s.s.s.s.s.s.s.s.s.s.s.s.s.s.s.s.s.s.s.s.s.s.s.s.s.s.s.s.s.s.s.s.s.s.s.s.s.s.s.s.s.s.s.s.s.s.s.s.s.s.s.s.s.s.s.s.s.s.s.s.s.s.s.s.s.s.s.s.s.s.s.s.s.s.s.s.s.s.s.s.s.s.s.s.s.s.s.s.s.s.s.s.                      X o o o o O * = = ; ; : < < 6 7 0 y d f f V D S D T T G V z Y m 0 y < o - 6 0 0 0 0 1 y K Y [ { <.3.8.8.8.8.8.8.8.8.8.8.8.8.8.8.8.6.7.6.8.s.s.s.s.s.s.s.s.s.s.s.",
"s.s.s.s.s.s.s.s.s.s.s.s.s.s.s.s.s.s.s.s.s.s.s.s.s.s.s.s.s.s.s.s.s.s.s.s.s.s.s.s.s.s.s.s.s.s.s.s.s.s.s.s.s.s.s.s.s.s.s.s.s.s.s.s.s.s.s.s.s.s.s.s.s.s.s.s.s.s.s.s.s.s.s.s.s.s.s.s.s.s.s.s.X.$.$.*.$.$.#.#.#.*.#.#.$.#.$.*.*.;.;.*.;.;.;.;.;.;.;.;.;.:.:.r.r.r.r.r.r.r.y.y.y.d.g.g.g.d.g.g.g.g.g.f.f.h.h.h.h.h.h.g.g.g.h.h.h.h.g.g.g.g.g.g.g.g.g.g.g.g.g.g.g.g.g.g.g.g.g.g.g.g.g.g.g.g.g.g.g.g.f.g.g.g.g.g.d.g.g.g.g.d.g.y.y.y.y.i.d.y.y.f.d.d.d.y.y.y.g.d.y.y.y.y.y.y.y.y.y.d.u.y.y.y.y.y.y.y.y.d.y.y.y.y.y.y.y.y.y.y.y.y.y.y.y.y.y.y.y.y.y.y.7.y.5.:.y.y.7.y.7.7.7.5.:.:.5.:.;.;.:.;.:.:.;.;.;.7.7.;.-.;.*.*.;.;.;.;.*.;.*.$.*.*.$.#.$.*.#.@...@.@.| | | | | | | | ' ' ' ' ` ` ' ( ( / / / E E E E T T T U G F F F F D Z Z V M z j d 0 7 4 7 s.s.s.s.s.s.s.s.s.s.s.s.s.s.s.s.s.s.s.s.s.s.s.s.s.s.s.s.s.s.s.s.s.s.s.s.s.s.s.s.s.s.s.s.s.s.s.s.s.s.s.s.s.s.s.s.s.s.s.s.s.s.s.s.s.s.s.s.s.s.s.s.s.s.s.s.s.s.s.s.s.s.s.s.s.s.s.s.s.s.s.s.s.s.s.s.s.s.s.s.s.s.s.s.s.s.s.s.s.s.s.s.s.s.s.s.s.s.s.s.s.s.s.s.s.s.s.s.s.s.s.s.s.s.s.s.s.s.s.s.s.s.s.s.s.s.s.s.s.s.s.s.                  . X o o o o o o * * = = - : < 4 6 7 0 d f v S V h V D V z S D z 0 0 4 o % < 6 0 9 0 6 1 v J Y ! { X.3.4.6.6.8.8.6.8.8.8.8.8.8.8.8.6.6.5.2.9.s.s.s.s.s.s.s.s.s.s.s.",
"s.s.s.s.s.s.s.s.s.s.s.s.s.s.s.s.s.s.s.s.s.s.s.s.s.s.s.s.s.s.s.s.s.s.s.s.s.s.s.s.s.s.s.s.s.s.s.s.s.s.s.s.s.s.s.s.s.s.s.s.s.s.s.s.s.s.s.s.s.s.s.s.s.s.s.s.s.s.s.s.s.s.s.s.s.s.s.s.s.s.s.$.$.=.$.*.$.#.$.$.$.*.$.$.$.#.$.*.*.;.-.-.;.;.;.;.;.:.:.:.r.:.r.r.y.r.r.y.y.y.d.d.y.d.d.d.g.g.g.g.g.g.g.f.g.g.f.h.h.h.g.g.g.g.h.h.g.g.g.g.g.h.h.h.h.g.g.g.g.g.g.g.g.g.g.g.g.g.g.g.g.g.g.g.g.g.g.g.g.h.f.g.g.g.g.d.y.d.y.g.g.y.y.y.r.r.y.y.d.d.y.d.y.d.y.i.i.y.d.y.y.y.y.y.y.y.y.y.y.y.y.y.y.y.y.y.y.y.y.d.d.y.y.f.y.y.f.f.y.y.y.y.y.y.y.y.y.y.y.y.7.7.7.y.5.5.5.7.7.y.7.7.7.5.;.;.5.5.;.;.:.;.;.:.:.;.;.;.:.;.;.*.*.*.*.*.;.;.*.;.;.$.*.*.$.#.$.$.#.#.@.#.@.| | | | | | | | | ' ' ' ` ` ` ( ( / / / E E E E T T T U G F F F D D Z Z V z h j a 9 6 1 s.s.s.s.s.s.s.s.s.s.s.s.s.s.s.s.s.s.s.s.s.s.s.s.s.s.s.s.s.s.s.s.s.s.s.s.s.s.s.s.s.s.s.s.s.s.s.s.s.s.s.s.s.s.s.s.s.s.s.s.s.s.s.s.s.s.s.s.s.s.s.s.s.s.s.s.s.s.s.s.s.s.s.s.s.s.s.s.s.s.s.s.s.s.s.s.s.s.s.s.s.s.s.s.s.s.s.s.s.s.s.s.s.s.s.s.s.s.s.s.s.s.s.s.s.s.s.s.s.s.s.s.s.s.s.s.s.s.s.s.s.s.s.s.s.s.s.s.s.s.s.s.s.s.                  X X o o o o o o % * * = - : < 6 7 0 a k z z V V z j l S S v d e 1 o X = 4 6 7 8 7 < y V D Y ! { X.2.3.4.4.3.3.4.3.8.6.8.8.6.6.6.6.5.5.4.6.s.s.s.s.s.s.s.s.s.s.s.",
"s.s.s.s.s.s.s.s.s.s.s.s.s.s.s.s.s.s.s.s.s.s.s.s.s.s.s.s.s.s.s.s.s.s.s.s.s.s.s.s.s.s.s.s.s.s.s.s.s.s.s.s.s.s.s.s.s.s.s.s.s.s.s.s.s.s.s.s.s.s.s.s.s.s.s.s.s.s.s.s.s.s.s.s.s.s.s.s.s.s.$.$.$.$.*.*.$.$.$.$.$.*.$.$.$.$.$.*.*.;.;.;.:.;.;.;.;.;.:.:.:.r.r.r.y.r.y.y.y.y.d.d.y.d.y.d.g.g.h.h.f.h.f.h.h.g.g.h.h.g.g.g.h.h.g.g.g.g.h.h.g.g.h.h.h.g.g.g.g.g.g.g.g.g.g.g.g.g.g.g.g.g.g.g.g.g.g.g.g.g.g.g.g.f.g.g.g.g.g.g.g.d.y.y.y.y.y.y.y.d.i.y.d.y.y.y.y.y.d.y.y.y.y.y.y.y.d.y.y.y.y.y.y.y.y.y.y.y.y.y.d.d.y.f.f.y.y.d.y.y.y.y.y.y.y.y.y.y.7.7.7.7.5.7.5.7.7.7.7.y.7.7.7.5.:.:.:.:.:.;.;.;.-.;.;.:.;.-.;.;.*.*.*.*.*.*.*.*.;.;.*.$.*.$.$.#.#.$.#.#.#.@.....| | | | | ' ' ' ' ' ' ( ` ` ( ( / / / T E E E T T T U G F F D D D V V M z k d y 7 4 < s.s.s.s.s.s.s.s.s.s.s.s.s.s.s.s.s.s.s.s.s.s.s.s.s.s.s.s.s.s.s.s.s.s.s.s.s.s.s.s.s.s.s.s.s.s.s.s.s.s.s.s.s.s.s.s.s.s.s.s.s.s.s.s.s.s.s.s.s.s.s.s.s.s.s.s.s.s.s.s.s.s.s.s.s.s.s.s.s.s.s.s.s.s.s.s.s.s.s.s.s.s.s.s.s.s.s.s.s.s.s.s.s.s.s.s.s.s.s.s.s.s.s.s.s.s.s.s.s.s.s.s.s.s.s.s.s.s.s.s.s.s.s.s.s.s.s.s.s.s.s.s.s.s.s.+               o o o o o o o o o o * = ; < 4 4 7 y a f j y j j z V S Z z y 6 > o   & , 1 6 6 7 4 6 f Z D Y ! {  .<.2.3.3.3.3.3.4.4.3.6.6.6.4.3.4.2.2.2.3.s.s.s.s.s.s.s.s.s.s.s.",
"s.s.s.s.s.s.s.s.s.s.s.s.s.s.s.s.s.s.s.s.s.s.s.s.s.s.s.s.s.s.s.s.s.s.s.s.s.s.s.s.s.s.s.s.s.s.s.s.s.s.s.s.s.s.s.s.s.s.s.s.s.s.s.s.s.s.s.s.s.s.s.s.s.s.s.s.s.s.s.s.s.s.s.s.s.s.s.s.s.$.$.$.$.$.*.*.$.$.$.$.$.*.$.$.#.*.*.*.;.;.;.;.:.:.:.:.;.;.;.:.r.r.r.y.y.y.y.y.y.y.y.y.y.d.d.d.g.g.h.g.h.h.f.f.h.g.h.h.h.g.g.g.h.g.g.g.g.h.h.h.h.g.h.h.h.h.g.g.g.g.h.h.g.g.g.g.g.g.h.g.g.g.g.g.g.g.g.g.g.g.g.g.g.f.g.g.g.g.d.g.g.g.g.y.y.i.y.y.y.y.y.d.d.d.y.y.y.y.y.y.y.y.:.y.y.y.y.y.y.y.y.y.y.y.y.y.y.y.y.y.y.y.y.y.y.y.y.d.y.y.y.y.y.y.y.y.y.y.7.5.5.7.7.:.7.y.7.7.7.y.7.7.7.5.:.;.5.:.:.;.;.;.;.;.;.;.;.;.;.;.;.*.*.*.;.*.*.*.;.*.$.$.*.$.$.@.#.#.#.#.#.@.@...| | | | | ' ' ' ' ' ' ( ` ` ( ( / / E E E E E T T T U G F F D S Z V V M z k a 0 7 1 s.s.s.s.s.s.s.s.s.s.s.s.s.s.s.s.s.s.s.s.s.s.s.s.s.s.s.s.s.s.s.s.s.s.s.s.s.s.s.s.s.s.s.s.s.s.s.s.s.s.s.s.s.s.s.s.s.s.s.s.s.s.s.s.s.s.s.s.s.s.s.s.s.s.s.s.s.s.s.s.s.s.s.s.s.s.s.s.s.s.s.s.s.s.s.s.s.s.s.s.s.s.s.s.s.s.s.s.s.s.s.s.s.s.s.s.s.s.s.s.s.s.s.s.s.s.s.s.s.s.s.s.s.s.s.s.s.s.s.s.s.s.s.s.s.s.s.s.s.s.s.s.s.s.s.s.s.s.            X o o o o o o o % * = = : < 4 6 7 8 9 0 0 9 a j z z z d 7 < = o o o - , < 6 6 6 , y v Z L Q ^ {  .X.,.<.<.<.<.2.3.3.4.4.5.6.4.3.2.2.X.1.3.s.s.s.s.s.s.s.s.s.s.s.",
"s.s.s.s.s.s.s.s.s.s.s.s.s.s.s.s.s.s.s.s.s.s.s.s.s.s.s.s.s.s.s.s.s.s.s.s.s.s.s.s.s.s.s.s.s.s.s.s.s.s.s.s.s.s.s.s.s.s.s.s.s.s.s.s.s.s.s.s.s.s.s.s.s.s.s.s.s.s.s.s.s.s.s.s.s.s.s.s.[ #.*.*.$.$.*.*.$.$.$.$.$.*.$.$.*.*.-.;.;.;.;.;.:.;.;.;.;.r.r.r.r.y.y.y.y.y.d.d.y.y.y.y.y.d.g.g.g.g.h.h.h.h.h.h.h.g.h.l.h.h.h.h.h.g.g.g.g.g.g.h.h.h.g.g.g.h.h.h.h.g.h.h.g.g.g.g.g.g.h.h.g.g.g.g.g.g.g.g.g.g.g.g.g.g.g.g.g.g.d.g.g.g.g.y.r.y.y.i.y.y.y.d.y.y.d.y.y.y.y.y.y.y.:.:.y.y.y.y.y.y.y.y.y.y.y.y.y.y.y.y.y.y.y.y.y.y.y.y.y.y.y.y.y.y.y.y.y.7.7.7.y.y.5.:.7.y.y.7.7.7.5.5.7.y.:.;.:.5.:.;.;.;.;.;.;.;.-.;.;.;.;.;.*.$.;.*.*.*.*.;.$.$.*.$.$.#.#.@.@.#.#.@.#.@.| | | | ' | ' ' ' ` ' ( ` ` ( ( / / E E E E E T T T U F F F S Z Z Z M z z j q 0 7 , s.s.s.s.s.s.s.s.s.s.s.s.s.s.s.s.s.s.s.s.s.s.s.s.s.s.s.s.s.s.s.s.s.s.s.s.s.s.s.s.s.s.s.s.s.s.s.s.s.s.s.s.s.s.s.s.s.s.s.s.s.s.s.s.s.s.s.s.s.s.s.s.s.s.s.s.s.s.s.s.s.s.s.s.s.s.s.s.s.s.s.s.s.s.s.s.s.s.s.s.s.s.s.s.s.s.s.s.s.s.s.s.s.s.s.s.s.s.s.s.s.s.s.s.s.s.s.s.s.s.s.s.s.s.s.s.s.s.s.s.s.s.s.s.s.s.s.s.s.s.s.s.s.s.s.s.s.s.s.          X o o o o o @ * * = = ; - , 1 < 6 7 7 9 y f M D D Z h y - o X . o , ; < 4 7 8 , < f v C L E ^ { { o.X.X.X.X.X.,.,.<.2.2.2.2.2.2.$.X.X.2.,.s.s.s.s.s.s.s.s.s.s.s.",
"s.s.s.s.s.s.s.s.s.s.s.s.s.s.s.s.s.s.s.s.s.s.s.s.s.s.s.s.s.s.s.s.s.s.s.s.s.s.s.s.s.s.s.s.s.s.s.s.s.s.s.s.s.s.s.s.s.s.s.s.s.s.s.s.s.s.s.s.s.s.s.s.s.s.s.s.s.s.s.s.s.s.s.s.s.s.s.s.$.$.$.$.$.*.*.=.*.$.$.$.$.$.$.*.*.*.;.;.;.;.;.;.:.;.;.;.;.r.r.r.r.y.y.y.y.r.y.d.d.y.y.y.d.d.g.g.g.g.h.h.g.h.h.h.h.g.h.h.h.l.h.h.h.h.h.h.h.h.h.h.h.h.h.h.g.g.h.h.h.g.h.h.g.g.g.g.g.g.g.g.g.g.g.g.g.g.g.g.g.g.g.g.g.g.g.g.g.g.g.d.d.g.g.y.y.y.y.i.g.y.y.y.y.y.d.y.d.y.y.d.y.y.y.y.y.y.y.y.y.y.y.y.y.y.y.y.y.y.y.y.y.y.y.y.y.y.y.y.y.y.y.y.y.y.y.y.y.7.5.5.7.7.7.5.:.:.7.y.7.7.7.7.5.7.7.;.;.5.5.:.:.;.;.;.;.;.-.*.;.;.*.;.*.;.*.$.$.$.$.*.$.*.*.$.$.#.#...#.#.@.@.@.#.| | | | | | ' ' ' ' ' ( ` ` ( ( / / E E E T E T T U G G F D S Z Z V m z z j 0 7 1 7 s.s.s.s.s.s.s.s.s.s.s.s.s.s.s.s.s.s.s.s.s.s.s.s.s.s.s.s.s.s.s.s.s.s.s.s.s.s.s.s.s.s.s.s.s.s.s.s.s.s.s.s.s.s.s.s.s.s.s.s.s.s.s.s.s.s.s.s.s.s.s.s.s.s.s.s.s.s.s.s.s.s.s.s.s.s.s.s.s.s.s.s.s.s.s.s.s.s.s.s.s.s.s.s.s.s.s.s.s.s.s.s.s.s.s.s.s.s.s.s.s.s.s.s.s.s.s.s.s.s.s.s.s.s.s.s.s.s.s.s.s.s.s.s.s.s.s.s.s.s.s.s.s.s.s.s.s.s.s.s.+       X o o o % * = = = = ; ; : , < , 1 7 7 0 d h v n z 0 < = X     o = ; : < 2 7 2 > 7 i z Z D Y W [ { o.{ { o. . .o.X.o.X.X.1.1.X.X. .{  .o.o.s.s.s.s.s.s.s.s.s.s.s.",
"s.s.s.s.s.s.s.s.s.s.s.s.s.s.s.s.s.s.s.s.s.s.s.s.s.s.s.s.s.s.s.s.s.s.s.s.s.s.s.s.s.s.s.s.s.s.s.s.s.s.s.s.s.s.s.s.s.s.s.s.s.s.s.s.s.s.s.s.s.s.s.s.s.s.s.s.s.s.s.s.s.s.s.s.s.s.s.X.#.$.#.*.=.*.=.$.$.$.$.$.$.*.*.*.*.*.-.;.;.;.;.;.:.;.:.r.r.r.r.r.y.r.y.y.y.r.r.d.d.d.d.d.g.g.g.g.g.g.g.g.h.h.h.h.h.h.l.h.h.h.h.l.h.h.h.l.h.g.h.h.l.h.h.h.h.g.h.g.h.h.h.h.g.h.g.g.g.g.g.g.g.g.g.g.g.g.g.g.g.g.g.g.g.g.f.f.g.g.d.d.y.d.g.d.d.y.y.i.d.y.y.g.f.g.d.y.d.y.y.y.y.y.y.y.y.y.d.y.y.y.y.y.y.y.y.y.y.y.y.y.y.y.y.y.y.y.y.y.y.y.y.y.y.y.y.y.y.7.7.y.y.7.5.7.y.5.:.7.7.7.;.;.5.7.7.:.;.5.7.5.:.-.;.;.*.;.-.*.*.*.*.*.*.;.-.*.*.$.$.*.$.$.*.#.#.@.#.@.@.#.@.@.......| | | | | ' ' ' ` ( ` ( ( ( ( ( / E E E E E T T G U P D D D Z Z V z z k d 0 7 < s.s.s.s.s.s.s.s.s.s.s.s.s.s.s.s.s.s.s.s.s.s.s.s.s.s.s.s.s.s.s.s.s.s.s.s.s.s.s.s.s.s.s.s.s.s.s.s.s.s.s.s.s.s.s.s.s.s.s.s.s.s.s.s.s.s.s.s.s.s.s.s.s.s.s.s.s.s.s.s.s.s.s.s.s.s.s.s.s.s.s.s.s.s.s.s.s.s.s.s.s.s.s.s.s.s.s.s.s.s.s.s.s.s.s.s.s.s.s.s.s.s.s.s.s.s.s.s.s.s.s.s.s.s.s.s.s.s.s.s.s.s.s.s.s.s.s.s.s.s.s.s.s.s.s.s.s.s.s.s.s.s.s.    .   X o * * = = = - - ; , < < < 4 7 7 9 y 8 6 6 1 = &       X o = = ; < , 1 - , 7 y f V D Y R W [ { { { { { { { {  . .X.X.X.X.o.[ [ { { Y s.s.s.s.s.s.s.s.s.s.s.",
"s.s.s.s.s.s.s.s.s.s.s.s.s.s.s.s.s.s.s.s.s.s.s.s.s.s.s.s.s.s.s.s.s.s.s.s.s.s.s.s.s.s.s.s.s.s.s.s.s.s.s.s.s.s.s.s.s.s.s.s.s.s.s.s.s.s.s.s.s.s.s.s.s.s.s.s.s.s.s.s.s.s.s.s.s.s.X.X.$.*.=.*.$.$.$.$.$.$.$.*.*.*.*.*.-.-.;.;.;.;.;.:.:.:.:.y.r.r.r.r.y.y.y.y.y.y.y.y.y.y.d.d.g.g.g.g.g.g.g.g.h.g.g.l.h.g.g.h.g.h.h.h.l.h.h.h.h.h.h.h.h.h.h.h.g.g.g.g.h.h.h.h.g.g.g.h.f.f.f.f.h.h.h.f.h.f.g.g.g.g.g.g.g.g.f.g.f.g.g.g.g.g.g.g.d.d.d.d.g.y.d.g.g.g.f.y.y.d.d.y.y.y.y.y.y.y.y.y.y.y.y.y.y.y.y.r.y.y.y.7.y.y.y.y.y.y.y.y.y.y.y.y.y.y.y.y.y.7.5.y.y.5.5.7.7.7.5.5.:.5.5.;.;.:.5.:.;.;.;.;.;.;.;.;.$.;.-.*.*.*.;.*.*.;.*.*.*.$.$.*.$.$.#.#.#...#.....@.@.....| | | | ..| ' ' ' ' ` ( ` ` ` ( ( ( ( / E E E E T T G U F F S S Z V M z z k y 9 5 6 s.s.s.s.s.s.s.s.s.s.s.s.s.s.s.s.s.s.s.s.s.s.s.s.s.s.s.s.s.s.s.s.s.s.s.s.s.s.s.s.s.s.s.s.s.s.s.s.s.s.s.s.s.s.s.s.s.s.s.s.s.s.s.s.s.s.s.s.s.s.s.s.s.s.s.s.s.s.s.s.s.s.s.s.s.s.s.s.s.s.s.s.s.s.s.s.s.s.s.s.s.s.s.s.s.s.s.s.s.s.s.s.s.s.s.s.s.s.s.s.s.s.s.s.s.s.s.s.s.s.s.s.s.s.s.s.s.s.s.s.s.s.s.s.s.s.s.s.s.s.s.s.s.s.s.s.s.s.s.s.s.s.s.s.s.o . o o @ * = = = = = - - , < 1 6 6 6 4 1 , > - O o           o % = - , , , @ < 8 y h V S U Q R W W ^ ! ! [ [ [ [ { [ { { { { [ ! ! [ ! s.s.s.s.s.s.s.s.s.s.s.s.",
"s.s.s.s.s.s.s.s.s.s.s.s.s.s.s.s.s.s.s.s.s.s.s.s.s.s.s.s.s.s.s.s.s.s.s.s.s.s.s.s.s.s.s.s.s.s.s.s.s.s.s.s.s.s.s.s.s.s.s.s.s.s.s.s.s.s.s.s.s.s.s.s.s.s.s.s.s.s.s.s.s.s.s.s.s.X.X.$.$.=.=.*.-.$.$.$.$.$.$.$.*.*.*.;.;.;.;.;.;.;.;.:.:.:.:.y.y.:.r.r.y.y.y.y.y.d.d.y.y.g.g.g.g.g.g.g.g.f.h.h.h.g.g.h.h.g.h.h.g.h.h.l.l.h.h.h.h.h.h.h.g.g.h.h.h.g.h.h.g.g.g.h.g.h.g.h.f.g.g.g.f.h.f.f.h.h.g.g.g.g.g.g.g.g.g.g.g.g.d.d.d.g.g.d.d.d.d.d.g.y.y.d.d.d.g.y.y.y.y.y.y.y.y.d.y.y.y.y.y.y.y.y.r.r.y.y.y.y.y.y.y.y.y.y.y.y.y.y.y.y.y.y.y.y.y.y.y.7.5.7.y.5.5.7.7.7.5.5.:.:.5.;.-.;.:.;.;.;.;.;.;.*.;.;.*.*.*.*.*.*.;.*.*.*.;.*.*.*.$.*.$.$.$.$.$.@.#.#...#.....@.| | | | | | ' ' ' ' ' ) ` ` ( ( ( ( ( / E T T E T T G U F D Z Z V V m z k f y 8 5 r s.s.s.s.s.s.s.s.s.s.s.s.s.s.s.s.s.s.s.s.s.s.s.s.s.s.s.s.s.s.s.s.s.s.s.s.s.s.s.s.s.s.s.s.s.s.s.s.s.s.s.s.s.s.s.s.s.s.s.s.s.s.s.s.s.s.s.s.s.s.s.s.s.s.s.s.s.s.s.s.s.s.s.s.s.s.s.s.s.s.s.s.s.s.s.s.s.s.s.s.s.s.s.s.s.s.s.s.s.s.s.s.s.s.s.s.s.s.s.s.s.s.s.s.s.s.s.s.s.s.s.s.s.s.s.s.s.s.s.s.s.s.s.s.s.s.s.s.s.s.s.s.s.s.s.s.s.s.s.s.s.s.s.s.s.s.> + . o o % = = = = = = - > , , > > = = O o             X X o & = - - - * - 2 8 y h v A D U Y Y Y Y Q R R R R W W ! ! ! ! ! R R ! ! K s.s.s.s.s.s.s.s.s.s.s.s.",
"s.s.s.s.s.s.s.s.s.s.s.s.s.s.s.s.s.s.s.s.s.s.s.s.s.s.s.s.s.s.s.s.s.s.s.s.s.s.s.s.s.s.s.s.s.s.s.s.s.s.s.s.s.s.s.s.s.s.s.s.s.s.s.s.s.s.s.s.s.s.s.s.s.s.s.s.s.s.s.s.s.s.s.s.[ $.$.$.;.=.*.*.*.$.$.$.$.$.$.$.*.-.;.;.;.;.;.;.;.;.;.:.:.:.7.y.y.r.r.y.y.y.y.y.y.y.d.d.g.g.g.g.g.g.g.g.g.f.h.h.h.g.g.h.h.g.h.h.h.h.h.h.h.h.l.h.h.h.h.h.h.h.h.g.h.g.h.h.g.g.h.h.g.h.g.h.f.g.f.h.f.h.f.g.h.h.g.f.g.g.h.g.g.g.g.h.f.g.d.d.d.d.d.d.d.d.d.y.d.g.d.y.y.y.d.d.y.y.d.g.y.y.y.y.y.y.y.y.y.y.y.y.y.y.y.r.y.y.y.y.y.y.y.y.y.y.y.y.y.y.y.y.y.y.y.y.y.7.5.5.7.7.7.5.5.7.5.5.:.:.:.;.;.;.5.;.;.;.;.;.;.*.*.;.;.*.$.$.*.*.*.*.;.;.;.*.*.*.$.$.*.$.$.#.#...@.#.@.#.....@.#.| | | | | ' ` ( ' ' ' ` ` ` ( ( ( / / E T T T T T G P D D Z Z V V z z k d y 6 < s.s.s.s.s.s.s.s.s.s.s.s.s.s.s.s.s.s.s.s.s.s.s.s.s.s.s.s.s.s.s.s.s.s.s.s.s.s.s.s.s.s.s.s.s.s.s.s.s.s.s.s.s.s.s.s.s.s.s.s.s.s.s.s.s.s.s.s.s.s.s.s.s.s.s.s.s.s.s.s.s.s.s.s.s.s.s.s.s.s.s.s.s.s.s.s.s.s.s.s.s.s.s.s.s.s.s.s.s.s.s.s.s.s.s.s.s.s.s.s.s.s.s.s.s.s.s.s.s.s.s.s.s.s.s.s.s.s.s.s.s.s.s.s.s.s.s.s.s.s.s.s.s.s.s.s.s.s.s.s.s.s.s.s.s.s.s.s.s.s.+ o   X o o o o O O O O O o o                     X o o = = % * = < : 6 0 i h v V C D J J J U U U Y Y Y Y Y Y Y Y Y Y Y Y R Y s.s.s.s.s.s.s.s.s.s.s.s.s.",
"s.s.s.s.s.s.s.s.s.s.s.s.s.s.s.s.s.s.s.s.s.s.s.s.s.s.s.s.s.s.s.s.s.s.s.s.s.s.s.s.s.s.s.s.s.s.s.s.s.s.s.s.s.s.s.s.s.s.s.s.s.s.s.s.s.s.s.s.s.s.s.s.s.s.s.s.s.s.s.s.s.s.s.R X.=.=.=.=.=.*.*.*.*.$.$.$.$.$.$.*.;.*.-.;.;.;.;.*.;.:.:.:.:.:.:.y.r.y.y.y.y.y.y.y.y.d.d.d.d.g.g.g.g.g.h.h.h.h.h.h.h.h.h.g.h.h.h.h.h.h.l.h.h.h.h.h.h.h.h.h.h.g.h.h.g.h.h.h.h.g.g.h.l.h.h.f.h.h.h.f.f.f.g.f.f.f.f.f.g.h.h.g.g.h.h.g.g.g.g.g.g.d.d.d.d.d.d.d.d.y.y.d.d.y.d.d.y.y.y.y.y.y.y.y.y.y.y.y.y.y.y.y.y.y.r.y.y.y.y.y.y.y.y.y.y.7.y.y.y.y.y.y.y.y.y.y.7.7.7.7.y.5.:.5.7.7.5.:.;.;.:.:.;.;.;.;.;.*.-.;.;.-.;.;.;.*.*.*.*.*.*.;.;.*.;.*.$.$.*.*.$.#.#.#.#.@.#.@.@.....@.| | | ..| | ' ' ( ` ' ( ( ' ` ( ( ( / / E T T T T U F F D Z Z Z V M z k d y 0 5 7 s.s.s.s.s.s.s.s.s.s.s.s.s.s.s.s.s.s.s.s.s.s.s.s.s.s.s.s.s.s.s.s.s.s.s.s.s.s.s.s.s.s.s.s.s.s.s.s.s.s.s.s.s.s.s.s.s.s.s.s.s.s.s.s.s.s.s.s.s.s.s.s.s.s.s.s.s.s.s.s.s.s.s.s.s.s.s.s.s.s.s.s.s.s.s.s.s.s.s.s.s.s.s.s.s.s.s.s.s.s.s.s.s.s.s.s.s.s.s.s.s.s.s.s.s.s.s.s.s.s.s.s.s.s.s.s.s.s.s.s.s.s.s.s.s.s.s.s.s.s.s.s.s.s.s.s.s.s.s.s.s.s.s.s.s.s.s.s.s.s.s.s.s.+                                           o o & = & = = 6 h 7 : 7 0 d f v v V C C A D K K K J J J J P P I K U I Y I V s.s.s.s.s.s.s.s.s.s.s.s.s.",
"s.s.s.s.s.s.s.s.s.s.s.s.s.s.s.s.s.s.s.s.s.s.s.s.s.s.s.s.s.s.s.s.s.s.s.s.s.s.s.s.s.s.s.s.s.s.s.s.s.s.s.s.s.s.s.s.s.s.s.s.s.s.s.s.s.s.s.s.s.s.s.s.s.s.s.s.s.s.s.s.s.s.s.X.X.*.=.=.=.;.*.=.*.$.*.*.*.*.*.*.*.;.-.-.;.;.;.;.;.:.:.7.:.7.:.:.y.y.y.y.y.y.y.y.y.y.d.d.d.d.g.g.g.h.h.h.h.h.h.h.h.h.h.h.h.h.h.h.g.h.h.h.h.h.h.h.h.l.l.h.h.h.h.g.h.h.g.h.l.h.g.h.h.l.h.h.h.h.h.g.h.f.g.g.f.f.f.f.f.f.g.g.h.h.h.h.g.g.d.g.g.g.g.g.g.d.d.d.g.g.d.d.d.y.y.y.d.y.y.y.d.y.y.y.f.y.y.y.r.y.y.y.y.r.r.y.y.y.y.y.7.7.y.7.y.y.y.y.y.y.y.y.y.y.y.y.y.7.y.y.7.y.7.7.7.5.5.5.:.:.:.:.:.;.;.;.;.;.;.-.-.-.;.;.;.;.;.*.*.*.$.*.$.$.*.*.$.$.$.*.$.$.#.#.$.......@.@.] ] ..| | | ..| ' ' ' ( ( ` ( ( ( ( ( ( ( / / E T T T T U F F D Z V V M m z k d a 9 < s.s.s.s.s.s.s.s.s.s.s.s.s.s.s.s.s.s.s.s.s.s.s.s.s.s.s.s.s.s.s.s.s.s.s.s.s.s.s.s.s.s.s.s.s.s.s.s.s.s.s.s.s.s.s.s.s.s.s.s.s.s.s.s.s.s.s.s.s.s.s.s.s.s.s.s.s.s.s.s.s.s.s.s.s.s.s.s.s.s.s.s.s.s.s.s.s.s.s.s.s.s.s.s.s.s.s.s.s.s.s.s.s.s.s.s.s.s.s.s.s.s.s.s.s.s.s.s.s.s.s.s.s.s.s.s.s.s.s.s.s.s.s.s.s.s.s.s.s.s.s.s.s.s.s.s.s.s.s.s.s.s.s.s.s.s.s.s.s.s.s.s.s.s.s.s.s.o                                   X o @ = = = , 7 d Z U V 7 6 7 0 a f z c v c v V V V C A A C A C D A J K I b s.s.s.s.s.s.s.s.s.s.s.s.s.s.",
"s.s.s.s.s.s.s.s.s.s.s.s.s.s.s.s.s.s.s.s.s.s.s.s.s.s.s.s.s.s.s.s.s.s.s.s.s.s.s.s.s.s.s.s.s.s.s.s.s.s.s.s.s.s.s.s.s.s.s.s.s.s.s.s.s.s.s.s.s.s.s.s.s.s.s.s.s.s.s.s.s.s.[ $.*.*.*.*.*.=.=.=.*.$.*.*.*.*.*.-.;.;.;.;.;.*.;.;.5.:.:.:.:.7.7.y.y.y.y.y.y.y.y.y.y.d.d.g.g.g.g.g.g.h.h.h.h.g.h.h.h.l.h.h.h.h.l.l.h.l.h.h.h.l.h.h.h.l.l.h.h.h.h.h.l.h.h.h.h.l.l.h.l.l.h.h.h.h.h.g.h.h.g.g.g.g.f.g.f.f.g.g.f.f.f.f.g.g.d.g.g.d.g.g.g.d.d.d.g.g.g.d.d.y.y.y.d.d.y.d.y.y.y.y.y.y.y.y.r.y.y.y.y.y.y.y.r.y.y.y.7.7.7.7.y.y.y.y.y.7.y.y.y.7.y.y.y.7.y.7.5.7.7.y.7.;.:.5.7.:.:.:.:.:.;.;.;.;.:.;.;.*.;.;.;.;.;.*.$.*.$.*.*.$.*.*.*.$.*.$.$.$.#.#.#.@.........] ] ....| | | | ' ' ' ' ( ( ( ( ( ` ( ( / / E E T T T U G F F D Z V V M z k f d y 6 1 s.s.s.s.s.s.s.s.s.s.s.s.s.s.s.s.s.s.s.s.s.s.s.s.s.s.s.s.s.s.s.s.s.s.s.s.s.s.s.s.s.s.s.s.s.s.s.s.s.s.s.s.s.s.s.s.s.s.s.s.s.s.s.s.s.s.s.s.s.s.s.s.s.s.s.s.s.s.s.s.s.s.s.s.s.s.s.s.s.s.s.s.s.s.s.s.s.s.s.s.s.s.s.s.s.s.s.s.s.s.s.s.s.s.s.s.s.s.s.s.s.s.s.s.s.s.s.s.s.s.s.s.s.s.s.s.s.s.s.s.s.s.s.s.s.s.s.s.s.s.s.s.s.s.s.s.s.s.s.s.s.s.s.s.s.s.s.s.s.s.s.s.s.s.s.s.s.s.s.s.s.                            X o o = = - 1 9 f Z G ` Y g 6 6 7 9 y d d f f f f h v v V M V V V C J K s.s.s.s.s.s.s.s.s.s.s.s.s.s.s.s.",
"s.s.s.s.s.s.s.s.s.s.s.s.s.s.s.s.s.s.s.s.s.s.s.s.s.s.s.s.s.s.s.s.s.s.s.s.s.s.s.s.s.s.s.s.s.s.s.s.s.s.s.s.s.s.s.s.s.s.s.s.s.s.s.s.s.s.s.s.s.s.s.s.s.s.s.s.s.s.s.s.s.{ X.$.*.*.;.;.*.;.;.;.;.*.*.*.$.$.*.*.;.*.;.;.;.;.;.;.:.:.:.:.7.7.7.y.y.y.y.y.y.y.y.y.y.g.g.g.g.g.g.g.g.h.h.h.h.g.g.h.h.h.h.h.h.h.l.l.g.h.h.h.h.l.h.h.h.l.l.l.h.l.h.h.l.l.h.h.h.h.l.h.l.l.h.h.g.h.h.h.h.f.g.g.g.h.h.h.h.f.g.g.f.f.h.g.g.g.d.d.g.g.g.g.g.g.g.d.d.d.g.d.d.g.y.y.y.y.y.y.y.y.y.y.y.y.y.y.r.y.r.y.y.y.y.y.r.y.y.y.y.7.7.y.7.y.y.y.y.y.y.7.7.7.7.y.y.7.y.7.5.7.7.7.7.5.:.:.5.5.:.:.:.:.;.;.-.;.;.;.;.*.*.;.*.*.*.$.$.$.*.$.$.*.*.$.$.*.*.$.$.$.$.#.#.@.@.@.@...| ] ..| | | | | ' ' ' ' ' ( ( ( ` ( ( ( / / E E T T U U G F D D Z V V M h k d a y 6 e s.s.s.s.s.s.s.s.s.s.s.s.s.s.s.s.s.s.s.s.s.s.s.s.s.s.s.s.s.s.s.s.s.s.s.s.s.s.s.s.s.s.s.s.s.s.s.s.s.s.s.s.s.s.s.s.s.s.s.s.s.s.s.s.s.s.s.s.s.s.s.s.s.s.s.s.s.s.s.s.s.s.s.s.s.s.s.s.s.s.s.s.s.s.s.s.s.s.s.s.s.s.s.s.s.s.s.s.s.s.s.s.s.s.s.s.s.s.s.s.s.s.s.s.s.s.s.s.s.s.s.s.s.s.s.s.s.s.s.s.s.s.s.s.s.s.s.s.s.s.s.s.s.s.s.s.s.s.s.s.s.s.s.s.s.s.s.s.s.s.s.s.s.s.s.s.s.s.s.s.s.s.s.s.s.s.                    o o = - ; < 7 y z V D U G z 6 < < 4 8 8 y e y y y f h c c v V V C M s.s.s.s.s.s.s.s.s.s.s.s.s.s.s.s.s.",
"s.s.s.s.s.s.s.s.s.s.s.s.s.s.s.s.s.s.s.s.s.s.s.s.s.s.s.s.s.s.s.s.s.s.s.s.s.s.s.s.s.s.s.s.s.s.s.s.s.s.s.s.s.s.s.s.s.s.s.s.s.s.s.s.s.s.s.s.s.s.s.s.s.s.s.s.s.s.s.s.U X.$.;.;.*.*.*.*.;.*.;.;.*.*.*.*.*.-.-.;.;.;.;.;.;.;.:.:.:.:.r.r.r.r.y.y.y.y.y.y.d.d.g.g.g.g.g.g.g.g.g.g.h.h.h.h.h.h.h.l.g.g.h.h.g.h.h.h.h.l.l.l.h.l.l.h.h.h.l.h.l.l.l.h.h.h.h.h.h.h.h.h.h.h.h.g.h.h.h.h.h.h.h.g.g.g.f.h.h.g.f.g.f.f.f.g.g.g.g.g.g.g.g.g.g.g.d.d.d.d.d.y.d.y.y.y.y.y.y.y.y.y.y.y.y.y.y.r.y.r.r.y.y.y.y.y.y.y.y.y.y.y.y.y.y.y.y.y.7.7.7.7.y.y.7.y.y.y.:.;.7.5.5.7.7.5.:.5.;.;.5.;.;.;.;.;.;.;.;.;.*.*.-.*.-.*.*.*.*.$.#.$.*.*.$.$.*.*.$.#.$.#.@.@.@.#.@.......] | | ..| | | ' ' ' ' ' ` ( ( ` ( ( / / E E E T T G G F F D S V V M m z j d y 0 1 s.s.s.s.s.s.s.s.s.s.s.s.s.s.s.s.s.s.s.s.s.s.s.s.s.s.s.s.s.s.s.s.s.s.s.s.s.s.s.s.s.s.s.s.s.s.s.s.s.s.s.s.s.s.s.s.s.s.s.s.s.s.s.s.s.s.s.s.s.s.s.s.s.s.s.s.s.s.s.s.s.s.s.s.s.s.s.s.s.s.s.s.s.s.s.s.s.s.s.s.s.s.s.s.s.s.s.s.s.s.s.s.s.s.s.s.s.s.s.s.s.s.s.s.s.s.s.s.s.s.s.s.s.s.s.s.s.s.s.s.s.s.s.s.s.s.s.s.s.s.s.s.s.s.s.s.s.s.s.s.s.s.s.s.s.s.s.s.s.s.s.s.s.s.s.s.s.s.s.s.s.s.s.s.s.s.s.s.s.s.s.s.s.s.s.s.      o o = = , 1 9 0 d j h f y 4 ; - , 1 2 7 8 y y i f c c v v c s.s.s.s.s.s.s.s.s.s.s.s.s.s.s.s.s.s.s.",
"s.s.s.s.s.s.s.s.s.s.s.s.s.s.s.s.s.s.s.s.s.s.s.s.s.s.s.s.s.s.s.s.s.s.s.s.s.s.s.s.s.s.s.s.s.s.s.s.s.s.s.s.s.s.s.s.s.s.s.s.s.s.s.s.s.s.s.s.s.s.s.s.s.s.s.s.s.s.s.s.X.*.=.=.=.$.$.$.-.*.*.*.*.*.*.;.:.;.;.;.;.;.7.:.;.;.;.;.;.:.:.r.r.r.r.r.y.y.y.y.y.d.d.g.d.g.g.g.g.g.g.g.g.h.h.h.h.h.h.h.l.g.g.h.h.h.l.l.h.l.l.l.l.h.l.l.h.h.l.h.h.h.h.h.h.h.l.h.h.h.h.g.g.h.h.h.h.h.h.g.h.h.h.h.h.f.f.f.g.h.h.h.f.g.g.g.g.f.g.g.g.g.g.g.d.d.g.d.d.d.d.d.y.y.y.y.y.y.y.y.y.y.y.y.r.r.y.y.y.y.r.r.y.y.y.y.y.y.y.y.y.y.y.y.y.y.y.y.y.y.y.y.y.:.y.y.y.y.y.y.7.:.:.7.7.5.;.:.;.;.;.;.;.;.*.;.;.;.;.;.;.;.;.;.*.-.*.*.*.*.$.$.$.*.*.$.*.*.$.*.#.#.$.#.@.#...@.......] ] | | | | | ' ' ' ' ' ` ( ( ( ( / / E E E E T G F G F D F Z V V m z z j a 0 7 7 s.s.s.s.s.s.s.s.s.s.s.s.s.s.s.s.s.s.s.s.s.s.s.s.s.s.s.s.s.s.s.s.s.s.s.s.s.s.s.s.s.s.s.s.s.s.s.s.s.s.s.s.s.s.s.s.s.s.s.s.s.s.s.s.s.s.s.s.s.s.s.s.s.s.s.s.s.s.s.s.s.s.s.s.s.s.s.s.s.s.s.s.s.s.s.s.s.s.s.s.s.s.s.s.s.s.s.s.s.s.s.s.s.s.s.s.s.s.s.s.s.s.s.s.s.s.s.s.s.s.s.s.s.s.s.s.s.s.s.s.s.s.s.s.s.s.s.s.s.s.s.s.s.s.s.s.s.s.s.s.s.s.s.s.s.s.s.s.s.s.s.s.s.s.s.s.s.s.s.s.s.s.s.s.s.s.s.s.s.s.s.s.s.s.s.s.s.s.s.s.s.s.s.s.s.s.s.s.5 1 1 < < 7 8 7 e e 6 e e y y u p f s.s.s.s.s.s.s.s.s.s.s.s.s.s.s.s.s.s.s.s.s.s.",
"s.s.s.s.s.s.s.s.s.s.s.s.s.s.s.s.s.s.s.s.s.s.s.s.s.s.s.s.s.s.s.s.s.s.s.s.s.s.s.s.s.s.s.s.s.s.s.s.s.s.s.s.s.s.s.s.s.s.s.s.s.s.s.s.s.s.s.s.s.s.s.s.s.s.s.s.s.s.s.[ $.*.*.*.=.*.$.$.$.$.*.*.*.;.;.;.:.;.;.;.;.>.>.:.:.:.:.;.;.:.:.r.r.r.r.y.y.y.y.y.y.y.y.d.d.g.g.g.g.g.g.g.g.h.h.h.h.h.h.h.l.h.h.h.h.l.l.l.h.l.l.l.l.l.h.l.l.h.h.l.h.h.l.l.l.l.l.l.l.l.l.h.h.h.l.l.l.l.l.l.l.h.h.h.h.g.h.h.h.h.h.h.f.f.f.f.f.f.h.g.g.g.f.f.g.g.g.g.d.d.d.d.d.y.y.y.y.y.y.y.y.y.y.y.r.r.r.y.y.y.y.r.y.y.y.y.y.y.d.y.y.y.y.y.y.7.7.7.y.y.y.y.y.7.y.y.y.y.7.7.y.;.;.5.:.;.:.:.;.;.:.;.;.;.;.;.;.;.;.;.;.;.-.-.;.*.*.*.*.*.$.$.$.$.$.$.*.$.#.$.#.#.$.$.#.@...@.@...] ] ] | | | ' ' ' ' ` ` ' ( / ( ` ( / / E E E E T G F F F D S Z M M m z k d y 8 6 a s.s.s.s.s.s.s.s.s.s.s.s.s.s.s.s.s.s.s.s.s.s.s.s.s.s.s.s.s.s.s.s.s.s.s.s.s.s.s.s.s.s.s.s.s.s.s.s.s.s.s.s.s.s.s.s.s.s.s.s.s.s.s.s.s.s.s.s.s.s.s.s.s.s.s.s.s.s.s.s.s.s.s.s.s.s.s.s.s.s.s.s.s.s.s.s.s.s.s.s.s.s.s.s.s.s.s.s.s.s.s.s.s.s.s.s.s.s.s.s.s.s.s.s.s.s.s.s.s.s.s.s.s.s.s.s.s.s.s.s.s.s.s.s.s.s.s.s.s.s.s.s.s.s.s.s.s.s.s.s.s.s.s.s.s.s.s.s.s.s.s.s.s.s.s.s.s.s.s.s.s.s.s.s.s.s.s.s.s.s.s.s.s.s.s.s.s.s.s.s.s.s.s.s.s.s.s.s.s.s.s.s.s.s.s.s.s.s.s.s.s.s.s.s.s.s.s.s.s.s.s.s.s.s.s.s.s.s.s.s.s.s.s.s.s.s.s.s.",
"s.s.s.s.s.s.s.s.s.s.s.s.s.s.s.s.s.s.s.s.s.s.s.s.s.s.s.s.s.s.s.s.s.s.s.s.s.s.s.s.s.s.s.s.s.s.s.s.s.s.s.s.s.s.s.s.s.s.s.s.s.s.s.s.s.s.s.s.s.s.s.s.s.s.s.s.s.s.[ $.$.*.*.*.*.$.$.$.$.*.*.*.;.;.;.;.;.;.;.;.;.>.:.:.:.:.:.;.:.:.:.r.r.r.r.y.y.y.y.y.y.y.y.d.d.g.g.g.g.g.g.g.g.h.h.l.h.h.h.h.l.h.h.h.l.h.h.l.l.l.l.l.l.l.l.C.C.l.h.h.h.h.h.h.l.l.h.h.h.h.h.h.h.l.l.h.h.h.h.g.h.h.h.h.h.g.g.h.h.h.g.h.g.g.f.f.f.f.h.g.g.g.f.f.g.g.g.g.g.d.d.d.d.y.y.y.y.y.y.y.r.y.y.y.r.r.r.y.y.r.y.y.y.r.r.y.y.y.y.y.y.y.y.y.7.7.y.7.y.y.y.7.y.y.7.y.7.y.7.7.y.7.:.:.:.:.:.:.:.;.;.;.;.;.;.;.;.;.-.;.;.;.-.-.;.$.*.*.*.*.#.$.$.#.$.$.$.$.$.#.#.#.#.#.@.@.@.@.....] ] ..] | | | ' ' ' ` ` ( ( / / ( ( / / E E E T T G F G F S Z Z V V z z j d 0 7 1 s.s.s.s.s.s.s.s.s.s.s.s.s.s.s.s.s.s.s.s.s.s.s.s.s.s.s.s.s.s.s.s.s.s.s.s.s.s.s.s.s.s.s.s.s.s.s.s.s.s.s.s.s.s.s.s.s.s.s.s.s.s.s.s.s.s.s.s.s.s.s.s.s.s.s.s.s.s.s.s.s.s.s.s.s.s.s.s.s.s.s.s.s.s.s.s.s.s.s.s.s.s.s.s.s.s.s.s.s.s.s.s.s.s.s.s.s.s.s.s.s.s.s.s.s.s.s.s.s.s.s.s.s.s.s.s.s.s.s.s.s.s.s.s.s.s.s.s.s.s.s.s.s.s.s.s.s.s.s.s.s.s.s.s.s.s.s.s.s.s.s.s.s.s.s.s.s.s.s.s.s.s.s.s.s.s.s.s.s.s.s.s.s.s.s.s.s.s.s.s.s.s.s.s.s.s.s.s.s.s.s.s.s.s.s.s.s.s.s.s.s.s.s.s.s.s.s.s.s.s.s.s.s.s.s.s.s.s.s.s.s.s.s.s.s.s.s.s.s.",
"s.s.s.s.s.s.s.s.s.s.s.s.s.s.s.s.s.s.s.s.s.s.s.s.s.s.s.s.s.s.s.s.s.s.s.s.s.s.s.s.s.s.s.s.s.s.s.s.s.s.s.s.s.s.s.s.s.s.s.s.s.s.s.s.s.s.s.s.s.s.s.s.s.s.s.s.s.s.=.=.*.$.$.$.$.$.$.*.*.*.*.*.;.;.;.;.-.;.;.;.;.:.:.:.:.:.:.;.:.:.:.r.:.r.r.y.y.y.y.y.y.y.y.d.g.g.d.g.g.g.g.g.g.h.h.h.g.h.l.C.l.l.h.h.h.h.h.l.l.l.l.l.h.l.l.l.l.l.h.h.h.h.h.l.h.h.h.h.h.h.h.h.h.h.h.h.h.h.h.h.h.h.h.h.g.g.g.g.g.h.f.f.f.g.g.h.g.g.h.g.f.g.g.g.g.g.g.g.g.d.d.d.d.y.y.y.y.y.y.y.r.r.y.y.y.r.y.y.r.y.y.y.y.r.r.y.y.y.y.y.y.y.y.y.y.y.y.7.7.7.7.7.y.y.7.y.7.7.7.y.y.y.5.:.;.:.5.:.;.;.;.;.;.;.;.5.:.;.;.-.;.;.*.-.;.$.*.*.*.;.$.$.$.#.$.$.$.$.$.#.#.$.#.#.@.@.@.......| ] | | | | [ ' ' ` ` ` ( ( ( / ( ( / / E E E T U G F F F S Z Z V M z z j y 9 4 8 s.s.s.s.s.s.s.s.s.s.s.s.s.s.s.s.s.s.s.s.s.s.s.s.s.s.s.s.s.s.s.s.s.s.s.s.s.s.s.s.s.s.s.s.s.s.s.s.s.s.s.s.s.s.s.s.s.s.s.s.s.s.s.s.s.s.s.s.s.s.s.s.s.s.s.s.s.s.s.s.s.s.s.s.s.s.s.s.s.s.s.s.s.s.s.s.s.s.s.s.s.s.s.s.s.s.s.s.s.s.s.s.s.s.s.s.s.s.s.s.s.s.s.s.s.s.s.s.s.s.s.s.s.s.s.s.s.s.s.s.s.s.s.s.s.s.s.s.s.s.s.s.s.s.s.s.s.s.s.s.s.s.s.s.s.s.s.s.s.s.s.s.s.s.s.s.s.s.s.s.s.s.s.s.s.s.s.s.s.s.s.s.s.s.s.s.s.s.s.s.s.s.s.s.s.s.s.s.s.s.s.s.s.s.s.s.s.s.s.s.s.s.s.s.s.s.s.s.s.s.s.s.s.s.s.s.s.s.s.s.s.s.s.s.s.s.s.s.s.",
"s.s.s.s.s.s.s.s.s.s.s.s.s.s.s.s.s.s.s.s.s.s.s.s.s.s.s.s.s.s.s.s.s.s.s.s.s.s.s.s.s.s.s.s.s.s.s.s.s.s.s.s.s.s.s.s.s.s.s.s.s.s.s.s.s.s.s.s.s.s.s.s.s.s.s.s.s.$.=.=.*.$.$.$.$.$.#.*.*.*.*.-.;.;.;.;.;.;.;.;.;.>.:.:.:.:.:.;.r.:.:.r.r.r.y.y.y.y.y.y.y.g.g.g.f.g.g.g.g.g.g.g.g.g.h.h.h.h.l.l.l.h.h.h.h.h.l.h.h.l.C.l.h.l.l.C.C.l.h.h.h.h.l.l.h.h.h.h.h.h.h.h.h.l.h.h.h.h.h.l.l.l.h.h.g.g.g.g.g.g.h.f.g.g.h.f.g.g.h.g.f.g.g.g.g.g.g.g.g.d.d.d.d.y.y.y.y.y.y.y.y.r.y.y.y.r.y.y.y.y.y.y.y.y.y.y.y.7.y.y.y.y.y.y.y.y.y.y.7.7.y.y.y.y.y.y.7.:.7.7.y.y.5.5.;.:.5.:.;.;.;.;.;.;.;.;.;.;.;.;.-.*.;.;.*.*.*.$.$.*.*.$.$.$.$.#.#.$.#.#.#.#.#.#.#.#.........] ' ' | | ' | ' ' ` ' ` ( ( ( / ( ( / / E E T T U G F F D Z Z Z V m z z d y 7 4 t s.s.s.s.s.s.s.s.s.s.s.s.s.s.s.s.s.s.s.s.s.s.s.s.s.s.s.s.s.s.s.s.s.s.s.s.s.s.s.s.s.s.s.s.s.s.s.s.s.s.s.s.s.s.s.s.s.s.s.s.s.s.s.s.s.s.s.s.s.s.s.s.s.s.s.s.s.s.s.s.s.s.s.s.s.s.s.s.s.s.s.s.s.s.s.s.s.s.s.s.s.s.s.s.s.s.s.s.s.s.s.s.s.s.s.s.s.s.s.s.s.s.s.s.s.s.s.s.s.s.s.s.s.s.s.s.s.s.s.s.s.s.s.s.s.s.s.s.s.s.s.s.s.s.s.s.s.s.s.s.s.s.s.s.s.s.s.s.s.s.s.s.s.s.s.s.s.s.s.s.s.s.s.s.s.s.s.s.s.s.s.s.s.s.s.s.s.s.s.s.s.s.s.s.s.s.s.s.s.s.s.s.s.s.s.s.s.s.s.s.s.s.s.s.s.s.s.s.s.s.s.s.s.s.s.s.s.s.s.s.s.s.s.s.s.s.s.s.s.",
"s.s.s.s.s.s.s.s.s.s.s.s.s.s.s.s.s.s.s.s.s.s.s.s.s.s.s.s.s.s.s.s.s.s.s.s.s.s.s.s.s.s.s.s.s.s.s.s.s.s.s.s.s.s.s.s.s.s.s.s.s.s.s.s.s.s.s.s.s.s.s.s.s.s.s.s.[ #.=.=.$.*.*.*.*.$.$.*.-.*.-.-.;.;.;.;.;.;.;.;.;.:.:.:.:.:.:.;.;.:.r.r.r.r.y.y.y.y.y.y.g.y.g.g.g.g.g.g.g.g.g.g.g.g.g.h.h.h.h.l.h.h.h.h.h.l.h.h.h.h.C.C.h.h.l.l.C.l.h.h.h.h.h.h.h.h.h.h.h.h.h.h.h.h.h.h.h.h.h.h.h.l.l.l.h.h.h.h.h.h.h.h.h.h.g.g.f.f.g.g.g.g.g.g.g.g.g.g.g.d.d.d.d.g.y.y.y.y.y.y.y.y.y.y.y.r.y.y.y.y.y.y.y.y.y.y.y.y.y.y.y.y.y.y.y.y.y.y.y.7.7.7.y.y.y.y.y.7.y.y.7.y.:.:.5.5.5.:.;.;.;.;.;.;.;.-.;.;.;.;.;.;.;.*.*.*.*.$.#.;.*.#.$.$.$.$.$.$.#.#.#.@.#.@.#.#.....@.@.@.| ] | ' ' ' ' ' ` ' ' ( ( / ( ( ( / E E E T T T G F F D Z Z Z V z z k d y 5 5 s.s.s.s.s.s.s.s.s.s.s.s.s.s.s.s.s.s.s.s.s.s.s.s.s.s.s.s.s.s.s.s.s.s.s.s.s.s.s.s.s.s.s.s.s.s.s.s.s.s.s.s.s.s.s.s.s.s.s.s.s.s.s.s.s.s.s.s.s.s.s.s.s.s.s.s.s.s.s.s.s.s.s.s.s.s.s.s.s.s.s.s.s.s.s.s.s.s.s.s.s.s.s.s.s.s.s.s.s.s.s.s.s.s.s.s.s.s.s.s.s.s.s.s.s.s.s.s.s.s.s.s.s.s.s.s.s.s.s.s.s.s.s.s.s.s.s.s.s.s.s.s.s.s.s.s.s.s.s.s.s.s.s.s.s.s.s.s.s.s.s.s.s.s.s.s.s.s.s.s.s.s.s.s.s.s.s.s.s.s.s.s.s.s.s.s.s.s.s.s.s.s.s.s.s.s.s.s.s.s.s.s.s.s.s.s.s.s.s.s.s.s.s.s.s.s.s.s.s.s.s.s.s.s.s.s.s.s.s.s.s.s.s.s.s.s.s.s.s.s.",
"s.s.s.s.s.s.s.s.s.s.s.s.s.s.s.s.s.s.s.s.s.s.s.s.s.s.s.s.s.s.s.s.s.s.s.s.s.s.s.s.s.s.s.s.s.s.s.s.s.s.s.s.s.s.s.s.s.s.s.s.s.s.s.s.s.s.s.s.s.s.s.s.s.s.s.s.$.$.#.#.=.*.*.*.*.*.$.*.-.-.-.;.;.;.;.;.;.;.;.;.;.:.>.:.:.;.:.;.;.r.r.r.r.y.y.y.y.y.y.d.g.y.g.g.g.g.g.g.g.g.g.g.g.g.g.h.h.h.h.l.l.h.h.h.h.h.h.h.h.h.l.l.l.h.h.h.h.l.h.h.h.h.h.h.h.h.l.l.l.h.h.h.h.h.g.h.h.g.h.l.l.h.l.h.h.h.h.l.h.h.h.h.h.h.h.h.g.g.g.g.g.g.g.g.g.g.g.g.g.d.d.g.g.g.y.y.y.y.y.y.y.y.y.y.y.r.r.y.y.y.y.y.y.r.r.y.y.y.y.y.y.y.y.y.y.y.y.y.y.7.7.7.y.y.y.y.y.y.y.y.7.7.;.;.5.5.5.:.;.;.;.;.;.;.;.;.;.;.;.;.;.*.*.*.*.*.*.*.$.*.$.$.$.*.*.$.$.$.$.#.#.#.#.#.#.#...] @.@.| ] | ' ' ' ' ' ' ` ' ' ( ( / / ( ( E E E T T T G F F F S Z Z Z M z z j d 0 5 r s.s.s.s.s.s.s.s.s.s.s.s.s.s.s.s.s.s.s.s.s.s.s.s.s.s.s.s.s.s.s.s.s.s.s.s.s.s.s.s.s.s.s.s.s.s.s.s.s.s.s.s.s.s.s.s.s.s.s.s.s.s.s.s.s.s.s.s.s.s.s.s.s.s.s.s.s.s.s.s.s.s.s.s.s.s.s.s.s.s.s.s.s.s.s.s.s.s.s.s.s.s.s.s.s.s.s.s.s.s.s.s.s.s.s.s.s.s.s.s.s.s.s.s.s.s.s.s.s.s.s.s.s.s.s.s.s.s.s.s.s.s.s.s.s.s.s.s.s.s.s.s.s.s.s.s.s.s.s.s.s.s.s.s.s.s.s.s.s.s.s.s.s.s.s.s.s.s.s.s.s.s.s.s.s.s.s.s.s.s.s.s.s.s.s.s.s.s.s.s.s.s.s.s.s.s.s.s.s.s.s.s.s.s.s.s.s.s.s.s.s.s.s.s.s.s.s.s.s.s.s.s.s.s.s.s.s.s.s.s.s.s.s.s.s.s.s.s.s.s.",
"s.s.s.s.s.s.s.s.s.s.s.s.s.s.s.s.s.s.s.s.s.s.s.s.s.s.s.s.s.s.s.s.s.s.s.s.s.s.s.s.s.s.s.s.s.s.s.s.s.s.s.s.s.s.s.s.s.s.s.s.s.s.s.s.s.s.s.s.s.s.s.s.s.s.s.X.$.*.#.*.$.*.*.*.*.*.;.;.;.;.;.;.;.;.;.:.;.:.:.;.;.;.:.:.7.:.:.:.:.y.r.r.y.y.y.y.y.d.g.g.g.g.g.g.g.g.g.g.g.h.h.h.h.g.h.h.l.l.l.l.l.h.h.l.h.g.h.h.h.h.h.h.l.h.h.l.h.l.l.l.h.l.l.h.h.l.l.l.l.l.l.l.l.l.l.l.l.h.h.h.h.h.h.h.g.l.h.h.h.h.h.g.h.h.h.g.h.h.g.h.g.g.g.g.g.g.g.d.d.d.d.d.d.g.g.g.d.y.y.y.y.y.r.y.r.r.r.y.y.y.y.y.y.y.r.r.y.y.y.y.y.y.y.y.y.y.y.y.7.7.7.7.7.7.7.7.7.7.7.7.7.:.:.7.5.:.5.5.;.;.;.;.;.;.;.;.;.;.;.;.;.*.*.;.;.*.*.*.$.$.#.$.$.$.*.$.#.#.*.#.#.$.#.@.@.@...@.@.| | | | | ' ' ' | ' ' ( ` ( ( ( ( ` ( E E E E U G F P D D D Z Z Z m z j d y 7 5 u s.s.s.s.s.s.s.s.s.s.s.s.s.s.s.s.s.s.s.s.s.s.s.s.s.s.s.s.s.s.s.s.s.s.s.s.s.s.s.s.s.s.s.s.s.s.s.s.s.s.s.s.s.s.s.s.s.s.s.s.s.s.s.s.s.s.s.s.s.s.s.s.s.s.s.s.s.s.s.s.s.s.s.s.s.s.s.s.s.s.s.s.s.s.s.s.s.s.s.s.s.s.s.s.s.s.s.s.s.s.s.s.s.s.s.s.s.s.s.s.s.s.s.s.s.s.s.s.s.s.s.s.s.s.s.s.s.s.s.s.s.s.s.s.s.s.s.s.s.s.s.s.s.s.s.s.s.s.s.s.s.s.s.s.s.s.s.s.s.s.s.s.s.s.s.s.s.s.s.s.s.s.s.s.s.s.s.s.s.s.s.s.s.s.s.s.s.s.s.s.s.s.s.s.s.s.s.s.s.s.s.s.s.s.s.s.s.s.s.s.s.s.s.s.s.s.s.s.s.s.s.s.s.s.s.s.s.s.s.s.s.s.s.s.s.s.s.s.s.s.",
"s.s.s.s.s.s.s.s.s.s.s.s.s.s.s.s.s.s.s.s.s.s.s.s.s.s.s.s.s.s.s.s.s.s.s.s.s.s.s.s.s.s.s.s.s.s.s.s.s.s.s.s.s.s.s.s.s.s.s.s.s.s.s.s.s.s.s.s.s.s.s.s.s.s.[ $.$.*.*.*.*.$.$.*.*.*.;.;.;.;.;.;.;.:.:.;.:.7.:.:.:.;.:.:.:.7.7.7.y.y.y.y.y.y.y.y.y.d.g.g.d.g.g.g.g.g.g.g.g.h.g.h.h.h.h.h.h.h.h.h.h.l.l.l.h.h.l.l.l.h.h.h.h.h.l.l.l.l.l.l.l.l.l.l.l.l.l.l.l.l.l.l.l.l.l.l.C.l.l.h.h.h.h.h.h.l.h.g.h.h.h.h.h.h.g.g.g.g.g.g.g.g.d.g.g.g.g.d.d.d.d.d.d.g.g.g.d.y.y.y.y.y.y.y.r.y.y.y.y.y.y.r.r.r.r.:.:.y.y.y.y.y.y.y.y.y.7.y.y.y.7.7.7.7.5.5.7.7.7.7.7.7.5.5.7.:.:.:.;.;.;.;.;.;.-.;.;.;.;.;.;.;.*.*.;.*.*.*.$.$.#.#.$.$.#.#.#.$.$.#.#.#.@.#.@.#.@.@...| ] ' | | ' ' ' ' ' ` ` ` ` ` ( ` ( ( E E E T T G F F F S D V Z V z k j a 0 6 8 s.s.s.s.s.s.s.s.s.s.s.s.s.s.s.s.s.s.s.s.s.s.s.s.s.s.s.s.s.s.s.s.s.s.s.s.s.s.s.s.s.s.s.s.s.s.s.s.s.s.s.s.s.s.s.s.s.s.s.s.s.s.s.s.s.s.s.s.s.s.s.s.s.s.s.s.s.s.s.s.s.s.s.s.s.s.s.s.s.s.s.s.s.s.s.s.s.s.s.s.s.s.s.s.s.s.s.s.s.s.s.s.s.s.s.s.s.s.s.s.s.s.s.s.s.s.s.s.s.s.s.s.s.s.s.s.s.s.s.s.s.s.s.s.s.s.s.s.s.s.s.s.s.s.s.s.s.s.s.s.s.s.s.s.s.s.s.s.s.s.s.s.s.s.s.s.s.s.s.s.s.s.s.s.s.s.s.s.s.s.s.s.s.s.s.s.s.s.s.s.s.s.s.s.s.s.s.s.s.s.s.s.s.s.s.s.s.s.s.s.s.s.s.s.s.s.s.s.s.s.s.s.s.s.s.s.s.s.s.s.s.s.s.s.s.s.s.s.s.s.s.",
"s.s.s.s.s.s.s.s.s.s.s.s.s.s.s.s.s.s.s.s.s.s.s.s.s.s.s.s.s.s.s.s.s.s.s.s.s.s.s.s.s.s.s.s.s.s.s.s.s.s.s.s.s.s.s.s.s.s.s.s.s.s.s.s.s.s.s.s.s.s.s.s.s.Y X...*.*.*.*.*.*.*.*.*.-.;.;.;.;.;.;.;.7.7.7.7.:.:.;.:.;.:.:.7.7.7.y.y.y.r.y.y.y.y.y.y.d.g.g.d.d.d.g.g.g.f.h.h.h.h.h.h.g.g.h.h.l.l.l.l.h.l.h.h.h.l.l.l.l.l.l.h.l.l.l.h.l.l.l.h.l.l.l.l.l.l.l.l.l.l.h.l.l.l.l.l.h.h.h.h.h.h.h.h.l.h.g.g.g.g.g.h.h.g.g.g.g.g.g.g.g.g.g.g.g.g.g.d.g.g.d.g.g.d.d.d.y.y.y.y.y.y.y.y.y.y.y.y.y.y.r.r.r.r.y.r.7.7.y.y.y.y.y.y.y.7.7.y.y.:.:.y.7.5.;.7.7.7.:.5.7.:.;.:.:.:.;.;.;.;.;.;.;.;.;.;.;.-.*.;.;.*.;.*.*.*.$.$.$.$.#.$.$.#.$.$.$.#.#.#.#.#.#.#.@...] ] ..' ' | | ' ` ' ' ' ` ` ` ' ( ( ( ( ( E E T T T U F F F Z S V V M z j d a 0 6 r s.s.s.s.s.s.s.s.s.s.s.s.s.s.s.s.s.s.s.s.s.s.s.s.s.s.s.s.s.s.s.s.s.s.s.s.s.s.s.s.s.s.s.s.s.s.s.s.s.s.s.s.s.s.s.s.s.s.s.s.s.s.s.s.s.s.s.s.s.s.s.s.s.s.s.s.s.s.s.s.s.s.s.s.s.s.s.s.s.s.s.s.s.s.s.s.s.s.s.s.s.s.s.s.s.s.s.s.s.s.s.s.s.s.s.s.s.s.s.s.s.s.s.s.s.s.s.s.s.s.s.s.s.s.s.s.s.s.s.s.s.s.s.s.s.s.s.s.s.s.s.s.s.s.s.s.s.s.s.s.s.s.s.s.s.s.s.s.s.s.s.s.s.s.s.s.s.s.s.s.s.s.s.s.s.s.s.s.s.s.s.s.s.s.s.s.s.s.s.s.s.s.s.s.s.s.s.s.s.s.s.s.s.s.s.s.s.s.s.s.s.s.s.s.s.s.s.s.s.s.s.s.s.s.s.s.s.s.s.s.s.s.s.s.s.s.s.s.s.s.s.",
"s.s.s.s.s.s.s.s.s.s.s.s.s.s.s.s.s.s.s.s.s.s.s.s.s.s.s.s.s.s.s.s.s.s.s.s.s.s.s.s.s.s.s.s.s.s.s.s.s.s.s.s.s.s.s.s.s.s.s.s.s.s.s.s.s.s.s.s.s.s.s.s.s.X.X.*.*.*.*.;.;.;.;.-.-.-.-.;.;.5.;.;.;.:.:.7.:.:.;.7.7.:.7.7.7.7.7.7.y.y.y.y.r.y.y.y.y.d.g.g.d.d.d.g.d.g.h.h.h.h.h.h.h.g.h.h.l.l.C.l.l.h.h.h.h.h.l.C.l.l.l.l.l.l.C.C.l.l.l.l.l.l.l.l.h.l.l.l.l.l.l.l.l.l.l.l.l.l.l.l.l.h.h.l.h.l.h.g.g.g.h.g.g.h.g.g.g.g.g.g.g.g.g.g.g.g.g.g.d.g.d.d.d.d.d.d.y.y.d.d.d.y.y.y.y.y.y.y.y.y.y.y.r.r.r.r.y.y.y.y.y.y.y.y.y.y.y.y.y.y.7.7.7.7.5.5.7.5.5.7.5.:.;.:.;.;.;.;.;.;.;.;.;.;.;.;.;.;.;.-.$.*.*.*.*.*.$.$.$.$.*.$.$.$.$.$.$.$.#.#.#.@.#.@.@.@.......' ' ' | | ' ' ' ' ' ` ` ` ` ( ( ( ( ( E E E T U G F F D Z Z V V z k j d y 7 5 u s.s.s.s.s.s.s.s.s.s.s.s.s.s.s.s.s.s.s.s.s.s.s.s.s.s.s.s.s.s.s.s.s.s.s.s.s.s.s.s.s.s.s.s.s.s.s.s.s.s.s.s.s.s.s.s.s.s.s.s.s.s.s.s.s.s.s.s.s.s.s.s.s.s.s.s.s.s.s.s.s.s.s.s.s.s.s.s.s.s.s.s.s.s.s.s.s.s.s.s.s.s.s.s.s.s.s.s.s.s.s.s.s.s.s.s.s.s.s.s.s.s.s.s.s.s.s.s.s.s.s.s.s.s.s.s.s.s.s.s.s.s.s.s.s.s.s.s.s.s.s.s.s.s.s.s.s.s.s.s.s.s.s.s.s.s.s.s.s.s.s.s.s.s.s.s.s.s.s.s.s.s.s.s.s.s.s.s.s.s.s.s.s.s.s.s.s.s.s.s.s.s.s.s.s.s.s.s.s.s.s.s.s.s.s.s.s.s.s.s.s.s.s.s.s.s.s.s.s.s.s.s.s.s.s.s.s.s.s.s.s.s.s.s.s.s.s.s.s.s.s.",
"s.s.s.s.s.s.s.s.s.s.s.s.s.s.s.s.s.s.s.s.s.s.s.s.s.s.s.s.s.s.s.s.s.s.s.s.s.s.s.s.s.s.s.s.s.s.s.s.s.s.s.s.s.s.s.s.s.s.s.s.s.s.s.s.s.s.s.s.s.s.s.s.X.$.$.$.*.;.;.-.;.*.;.;.;.-.-.;.;.;.;.;.;.;.:.:.:.:.:.:.:.:.:.7.7.7.7.7.y.r.r.y.y.y.d.d.d.d.d.d.d.d.d.g.g.g.h.h.h.h.h.h.h.l.l.l.l.l.l.h.h.h.l.l.C.l.l.C.C.C.C.C.C.C.l.l.l.l.l.C.l.l.h.h.h.l.l.l.l.l.l.l.l.l.h.h.h.l.h.l.l.h.h.h.h.h.h.h.h.l.h.g.g.g.g.g.g.g.h.g.g.g.g.g.g.g.g.g.g.g.d.d.d.d.d.d.d.y.y.y.d.y.y.y.y.y.r.r.y.y.y.y.y.y.r.r.r.y.y.y.y.y.y.y.7.7.y.y.y.7.y.7.:.:.5.5.5.:.:.7.:.;.;.;.:.;.;.;.;.;.:.:.;.;.;.;.-.-.;.-.*.$.*.*.*.*.*.*.$.#.$.*.$.#.@.#.$.$.#.#.#.#.#.@.@.@.| ......' ' | | ' ' ' ' ` ` ` ` ` ( ( ( ( E E E E T U U F F F S Z V V z z j a 0 6 6 s.s.s.s.s.s.s.s.s.s.s.s.s.s.s.s.s.s.s.s.s.s.s.s.s.s.s.s.s.s.s.s.s.s.s.s.s.s.s.s.s.s.s.s.s.s.s.s.s.s.s.s.s.s.s.s.s.s.s.s.s.s.s.s.s.s.s.s.s.s.s.s.s.s.s.s.s.s.s.s.s.s.s.s.s.s.s.s.s.s.s.s.s.s.s.s.s.s.s.s.s.s.s.s.s.s.s.s.s.s.s.s.s.s.s.s.s.s.s.s.s.s.s.s.s.s.s.s.s.s.s.s.s.s.s.s.s.s.s.s.s.s.s.s.s.s.s.s.s.s.s.s.s.s.s.s.s.s.s.s.s.s.s.s.s.s.s.s.s.s.s.s.s.s.s.s.s.s.s.s.s.s.s.s.s.s.s.s.s.s.s.s.s.s.s.s.s.s.s.s.s.s.s.s.s.s.s.s.s.s.s.s.s.s.s.s.s.s.s.s.s.s.s.s.s.s.s.s.s.s.s.s.s.s.s.s.s.s.s.s.s.s.s.s.s.s.s.s.s.s.s.s.",
"s.s.s.s.s.s.s.s.s.s.s.s.s.s.s.s.s.s.s.s.s.s.s.s.s.s.s.s.s.s.s.s.s.s.s.s.s.s.s.s.s.s.s.s.s.s.s.s.s.s.s.s.s.s.s.s.s.s.s.s.s.s.s.s.s.s.s.s.s.s.s.X...$.$.*.-.=.*.*.*.*.;.-.-.;.;.;.;.;.;.;.;.;.:.:.:.:.:.:.:.:.7.7.7.7.7.y.y.r.r.y.y.y.y.d.y.d.d.d.g.d.d.g.g.g.h.h.h.h.h.h.h.h.l.h.l.l.l.l.h.h.h.h.l.l.l.l.l.l.l.l.l.l.l.l.l.l.l.l.l.l.h.h.l.l.l.l.l.l.h.l.l.l.h.h.h.l.h.h.h.h.h.h.h.h.h.h.h.h.h.g.g.g.g.g.g.g.g.g.g.g.g.g.g.g.g.g.g.g.g.g.d.d.d.d.d.y.y.y.y.y.y.y.y.y.y.r.r.y.y.y.r.y.y.r.r.y.y.y.y.y.y.y.y.7.y.y.y.y.7.7.7.7.5.5.:.;.;.;.5.7.;.;.5.;.;.;.;.;.;.;.;.;.;.;.-.;.;.;.*.*.*.*.*.*.*.*.$.$.#.*.*.$.#.#.#.$.$.#.#.#.@.@.@.@.........' ' ' | ' ` ' ' ` ` ` ( ` ( ( ( ( R E E E T U G F F D Z V V M z z j a 9 6 e s.s.s.s.s.s.s.s.s.s.s.s.s.s.s.s.s.s.s.s.s.s.s.s.s.s.s.s.s.s.s.s.s.s.s.s.s.s.s.s.s.s.s.s.s.s.s.s.s.s.s.s.s.s.s.s.s.s.s.s.s.s.s.s.s.s.s.s.s.s.s.s.s.s.s.s.s.s.s.s.s.s.s.s.s.s.s.s.s.s.s.s.s.s.s.s.s.s.s.s.s.s.s.s.s.s.s.s.s.s.s.s.s.s.s.s.s.s.s.s.s.s.s.s.s.s.s.s.s.s.s.s.s.s.s.s.s.s.s.s.s.s.s.s.s.s.s.s.s.s.s.s.s.s.s.s.s.s.s.s.s.s.s.s.s.s.s.s.s.s.s.s.s.s.s.s.s.s.s.s.s.s.s.s.s.s.s.s.s.s.s.s.s.s.s.s.s.s.s.s.s.s.s.s.s.s.s.s.s.s.s.s.s.s.s.s.s.s.s.s.s.s.s.s.s.s.s.s.s.s.s.s.s.s.s.s.s.s.s.s.s.s.s.s.s.s.s.s.s.s.s.s.",
"s.s.s.s.s.s.s.s.s.s.s.s.s.s.s.s.s.s.s.s.s.s.s.s.s.s.s.s.s.s.s.s.s.s.s.s.s.s.s.s.s.s.s.s.s.s.s.s.s.s.s.s.s.s.s.s.s.s.s.s.s.s.s.s.s.s.s.s.s.s.s...#.$.*.*.;.*.*.*.*.-.;.-.:.5.5.:.;.;.;.;.;.:.:.:.:.:.:.:.:.7.7.y.7.7.y.y.y.y.y.y.y.y.y.y.y.y.d.d.g.d.g.g.g.h.h.h.h.g.h.g.h.h.h.h.h.l.l.l.l.h.h.h.h.l.l.l.l.C.C.l.C.l.h.l.l.l.l.h.l.l.l.l.l.l.l.l.l.l.l.l.l.l.l.l.l.l.l.h.h.h.h.h.h.h.h.h.h.h.h.h.g.g.g.g.g.g.g.g.g.g.g.g.g.g.g.g.g.g.g.g.d.d.d.y.d.d.y.d.d.y.y.y.y.y.y.r.r.y.y.y.y.y.y.r.r.y.y.7.y.y.y.y.y.y.y.y.7.y.y.:.7.7.5.5.:.:.:.;.7.7.;.;.5.;.;.;.;.;.;.;.;.;.-.;.;.;.;.;.*.*.$.$.*.$.*.$.#.$.$.*.$.@.#.#.#.*.$.#.#.#...@.@.@.....] ] ' ' ' | ' ' ' ` ` ` ` ( ` ( ( ( ( ( E E T T U G F D D Z Z V m z k d a 7 6 s.s.s.s.s.s.s.s.s.s.s.s.s.s.s.s.s.s.s.s.s.s.s.s.s.s.s.s.s.s.s.s.s.s.s.s.s.s.s.s.s.s.s.s.s.s.s.s.s.s.s.s.s.s.s.s.s.s.s.s.s.s.s.s.s.s.s.s.s.s.s.s.s.s.s.s.s.s.s.s.s.s.s.s.s.s.s.s.s.s.s.s.s.s.s.s.s.s.s.s.s.s.s.s.s.s.s.s.s.s.s.s.s.s.s.s.s.s.s.s.s.s.s.s.s.s.s.s.s.s.s.s.s.s.s.s.s.s.s.s.s.s.s.s.s.s.s.s.s.s.s.s.s.s.s.s.s.s.s.s.s.s.s.s.s.s.s.s.s.s.s.s.s.s.s.s.s.s.s.s.s.s.s.s.s.s.s.s.s.s.s.s.s.s.s.s.s.s.s.s.s.s.s.s.s.s.s.s.s.s.s.s.s.s.s.s.s.s.s.s.s.s.s.s.s.s.s.s.s.s.s.s.s.s.s.s.s.s.s.s.s.s.s.s.s.s.s.s.s.s.s.s.s.",
"s.s.s.s.s.s.s.s.s.s.s.s.s.s.s.s.s.s.s.s.s.s.s.s.s.s.s.s.s.s.s.s.s.s.s.s.s.s.s.s.s.s.s.s.s.s.s.s.s.s.s.s.s.s.s.s.s.s.s.s.s.s.s.s.s.s.s.s.s.s.X.$.@.-.*.;.=.*.*.-.*.;.;.:.:.:.;.;.;.;.;.;.;.:.:.:.:.7.7.7.7.7.7.7.y.y.y.y.y.y.y.y.y.y.y.y.d.d.d.d.d.g.g.g.g.h.h.f.g.h.h.h.h.l.h.l.l.h.l.l.C.l.l.l.l.l.l.C.l.l.l.l.l.l.h.h.h.l.l.l.l.l.l.l.l.l.l.l.h.l.l.h.l.l.h.h.h.l.l.h.h.h.h.h.h.g.h.h.h.h.g.h.h.g.g.g.g.g.g.g.g.g.g.g.g.g.g.g.g.g.g.g.d.d.d.d.d.d.d.d.d.y.y.y.y.y.y.r.r.y.y.y.y.y.r.r.y.y.y.y.y.y.y.y.y.y.y.7.7.y.7.7.7.:.5.5.:.5.7.;.;.;.;.;.:.;.;.;.;.:.:.;.;.;.;.;.;.;.-.-.*.*.$.$.*.$.$.$.$.#.$.$.$.$.#.#.#.#.$.#.#.#.@.......@...] ' ' ' ' ' ' ' ' ' ` ` ` ( ` ( ( ( ( ( E T T U U F F S S Z Z V z z h d a 7 6 s.s.s.s.s.s.s.s.s.s.s.s.s.s.s.s.s.s.s.s.s.s.s.s.s.s.s.s.s.s.s.s.s.s.s.s.s.s.s.s.s.s.s.s.s.s.s.s.s.s.s.s.s.s.s.s.s.s.s.s.s.s.s.s.s.s.s.s.s.s.s.s.s.s.s.s.s.s.s.s.s.s.s.s.s.s.s.s.s.s.s.s.s.s.s.s.s.s.s.s.s.s.s.s.s.s.s.s.s.s.s.s.s.s.s.s.s.s.s.s.s.s.s.s.s.s.s.s.s.s.s.s.s.s.s.s.s.s.s.s.s.s.s.s.s.s.s.s.s.s.s.s.s.s.s.s.s.s.s.s.s.s.s.s.s.s.s.s.s.s.s.s.s.s.s.s.s.s.s.s.s.s.s.s.s.s.s.s.s.s.s.s.s.s.s.s.s.s.s.s.s.s.s.s.s.s.s.s.s.s.s.s.s.s.s.s.s.s.s.s.s.s.s.s.s.s.s.s.s.s.s.s.s.s.s.s.s.s.s.s.s.s.s.s.s.s.s.s.s.s.s.s.s.",
"s.s.s.s.s.s.s.s.s.s.s.s.s.s.s.s.s.s.s.s.s.s.s.s.s.s.s.s.s.s.s.s.s.s.s.s.s.s.s.s.s.s.s.s.s.s.s.s.s.s.s.s.s.s.s.s.s.s.s.s.s.s.s.s.s.s.s.s.a. .#.$.$.*.*.-.;.;.;.-.-.;.;.;.;.:.;.;.;.:.:.7.:.:.:.:.:.:.:.:.:.r.r.r.r.r.y.r.y.y.y.y.y.y.y.u.d.d.f.g.g.g.f.g.h.h.g.f.h.h.g.h.l.h.h.h.l.l.l.l.l.l.l.l.l.l.l.C.C.C.A.C.A.C.C.l.l.l.C.l.l.l.l.C.C.l.l.l.l.l.l.l.C.l.l.l.h.l.l.l.h.h.l.l.l.l.h.h.h.g.h.h.l.g.g.h.g.g.g.g.g.g.g.g.g.g.g.g.g.g.g.g.d.d.d.d.d.d.d.d.d.y.y.y.y.y.y.y.y.y.y.y.y.r.y.y.r.y.y.y.y.y.7.y.7.y.:.y.:.:.7.7.7.7.;.5.;.5.:.5.5.5.;.;.;.;.;.;.;.;.;.-.;.;.;.;.;.;.;.*.*.*.$.$.*.$.$.$.$.#.$.$.#.$.$.$.$.#.#.#.#.#.#.@.| ] ..@.| ' | ' | | ' ' ' ' ` ( ( ( ( ( ( ( E E E T T T G G D D A Z V M z k j a 0 6 e s.s.s.s.s.s.s.s.s.s.s.s.s.s.s.s.s.s.s.s.s.s.s.s.s.s.s.s.s.s.s.s.s.s.s.s.s.s.s.s.s.s.s.s.s.s.s.s.s.s.s.s.s.s.s.s.s.s.s.s.s.s.s.s.s.s.s.s.s.s.s.s.s.s.s.s.s.s.s.s.s.s.s.s.s.s.s.s.s.s.s.s.s.s.s.s.s.s.s.s.s.s.s.s.s.s.s.s.s.s.s.s.s.s.s.s.s.s.s.s.s.s.s.s.s.s.s.s.s.s.s.s.s.s.s.s.s.s.s.s.s.s.s.s.s.s.s.s.s.s.s.s.s.s.s.s.s.s.s.s.s.s.s.s.s.s.s.s.s.s.s.s.s.s.s.s.s.s.s.s.s.s.s.s.s.s.s.s.s.s.s.s.s.s.s.s.s.s.s.s.s.s.s.s.s.s.s.s.s.s.s.s.s.s.s.s.s.s.s.s.s.s.s.s.s.s.s.s.s.s.s.s.s.s.s.s.s.s.s.s.s.s.s.s.s.s.s.s.s.s.s.s.s.",
"s.s.s.s.s.s.s.s.s.s.s.s.s.s.s.s.s.s.s.s.s.s.s.s.s.s.s.s.s.s.s.s.s.s.s.s.s.s.s.s.s.s.s.s.s.s.s.s.s.s.s.s.s.s.s.s.s.s.s.s.s.s.s.s.s.s.s.a.s.X.#.#.$.*.*.*.*.;.;.;.;.;.:.:.;.7.:.:.:.:.:.:.:.;.:.7.7.:.:.:.7.:.r.r.r.r.r.r.y.y.y.y.y.d.y.d.d.d.g.g.g.g.g.f.h.g.g.g.g.g.h.h.h.h.h.h.h.h.h.h.h.C.C.C.C.l.l.C.C.C.C.S.C.C.C.C.C.C.l.l.C.C.C.C.l.C.C.C.C.C.l.l.l.l.h.h.l.h.l.l.l.h.l.l.C.l.h.h.h.h.h.h.h.h.h.h.g.h.g.g.g.g.g.g.g.g.g.g.g.d.g.g.d.d.d.d.d.d.d.d.d.y.y.y.y.y.y.y.y.r.y.y.r.y.y.y.y.r.y.y.y.r.r.r.r.r.:.:.:.:.7.7.7.7.:.5.5.:.5.5.5.:.;.;.;.;.;.;.;.;.-.*.*.*.;.;.*.;.;.;.*.*.*.$.*.$.$.#.$.$.$.$.$.$.$.#.#.#.#.#.#.#.#.@.| ] | @...' | | ' | | | ( ( ` ` ( ( ( ( ( / E E E T U U G F D Z Z V V z z j d 0 0 6 s.s.s.s.s.s.s.s.s.s.s.s.s.s.s.s.s.s.s.s.s.s.s.s.s.s.s.s.s.s.s.s.s.s.s.s.s.s.s.s.s.s.s.s.s.s.s.s.s.s.s.s.s.s.s.s.s.s.s.s.s.s.s.s.s.s.s.s.s.s.s.s.s.s.s.s.s.s.s.s.s.s.s.s.s.s.s.s.s.s.s.s.s.s.s.s.s.s.s.s.s.s.s.s.s.s.s.s.s.s.s.s.s.s.s.s.s.s.s.s.s.s.s.s.s.s.s.s.s.s.s.s.s.s.s.s.s.s.s.s.s.s.s.s.s.s.s.s.s.s.s.s.s.s.s.s.s.s.s.s.s.s.s.s.s.s.s.s.s.s.s.s.s.s.s.s.s.s.s.s.s.s.s.s.s.s.s.s.s.s.s.s.s.s.s.s.s.s.s.s.s.s.s.s.s.s.s.s.s.s.s.s.s.s.s.s.s.s.s.s.s.s.s.s.s.s.s.s.s.s.s.s.s.s.s.s.s.s.s.s.s.s.s.s.s.s.s.s.s.s.s.s.s.s.",
"s.s.s.s.s.s.s.s.s.s.s.s.s.s.s.s.s.s.s.s.s.s.s.s.s.s.s.s.s.s.s.s.s.s.s.s.s.s.s.s.s.s.s.s.s.s.s.s.s.s.s.s.s.s.s.s.s.s.s.s.s.s.s.s.s.s.s.s.X.#.#.$.$.*.$.#.$.;.;.:.:.;.:.:.;.:.:.:.:.:.:.:.:.;.:.:.7.:.7.7.7.r.r.r.r.r.r.y.y.y.y.y.y.d.d.f.d.d.g.g.g.g.g.g.g.g.g.g.h.l.l.h.h.h.h.h.l.l.l.l.l.C.C.l.C.C.C.C.A.C.C.A.C.C.C.C.C.l.l.C.C.C.C.C.l.A.A.C.C.C.C.l.l.h.l.h.l.h.l.C.l.h.l.l.l.l.l.h.h.h.h.h.h.g.g.g.g.g.g.g.g.g.g.g.g.g.g.g.g.d.g.g.d.d.d.d.d.d.d.d.d.y.y.y.y.y.y.y.y.r.y.y.r.r.r.r.r.r.y.y.y.r.y.r.r.r.:.:.:.:.7.7.7.7.:.7.5.5.5.5.:.7.5.;.;.;.;.;.;.;.;.*.$.*.;.;.*.;.;.;.*.*.;.*.*.*.$.#.#.$.$.$.$.$.#.#.#.@.#.#.#.#.#.....| ' ......| ' ' ' | ' ( ` ` ` ( ( ( ( ( / E E E T T U F F D A Z V M z z j d 0 7 1 s.s.s.s.s.s.s.s.s.s.s.s.s.s.s.s.s.s.s.s.s.s.s.s.s.s.s.s.s.s.s.s.s.s.s.s.s.s.s.s.s.s.s.s.s.s.s.s.s.s.s.s.s.s.s.s.s.s.s.s.s.s.s.s.s.s.s.s.s.s.s.s.s.s.s.s.s.s.s.s.s.s.s.s.s.s.s.s.s.s.s.s.s.s.s.s.s.s.s.s.s.s.s.s.s.s.s.s.s.s.s.s.s.s.s.s.s.s.s.s.s.s.s.s.s.s.s.s.s.s.s.s.s.s.s.s.s.s.s.s.s.s.s.s.s.s.s.s.s.s.s.s.s.s.s.s.s.s.s.s.s.s.s.s.s.s.s.s.s.s.s.s.s.s.s.s.s.s.s.s.s.s.s.s.s.s.s.s.s.s.s.s.s.s.s.s.s.s.s.s.s.s.s.s.s.s.s.s.s.s.s.s.s.s.s.s.s.s.s.s.s.s.s.s.s.s.s.s.s.s.s.s.s.s.s.s.s.s.s.s.s.s.s.s.s.s.s.s.s.s.s.s.s.s.",
"s.s.s.s.s.s.s.s.s.s.s.s.s.s.s.s.s.s.s.s.s.s.s.s.s.s.s.s.s.s.s.s.s.s.s.s.s.s.s.s.s.s.s.s.s.s.s.s.s.s.s.s.s.s.s.s.s.s.s.s.s.s.s.s.s.s.s.s...#.$.*.*.$.*.*.-.;.;.;.;.;.:.:.;.;.:.:.7.7.7.7.7.:.:.:.7.7.7.7.7.r.r.r.r.y.y.r.y.y.y.y.y.y.d.d.d.d.g.g.g.g.g.g.h.g.g.h.h.h.l.l.l.l.l.l.l.l.C.l.l.C.C.C.C.S.C.C.C.C.A.C.S.C.C.C.C.C.C.l.l.C.C.C.C.C.C.A.C.C.l.A.C.l.l.l.l.l.l.l.l.l.h.l.l.l.l.l.l.h.h.h.h.g.g.g.g.g.g.g.g.g.g.g.g.g.g.g.g.d.g.g.d.d.d.d.d.d.d.d.g.y.y.y.y.y.y.y.y.y.y.y.r.y.r.r.y.y.y.y.r.y.y.r.r.r.:.:.:.:.7.7.7.7.:.5.5.5.5.:.;.:.;.;.;.;.;.;.;.*.;.-.*.*.*.*.;.;.;.;.*.*.;.;.*.*.#.#.#.#.#.#.#.#.#.#.#.#.#.@.#.#.@.......] ..@.....' ' ' | ` ' ( ` ` ( ( ( ( ( / E E E T G U F F D Z Z V M z k d 0 0 6 r s.s.s.s.s.s.s.s.s.s.s.s.s.s.s.s.s.s.s.s.s.s.s.s.s.s.s.s.s.s.s.s.s.s.s.s.s.s.s.s.s.s.s.s.s.s.s.s.s.s.s.s.s.s.s.s.s.s.s.s.s.s.s.s.s.s.s.s.s.s.s.s.s.s.s.s.s.s.s.s.s.s.s.s.s.s.s.s.s.s.s.s.s.s.s.s.s.s.s.s.s.s.s.s.s.s.s.s.s.s.s.s.s.s.s.s.s.s.s.s.s.s.s.s.s.s.s.s.s.s.s.s.s.s.s.s.s.s.s.s.s.s.s.s.s.s.s.s.s.s.s.s.s.s.s.s.s.s.s.s.s.s.s.s.s.s.s.s.s.s.s.s.s.s.s.s.s.s.s.s.s.s.s.s.s.s.s.s.s.s.s.s.s.s.s.s.s.s.s.s.s.s.s.s.s.s.s.s.s.s.s.s.s.s.s.s.s.s.s.s.s.s.s.s.s.s.s.s.s.s.s.s.s.s.s.s.s.s.s.s.s.s.s.s.s.s.s.s.s.s.s.s.s.s.",
"s.s.s.s.s.s.s.s.s.s.s.s.s.s.s.s.s.s.s.s.s.s.s.s.s.s.s.s.s.s.s.s.s.s.s.s.s.s.s.s.s.s.s.s.s.s.s.s.s.s.s.s.s.s.s.s.s.s.s.s.s.s.s.s.s.s.s.X.@.#.$.*.*.*.-.*.-.;.;.-.;.;.:.:.:.:.:.7.7.7.7.7.y.7.7.7.7.7.7.7.7.r.r.r.r.:.r.r.r.y.y.y.y.y.y.d.d.g.g.g.g.g.g.f.h.g.g.h.h.h.l.l.h.h.l.l.l.l.l.h.l.C.C.C.A.C.C.C.A.A.C.C.C.C.C.C.C.C.C.C.l.C.C.C.C.C.C.C.C.l.C.C.C.C.C.S.l.h.h.l.h.h.h.l.l.l.l.h.h.h.h.h.h.h.h.h.h.h.g.g.g.g.g.g.g.g.g.g.g.d.d.g.g.g.d.d.d.d.y.y.d.y.y.y.y.y.y.y.y.y.y.y.r.r.r.r.r.y.y.y.r.r.y.y.y.:.:.:.:.y.y.7.y.7.:.7.5.:.5.5.:.;.;.;.;.;.;.;.;.*.*.-.*.*.*.*.*.*.;.;.;.*.*.-.*.$.#.#.#.#.#.#.#.#.#.#.#.#.#.....#.#.@.@.....] ..] | | ' | ` ` ( ( ( ( ( ( ( ( / / E E E T G G F F D Z Z V M z k d y 0 < s.s.s.s.s.s.s.s.s.s.s.s.s.s.s.s.s.s.s.s.s.s.s.s.s.s.s.s.s.s.s.s.s.s.s.s.s.s.s.s.s.s.s.s.s.s.s.s.s.s.s.s.s.s.s.s.s.s.s.s.s.s.s.s.s.s.s.s.s.s.s.s.s.s.s.s.s.s.s.s.s.s.s.s.s.s.s.s.s.s.s.s.s.s.s.s.s.s.s.s.s.s.s.s.s.s.s.s.s.s.s.s.s.s.s.s.s.s.s.s.s.s.s.s.s.s.s.s.s.s.s.s.s.s.s.s.s.s.s.s.s.s.s.s.s.s.s.s.s.s.s.s.s.s.s.s.s.s.s.s.s.s.s.s.s.s.s.s.s.s.s.s.s.s.s.s.s.s.s.s.s.s.s.s.s.s.s.s.s.s.s.s.s.s.s.s.s.s.s.s.s.s.s.s.s.s.s.s.s.s.s.s.s.s.s.s.s.s.s.s.s.s.s.s.s.s.s.s.s.s.s.s.s.s.s.s.s.s.s.s.s.s.s.s.s.s.s.s.s.s.s.s.s.s.s.",
"s.s.s.s.s.s.s.s.s.s.s.s.s.s.s.s.s.s.s.s.s.s.s.s.s.s.s.s.s.s.s.s.s.s.s.s.s.s.s.s.s.s.s.s.s.s.s.s.s.s.s.s.s.s.s.s.s.s.s.s.s.s.s.s.s.s.( #.$.#.#.$.$.*.-.-.-.;.;.;.;.:.:.:.:.:.7.7.7.7.7.7.7.7.7.7.7.7.7.7.7.r.r.r.r.r.r.r.r.y.y.y.y.y.y.y.d.g.g.g.g.f.f.f.h.g.g.h.h.h.l.l.l.h.h.l.l.l.l.l.l.C.C.C.C.C.C.C.C.C.C.C.C.C.C.C.C.C.A.C.C.C.C.C.S.C.C.C.A.C.C.C.C.C.A.C.C.C.C.l.l.l.l.l.l.l.l.l.l.l.h.h.h.h.h.h.h.h.g.g.g.g.g.g.g.g.g.g.g.d.d.g.g.g.g.d.d.d.d.d.y.y.y.y.y.y.y.y.y.y.y.y.r.r.r.r.r.y.y.y.y.r.y.y.r.r.:.r.r.r.y.7.y.7.:.7.:.;.:.5.5.;.-.;.;.;.;.-.;.*.*.-.;.*.;.*.*.*.*.;.;.*.*.*.*.$.#.$.$.#.$.$.#.#.$.$.#.#.#.#.@.@...........' ] ] | | ' ' ` ( ( ( ` ( ( ( ( ( / / E E E T G G F F S Z Z V z k f a 0 8 1 s.s.s.s.s.s.s.s.s.s.s.s.s.s.s.s.s.s.s.s.s.s.s.s.s.s.s.s.s.s.s.s.s.s.s.s.s.s.s.s.s.s.s.s.s.s.s.s.s.s.s.s.s.s.s.s.s.s.s.s.s.s.s.s.s.s.s.s.s.s.s.s.s.s.s.s.s.s.s.s.s.s.s.s.s.s.s.s.s.s.s.s.s.s.s.s.s.s.s.s.s.s.s.s.s.s.s.s.s.s.s.s.s.s.s.s.s.s.s.s.s.s.s.s.s.s.s.s.s.s.s.s.s.s.s.s.s.s.s.s.s.s.s.s.s.s.s.s.s.s.s.s.s.s.s.s.s.s.s.s.s.s.s.s.s.s.s.s.s.s.s.s.s.s.s.s.s.s.s.s.s.s.s.s.s.s.s.s.s.s.s.s.s.s.s.s.s.s.s.s.s.s.s.s.s.s.s.s.s.s.s.s.s.s.s.s.s.s.s.s.s.s.s.s.s.s.s.s.s.s.s.s.s.s.s.s.s.s.s.s.s.s.s.s.s.s.s.s.s.s.s.s.s.s.s.",
"s.s.s.s.s.s.s.s.s.s.s.s.s.s.s.s.s.s.s.s.s.s.s.s.s.s.s.s.s.s.s.s.s.s.s.s.s.s.s.s.s.s.s.s.s.s.s.s.s.s.s.s.s.s.s.s.s.s.s.s.s.s.s.s.s.s...#.#.#.#.$.*.*.-.-.*.;.;.:.:.:.:.:.:.:.:.7.7.7.7.y.7.7.7.7.7.7.7.7.7.r.r.r.r.y.r.r.r.y.y.y.y.y.y.y.y.g.g.g.g.f.f.f.h.g.h.h.h.g.h.l.l.l.h.l.l.l.l.C.C.C.C.C.C.A.A.A.C.C.C.C.C.A.C.C.C.C.C.C.C.C.C.C.C.C.C.C.A.C.C.C.C.A.C.C.C.C.C.C.C.l.l.l.l.l.l.l.l.h.l.h.h.h.h.h.h.g.g.g.g.g.g.g.g.g.g.g.g.g.g.g.g.g.g.g.d.d.d.d.d.y.y.y.y.y.y.y.y.y.y.y.r.r.r.y.r.y.r.r.y.y.r.y.:.:.:.:.:.y.7.7.:.:.7.5.:.;.:.5.:.;.-.;.;.;.-.-.;.*.*.;.;.*.;.*.#.$.*.*.;.;.*.$.*.$.$.$.#.#.$.$.#.$.#.#.#.#.#.#.#...@.....| | ] ' | | | ' ` ` ( ( ( ` ( ( ( ( ( / / E T T T U G F F S Z Z M z k d a 0 6 e s.s.s.s.s.s.s.s.s.s.s.s.s.s.s.s.s.s.s.s.s.s.s.s.s.s.s.s.s.s.s.s.s.s.s.s.s.s.s.s.s.s.s.s.s.s.s.s.s.s.s.s.s.s.s.s.s.s.s.s.s.s.s.s.s.s.s.s.s.s.s.s.s.s.s.s.s.s.s.s.s.s.s.s.s.s.s.s.s.s.s.s.s.s.s.s.s.s.s.s.s.s.s.s.s.s.s.s.s.s.s.s.s.s.s.s.s.s.s.s.s.s.s.s.s.s.s.s.s.s.s.s.s.s.s.s.s.s.s.s.s.s.s.s.s.s.s.s.s.s.s.s.s.s.s.s.s.s.s.s.s.s.s.s.s.s.s.s.s.s.s.s.s.s.s.s.s.s.s.s.s.s.s.s.s.s.s.s.s.s.s.s.s.s.s.s.s.s.s.s.s.s.s.s.s.s.s.s.s.s.s.s.s.s.s.s.s.s.s.s.s.s.s.s.s.s.s.s.s.s.s.s.s.s.s.s.s.s.s.s.s.s.s.s.s.s.s.s.s.s.s.s.s.s.s.",
"s.s.s.s.s.s.s.s.s.s.s.s.s.s.s.s.s.s.s.s.s.s.s.s.s.s.s.s.s.s.s.s.s.s.s.s.s.s.s.s.s.s.s.s.s.s.s.s.s.s.s.s.s.s.s.s.s.s.s.s.s.s.s.s.s.X...X.*.#.#.$.*.*.*.-.-.;.:.7.7.:.:.7.:.:.:.7.7.7.7.7.7.7.7.7.7.7.:.7.7.r.r.r.r.y.y.y.y.y.y.y.y.y.y.y.y.g.g.g.g.f.f.f.h.g.h.l.h.h.l.l.l.l.h.l.l.C.C.C.C.C.C.C.C.A.C.C.C.C.C.C.C.C.C.C.C.A.A.A.A.C.C.A.A.C.C.C.A.C.C.C.C.C.C.C.C.C.C.C.l.l.l.C.C.l.l.l.l.h.h.h.h.h.h.h.h.g.g.g.h.h.h.h.g.g.g.g.g.g.g.g.g.g.g.g.g.d.d.d.g.d.y.y.y.y.y.y.y.y.y.y.r.y.y.r.r.r.r.r.y.y.r.r.r.y.:.:.:.:.y.y.y.y.7.;.;.;.:.5.;.;.;.-.*.;.;.-.;.;.*.*.*.*.*.*.$.$.*.-.*.*.*.$.*.*.*.#.#.#.$.$.#.#.#.#.#.#.#.#.@.@.........' | ' ] ' ' ' ' ` ` ( ( ` ( ( ( ( ( / E E E T T U G F F S Z Z M z j d a 9 5 s.s.s.s.s.s.s.s.s.s.s.s.s.s.s.s.s.s.s.s.s.s.s.s.s.s.s.s.s.s.s.s.s.s.s.s.s.s.s.s.s.s.s.s.s.s.s.s.s.s.s.s.s.s.s.s.s.s.s.s.s.s.s.s.s.s.s.s.s.s.s.s.s.s.s.s.s.s.s.s.s.s.s.s.s.s.s.s.s.s.s.s.s.s.s.s.s.s.s.s.s.s.s.s.s.s.s.s.s.s.s.s.s.s.s.s.s.s.s.s.s.s.s.s.s.s.s.s.s.s.s.s.s.s.s.s.s.s.s.s.s.s.s.s.s.s.s.s.s.s.s.s.s.s.s.s.s.s.s.s.s.s.s.s.s.s.s.s.s.s.s.s.s.s.s.s.s.s.s.s.s.s.s.s.s.s.s.s.s.s.s.s.s.s.s.s.s.s.s.s.s.s.s.s.s.s.s.s.s.s.s.s.s.s.s.s.s.s.s.s.s.s.s.s.s.s.s.s.s.s.s.s.s.s.s.s.s.s.s.s.s.s.s.s.s.s.s.s.s.s.s.s.s.s.s.s.",
"s.s.s.s.s.s.s.s.s.s.s.s.s.s.s.s.s.s.s.s.s.s.s.s.s.s.s.s.s.s.s.s.s.s.s.s.s.s.s.s.s.s.s.s.s.s.s.s.s.s.s.s.s.s.s.s.s.s.s.s.s.s.s.s.s.| #.#.$.$.*.*.*.-.*.*.*.;.;.7.7.:.:.:.:.:.7.7.7.7.7.7.7.7.7.7.7.7.7.y.y.r.r.y.r.r.y.r.y.y.y.y.y.y.y.d.d.g.g.g.g.g.g.f.h.g.h.h.h.h.h.h.h.h.h.l.l.C.C.l.l.l.l.C.C.C.A.J.C.C.C.C.C.C.C.C.C.J.A.C.A.A.A.C.A.A.A.C.C.C.C.C.C.C.C.C.C.C.l.l.l.l.l.C.l.C.C.C.C.l.h.h.h.h.h.l.l.h.h.g.h.h.h.h.g.g.g.g.g.g.g.g.g.g.g.g.g.d.d.d.g.d.y.y.y.y.y.y.y.y.y.y.r.r.y.y.y.y.r.r.r.r.r.y.r.y.7.7.:.:.7.7.y.7.7.5.5.:.:.5.;.;.;.;.;.;.;.;.;.;.;.*.*.*.;.*.*.$.*.*.*.*.$.$.*.*.*.$.#.#.#.$.$.#.#.$.#.#.#.@.#.@.| | | | | | ' | | ' ' ' ' ' ' ` ' ` ` ( ( ( / / E E T U U G F F Z Z V M z j a 0 7 < s.s.s.s.s.s.s.s.s.s.s.s.s.s.s.s.s.s.s.s.s.s.s.s.s.s.s.s.s.s.s.s.s.s.s.s.s.s.s.s.s.s.s.s.s.s.s.s.s.s.s.s.s.s.s.s.s.s.s.s.s.s.s.s.s.s.s.s.s.s.s.s.s.s.s.s.s.s.s.s.s.s.s.s.s.s.s.s.s.s.s.s.s.s.s.s.s.s.s.s.s.s.s.s.s.s.s.s.s.s.s.s.s.s.s.s.s.s.s.s.s.s.s.s.s.s.s.s.s.s.s.s.s.s.s.s.s.s.s.s.s.s.s.s.s.s.s.s.s.s.s.s.s.s.s.s.s.s.s.s.s.s.s.s.s.s.s.s.s.s.s.s.s.s.s.s.s.s.s.s.s.s.s.s.s.s.s.s.s.s.s.s.s.s.s.s.s.s.s.s.s.s.s.s.s.s.s.s.s.s.s.s.s.s.s.s.s.s.s.s.s.s.s.s.s.s.s.s.s.s.s.s.s.s.s.s.s.s.s.s.s.s.s.s.s.s.s.s.s.s.s.s.s.s.s.s.",
"s.s.s.s.s.s.s.s.s.s.s.s.s.s.s.s.s.s.s.s.s.s.s.s.s.s.s.s.s.s.s.s.s.s.s.s.s.s.s.s.s.s.s.s.s.s.s.s.s.s.s.s.s.s.s.s.s.s.s.s.s.s.s.s.` | @.$.X.$.*.*.*.*.-.-.-.:.7.:.:.:.:.:.:.7.7.7.7.7.:.7.7.7.7.7.7.:.7.7.y.r.r.r.r.r.r.r.y.y.y.y.y.y.y.d.d.d.d.g.g.g.g.g.g.g.g.h.h.h.h.h.l.h.h.l.l.l.l.l.l.l.l.l.C.C.C.C.C.l.C.l.C.C.C.C.C.C.C.l.C.C.C.C.C.C.A.C.C.C.C.S.C.C.S.l.C.l.l.l.l.l.l.l.l.l.C.l.l.l.l.l.l.l.l.l.l.h.h.h.h.h.h.h.g.g.g.g.g.g.g.g.g.g.g.g.g.d.d.d.d.y.y.y.y.y.y.y.y.y.y.y.r.r.y.y.r.y.y.r.r.r.r.r.r.7.y.y.y.7.7.7.7.7.:.5.5.5.:.;.;.;.;.;.;.;.;.*.;.;.*.*.;.;.*.*.*.*.$.*.*.*.*.*.*.*.$.$.$.#.#.#.#.#.#.#.#.#.#.@.@.@.| | ' ' | | | | ' ' ' ' ' ' ' ' ` ( ( ( ( ( / E E E T T U G P D Z V V m h d y 0 7 e s.s.s.s.s.s.s.s.s.s.s.s.s.s.s.s.s.s.s.s.s.s.s.s.s.s.s.s.s.s.s.s.s.s.s.s.s.s.s.s.s.s.s.s.s.s.s.s.s.s.s.s.s.s.s.s.s.s.s.s.s.s.s.s.s.s.s.s.s.s.s.s.s.s.s.s.s.s.s.s.s.s.s.s.s.s.s.s.s.s.s.s.s.s.s.s.s.s.s.s.s.s.s.s.s.s.s.s.s.s.s.s.s.s.s.s.s.s.s.s.s.s.s.s.s.s.s.s.s.s.s.s.s.s.s.s.s.s.s.s.s.s.s.s.s.s.s.s.s.s.s.s.s.s.s.s.s.s.s.s.s.s.s.s.s.s.s.s.s.s.s.s.s.s.s.s.s.s.s.s.s.s.s.s.s.s.s.s.s.s.s.s.s.s.s.s.s.s.s.s.s.s.s.s.s.s.s.s.s.s.s.s.s.s.s.s.s.s.s.s.s.s.s.s.s.s.s.s.s.s.s.s.s.s.s.s.s.s.s.s.s.s.s.s.s.s.s.s.s.s.s.s.s.s.s.s.",
"s.s.s.s.s.s.s.s.s.s.s.s.s.s.s.s.s.s.s.s.s.s.s.s.s.s.s.s.s.s.s.s.s.s.s.s.s.s.s.s.s.s.s.s.s.s.s.s.s.s.s.s.s.s.s.s.s.s.s.s.s.s.s.{ | @.#.#.*.*.*.*.*.-.-.-.;.:.:.:.;.:.7.7.:.7.7.7.7.7.7.:.:.7.7.7.7.:.:.7.7.r.r.r.r.r.y.y.y.y.y.y.y.y.y.f.d.d.g.g.g.h.g.g.g.h.h.h.h.l.l.h.h.h.l.l.l.l.C.C.l.l.l.l.C.l.l.C.l.l.C.C.C.C.C.C.C.A.C.C.C.C.C.C.C.C.C.C.C.C.C.S.C.l.l.l.l.l.C.C.S.l.l.l.C.C.l.l.l.C.C.l.l.h.h.h.h.h.h.h.g.h.h.h.h.g.g.g.g.g.g.g.g.g.g.g.g.d.d.d.d.y.y.y.y.y.y.y.y.y.y.y.r.r.y.y.y.r.r.r.y.r.r.r.r.y.y.y.y.7.7.7.7.7.5.5.5.5.:.;.;.:.;.;.;.;.*.*.*.;.*.*.;.*.*.*.-.*.$.$.*.*.*.$.$.$.$.$.#.#.#.#.#.#.#.#.#.#.#.#.@.@.| | ' ' | | | | ' ' ' ' ` ( ( ' ( ( ( ( / ( / E E E T U G P F D Z V V z k d y 0 4 s.s.s.s.s.s.s.s.s.s.s.s.s.s.s.s.s.s.s.s.s.s.s.s.s.s.s.s.s.s.s.s.s.s.s.s.s.s.s.s.s.s.s.s.s.s.s.s.s.s.s.s.s.s.s.s.s.s.s.s.s.s.s.s.s.s.s.s.s.s.s.s.s.s.s.s.s.s.s.s.s.s.s.s.s.s.s.s.s.s.s.s.s.s.s.s.s.s.s.s.s.s.s.s.s.s.s.s.s.s.s.s.s.s.s.s.s.s.s.s.s.s.s.s.s.s.s.s.s.s.s.s.s.s.s.s.s.s.s.s.s.s.s.s.s.s.s.s.s.s.s.s.s.s.s.s.s.s.s.s.s.s.s.s.s.s.s.s.s.s.s.s.s.s.s.s.s.s.s.s.s.s.s.s.s.s.s.s.s.s.s.s.s.s.s.s.s.s.s.s.s.s.s.s.s.s.s.s.s.s.s.s.s.s.s.s.s.s.s.s.s.s.s.s.s.s.s.s.s.s.s.s.s.s.s.s.s.s.s.s.s.s.s.s.s.s.s.s.s.s.s.s.s.s.s.s.s.",
"s.s.s.s.s.s.s.s.s.s.s.s.s.s.s.s.s.s.s.s.s.s.s.s.s.s.s.s.s.s.s.s.s.s.s.s.s.s.s.s.s.s.s.s.s.s.s.s.s.s.s.s.s.s.s.s.s.s.s.s.s.s.s. ...#.$.*.$.$.*.*.*.-.-.*.;.;.:.:.:.:.7.7.7.7.7.7.7.7.7.:.:.7.7.7.7.:.7.7.7.r.r.r.r.y.y.y.y.y.y.y.y.y.y.f.d.g.d.g.g.g.g.h.h.h.h.h.h.h.h.h.h.l.l.l.h.l.C.C.C.l.l.l.C.l.l.l.C.l.C.C.C.C.C.A.A.A.C.C.C.C.C.C.C.A.A.C.C.C.C.C.C.C.C.C.C.C.C.C.C.l.l.l.l.l.l.l.l.l.l.l.l.l.l.l.l.h.h.h.g.l.h.h.h.g.g.g.g.g.g.h.g.g.g.g.g.g.d.d.d.d.y.y.y.y.y.y.y.y.y.y.r.r.y.y.y.r.r.r.y.r.r.r.r.y.y.y.y.7.7.y.7.:.:.:.:.;.;.:.:.:.;.;.;.;.;.-.;.;.*.*.;.;.*.*.*.*.*.*.*.$.$.$.$.#.#.#.$.#.#.#.#.#.#.#.#.$.#.#.#.#.| | | | | ' | | ' ( ' ' ( ( ( ` ( ( ( / / / / E E E T U G F F D Z M v z k d y 9 5 s.s.s.s.s.s.s.s.s.s.s.s.s.s.s.s.s.s.s.s.s.s.s.s.s.s.s.s.s.s.s.s.s.s.s.s.s.s.s.s.s.s.s.s.s.s.s.s.s.s.s.s.s.s.s.s.s.s.s.s.s.s.s.s.s.s.s.s.s.s.s.s.s.s.s.s.s.s.s.s.s.s.s.s.s.s.s.s.s.s.s.s.s.s.s.s.s.s.s.s.s.s.s.s.s.s.s.s.s.s.s.s.s.s.s.s.s.s.s.s.s.s.s.s.s.s.s.s.s.s.s.s.s.s.s.s.s.s.s.s.s.s.s.s.s.s.s.s.s.s.s.s.s.s.s.s.s.s.s.s.s.s.s.s.s.s.s.s.s.s.s.s.s.s.s.s.s.s.s.s.s.s.s.s.s.s.s.s.s.s.s.s.s.s.s.s.s.s.s.s.s.s.s.s.s.s.s.s.s.s.s.s.s.s.s.s.s.s.s.s.s.s.s.s.s.s.s.s.s.s.s.s.s.s.s.s.s.s.s.s.s.s.s.s.s.s.s.s.s.s.s.s.s.s.s.s.s.",
"s.s.s.s.s.s.s.s.s.s.s.s.s.s.s.s.s.s.s.s.s.s.s.s.s.s.s.s.s.s.s.s.s.s.s.s.s.s.s.s.s.s.s.s.s.s.s.s.s.s.s.s.s.s.s.s.s.s.s.s.s.s. ...#.#.*.*.*.*.*.*.*.-.-.-.-.:.:.:.7.7.7.7.:.:.7.7.7.7.7.7.:.7.:.7.:.7.:.:.7.r.r.y.y.y.y.y.y.y.y.y.y.d.y.d.g.g.g.g.g.g.g.g.h.l.h.h.h.h.h.h.h.l.l.h.h.h.l.C.C.C.C.C.C.C.C.C.C.C.C.C.l.C.C.C.C.C.A.C.C.C.A.C.l.A.C.C.C.C.C.l.C.C.C.C.C.l.C.C.C.l.l.l.l.C.l.l.l.l.l.l.l.l.l.l.h.l.h.h.h.h.h.h.h.h.g.g.d.g.g.g.g.g.g.g.g.g.g.g.g.d.y.y.y.y.y.y.y.y.y.r.y.y.y.y.r.r.r.r.r.r.r.r.r.y.y.y.7.:.7.y.7.:.:.:.;.;.;.:.5.;.;.;.;.-.;.-.-.-.*.*.*.;.*.*.$.$.*.$.$.$.*.$.$.$.$.$.#.#.#.#.#.#.#.#.@.#.#.#.@...] ' ' | | ' | | ' ' ` ' ` ( ( ( ( ( ( / / / E E E T T T G F F D Z M m z f d 0 7 1 s.s.s.s.s.s.s.s.s.s.s.s.s.s.s.s.s.s.s.s.s.s.s.s.s.s.s.s.s.s.s.s.s.s.s.s.s.s.s.s.s.s.s.s.s.s.s.s.s.s.s.s.s.s.s.s.s.s.s.s.s.s.s.s.s.s.s.s.s.s.s.s.s.s.s.s.s.s.s.s.s.s.s.s.s.s.s.s.s.s.s.s.s.s.s.s.s.s.s.s.s.s.s.s.s.s.s.s.s.s.s.s.s.s.s.s.s.s.s.s.s.s.s.s.s.s.s.s.s.s.s.s.s.s.s.s.s.s.s.s.s.s.s.s.s.s.s.s.s.s.s.s.s.s.s.s.s.s.s.s.s.s.s.s.s.s.s.s.s.s.s.s.s.s.s.s.s.s.s.s.s.s.s.s.s.s.s.s.s.s.s.s.s.s.s.s.s.s.s.s.s.s.s.s.s.s.s.s.s.s.s.s.s.s.s.s.s.s.s.s.s.s.s.s.s.s.s.s.s.s.s.s.s.s.s.s.s.s.s.s.s.s.s.s.s.s.s.s.s.s.s.s.s.s.s.s.s.",
"s.s.s.s.s.s.s.s.s.s.s.s.s.s.s.s.s.s.s.s.s.s.s.s.s.s.s.s.s.s.s.s.s.s.s.s.s.s.s.s.s.s.s.s.s.s.s.s.s.s.s.s.s.s.s.s.s.s.s.s.s.s. .#.#.#.$.*.-.*.-.-.;.-.;.-.-.:.:.7.7.7.7.7.7.:.7.7.7.7.7.7.7.:.:.:.:.:.7.7.7.r.r.y.y.y.y.y.y.y.y.y.y.d.y.d.g.d.g.g.h.g.g.g.g.h.h.h.h.h.h.h.h.l.l.l.l.l.l.l.l.C.C.C.C.C.C.C.C.A.C.C.C.C.C.C.l.l.l.l.l.C.A.A.C.C.C.l.C.C.C.A.C.C.C.C.C.C.C.C.C.l.l.l.l.l.l.l.l.l.l.l.l.l.l.l.l.l.l.l.l.h.l.l.h.g.g.g.g.g.g.g.g.g.g.g.g.d.g.g.g.g.y.y.y.y.y.y.y.y.y.y.y.y.y.y.y.r.r.r.y.y.r.r.r.y.y.y.7.:.7.7.7.:.5.:.:.:.:.;.;.;.;.;.;.;.;.-.-.-.;.*.*.*.*.*.*.*.*.$.$.*.*.$.$.$.$.$.#.#.#.#.#.#.#.#.#.#.#.#.@.] | ] | | | | | ' ' ' ` ` ' ` ( ( ( ( / / / / E E E E T U F F F S V M m k d y 0 7 s.s.s.s.s.s.s.s.s.s.s.s.s.s.s.s.s.s.s.s.s.s.s.s.s.s.s.s.s.s.s.s.s.s.s.s.s.s.s.s.s.s.s.s.s.s.s.s.s.s.s.s.s.s.s.s.s.s.s.s.s.s.s.s.s.s.s.s.s.s.s.s.s.s.s.s.s.s.s.s.s.s.s.s.s.s.s.s.s.s.s.s.s.s.s.s.s.s.s.s.s.s.s.s.s.s.s.s.s.s.s.s.s.s.s.s.s.s.s.s.s.s.s.s.s.s.s.s.s.s.s.s.s.s.s.s.s.s.s.s.s.s.s.s.s.s.s.s.s.s.s.s.s.s.s.s.s.s.s.s.s.s.s.s.s.s.s.s.s.s.s.s.s.s.s.s.s.s.s.s.s.s.s.s.s.s.s.s.s.s.s.s.s.s.s.s.s.s.s.s.s.s.s.s.s.s.s.s.s.s.s.s.s.s.s.s.s.s.s.s.s.s.s.s.s.s.s.s.s.s.s.s.s.s.s.s.s.s.s.s.s.s.s.s.s.s.s.s.s.s.s.s.s.s.s.s.s.s.",
"s.s.s.s.s.s.s.s.s.s.s.s.s.s.s.s.s.s.s.s.s.s.s.s.s.s.s.s.s.s.s.s.s.s.s.s.s.s.s.s.s.s.s.s.s.s.s.s.s.s.s.s.s.s.s.s.s.s.s.s.s...X...*.$.$.*.*.;.-.;.;.-.;.-.;.:.:.7.7.7.7.y.7.:.:.7.7.:.7.7.7.7.7.7.7.:.7.y.7.r.r.y.y.y.y.y.y.y.y.y.y.d.y.y.g.d.g.g.g.g.g.g.h.h.h.h.h.h.l.h.l.l.l.l.C.l.l.C.C.C.C.C.l.C.A.C.C.A.C.C.A.A.A.A.A.A.C.C.C.A.A.A.C.C.C.C.A.C.C.C.C.C.C.C.C.C.C.C.C.C.C.C.C.l.l.l.l.l.l.l.l.l.l.l.l.l.l.l.l.l.l.l.l.h.g.g.g.g.g.g.g.g.g.g.g.g.g.g.g.g.d.y.y.y.y.y.y.y.y.y.r.y.y.r.r.y.y.y.y.y.r.r.r.y.y.y.7.:.7.7.7.:.7.5.5.5.5.;.;.;.;.-.;.;.;.*.*.*.*.*.*.*.*.;.;.*.*.$.$.*.$.$.$.$.$.$.#.#.#.#.#.#.#.#.#.@.#.@.....| | | | | | | | ' ' ` ` ' ' ( ( ( ( / / / / / E E T T U G F D A V M z k d 0 9 6 s.s.s.s.s.s.s.s.s.s.s.s.s.s.s.s.s.s.s.s.s.s.s.s.s.s.s.s.s.s.s.s.s.s.s.s.s.s.s.s.s.s.s.s.s.s.s.s.s.s.s.s.s.s.s.s.s.s.s.s.s.s.s.s.s.s.s.s.s.s.s.s.s.s.s.s.s.s.s.s.s.s.s.s.s.s.s.s.s.s.s.s.s.s.s.s.s.s.s.s.s.s.s.s.s.s.s.s.s.s.s.s.s.s.s.s.s.s.s.s.s.s.s.s.s.s.s.s.s.s.s.s.s.s.s.s.s.s.s.s.s.s.s.s.s.s.s.s.s.s.s.s.s.s.s.s.s.s.s.s.s.s.s.s.s.s.s.s.s.s.s.s.s.s.s.s.s.s.s.s.s.s.s.s.s.s.s.s.s.s.s.s.s.s.s.s.s.s.s.s.s.s.s.s.s.s.s.s.s.s.s.s.s.s.s.s.s.s.s.s.s.s.s.s.s.s.s.s.s.s.s.s.s.s.s.s.s.s.s.s.s.s.s.s.s.s.s.s.s.s.s.s.s.s.s.s.s.s.",
"s.s.s.s.s.s.s.s.s.s.s.s.s.s.s.s.s.s.s.s.s.s.s.s.s.s.s.s.s.s.s.s.s.s.s.s.s.s.s.s.s.s.s.s.s.s.s.s.s.s.s.s.s.s.s.s.s.s.s.s.{ #.#...$.X.$.$.$.;.;.;.;.;.:.;.:.7.:.7.7.7.7.7.7.:.7.7.7.:.:.7.7.7.7.7.7.7.7.7.y.r.r.y.y.y.y.y.y.y.y.y.y.d.y.d.d.g.g.g.g.h.g.h.h.h.g.h.g.l.l.l.l.C.l.l.l.l.C.C.C.C.C.l.C.l.C.C.A.A.A.A.A.C.C.l.A.A.A.A.A.A.A.A.C.C.C.C.C.C.A.J.C.C.C.C.C.C.C.C.C.C.C.C.C.l.l.l.l.l.l.l.l.l.l.l.l.l.l.l.l.l.l.l.l.l.h.g.g.g.g.g.g.g.g.g.g.g.g.g.g.g.d.y.y.y.y.y.y.y.y.y.r.r.y.r.r.y.y.y.r.y.r.r.r.r.y.y.7.7.7.:.7.7.7.5.5.7.:.;.;.;.-.;.;.;.;.*.*.*.$.*.*.$.*.*.*.*.*.$.$.$.$.$.$.$.$.$.#.#.#.#.#.#.@.#.#.#.@.@...| ] | | ' | | | | ' ' ` ` ' ` ( ( ( ( / / / / E E E T U U G D D Z V m z j a 0 7 4 s.s.s.s.s.s.s.s.s.s.s.s.s.s.s.s.s.s.s.s.s.s.s.s.s.s.s.s.s.s.s.s.s.s.s.s.s.s.s.s.s.s.s.s.s.s.s.s.s.s.s.s.s.s.s.s.s.s.s.s.s.s.s.s.s.s.s.s.s.s.s.s.s.s.s.s.s.s.s.s.s.s.s.s.s.s.s.s.s.s.s.s.s.s.s.s.s.s.s.s.s.s.s.s.s.s.s.s.s.s.s.s.s.s.s.s.s.s.s.s.s.s.s.s.s.s.s.s.s.s.s.s.s.s.s.s.s.s.s.s.s.s.s.s.s.s.s.s.s.s.s.s.s.s.s.s.s.s.s.s.s.s.s.s.s.s.s.s.s.s.s.s.s.s.s.s.s.s.s.s.s.s.s.s.s.s.s.s.s.s.s.s.s.s.s.s.s.s.s.s.s.s.s.s.s.s.s.s.s.s.s.s.s.s.s.s.s.s.s.s.s.s.s.s.s.s.s.s.s.s.s.s.s.s.s.s.s.s.s.s.s.s.s.s.s.s.s.s.s.s.s.s.s.s.s.s.s.s.",
"s.s.s.s.s.s.s.s.s.s.s.s.s.s.s.s.s.s.s.s.s.s.s.s.s.s.s.s.s.s.s.s.s.s.s.s.s.s.s.s.s.s.s.s.s.s.s.s.s.s.s.s.s.s.s.s.s.s.s.s.[ ..| $.$.#.$.$.*.;.;.;.;.:.:.;.;.:.:.:.:.:.7.7.7.7.7.7.:.:.:.:.7.7.7.7.7.7.7.7.y.r.r.r.r.r.y.y.y.y.y.y.y.y.d.d.d.d.g.g.f.g.f.h.h.h.g.g.h.h.h.h.l.l.l.C.l.C.l.C.C.C.C.C.l.C.C.A.A.C.A.J.A.C.l.l.A.A.A.A.A.C.C.C.C.A.A.C.C.C.C.C.C.C.C.C.S.C.C.C.C.C.C.C.l.l.l.l.l.l.C.l.h.l.l.h.l.l.l.h.l.l.l.l.h.h.h.g.g.g.g.g.g.g.g.g.g.g.g.g.g.g.y.y.y.y.y.y.y.y.y.y.y.y.y.r.r.y.y.y.r.y.r.r.r.y.y.7.7.7.7.7.7.:.5.5.:.:.:.:.;.;.;.;.;.;.;.*.;.;.$.$.*.*.$.*.*.*.*.#.#.$.$.$.$.$.$.$.#.#.#.#.#.#.#.#.@.#.@.@...' ' ..| ' | | | | ' ' ' ` ` ` ( ( ( ( / / / E E E T T U G G D D Z V z z d a 0 7 s.s.s.s.s.s.s.s.s.s.s.s.s.s.s.s.s.s.s.s.s.s.s.s.s.s.s.s.s.s.s.s.s.s.s.s.s.s.s.s.s.s.s.s.s.s.s.s.s.s.s.s.s.s.s.s.s.s.s.s.s.s.s.s.s.s.s.s.s.s.s.s.s.s.s.s.s.s.s.s.s.s.s.s.s.s.s.s.s.s.s.s.s.s.s.s.s.s.s.s.s.s.s.s.s.s.s.s.s.s.s.s.s.s.s.s.s.s.s.s.s.s.s.s.s.s.s.s.s.s.s.s.s.s.s.s.s.s.s.s.s.s.s.s.s.s.s.s.s.s.s.s.s.s.s.s.s.s.s.s.s.s.s.s.s.s.s.s.s.s.s.s.s.s.s.s.s.s.s.s.s.s.s.s.s.s.s.s.s.s.s.s.s.s.s.s.s.s.s.s.s.s.s.s.s.s.s.s.s.s.s.s.s.s.s.s.s.s.s.s.s.s.s.s.s.s.s.s.s.s.s.s.s.s.s.s.s.s.s.s.s.s.s.s.s.s.s.s.s.s.s.s.s.s.s.s.s.s.s.",
"s.s.s.s.s.s.s.s.s.s.s.s.s.s.s.s.s.s.s.s.s.s.s.s.s.s.s.s.s.s.s.s.s.s.s.s.s.s.s.s.s.s.s.s.s.s.s.s.s.s.s.s.s.s.s.s.s.s.s.( ..| ..#.#.#.-.*.-.;.;.:.:.:.;.7.:.;.:.:.:.:.7.7.7.7.7.7.:.7.7.:.:.7.7.7.7.7.y.y.y.r.r.r.r.r.r.r.y.r.y.y.y.y.d.g.d.d.d.g.g.g.g.h.g.h.g.g.h.h.h.h.h.l.l.C.C.C.l.l.C.C.C.C.C.A.A.A.A.A.C.A.A.C.A.A.J.J.J.A.A.C.A.C.C.A.A.A.C.C.C.C.C.C.C.C.l.C.C.C.C.l.l.l.l.h.l.l.h.h.l.l.h.l.l.h.h.l.h.h.h.h.h.h.h.h.h.h.h.h.h.g.g.g.g.g.g.g.g.g.g.g.y.y.y.d.y.y.y.y.y.y.y.y.y.r.r.y.y.y.r.r.r.r.r.y.7.7.7.y.7.7.7.:.5.5.:.:.:.:.;.;.;.;.;.;.*.*.;.;.*.$.$.*.$.*.*.*.*.$.#.$.$.$.$.$.$.#.$.#.#.#.#.#.#.@.@.#.#.....] ' ] | | | | | | | ' ( ( ( ( ( ( ( ( / / / E E E T T U G F A Z Z V m j d d 8 1 s.s.s.s.s.s.s.s.s.s.s.s.s.s.s.s.s.s.s.s.s.s.s.s.s.s.s.s.s.s.s.s.s.s.s.s.s.s.s.s.s.s.s.s.s.s.s.s.s.s.s.s.s.s.s.s.s.s.s.s.s.s.s.s.s.s.s.s.s.s.s.s.s.s.s.s.s.s.s.s.s.s.s.s.s.s.s.s.s.s.s.s.s.s.s.s.s.s.s.s.s.s.s.s.s.s.s.s.s.s.s.s.s.s.s.s.s.s.s.s.s.s.s.s.s.s.s.s.s.s.s.s.s.s.s.s.s.s.s.s.s.s.s.s.s.s.s.s.s.s.s.s.s.s.s.s.s.s.s.s.s.s.s.s.s.s.s.s.s.s.s.s.s.s.s.s.s.s.s.s.s.s.s.s.s.s.s.s.s.s.s.s.s.s.s.s.s.s.s.s.s.s.s.s.s.s.s.s.s.s.s.s.s.s.s.s.s.s.s.s.s.s.s.s.s.s.s.s.s.s.s.s.s.s.s.s.s.s.s.s.s.s.s.s.s.s.s.s.s.s.s.s.s.s.s.s.s.s.s.",
"s.s.s.s.s.s.s.s.s.s.s.s.s.s.s.s.s.s.s.s.s.s.s.s.s.s.s.s.s.s.s.s.s.s.s.s.s.s.s.s.s.s.s.s.s.s.s.s.s.s.s.s.s.s.s.s.s.s.s.| | ....#.#.#.*.-.-.;.;.:.:.:.;.;.:.;.:.7.7.:.7.7.:.7.7.7.7.7.7.:.7.7.7.y.y.7.y.y.y.r.r.r.r.r.r.r.y.y.y.y.y.y.g.g.d.g.d.g.g.g.g.f.g.h.h.h.h.g.h.l.l.C.C.C.C.C.l.l.C.l.C.J.J.A.A.A.A.J.J.A.C.A.J.J.A.J.J.A.C.C.C.C.A.A.A.A.A.A.C.C.C.C.C.C.C.C.C.C.C.l.l.h.h.l.l.l.l.h.h.l.l.l.l.h.h.l.h.h.h.h.h.h.h.h.h.g.g.g.g.g.g.g.h.g.g.g.g.g.g.g.y.y.y.y.y.y.d.y.y.y.y.y.y.y.y.y.y.y.r.r.:.r.r.y.y.7.7.7.7.7.:.:.5.5.5.:.5.;.;.;.;.;.;.*.*.-.*.;.*.$.$.$.*.*.*.$.$.$.#.#.#.$.$.$.$.#.#.#.#.#.#.#.#.#.@.#.@...| ] ] ] ] ] | ' ' | | ' ( ( ( ( ( ( ( ( / / / E E E T T U F F S Z Z V z j d a 7 6 s.s.s.s.s.s.s.s.s.s.s.s.s.s.s.s.s.s.s.s.s.s.s.s.s.s.s.s.s.s.s.s.s.s.s.s.s.s.s.s.s.s.s.s.s.s.s.s.s.s.s.s.s.s.s.s.s.s.s.s.s.s.s.s.s.s.s.s.s.s.s.s.s.s.s.s.s.s.s.s.s.s.s.s.s.s.s.s.s.s.s.s.s.s.s.s.s.s.s.s.s.s.s.s.s.s.s.s.s.s.s.s.s.s.s.s.s.s.s.s.s.s.s.s.s.s.s.s.s.s.s.s.s.s.s.s.s.s.s.s.s.s.s.s.s.s.s.s.s.s.s.s.s.s.s.s.s.s.s.s.s.s.s.s.s.s.s.s.s.s.s.s.s.s.s.s.s.s.s.s.s.s.s.s.s.s.s.s.s.s.s.s.s.s.s.s.s.s.s.s.s.s.s.s.s.s.s.s.s.s.s.s.s.s.s.s.s.s.s.s.s.s.s.s.s.s.s.s.s.s.s.s.s.s.s.s.s.s.s.s.s.s.s.s.s.s.s.s.s.s.s.s.s.s.s.s.s.s.s.",
"s.s.s.s.s.s.s.s.s.s.s.s.s.s.s.s.s.s.s.s.s.s.s.s.s.s.s.s.s.s.s.s.s.s.s.s.s.s.s.s.s.s.s.s.s.s.s.s.s.s.s.s.s.s.s.s.s.s.{ | ..#.#.#.#.#.$.-.-.:.;.:.:.:.;.:.:.;.:.:.7.:.7.7.7.7.7.7.7.7.7.7.7.7.7.y.7.7.y.y.y.y.r.r.r.r.r.r.y.y.y.y.y.y.g.g.d.g.g.f.h.g.g.g.y.g.h.h.h.h.h.h.l.h.l.l.C.C.l.l.C.l.C.A.A.A.A.C.A.J.J.J.A.A.A.A.C.C.A.A.J.J.A.A.A.A.A.A.C.C.A.A.C.A.C.l.C.C.C.C.C.l.l.l.l.l.l.C.l.l.l.l.l.l.l.h.h.l.h.h.h.h.h.h.h.h.h.g.g.h.h.g.h.h.g.g.g.g.g.g.g.g.d.d.y.y.y.y.g.y.y.y.y.y.y.y.y.y.y.r.r.r.r.r.r.y.y.7.7.7.:.7.7.:.5.5.:.:.;.;.;.;.;.;.;.-.;.-.*.;.;.*.$.$.*.*.$.$.*.$.#.$.$.$.$.$.#.#.#.@.#.#.#.@.#.#.#.@.@.....' ' ] ] ] | | ' | | ' ( ( ( ( ( ( ( ( / / / E E E T T U F F S Z Z V z j d 0 7 s.s.s.s.s.s.s.s.s.s.s.s.s.s.s.s.s.s.s.s.s.s.s.s.s.s.s.s.s.s.s.s.s.s.s.s.s.s.s.s.s.s.s.s.s.s.s.s.s.s.s.s.s.s.s.s.s.s.s.s.s.s.s.s.s.s.s.s.s.s.s.s.s.s.s.s.s.s.s.s.s.s.s.s.s.s.s.s.s.s.s.s.s.s.s.s.s.s.s.s.s.s.s.s.s.s.s.s.s.s.s.s.s.s.s.s.s.s.s.s.s.s.s.s.s.s.s.s.s.s.s.s.s.s.s.s.s.s.s.s.s.s.s.s.s.s.s.s.s.s.s.s.s.s.s.s.s.s.s.s.s.s.s.s.s.s.s.s.s.s.s.s.s.s.s.s.s.s.s.s.s.s.s.s.s.s.s.s.s.s.s.s.s.s.s.s.s.s.s.s.s.s.s.s.s.s.s.s.s.s.s.s.s.s.s.s.s.s.s.s.s.s.s.s.s.s.s.s.s.s.s.s.s.s.s.s.s.s.s.s.s.s.s.s.s.s.s.s.s.s.s.s.s.s.s.s.s.s.s.s.",
"s.s.s.s.s.s.s.s.s.s.s.s.s.s.s.s.s.s.s.s.s.s.s.s.s.s.s.s.s.s.s.s.s.s.s.s.s.s.s.s.s.s.s.s.s.s.s.s.s.s.s.s.s.s.s.s.s.s.| ..#.#.#.#.#.$.*.-.-.;.;.;.:.:.:.:.7.:.:.:.7.7.7.7.7.7.7.7.7.7.7.:.7.7.y.7.7.7.y.y.y.r.r.y.r.r.y.y.y.y.y.y.y.y.y.g.d.f.g.f.h.g.g.g.d.g.h.h.l.l.h.l.h.h.l.C.h.C.C.l.C.l.C.C.C.A.A.A.A.A.A.A.J.A.A.A.C.C.A.J.J.J.A.A.A.J.A.A.A.C.A.A.A.C.C.C.S.l.C.C.C.C.C.l.l.l.C.C.l.l.l.l.h.l.l.h.h.l.h.l.h.h.h.h.h.h.h.h.h.l.h.h.h.h.h.g.g.g.g.g.g.g.d.d.y.y.y.y.d.y.y.y.y.y.y.y.y.y.y.r.r.r.r.r.r.y.y.7.y.7.7.7.7.:.5.7.:.:.;.;.;.;.-.;.;.;.;.;.;.;.;.*.*.$.*.*.$.-.$.$.#.$.$.$.$.$.#.@.#.#.#.#.#.#.#.#.@.@.....| ] ] ] | | | ' ' ' ] ' ' ( ( ` ( ( ( ( / / / E E T T T U F F Z Z V m z j a 9 8 s.s.s.s.s.s.s.s.s.s.s.s.s.s.s.s.s.s.s.s.s.s.s.s.s.s.s.s.s.s.s.s.s.s.s.s.s.s.s.s.s.s.s.s.s.s.s.s.s.s.s.s.s.s.s.s.s.s.s.s.s.s.s.s.s.s.s.s.s.s.s.s.s.s.s.s.s.s.s.s.s.s.s.s.s.s.s.s.s.s.s.s.s.s.s.s.s.s.s.s.s.s.s.s.s.s.s.s.s.s.s.s.s.s.s.s.s.s.s.s.s.s.s.s.s.s.s.s.s.s.s.s.s.s.s.s.s.s.s.s.s.s.s.s.s.s.s.s.s.s.s.s.s.s.s.s.s.s.s.s.s.s.s.s.s.s.s.s.s.s.s.s.s.s.s.s.s.s.s.s.s.s.s.s.s.s.s.s.s.s.s.s.s.s.s.s.s.s.s.s.s.s.s.s.s.s.s.s.s.s.s.s.s.s.s.s.s.s.s.s.s.s.s.s.s.s.s.s.s.s.s.s.s.s.s.s.s.s.s.s.s.s.s.s.s.s.s.s.s.s.s.s.s.s.s.s.s.s.s.s.",
"s.s.s.s.s.s.s.s.s.s.s.s.s.s.s.s.s.s.s.s.s.s.s.s.s.s.s.s.s.s.s.s.s.s.s.s.s.s.s.s.s.s.s.s.s.s.s.s.s.s.s.s.s.s.s.s.s. .| ..$.#.#.#.$.$.*.-.-.;.;.;.:.:.:.7.:.:.:.:.:.7.7.7.7.7.7.7.7.7.7.7.7.7.7.7.7.7.7.7.7.:.y.r.r.y.y.y.y.y.y.y.y.y.y.g.g.g.g.g.g.g.f.g.g.h.h.l.l.l.l.l.h.l.C.C.l.C.C.C.C.C.C.l.C.C.C.C.C.A.A.A.C.C.C.C.C.J.J.J.J.J.A.A.A.J.A.A.A.A.A.A.A.C.C.C.l.C.C.C.C.C.C.C.C.C.C.l.l.l.l.l.h.h.h.h.l.l.h.l.h.h.h.h.h.h.h.h.h.h.h.h.g.g.g.g.h.g.g.g.g.d.d.y.y.y.y.y.d.d.d.y.y.y.y.y.y.y.y.r.r.r.r.r.r.7.y.7.y.y.7.7.7.:.5.5.:.5.:.;.;.;.;.;.;.;.;.;.;.;.*.*.-.*.$.$.*.$.$.$.$.#.#.$.$.$.#.#.#.$.#.#.#.#.#.@...@.@...| ..' ' ' ] | | ' ' ' ' ' ` ( ` ( / ( ( / E E E T T T T U F F A Z V z k j a 0 6 s.s.s.s.s.s.s.s.s.s.s.s.s.s.s.s.s.s.s.s.s.s.s.s.s.s.s.s.s.s.s.s.s.s.s.s.s.s.s.s.s.s.s.s.s.s.s.s.s.s.s.s.s.s.s.s.s.s.s.s.s.s.s.s.s.s.s.s.s.s.s.s.s.s.s.s.s.s.s.s.s.s.s.s.s.s.s.s.s.s.s.s.s.s.s.s.s.s.s.s.s.s.s.s.s.s.s.s.s.s.s.s.s.s.s.s.s.s.s.s.s.s.s.s.s.s.s.s.s.s.s.s.s.s.s.s.s.s.s.s.s.s.s.s.s.s.s.s.s.s.s.s.s.s.s.s.s.s.s.s.s.s.s.s.s.s.s.s.s.s.s.s.s.s.s.s.s.s.s.s.s.s.s.s.s.s.s.s.s.s.s.s.s.s.s.s.s.s.s.s.s.s.s.s.s.s.s.s.s.s.s.s.s.s.s.s.s.s.s.s.s.s.s.s.s.s.s.s.s.s.s.s.s.s.s.s.s.s.s.s.s.s.s.s.s.s.s.s.s.s.s.s.s.s.s.s.s.s.s.s.",
"s.s.s.s.s.s.s.s.s.s.s.s.s.s.s.s.s.s.s.s.s.s.s.s.s.s.s.s.s.s.s.s.s.s.s.s.s.s.s.s.s.s.s.s.s.s.s.s.s.s.s.s.s.s.s.s.s.`  ...@.#.$.$.=.*.*.-.-.:.:.:.:.:.:.:.:.;.;.:.:.7.7.7.7.7.7.7.7.7.:.7.:.7.7.7.7.7.y.y.y.r.y.r.y.y.y.y.y.y.y.y.y.d.g.g.g.g.g.g.g.g.g.g.g.h.h.h.h.l.l.l.l.C.l.l.C.C.A.A.C.C.C.C.A.J.J.J.J.J.J.J.J.J.J.J.J.J.J.J.J.J.A.C.C.C.A.A.A.A.C.C.l.C.C.C.C.C.C.C.C.A.C.A.C.C.C.l.l.l.l.l.h.h.h.h.h.l.l.h.h.h.h.h.h.h.h.h.h.g.h.h.h.h.g.g.h.g.g.g.g.g.g.d.y.y.y.y.y.y.y.y.y.y.y.y.y.y.y.r.r.r.r.r.r.7.y.7.7.y.7.7.7.:.:.5.7.5.:.;.;.;.;.;.;.;.;.*.;.;.$.*.*.*.$.$.$.$.$.$.$.#.#.$.*.$.#.#.#.#.#.#.#.#.#.@...@.@...| ..' ' ' | ..| ' | ' ' ' ( ` ( ( ( ( ( / E E E T T T U U F F Z Z V z k d y 7 s.s.s.s.s.s.s.s.s.s.s.s.s.s.s.s.s.s.s.s.s.s.s.s.s.s.s.s.s.s.s.s.s.s.s.s.s.s.s.s.s.s.s.s.s.s.s.s.s.s.s.s.s.s.s.s.s.s.s.s.s.s.s.s.s.s.s.s.s.s.s.s.s.s.s.s.s.s.s.s.s.s.s.s.s.s.s.s.s.s.s.s.s.s.s.s.s.s.s.s.s.s.s.s.s.s.s.s.s.s.s.s.s.s.s.s.s.s.s.s.s.s.s.s.s.s.s.s.s.s.s.s.s.s.s.s.s.s.s.s.s.s.s.s.s.s.s.s.s.s.s.s.s.s.s.s.s.s.s.s.s.s.s.s.s.s.s.s.s.s.s.s.s.s.s.s.s.s.s.s.s.s.s.s.s.s.s.s.s.s.s.s.s.s.s.s.s.s.s.s.s.s.s.s.s.s.s.s.s.s.s.s.s.s.s.s.s.s.s.s.s.s.s.s.s.s.s.s.s.s.s.s.s.s.s.s.s.s.s.s.s.s.s.s.s.s.s.s.s.s.s.s.s.s.s.s.s.s.s.s.s.",
"s.s.s.s.s.s.s.s.s.s.s.s.s.s.s.s.s.s.s.s.s.s.s.s.s.s.s.s.s.s.s.s.s.s.s.s.s.s.s.s.s.s.s.s.s.s.s.s.s.s.s.s.s.s.s.s.{  .| ' #.$.$.$.*.*.-.-.;.:.:.7.:.:.:.7.:.:.:.7.7.7.7.7.7.7.7.7.7.7.:.7.7.7.7.7.7.y.y.y.y.r.y.r.y.y.y.y.y.y.y.y.y.y.y.g.g.g.g.g.g.g.g.g.h.h.h.h.l.h.h.l.l.C.l.l.C.C.C.C.C.J.A.J.J.A.A.A.C.J.J.A.A.J.A.A.A.J.J.J.J.A.C.C.C.C.C.A.A.A.A.C.C.C.C.C.C.C.C.C.C.C.C.C.C.C.C.l.l.l.l.l.h.h.h.h.h.l.h.h.h.h.h.h.h.h.h.h.h.h.g.g.h.g.g.h.h.g.g.h.g.g.g.d.g.d.y.y.y.y.y.y.y.y.y.y.y.y.y.r.y.r.r.r.r.y.y.y.7.7.7.7.7.:.:.5.5.:.:.;.;.;.;.;.;.;.-.*.*.*.*.*.*.*.*.$.$.$.$.$.$.#.#.$.$.$.$.$.#.#.#.#.#.#.#.@...@.@...| ..' ' ' ] | | ' ' ` ` ( ( ( ( / ( ( ( / E R E E T T U G F D Z Z V z j d 0 7 s.s.s.s.s.s.s.s.s.s.s.s.s.s.s.s.s.s.s.s.s.s.s.s.s.s.s.s.s.s.s.s.s.s.s.s.s.s.s.s.s.s.s.s.s.s.s.s.s.s.s.s.s.s.s.s.s.s.s.s.s.s.s.s.s.s.s.s.s.s.s.s.s.s.s.s.s.s.s.s.s.s.s.s.s.s.s.s.s.s.s.s.s.s.s.s.s.s.s.s.s.s.s.s.s.s.s.s.s.s.s.s.s.s.s.s.s.s.s.s.s.s.s.s.s.s.s.s.s.s.s.s.s.s.s.s.s.s.s.s.s.s.s.s.s.s.s.s.s.s.s.s.s.s.s.s.s.s.s.s.s.s.s.s.s.s.s.s.s.s.s.s.s.s.s.s.s.s.s.s.s.s.s.s.s.s.s.s.s.s.s.s.s.s.s.s.s.s.s.s.s.s.s.s.s.s.s.s.s.s.s.s.s.s.s.s.s.s.s.s.s.s.s.s.s.s.s.s.s.s.s.s.s.s.s.s.s.s.s.s.s.s.s.s.s.s.s.s.s.s.s.s.s.s.s.s.s.s.s.s.s.",
"s.s.s.s.s.s.s.s.s.s.s.s.s.s.s.s.s.s.s.s.s.s.s.s.s.s.s.s.s.s.s.s.s.s.s.s.s.s.s.s.s.s.s.s.s.s.s.s.s.s.s.s.s.s.s.s.[ | | #.#.#.$.$.*.*.*.;.:.:.:.:.:.7.:.7.:.7.7.7.7.7.7.7.7.:.7.7.y.:.7.:.:.7.7.7.7.7.y.y.y.r.y.7.y.y.y.y.y.y.y.y.y.y.g.g.g.g.g.d.d.g.g.g.h.h.h.h.h.h.h.h.l.C.C.C.C.l.l.C.C.C.C.A.A.J.A.J.J.J.A.A.C.A.A.C.A.J.J.J.J.A.C.C.C.A.C.A.A.A.A.A.C.C.C.C.C.C.C.C.A.C.C.C.C.C.C.C.C.l.l.C.h.l.l.l.l.l.l.l.l.h.l.l.l.h.g.h.h.h.g.g.h.h.h.g.g.g.h.g.g.g.g.g.g.y.y.y.y.y.y.y.y.y.y.y.y.y.y.r.y.y.r.r.r.y.y.y.y.y.:.:.:.:.5.5.:.:.:.;.;.;.;.;.;.-.;.;.;.*.*.*.*.$.*.$.$.$.$.$.$.#.#.$.$.$.$.$.$.#.#.#.#.#.#.@.....@...| | ] ' ' | ' ' ' ' ` ' ( ' ( ( / ( ( ( / E R T E T T U G F D Z V V z j d 0 7 s.s.s.s.s.s.s.s.s.s.s.s.s.s.s.s.s.s.s.s.s.s.s.s.s.s.s.s.s.s.s.s.s.s.s.s.s.s.s.s.s.s.s.s.s.s.s.s.s.s.s.s.s.s.s.s.s.s.s.s.s.s.s.s.s.s.s.s.s.s.s.s.s.s.s.s.s.s.s.s.s.s.s.s.s.s.s.s.s.s.s.s.s.s.s.s.s.s.s.s.s.s.s.s.s.s.s.s.s.s.s.s.s.s.s.s.s.s.s.s.s.s.s.s.s.s.s.s.s.s.s.s.s.s.s.s.s.s.s.s.s.s.s.s.s.s.s.s.s.s.s.s.s.s.s.s.s.s.s.s.s.s.s.s.s.s.s.s.s.s.s.s.s.s.s.s.s.s.s.s.s.s.s.s.s.s.s.s.s.s.s.s.s.s.s.s.s.s.s.s.s.s.s.s.s.s.s.s.s.s.s.s.s.s.s.s.s.s.s.s.s.s.s.s.s.s.s.s.s.s.s.s.s.s.s.s.s.s.s.s.s.s.s.s.s.s.s.s.s.s.s.s.s.s.s.s.s.s.s.s.s.",
"s.s.s.s.s.s.s.s.s.s.s.s.s.s.s.s.s.s.s.s.s.s.s.s.s.s.s.s.s.s.s.s.s.s.s.s.s.s.s.s.s.s.s.s.s.s.s.s.s.s.s.s.a.s.s.[ | | | #.*.#.$.$.*.-.;.;.;.:.7.:.7.7.7.7.:.:.7.7.7.7.7.7.r.:.;.:.e.:.:.r.r.y.7.y.7.7.y.y.y.y.y.y.y.y.y.y.y.y.y.y.y.y.g.g.g.h.g.f.g.g.d.g.h.h.h.h.g.h.h.l.l.l.C.C.C.J.C.C.C.l.C.C.A.A.J.A.A.A.A.C.C.A.C.A.A.A.A.J.A.A.A.C.C.C.C.C.C.C.C.C.C.A.A.A.A.A.A.A.A.A.C.C.C.C.C.l.l.l.l.l.l.l.l.C.l.l.h.h.h.h.h.C.l.l.g.g.h.h.h.g.h.h.g.g.g.g.g.g.g.f.g.g.g.y.y.y.y.y.y.y.y.y.y.y.y.y.y.y.y.y.r.y.r.7.y.y.y.y.:.:.:.:.5.;.:.5.:.;.;.;.;.;.-.*.-.*.*.$.*.*.*.*.*.$.$.#.$.$.$.$.#.#.#.#.$.$.$.#.#.#.#.@.#.@.....@...| ' ' ' ' ' ' ' ( ' ` ` ( ( ( ( / ( ( ( / / E T T T T U G F S V Z V h d a 9 7 s.s.s.s.s.s.s.s.s.s.s.s.s.s.s.s.s.s.s.s.s.s.s.s.s.s.s.s.s.s.s.s.s.s.s.s.s.s.s.s.s.s.s.s.s.s.s.s.s.s.s.s.s.s.s.s.s.s.s.s.s.s.s.s.s.s.s.s.s.s.s.s.s.s.s.s.s.s.s.s.s.s.s.s.s.s.s.s.s.s.s.s.s.s.s.s.s.s.s.s.s.s.s.s.s.s.s.s.s.s.s.s.s.s.s.s.s.s.s.s.s.s.s.s.s.s.s.s.s.s.s.s.s.s.s.s.s.s.s.s.s.s.s.s.s.s.s.s.s.s.s.s.s.s.s.s.s.s.s.s.s.s.s.s.s.s.s.s.s.s.s.s.s.s.s.s.s.s.s.s.s.s.s.s.s.s.s.s.s.s.s.s.s.s.s.s.s.s.s.s.s.s.s.s.s.s.s.s.s.s.s.s.s.s.s.s.s.s.s.s.s.s.s.s.s.s.s.s.s.s.s.s.s.s.s.s.s.s.s.s.s.s.s.s.s.s.s.s.s.s.s.s.s.s.s.s.s.s.s.s.s.",
"s.s.s.s.s.s.s.s.s.s.s.s.s.s.s.s.s.s.s.s.s.s.s.s.s.s.s.s.s.s.s.s.s.s.s.s.s.s.s.s.s.s.s.s.s.s.s.s.s.s.s.s.s.s.s. ...| | #.#.$.*.$.*.*.;.;.;.:.7.7.7.7.7.:.7.:.7.7.7.7.7.7.7.:.:.:.:.:.:.r.:.7.y.y.7.7.y.y.y.y.y.y.y.y.y.y.y.y.g.y.y.y.g.g.g.g.g.g.f.g.f.f.f.h.l.l.h.h.l.l.l.l.C.C.C.A.C.C.C.C.C.A.A.J.J.A.C.C.A.A.C.J.A.A.A.A.A.A.A.A.A.C.C.C.C.C.C.C.C.C.C.A.A.A.A.J.A.A.C.C.C.C.C.C.C.l.l.l.l.l.l.C.C.C.l.l.l.h.h.l.l.l.l.h.h.g.h.h.h.h.h.h.g.g.g.g.h.g.g.g.g.g.g.d.d.y.y.y.y.y.y.y.y.y.y.y.y.y.y.r.y.y.y.y.y.y.:.:.:.:.:.5.5.:.:.5.5.:.;.;.-.;.-.-.;.;.;.*.*.#.$.*.$.$.$.$.$.$.$.#.#.$.#.#.#.#.#.#.#.#.#.@.@.@.........] ] ' ' ' ' ' ' ( ' ` ` ( ( ( ( / / ( ( / / E T T T T U F D D Z V M z d a 7 s.s.s.s.s.s.s.s.s.s.s.s.s.s.s.s.s.s.s.s.s.s.s.s.s.s.s.s.s.s.s.s.s.s.s.s.s.s.s.s.s.s.s.s.s.s.s.s.s.s.s.s.s.s.s.s.s.s.s.s.s.s.s.s.s.s.s.s.s.s.s.s.s.s.s.s.s.s.s.s.s.s.s.s.s.s.s.s.s.s.s.s.s.s.s.s.s.s.s.s.s.s.s.s.s.s.s.s.s.s.s.s.s.s.s.s.s.s.s.s.s.s.s.s.s.s.s.s.s.s.s.s.s.s.s.s.s.s.s.s.s.s.s.s.s.s.s.s.s.s.s.s.s.s.s.s.s.s.s.s.s.s.s.s.s.s.s.s.s.s.s.s.s.s.s.s.s.s.s.s.s.s.s.s.s.s.s.s.s.s.s.s.s.s.s.s.s.s.s.s.s.s.s.s.s.s.s.s.s.s.s.s.s.s.s.s.s.s.s.s.s.s.s.s.s.s.s.s.s.s.s.s.s.s.s.s.s.s.s.s.s.s.s.s.s.s.s.s.s.s.s.s.s.s.s.s.s.s.s.s.s.s.",
"s.s.s.s.s.s.s.s.s.s.s.s.s.s.s.s.s.s.s.s.s.s.s.s.s.s.s.s.s.s.s.s.s.s.s.s.s.s.s.s.s.s.s.s.s.s.s.s.s.s.s.s.s.s._  ...| | #.#.$.$.$.*.-.;.;.;.:.7.7.:.:.7.7.7.7.y.y.7.y.y.y.7.:.:.r.:.:.:.:.:.y.y.y.7.7.y.y.y.y.y.y.y.y.y.y.y.y.y.g.d.y.d.d.g.d.g.h.h.f.f.f.h.h.h.h.h.l.h.h.h.l.C.C.C.C.A.A.J.A.A.A.A.J.J.A.A.C.C.A.A.J.J.A.A.A.A.J.A.A.A.C.C.C.C.C.C.C.C.C.l.A.A.A.A.A.A.A.A.C.C.A.C.C.C.C.l.l.l.l.l.C.C.C.l.l.l.h.h.h.l.l.l.l.h.g.g.h.h.h.g.h.g.g.g.g.g.g.g.g.g.g.g.g.g.y.y.y.y.y.y.y.y.y.y.y.r.y.y.y.y.r.r.7.y.:.:.:.:.:.:.5.5.:.:.5.:.;.;.;.-.;.-.*.;.;.-.;.*.#.$.*.$.$.*.$.#.#.#.#.#.#.#.#.#.#.#.#.#.#.#.@.@.@.@.@.......] ' ' ' ` ' ' ( ` ` ` ( ( ( ( / / ( ( / / E T T T T U F D S Z V z k d 0 7 s.s.s.s.s.s.s.s.s.s.s.s.s.s.s.s.s.s.s.s.s.s.s.s.s.s.s.s.s.s.s.s.s.s.s.s.s.s.s.s.s.s.s.s.s.s.s.s.s.s.s.s.s.s.s.s.s.s.s.s.s.s.s.s.s.s.s.s.s.s.s.s.s.s.s.s.s.s.s.s.s.s.s.s.s.s.s.s.s.s.s.s.s.s.s.s.s.s.s.s.s.s.s.s.s.s.s.s.s.s.s.s.s.s.s.s.s.s.s.s.s.s.s.s.s.s.s.s.s.s.s.s.s.s.s.s.s.s.s.s.s.s.s.s.s.s.s.s.s.s.s.s.s.s.s.s.s.s.s.s.s.s.s.s.s.s.s.s.s.s.s.s.s.s.s.s.s.s.s.s.s.s.s.s.s.s.s.s.s.s.s.s.s.s.s.s.s.s.s.s.s.s.s.s.s.s.s.s.s.s.s.s.s.s.s.s.s.s.s.s.s.s.s.s.s.s.s.s.s.s.s.s.s.s.s.s.s.s.s.s.s.s.s.s.s.s.s.s.s.s.s.s.s.s.s.s.s.s.s.s.s.s.",
"s.s.s.s.s.s.s.s.s.s.s.s.s.s.s.s.s.s.s.s.s.s.s.s.s.s.s.s.s.s.s.s.s.s.s.s.s.s.s.s.s.s.s.s.s.s.s.s.s.s.s.s.s.s.[ | #...| #.$.*.*.*.-.;.;.;.;.:.:.:.:.7.7.7.7.7.7.y.7.y.y.y.7.:.:.r.:.:.:.:.:.7.y.y.y.y.y.y.y.y.y.y.d.y.f.f.d.y.y.g.d.y.d.g.g.g.g.f.f.h.g.f.h.h.l.C.l.C.C.l.l.l.C.l.C.C.J.J.A.J.A.A.A.C.A.A.A.A.A.A.A.J.J.J.J.A.A.A.J.A.A.A.C.C.C.A.A.C.C.C.C.A.A.A.A.C.C.A.J.A.A.A.C.C.C.C.l.l.l.l.l.l.l.l.l.l.l.l.h.h.l.l.l.l.h.h.g.g.g.h.h.h.g.g.g.g.g.g.g.g.g.g.g.g.g.y.y.y.y.y.y.y.y.y.y.y.y.y.y.y.y.r.r.7.r.:.:.:.:.:.:.:.:.5.5.:.;.;.;.;.;.;.*.*.*.*.*.*.*.$.$.$.$.*.*.$.$.$.#.#.#.$.$.#.#.#.#.$.#.#.#.@.@.@.@.@.......' ' ' ' ` ' ' ( ' ` ( ( ( ( ( / / ( ( E / E T T T T U F D S Z V z k y 0 6 s.s.s.s.s.s.s.s.s.s.s.s.s.s.s.s.s.s.s.s.s.s.s.s.s.s.s.s.s.s.s.s.s.s.s.s.s.s.s.s.s.s.s.s.s.s.s.s.s.s.s.s.s.s.s.s.s.s.s.s.s.s.s.s.s.s.s.s.s.s.s.s.s.s.s.s.s.s.s.s.s.s.s.s.s.s.s.s.s.s.s.s.s.s.s.s.s.s.s.s.s.s.s.s.s.s.s.s.s.s.s.s.s.s.s.s.s.s.s.s.s.s.s.s.s.s.s.s.s.s.s.s.s.s.s.s.s.s.s.s.s.s.s.s.s.s.s.s.s.s.s.s.s.s.s.s.s.s.s.s.s.s.s.s.s.s.s.s.s.s.s.s.s.s.s.s.s.s.s.s.s.s.s.s.s.s.s.s.s.s.s.s.s.s.s.s.s.s.s.s.s.s.s.s.s.s.s.s.s.s.s.s.s.s.s.s.s.s.s.s.s.s.s.s.s.s.s.s.s.s.s.s.s.s.s.s.s.s.s.s.s.s.s.s.s.s.s.s.s.s.s.s.s.s.s.s.s.s.s.s.s.s.",
"s.s.s.s.s.s.s.s.s.s.s.s.s.s.s.s.s.s.s.s.s.s.s.s.s.s.s.s.s.s.s.s.s.s.s.s.s.s.s.s.s.s.s.s.s.s.s.s.s.s.s.s.s.U ` ....| ..#.*.*.*.*.-.-.;.;.;.:.7.7.7.y.7.7.y.7.7.y.7.7.7.7.7.:.:.:.:.:.:.:.:.7.y.y.y.y.y.y.y.y.y.y.f.y.f.f.f.d.y.d.d.y.d.d.d.g.g.g.g.g.f.h.h.h.l.l.l.C.C.C.C.l.l.C.l.C.A.A.C.A.C.A.C.A.A.A.A.A.A.A.A.A.J.J.J.A.C.A.J.J.A.A.A.C.C.J.A.C.C.C.C.A.J.J.A.J.C.C.C.C.C.C.C.C.C.C.l.l.l.l.l.l.C.l.l.l.l.l.h.h.h.h.l.l.h.h.h.h.g.h.h.h.g.g.g.g.g.g.g.g.d.g.g.d.d.d.y.y.y.y.y.y.y.y.y.y.y.y.y.r.y.r.r.y.y.r.y.:.:.:.:.5.:.:.5.:.;.;.;.;.;.;.;.;.;.*.*.*.*.*.$.$.$.*.$.$.$.#.#.#.#.$.$.#.#.#.$.#.#.#.@.@.#.@.@.@.@.....] ' ' ' ' ` ' ' ( ' ` ' ' ( ( / / / / E E E T T T T U F D S Z V z z y 9 6 s.s.s.s.s.s.s.s.s.s.s.s.s.s.s.s.s.s.s.s.s.s.s.s.s.s.s.s.s.s.s.s.s.s.s.s.s.s.s.s.s.s.s.s.s.s.s.s.s.s.s.s.s.s.s.s.s.s.s.s.s.s.s.s.s.s.s.s.s.s.s.s.s.s.s.s.s.s.s.s.s.s.s.s.s.s.s.s.s.s.s.s.s.s.s.s.s.s.s.s.s.s.s.s.s.s.s.s.s.s.s.s.s.s.s.s.s.s.s.s.s.s.s.s.s.s.s.s.s.s.s.s.s.s.s.s.s.s.s.s.s.s.s.s.s.s.s.s.s.s.s.s.s.s.s.s.s.s.s.s.s.s.s.s.s.s.s.s.s.s.s.s.s.s.s.s.s.s.s.s.s.s.s.s.s.s.s.s.s.s.s.s.s.s.s.s.s.s.s.s.s.s.s.s.s.s.s.s.s.s.s.s.s.s.s.s.s.s.s.s.s.s.s.s.s.s.s.s.s.s.s.s.s.s.s.s.s.s.s.s.s.s.s.s.s.s.s.s.s.s.s.s.s.s.s.s.s.s.s.s.s.s.",
"s.s.s.s.s.s.s.s.s.s.s.s.s.s.s.s.s.s.s.s.s.s.s.s.s.s.s.s.s.s.s.s.s.s.s.s.s.s.s.s.s.s.s.s.s.s.s.s.s.s.s.s.s.( | ....| #.*.$.*.*.*.-.-.;.-.;.7.7.7.y.7.7.y.y.7.7.7.7.7.7.7.7.:.:.:.:.:.r.r.r.y.y.y.y.y.y.y.y.y.y.y.d.d.d.d.d.y.y.y.y.y.d.d.d.g.g.g.g.g.g.f.h.h.h.h.h.l.l.l.l.l.C.A.A.C.A.A.A.A.A.A.A.A.A.A.A.A.A.A.A.J.J.A.C.A.A.A.J.A.A.A.A.J.C.C.J.C.C.C.C.A.A.A.J.J.A.A.C.C.C.C.C.C.C.C.C.l.l.l.l.l.l.l.l.l.l.l.h.h.l.l.h.h.h.h.h.h.g.g.g.g.g.g.g.g.g.g.g.f.g.d.d.d.d.d.y.y.y.y.g.y.y.y.y.y.y.y.y.r.r.y.y.y.y.r.y.:.:.:.:.:.5.5.5.:.;.;.;.;.-.;.;.;.;.*.*.*.*.*.$.$.#.#.#.#.#.#.#.#.#.#.#.#.#.#.#.#.#.#.#.#.#...........| | ' ' ' ' ' ` ( ( ` ' ` ` ( ( / / / / E E E T T T U G F D Z V V z j d 8 1 s.s.s.s.s.s.s.s.s.s.s.s.s.s.s.s.s.s.s.s.s.s.s.s.s.s.s.s.s.s.s.s.s.s.s.s.s.s.s.s.s.s.s.s.s.s.s.s.s.s.s.s.s.s.s.s.s.s.s.s.s.s.s.s.s.s.s.s.s.s.s.s.s.s.s.s.s.s.s.s.s.s.s.s.s.s.s.s.s.s.s.s.s.s.s.s.s.s.s.s.s.s.s.s.s.s.s.s.s.s.s.s.s.s.s.s.s.s.s.s.s.s.s.s.s.s.s.s.s.s.s.s.s.s.s.s.s.s.s.s.s.s.s.s.s.s.s.s.s.s.s.s.s.s.s.s.s.s.s.s.s.s.s.s.s.s.s.s.s.s.s.s.s.s.s.s.s.s.s.s.s.s.s.s.s.s.s.s.s.s.s.s.s.s.s.s.s.s.s.s.s.s.s.s.s.s.s.s.s.s.s.s.s.s.s.s.s.s.s.s.s.s.s.s.s.s.s.s.s.s.s.s.s.s.s.s.s.s.s.s.s.s.s.s.s.s.s.s.s.s.s.s.s.s.s.s.s.s.s.s.s.s.",
"s.s.s.s.s.s.s.s.s.s.s.s.s.s.s.s.s.s.s.s.s.s.s.s.s.s.s.s.s.s.s.s.s.s.s.s.s.s.s.s.s.s.s.s.s.s.s.s.s.s.s.s.C ( ` #.......*.*.*.*.*.-.-.;.;.;.7.7.y.7.y.7.7.y.7.7.7.7.7.7.7.7.:.:.:.e.:.r.r.r.7.y.7.7.y.y.y.y.y.y.y.y.d.f.f.f.y.y.y.y.y.g.g.d.g.g.g.g.g.g.g.g.h.h.l.l.l.l.C.l.l.C.A.C.J.A.C.C.U.J.A.J.A.J.J.A.A.A.C.A.A.J.J.J.J.C.C.A.A.A.A.A.C.C.A.A.C.C.C.C.A.J.J.J.A.A.J.J.C.C.C.C.C.C.C.C.l.l.l.l.l.l.l.l.l.l.l.h.l.l.l.h.h.h.h.h.h.h.g.g.g.g.g.g.g.g.g.g.g.g.d.y.d.d.d.y.g.y.y.g.y.y.y.y.y.y.y.y.r.y.y.y.7.y.r.y.y.r.y.:.:.5.5.5.;.;.;.;.;.;.;.;.;.;.*.*.*.*.*.*.$.#.#.#.#.#.#.#.#.#.#.#.#.#.#.@.#.#.#.#.#.#.......| | | ] ' ' ' ' ` ` ( ( ` ( ( ( ( ( / / / / E E T T U U U G F D Z V M z d y 7 s.s.s.s.s.s.s.s.s.s.s.s.s.s.s.s.s.s.s.s.s.s.s.s.s.s.s.s.s.s.s.s.s.s.s.s.s.s.s.s.s.s.s.s.s.s.s.s.s.s.s.s.s.s.s.s.s.s.s.s.s.s.s.s.s.s.s.s.s.s.s.s.s.s.s.s.s.s.s.s.s.s.s.s.s.s.s.s.s.s.s.s.s.s.s.s.s.s.s.s.s.s.s.s.s.s.s.s.s.s.s.s.s.s.s.s.s.s.s.s.s.s.s.s.s.s.s.s.s.s.s.s.s.s.s.s.s.s.s.s.s.s.s.s.s.s.s.s.s.s.s.s.s.s.s.s.s.s.s.s.s.s.s.s.s.s.s.s.s.s.s.s.s.s.s.s.s.s.s.s.s.s.s.s.s.s.s.s.s.s.s.s.s.s.s.s.s.s.s.s.s.s.s.s.s.s.s.s.s.s.s.s.s.s.s.s.s.s.s.s.s.s.s.s.s.s.s.s.s.s.s.s.s.s.s.s.s.s.s.s.s.s.s.s.s.s.s.s.s.s.s.s.s.s.s.s.s.s.s.s.s.s.s.",
"s.s.s.s.s.s.s.s.s.s.s.s.s.s.s.s.s.s.s.s.s.s.s.s.s.s.s.s.s.s.s.s.s.s.s.s.s.s.s.s.s.s.s.s.s.s.s.s.s.s.s.s.! ( | ' #.#.#.$.-.-.-.-.;.;.;.;.;.:.:.:.7.y.7.7.7.7.7.7.7.7.7.7.7.:.:.:.:.r.r.r.r.:.y.y.7.7.7.y.y.y.y.y.y.y.y.y.y.y.y.y.g.y.y.g.d.g.g.g.g.d.g.g.f.l.l.l.l.l.l.l.l.C.A.l.C.J.A.C.C.A.A.A.J.J.J.J.A.A.A.C.A.A.A.J.J.J.A.C.A.A.A.A.A.C.J.J.J.A.C.C.C.J.J.A.A.J.J.A.J.C.C.C.C.C.l.C.C.l.l.l.l.l.l.l.l.l.l.l.h.h.h.l.h.h.g.g.g.h.h.h.g.h.h.g.g.g.g.g.g.f.g.d.g.g.g.g.y.g.g.y.g.g.y.y.y.y.y.r.r.y.r.r.y.y.y.r.y.y.y.:.:.5.5.5.:.;.;.;.;.;.;.;.;.;.;.*.*.*.*.*.*.$.$.$.$.$.#.$.$.#.#.#.#.#.#.#.#.#.@.@.#.@.@.......| | ] ] ' ' ' ' ' ` ( ( ` ( ( ( ( ( / / / / E E T T T U U G F S Z V M z j y 6 s.s.s.s.s.s.s.s.s.s.s.s.s.s.s.s.s.s.s.s.s.s.s.s.s.s.s.s.s.s.s.s.s.s.s.s.s.s.s.s.s.s.s.s.s.s.s.s.s.s.s.s.s.s.s.s.s.s.s.s.s.s.s.s.s.s.s.s.s.s.s.s.s.s.s.s.s.s.s.s.s.s.s.s.s.s.s.s.s.s.s.s.s.s.s.s.s.s.s.s.s.s.s.s.s.s.s.s.s.s.s.s.s.s.s.s.s.s.s.s.s.s.s.s.s.s.s.s.s.s.s.s.s.s.s.s.s.s.s.s.s.s.s.s.s.s.s.s.s.s.s.s.s.s.s.s.s.s.s.s.s.s.s.s.s.s.s.s.s.s.s.s.s.s.s.s.s.s.s.s.s.s.s.s.s.s.s.s.s.s.s.s.s.s.s.s.s.s.s.s.s.s.s.s.s.s.s.s.s.s.s.s.s.s.s.s.s.s.s.s.s.s.s.s.s.s.s.s.s.s.s.s.s.s.s.s.s.s.s.s.s.s.s.s.s.s.s.s.s.s.s.s.s.s.s.s.s.s.s.s.s.s.s.",
"s.s.s.s.s.s.s.s.s.s.s.s.s.s.s.s.s.s.s.s.s.s.s.s.s.s.s.s.s.s.s.s.s.s.s.s.s.s.s.s.s.s.s.s.s.s.s.s.s.s.s.v [ ' | | #.#.$.$.$.*.*.-.;.5.;.5.:.7.:.:.:.7.7.7.7.7.7.7.7.7.:.y.7.:.:.r.r.r.r.r.r.r.r.r.:.r.r.y.r.y.y.y.y.y.y.y.y.y.y.y.y.y.y.g.g.g.f.f.g.f.h.h.h.h.h.l.h.l.l.C.C.C.A.C.J.C.A.A.J.A.A.A.A.J.A.J.J.A.A.A.C.J.J.J.J.A.A.A.A.A.A.C.C.A.A.J.J.J.A.C.C.J.A.C.J.A.A.A.A.A.C.C.C.A.l.C.C.l.l.l.l.l.h.l.l.h.h.h.h.h.h.h.h.g.g.g.g.g.g.g.g.g.g.g.g.g.g.g.g.g.g.g.g.g.g.g.g.g.y.y.y.g.y.y.y.y.y.r.r.r.y.r.y.y.y.r.y.:.:.:.:.5.5.5.5.5.;.;.;.;.-.;.;.;.*.*.;.;.*.*.*.*.*.$.#.$.#.$.$.#.#.#.#.#.#.#.#.#.@.@.#.@.@.......| ] | ] ' ' ' ' ` ` ` ' ` ( ( ( ( ( / / / / E T E T T U U G F S Z V M z d y 6 s.s.s.s.s.s.s.s.s.s.s.s.s.s.s.s.s.s.s.s.s.s.s.s.s.s.s.s.s.s.s.s.s.s.s.s.s.s.s.s.s.s.s.s.s.s.s.s.s.s.s.s.s.s.s.s.s.s.s.s.s.s.s.s.s.s.s.s.s.s.s.s.s.s.s.s.s.s.s.s.s.s.s.s.s.s.s.s.s.s.s.s.s.s.s.s.s.s.s.s.s.s.s.s.s.s.s.s.s.s.s.s.s.s.s.s.s.s.s.s.s.s.s.s.s.s.s.s.s.s.s.s.s.s.s.s.s.s.s.s.s.s.s.s.s.s.s.s.s.s.s.s.s.s.s.s.s.s.s.s.s.s.s.s.s.s.s.s.s.s.s.s.s.s.s.s.s.s.s.s.s.s.s.s.s.s.s.s.s.s.s.s.s.s.s.s.s.s.s.s.s.s.s.s.s.s.s.s.s.s.s.s.s.s.s.s.s.s.s.s.s.s.s.s.s.s.s.s.s.s.s.s.s.s.s.s.s.s.s.s.s.s.s.s.s.s.s.s.s.s.s.s.s.s.s.s.s.s.s.s.s.s.s.",
"s.s.s.s.s.s.s.s.s.s.s.s.s.s.s.s.s.s.s.s.s.s.s.s.s.s.s.s.s.s.s.s.s.s.s.s.s.s.s.s.s.s.s.s.s.s.s.s.s.s.s.W ` ' | ..#.#.$.$.*.*.-.;.;.;.;.:.:.7.:.:.:.7.7.7.7.7.7.7.7.7.7.7.7.:.:.r.r.r.r.:.r.r.:.r.r.r.r.r.r.y.y.y.y.y.y.y.y.y.y.y.y.y.y.g.h.g.f.f.g.f.f.h.h.h.h.h.h.l.l.C.C.C.C.A.J.J.J.A.C.A.A.A.Z.J.J.J.J.A.A.A.Z.J.J.J.J.C.A.J.J.J.J.A.A.A.A.J.J.J.A.C.C.J.J.A.C.A.A.A.C.C.C.C.C.A.l.C.C.l.l.l.l.l.l.l.l.l.h.h.g.h.h.h.h.h.g.g.g.g.g.h.g.f.g.g.g.g.g.g.g.g.g.g.g.g.g.g.d.d.y.y.y.y.g.y.y.y.y.y.y.y.r.r.r.y.y.y.y.:.y.:.:.5.5.5.5.:.;.;.;.;.-.;.;.-.*.*.*.$.$.*.*.$.$.$.$.$.#.$.$.#.#.#.#.#.#.#.#.#.@.@.#.@.@.......] ] ] ] ' ' ' ' ' ( ( ' ` ` ( ( ( ( / / / / E T E T T U U F F S Z V m k d 0 7 s.s.s.s.s.s.s.s.s.s.s.s.s.s.s.s.s.s.s.s.s.s.s.s.s.s.s.s.s.s.s.s.s.s.s.s.s.s.s.s.s.s.s.s.s.s.s.s.s.s.s.s.s.s.s.s.s.s.s.s.s.s.s.s.s.s.s.s.s.s.s.s.s.s.s.s.s.s.s.s.s.s.s.s.s.s.s.s.s.s.s.s.s.s.s.s.s.s.s.s.s.s.s.s.s.s.s.s.s.s.s.s.s.s.s.s.s.s.s.s.s.s.s.s.s.s.s.s.s.s.s.s.s.s.s.s.s.s.s.s.s.s.s.s.s.s.s.s.s.s.s.s.s.s.s.s.s.s.s.s.s.s.s.s.s.s.s.s.s.s.s.s.s.s.s.s.s.s.s.s.s.s.s.s.s.s.s.s.s.s.s.s.s.s.s.s.s.s.s.s.s.s.s.s.s.s.s.s.s.s.s.s.s.s.s.s.s.s.s.s.s.s.s.s.s.s.s.s.s.s.s.s.s.s.s.s.s.s.s.s.s.s.s.s.s.s.s.s.s.s.s.s.s.s.s.s.s.s.s.s.s.s.s.",
"s.s.s.s.s.s.s.s.s.s.s.s.s.s.s.s.s.s.s.s.s.s.s.s.s.s.s.s.s.s.s.s.s.s.s.s.s.s.s.s.s.s.s.s.s.s.s.s.s.s.s.W | | ....#.#.$.$.*.*.-.;.5.;.;.:.:.:.:.:.:.7.7.7.7.7.7.7.y.7.7.7.7.:.:.r.r.r.r.r.r.r.r.r.r.r.r.r.y.y.y.y.y.y.y.y.y.y.y.y.y.g.d.g.g.g.f.f.g.f.f.h.h.l.h.h.h.l.l.C.C.A.A.C.A.C.A.A.Z.A.A.A.Z.J.J.U.J.A.A.J.Z.A.A.J.J.J.A.J.J.J.J.J.A.J.A.A.A.J.A.C.C.J.J.J.A.A.J.A.A.C.l.l.C.A.l.C.C.l.h.l.l.l.l.l.l.l.h.h.g.h.h.h.h.h.g.g.g.g.g.g.g.h.h.h.h.g.g.g.g.g.g.g.g.g.d.g.d.d.y.y.y.y.d.g.y.y.y.y.y.r.y.r.r.y.y.y.y.:.y.y.y.5.5.5.:.:.;.;.;.;.-.;.;.;.*.*.*.*.*.*.*.$.$.$.$.$.#.$.$.#.#.#.#.#.#.#.@.@.@.#...#.@.......] ] ] ] ' ' ' ' ' ' ( ( ` ` ( ( ( ( / / / / E E E T T U U F D Z Z V z j 0 7 1 s.s.s.s.s.s.s.s.s.s.s.s.s.s.s.s.s.s.s.s.s.s.s.s.s.s.s.s.s.s.s.s.s.s.s.s.s.s.s.s.s.s.s.s.s.s.s.s.s.s.s.s.s.s.s.s.s.s.s.s.s.s.s.s.s.s.s.s.s.s.s.s.s.s.s.s.s.s.s.s.s.s.s.s.s.s.s.s.s.s.s.s.s.s.s.s.s.s.s.s.s.s.s.s.s.s.s.s.s.s.s.s.s.s.s.s.s.s.s.s.s.s.s.s.s.s.s.s.s.s.s.s.s.s.s.s.s.s.s.s.s.s.s.s.s.s.s.s.s.s.s.s.s.s.s.s.s.s.s.s.s.s.s.s.s.s.s.s.s.s.s.s.s.s.s.s.s.s.s.s.s.s.s.s.s.s.s.s.s.s.s.s.s.s.s.s.s.s.s.s.s.s.s.s.s.s.s.s.s.s.s.s.s.s.s.s.s.s.s.s.s.s.s.s.s.s.s.s.s.s.s.s.s.s.s.s.s.s.s.s.s.s.s.s.s.s.s.s.s.s.s.s.s.s.s.s.s.s.s.s.s.s.s.",
"s.s.s.s.s.s.s.s.s.s.s.s.s.s.s.s.s.s.s.s.s.s.s.s.s.s.s.s.s.s.s.s.s.s.s.s.s.s.s.s.s.s.s.s.s.s.s.s.s.s.D ` | | ....#.$.$.$.*.-.;.;.:.;.;.;.:.:.:.:.7.7.7.7.7.7.7.7.7.7.7.7.7.:.:.:.r.:.r.r.r.r.r.r.r.r.r.r.r.y.y.y.y.y.y.y.y.y.y.y.y.g.g.d.d.f.f.f.f.f.g.h.h.l.h.h.h.h.h.C.C.A.J.C.C.J.J.A.A.J.A.A.A.J.U.U.J.Z.J.J.A.A.J.Z.U.U.J.J.J.J.J.J.J.J.A.A.A.A.A.C.C.A.J.J.J.A.A.A.A.C.C.l.l.C.C.C.C.l.l.l.l.l.l.l.l.h.h.h.g.h.h.h.h.h.g.g.g.g.g.g.g.h.g.g.g.g.g.g.g.g.g.g.g.g.g.g.d.d.y.y.d.y.y.d.y.y.y.y.y.r.r.y.r.y.y.y.y.:.:.y.:.:.5.5.:.:.;.;.;.;.-.;.-.*.*.*.*.*.*.*.$.$.$.*.$.$.#.#.#.#.#.#.#.#.#.@.#...@.#.@.#.@.........] | ] ' ` ' ' ` ` ( ( ` ` ( ( ( ( / / / / T T T T T U P F D Z Z M z j y 7 s.s.s.s.s.s.s.s.s.s.s.s.s.s.s.s.s.s.s.s.s.s.s.s.s.s.s.s.s.s.s.s.s.s.s.s.s.s.s.s.s.s.s.s.s.s.s.s.s.s.s.s.s.s.s.s.s.s.s.s.s.s.s.s.s.s.s.s.s.s.s.s.s.s.s.s.s.s.s.s.s.s.s.s.s.s.s.s.s.s.s.s.s.s.s.s.s.s.s.s.s.s.s.s.s.s.s.s.s.s.s.s.s.s.s.s.s.s.s.s.s.s.s.s.s.s.s.s.s.s.s.s.s.s.s.s.s.s.s.s.s.s.s.s.s.s.s.s.s.s.s.s.s.s.s.s.s.s.s.s.s.s.s.s.s.s.s.s.s.s.s.s.s.s.s.s.s.s.s.s.s.s.s.s.s.s.s.s.s.s.s.s.s.s.s.s.s.s.s.s.s.s.s.s.s.s.s.s.s.s.s.s.s.s.s.s.s.s.s.s.s.s.s.s.s.s.s.s.s.s.s.s.s.s.s.s.s.s.s.s.s.s.s.s.s.s.s.s.s.s.s.s.s.s.s.s.s.s.s.s.s.s.s.s.",
"s.s.s.s.s.s.s.s.s.s.s.s.s.s.s.s.s.s.s.s.s.s.s.s.s.s.s.s.s.s.s.s.s.s.s.s.s.s.s.s.s.s.s.s.s.s.s.s.s.s.W ( ` | ..#.#.#.$.*.*.-.;.;.;.;.;.;.:.7.7.7.7.7.7.7.7.7.y.y.y.y.y.y.7.:.:.:.:.:.:.r.r.r.r.r.r.r.r.r.r.r.y.y.y.y.y.y.y.y.y.y.y.g.g.y.d.g.g.g.g.f.f.h.h.C.l.l.h.h.l.C.C.l.l.C.C.A.A.C.J.A.A.J.A.A.J.J.U.A.C.J.J.A.A.Z.J.J.J.J.J.J.A.J.J.J.A.A.A.C.A.C.C.C.A.J.J.A.A.A.A.C.C.l.C.l.C.A.C.C.C.l.l.l.h.l.l.h.h.h.h.h.h.h.h.h.g.g.g.g.g.g.g.f.g.g.g.g.g.g.g.h.g.g.g.g.g.g.d.d.y.y.y.y.y.y.y.y.y.y.y.y.r.r.r.:.r.r.y.y.:.:.:.:.5.5.5.5.:.;.;.;.;.-.*.*.*.*.*.*.*.*.*.$.*.$.$.$.$.#.#.#.@.#.#.#.#.#.@.....@.@.@.......@.....| | ' ` ' ' ` ( ( ( ` ` ( ( / ( / / ( / T T T T T U P F D Z Z V z d 0 7 s.s.s.s.s.s.s.s.s.s.s.s.s.s.s.s.s.s.s.s.s.s.s.s.s.s.s.s.s.s.s.s.s.s.s.s.s.s.s.s.s.s.s.s.s.s.s.s.s.s.s.s.s.s.s.s.s.s.s.s.s.s.s.s.s.s.s.s.s.s.s.s.s.s.s.s.s.s.s.s.s.s.s.s.s.s.s.s.s.s.s.s.s.s.s.s.s.s.s.s.s.s.s.s.s.s.s.s.s.s.s.s.s.s.s.s.s.s.s.s.s.s.s.s.s.s.s.s.s.s.s.s.s.s.s.s.s.s.s.s.s.s.s.s.s.s.s.s.s.s.s.s.s.s.s.s.s.s.s.s.s.s.s.s.s.s.s.s.s.s.s.s.s.s.s.s.s.s.s.s.s.s.s.s.s.s.s.s.s.s.s.s.s.s.s.s.s.s.s.s.s.s.s.s.s.s.s.s.s.s.s.s.s.s.s.s.s.s.s.s.s.s.s.s.s.s.s.s.s.s.s.s.s.s.s.s.s.s.s.s.s.s.s.s.s.s.s.s.s.s.s.s.s.s.s.s.s.s.s.s.s.s.s.s.",
"s.s.s.s.s.s.s.s.s.s.s.s.s.s.s.s.s.s.s.s.s.s.s.s.s.s.s.s.s.s.s.s.s.s.s.s.s.s.s.s.s.s.s.s.s.s.s.s.s.V ( ' ' ....#.#.#.*.*.-.*.;.5.;.:.5.5.7.7.:.7.7.7.7.7.7.7.7.7.y.7.7.:.7.r.:.:.:.:.r.r.r.r.r.r.r.r.r.y.y.r.y.y.y.y.y.y.y.y.d.d.y.y.g.g.g.g.g.g.g.f.f.h.h.l.l.l.l.l.l.C.C.C.C.A.A.A.C.C.A.A.A.J.J.J.A.Z.J.J.J.J.J.C.C.C.A.Z.J.J.J.J.J.A.A.J.J.J.J.J.J.J.A.A.A.J.J.A.A.A.A.C.C.C.C.C.C.C.C.C.C.l.C.l.l.l.l.l.l.h.h.h.h.h.h.h.g.g.g.g.g.g.g.h.g.g.g.g.g.g.g.g.g.g.g.g.g.g.g.g.d.y.y.y.y.y.y.y.y.y.y.r.y.r.r.7.7.:.y.r.r.:.:.:.5.5.5.5.:.:.;.;.;.;.;.;.*.*.*.*.*.*.$.*.*.$.$.$.$.#.#.#.#.#.#.#.#.#...#.@.@.@.@.......@...| ' ' ' ` ' ' ' ( ( ( ` ` ( ( ( ( / / ( E T T T T U U P F F Z Z M z d 0 8 s.s.s.s.s.s.s.s.s.s.s.s.s.s.s.s.s.s.s.s.s.s.s.s.s.s.s.s.s.s.s.s.s.s.s.s.s.s.s.s.s.s.s.s.s.s.s.s.s.s.s.s.s.s.s.s.s.s.s.s.s.s.s.s.s.s.s.s.s.s.s.s.s.s.s.s.s.s.s.s.s.s.s.s.s.s.s.s.s.s.s.s.s.s.s.s.s.s.s.s.s.s.s.s.s.s.s.s.s.s.s.s.s.s.s.s.s.s.s.s.s.s.s.s.s.s.s.s.s.s.s.s.s.s.s.s.s.s.s.s.s.s.s.s.s.s.s.s.s.s.s.s.s.s.s.s.s.s.s.s.s.s.s.s.s.s.s.s.s.s.s.s.s.s.s.s.s.s.s.s.s.s.s.s.s.s.s.s.s.s.s.s.s.s.s.s.s.s.s.s.s.s.s.s.s.s.s.s.s.s.s.s.s.s.s.s.s.s.s.s.s.s.s.s.s.s.s.s.s.s.s.s.s.s.s.s.s.s.s.s.s.s.s.s.s.s.s.s.s.s.s.s.s.s.s.s.s.s.s.s.s.s.s.s.",
"s.s.s.s.s.s.s.s.s.s.s.s.s.s.s.s.s.s.s.s.s.s.s.s.s.s.s.s.s.s.s.s.s.s.s.s.s.s.s.s.s.s.s.s.s.s.s.s.s.Q  ...' ....#.#.*.*.*.-.;.;.;.;.:.5.5.7.7.7.7.7.7.7.7.7.7.7.y.y.7.7.:.:.:.:.;.:.r.r.r.r.r.r.r.r.r.r.y.r.r.y.y.r.y.y.y.y.d.d.d.y.g.g.g.g.f.f.f.f.f.f.h.h.h.h.l.l.l.C.C.l.l.l.C.C.J.C.A.J.J.J.J.J.J.J.Z.A.J.J.J.A.C.C.C.C.J.A.J.J.J.Z.J.A.J.J.J.J.A.A.A.C.J.J.J.J.J.J.J.J.C.C.l.C.C.l.l.C.C.C.l.C.l.l.l.l.h.l.h.h.g.g.h.h.h.g.g.g.g.g.g.g.h.g.g.g.g.g.g.g.g.g.g.g.g.g.g.g.g.d.y.y.y.y.y.y.y.y.y.y.y.r.r.r.7.y.y.y.r.r.:.:.:.5.5.5.5.5.5.:.:.;.;.;.;.*.*.*.*.*.$.$.*.*.$.$.$.$.#.#.#.#.#.#.#.#.#.@...@.@.@.@.#.@...] ] ..' | ' ' ( ` ' ( ( ( ` ` ( ( ( / T E / E T T T U G P F F D Z V z k d 0 8 s.s.s.s.s.s.s.s.s.s.s.s.s.s.s.s.s.s.s.s.s.s.s.s.s.s.s.s.s.s.s.s.s.s.s.s.s.s.s.s.s.s.s.s.s.s.s.s.s.s.s.s.s.s.s.s.s.s.s.s.s.s.s.s.s.s.s.s.s.s.s.s.s.s.s.s.s.s.s.s.s.s.s.s.s.s.s.s.s.s.s.s.s.s.s.s.s.s.s.s.s.s.s.s.s.s.s.s.s.s.s.s.s.s.s.s.s.s.s.s.s.s.s.s.s.s.s.s.s.s.s.s.s.s.s.s.s.s.s.s.s.s.s.s.s.s.s.s.s.s.s.s.s.s.s.s.s.s.s.s.s.s.s.s.s.s.s.s.s.s.s.s.s.s.s.s.s.s.s.s.s.s.s.s.s.s.s.s.s.s.s.s.s.s.s.s.s.s.s.s.s.s.s.s.s.s.s.s.s.s.s.s.s.s.s.s.s.s.s.s.s.s.s.s.s.s.s.s.s.s.s.s.s.s.s.s.s.s.s.s.s.s.s.s.s.s.s.s.s.s.s.s.s.s.s.s.s.s.s.s.s.s.s.s.",
"s.s.s.s.s.s.s.s.s.s.s.s.s.s.s.s.s.s.s.s.s.s.s.s.s.s.s.s.s.s.s.s.s.s.s.s.s.s.s.s.s.s.s.s.s.s.s.s.s.W ' ' | ....#.*.$.*.*.$.;.;.:.;.;.:.:.5.7.7.7.7.7.7.7.7.:.:.:.7.7.7.7.7.:.:.:.r.r.r.r.r.r.r.r.r.r.y.y.r.r.y.y.y.y.y.y.y.g.g.d.g.g.g.g.g.g.d.g.g.f.f.h.l.h.h.l.l.C.C.C.C.A.C.J.A.J.A.J.J.J.J.J.A.J.J.J.J.J.J.J.J.A.A.J.A.J.Z.J.J.J.J.J.A.J.J.J.A.A.A.C.C.A.J.J.J.A.C.C.C.C.A.C.C.C.C.C.A.C.C.C.l.l.l.l.l.l.l.h.g.g.h.h.h.h.g.g.g.g.g.g.g.f.g.g.g.g.g.g.g.g.g.g.g.g.g.g.g.g.y.y.y.y.y.y.y.y.y.y.r.r.r.r.y.7.y.y.:.y.:.:.y.7.5.5.5.:.5.5.:.;.;.;.;.;.*.*.*.=.*.$.*.*.$.$.$.$.#.#.#.#.#.#.#.#.#.@.#...@.@...@...@...] | | ] | | ' ( ` ( ( ` ( ' ( ( ( ( ( / / / E E T T T U P F F D Z V z j d 9 e s.s.s.s.s.s.s.s.s.s.s.s.s.s.s.s.s.s.s.s.s.s.s.s.s.s.s.s.s.s.s.s.s.s.s.s.s.s.s.s.s.s.s.s.s.s.s.s.s.s.s.s.s.s.s.s.s.s.s.s.s.s.s.s.s.s.s.s.s.s.s.s.s.s.s.s.s.s.s.s.s.s.s.s.s.s.s.s.s.s.s.s.s.s.s.s.s.s.s.s.s.s.s.s.s.s.s.s.s.s.s.s.s.s.s.s.s.s.s.s.s.s.s.s.s.s.s.s.s.s.s.s.s.s.s.s.s.s.s.s.s.s.s.s.s.s.s.s.s.s.s.s.s.s.s.s.s.s.s.s.s.s.s.s.s.s.s.s.s.s.s.s.s.s.s.s.s.s.s.s.s.s.s.s.s.s.s.s.s.s.s.s.s.s.s.s.s.s.s.s.s.s.s.s.s.s.s.s.s.s.s.s.s.s.s.s.s.s.s.s.s.s.s.s.s.s.s.s.s.s.s.s.s.s.s.s.s.s.s.s.s.s.s.s.s.s.s.s.s.s.s.s.s.s.s.s.s.s.s.s.s.s.s.s.",
"s.s.s.s.s.s.s.s.s.s.s.s.s.s.s.s.s.s.s.s.s.s.s.s.s.s.s.s.s.s.s.s.s.s.s.s.s.s.s.s.s.s.s.s.s.s.s.s.J ( ` | ....#.#.*.$.$.$.*.-.;.;.:.:.:.:.:.7.7.7.7.7.7.7.r.:.:.:.r.r.r.r.r.r.r.r.r.r.r.r.r.r.r.r.r.r.y.y.r.r.y.y.y.y.y.y.d.d.g.g.g.d.g.g.f.g.g.g.f.f.f.h.h.h.h.l.l.C.C.C.C.C.J.A.C.J.J.S.J.A.J.J.U.J.J.J.J.C.C.C.C.J.J.J.A.A.J.J.J.J.J.A.J.J.Z.Z.J.A.C.C.l.A.J.J.J.C.A.A.A.J.J.A.J.A.A.C.A.C.l.l.l.l.l.h.l.l.h.h.g.h.h.h.h.h.h.h.h.g.g.g.g.h.g.g.g.g.g.g.g.g.g.g.g.g.d.g.g.g.y.y.y.y.y.y.y.y.y.r.r.r.r.r.r.y.y.y.y.r.:.:.y.y.7.7.5.5.5.:.:.;.;.;.;.;.;.;.*.*.*.*.*.*.$.$.$.$.#.#.#.#.#.@.#.#.#.#.#.#.@.@...@.@.@...| ....] ' ' ' ( ` ( ( ( ( ( ( ( ( ( / / / / E E T T T U G G F D Z V z f a 0 s.s.s.s.s.s.s.s.s.s.s.s.s.s.s.s.s.s.s.s.s.s.s.s.s.s.s.s.s.s.s.s.s.s.s.s.s.s.s.s.s.s.s.s.s.s.s.s.s.s.s.s.s.s.s.s.s.s.s.s.s.s.s.s.s.s.s.s.s.s.s.s.s.s.s.s.s.s.s.s.s.s.s.s.s.s.s.s.s.s.s.s.s.s.s.s.s.s.s.s.s.s.s.s.s.s.s.s.s.s.s.s.s.s.s.s.s.s.s.s.s.s.s.s.s.s.s.s.s.s.s.s.s.s.s.s.s.s.s.s.s.s.s.s.s.s.s.s.s.s.s.s.s.s.s.s.s.s.s.s.s.s.s.s.s.s.s.s.s.s.s.s.s.s.s.s.s.s.s.s.s.s.s.s.s.s.s.s.s.s.s.s.s.s.s.s.s.s.s.s.s.s.s.s.s.s.s.s.s.s.s.s.s.s.s.s.s.s.s.s.s.s.s.s.s.s.s.s.s.s.s.s.s.s.s.s.s.s.s.s.s.s.s.s.s.s.s.s.s.s.s.s.s.s.s.s.s.s.s.s.s.s.s.s.s.",
"s.s.s.s.s.s.s.s.s.s.s.s.s.s.s.s.s.s.s.s.s.s.s.s.s.s.s.s.s.s.s.s.s.s.s.s.s.s.s.s.s.s.s.s.s.s.s.s.Q ( ` ' | ..#.#.*.$.*.$.-.;.;.:.;.:.:.:.:.7.7.7.7.7.7.7.7.:.:.:.:.:.:.:.:.:.r.r.r.r.r.r.r.r.r.r.r.r.y.y.r.y.y.y.y.y.y.y.y.f.g.g.g.g.d.g.g.g.g.g.h.g.h.h.h.h.C.l.C.l.l.l.l.C.A.A.C.J.J.Z.A.J.J.J.U.J.J.J.A.A.A.J.Z.J.J.J.Z.Z.J.J.A.Z.Z.J.A.J.J.J.A.C.A.A.C.C.A.J.J.J.J.J.J.A.J.J.J.C.A.S.C.l.l.l.l.l.l.l.l.l.l.h.h.h.h.h.h.g.h.g.g.g.g.g.g.g.g.g.g.g.g.g.d.d.g.g.g.g.g.g.g.d.y.y.y.y.y.y.y.y.y.r.r.y.y.r.r.y.y.y.y.y.:.:.:.t.7.7.5.5.5.:.:.;.;.;.;.;.*.-.*.*.*.*.*.*.$.#.$.$.$.#.#.#.#.#.#.#.#.@.@.@.@.@.....@...@.@.....] ' ' ' ' ' ( ( ( ( ` ( ( ( / ( / / / E E T T T U G F F D Z V z d y 8 s.s.s.s.s.s.s.s.s.s.s.s.s.s.s.s.s.s.s.s.s.s.s.s.s.s.s.s.s.s.s.s.s.s.s.s.s.s.s.s.s.s.s.s.s.s.s.s.s.s.s.s.s.s.s.s.s.s.s.s.s.s.s.s.s.s.s.s.s.s.s.s.s.s.s.s.s.s.s.s.s.s.s.s.s.s.s.s.s.s.s.s.s.s.s.s.s.s.s.s.s.s.s.s.s.s.s.s.s.s.s.s.s.s.s.s.s.s.s.s.s.s.s.s.s.s.s.s.s.s.s.s.s.s.s.s.s.s.s.s.s.s.s.s.s.s.s.s.s.s.s.s.s.s.s.s.s.s.s.s.s.s.s.s.s.s.s.s.s.s.s.s.s.s.s.s.s.s.s.s.s.s.s.s.s.s.s.s.s.s.s.s.s.s.s.s.s.s.s.s.s.s.s.s.s.s.s.s.s.s.s.s.s.s.s.s.s.s.s.s.s.s.s.s.s.s.s.s.s.s.s.s.s.s.s.s.s.s.s.s.s.s.s.s.s.s.s.s.s.s.s.s.s.s.s.s.s.s.s.s.s.s.s.s.s.",
"s.s.s.s.s.s.s.s.s.s.s.s.s.s.s.s.s.s.s.s.s.s.s.s.s.s.s.s.s.s.s.s.s.s.s.s.s.s.s.s.s.s.s.s.s.s.s.s.( ( ' | ....#.#.$.$.*.*.*.;.;.:.:.:.:.:.:.7.7.7.7.7.7.7.7.:.:.:.:.:.:.;.:.:.:.r.r.r.r.r.r.r.r.r.r.r.y.y.r.y.y.y.y.y.y.y.y.f.g.g.g.g.g.g.g.g.g.g.h.h.h.h.h.l.l.l.l.l.l.l.l.C.A.A.C.J.J.J.Z.J.J.J.J.J.J.J.A.A.C.C.C.Z.J.J.Z.J.Z.Z.A.Z.J.A.A.J.J.J.A.A.C.A.C.C.A.J.J.J.A.A.J.C.C.C.C.C.C.C.C.l.l.l.l.l.l.l.l.h.h.h.h.g.g.g.g.g.g.g.g.g.g.g.g.g.g.g.g.g.g.d.d.d.g.g.g.d.d.d.d.y.y.y.y.y.y.y.y.y.y.r.r.y.y.r.r.y.y.y.y.y.y.:.:.5.7.5.5.5.5.:.:.;.;.;.;.;.*.*.*.*.*.*.*.*.$.#.$.$.#.#.#.#.#.@.@.#.@.....@.@...@.....@.@.......] ' ' ' ' ( ( ( ( ( ` ( ( ( ( / / / / E E T U T U G F D S Z V z d y 8 s.s.s.s.s.s.s.s.s.s.s.s.s.s.s.s.s.s.s.s.s.s.s.s.s.s.s.s.s.s.s.s.s.s.s.s.s.s.s.s.s.s.s.s.s.s.s.s.s.s.s.s.s.s.s.s.s.s.s.s.s.s.s.s.s.s.s.s.s.s.s.s.s.s.s.s.s.s.s.s.s.s.s.s.s.s.s.s.s.s.s.s.s.s.s.s.s.s.s.s.s.s.s.s.s.s.s.s.s.s.s.s.s.s.s.s.s.s.s.s.s.s.s.s.s.s.s.s.s.s.s.s.s.s.s.s.s.s.s.s.s.s.s.s.s.s.s.s.s.s.s.s.s.s.s.s.s.s.s.s.s.s.s.s.s.s.s.s.s.s.s.s.s.s.s.s.s.s.s.s.s.s.s.s.s.s.s.s.s.s.s.s.s.s.s.s.s.s.s.s.s.s.s.s.s.s.s.s.s.s.s.s.s.s.s.s.s.s.s.s.s.s.s.s.s.s.s.s.s.s.s.s.s.s.s.s.s.s.s.s.s.s.s.s.s.s.s.s.s.s.s.s.s.s.s.s.s.s.s.s.s.s.s.s.s.",
"s.s.s.s.s.s.s.s.s.s.s.s.s.s.s.s.s.s.s.s.s.s.s.s.s.s.s.s.s.s.s.s.s.s.s.s.s.s.s.s.s.s.s.s.s.s.s.J W ` ' | ..#.#.*.$.$.*.*.;.;.:.:.:.:.:.:.:.7.7.7.7.7.7.7.7.:.:.:.:.:.:.:.:.:.:.r.r.r.r.r.r.r.r.r.r.r.r.y.r.y.y.y.y.y.y.y.y.d.d.g.g.g.g.g.g.h.f.f.h.h.h.h.h.h.l.h.h.l.C.C.l.C.C.A.A.Z.J.J.J.J.J.J.J.Z.J.J.J.J.J.J.Z.J.J.J.J.A.J.J.J.J.Z.A.A.A.A.A.A.A.A.C.C.C.A.J.A.J.A.J.J.A.A.C.C.l.C.S.C.l.l.l.l.l.l.l.l.h.h.h.h.g.g.g.g.g.g.g.g.g.g.g.g.g.g.g.d.g.d.d.d.g.g.g.g.d.d.d.d.y.y.y.y.y.y.y.y.y.y.r.y.y.r.r.r.y.y.y.y.y.:.:.;.5.5.5.5.5.:.:.:.;.;.;.;.*.*.*.*.*.*.*.*.$.$.$.$.#.#.#.#.#.#.@.@.@.@.....@.@...@.....@.] | ..] ] ' ' ' ' ( ( ( ( ( ` ( ` ( ( ( / / / R E T T U U F F D A V V k d 0 7 s.s.s.s.s.s.s.s.s.s.s.s.s.s.s.s.s.s.s.s.s.s.s.s.s.s.s.s.s.s.s.s.s.s.s.s.s.s.s.s.s.s.s.s.s.s.s.s.s.s.s.s.s.s.s.s.s.s.s.s.s.s.s.s.s.s.s.s.s.s.s.s.s.s.s.s.s.s.s.s.s.s.s.s.s.s.s.s.s.s.s.s.s.s.s.s.s.s.s.s.s.s.s.s.s.s.s.s.s.s.s.s.s.s.s.s.s.s.s.s.s.s.s.s.s.s.s.s.s.s.s.s.s.s.s.s.s.s.s.s.s.s.s.s.s.s.s.s.s.s.s.s.s.s.s.s.s.s.s.s.s.s.s.s.s.s.s.s.s.s.s.s.s.s.s.s.s.s.s.s.s.s.s.s.s.s.s.s.s.s.s.s.s.s.s.s.s.s.s.s.s.s.s.s.s.s.s.s.s.s.s.s.s.s.s.s.s.s.s.s.s.s.s.s.s.s.s.s.s.s.s.s.s.s.s.s.s.s.s.s.s.s.s.s.s.s.s.s.s.s.s.s.s.s.s.s.s.s.s.s.s.s.s.s.s.",
"s.s.s.s.s.s.s.s.s.s.s.s.s.s.s.s.s.s.s.s.s.s.s.s.s.s.s.s.s.s.s.s.s.s.s.s.s.s.s.s.s.s.s.s.s.s.s.T ( ` ' | ..#.#.*.*.$.*.*.;.:.:.:.:.:.e.:.:.7.7.7.7.7.7.7.7.r.:.:.r.r.r.r.r.:.:.r.r.r.r.r.r.r.r.r.r.r.r.y.y.y.y.y.y.y.y.y.y.y.d.g.g.g.g.f.h.g.f.h.f.g.h.h.h.h.h.h.l.C.C.C.l.C.A.C.A.J.J.J.J.A.A.A.J.J.J.J.J.A.J.J.J.J.J.J.J.J.A.A.J.J.Z.A.A.A.A.Z.A.A.A.A.J.J.A.A.A.A.A.A.J.C.C.l.l.h.l.C.C.l.l.l.l.h.h.h.l.l.h.h.h.h.g.g.g.g.g.g.g.g.g.g.g.g.g.g.g.g.g.g.d.d.d.g.g.d.d.d.d.y.y.y.y.y.y.y.y.y.y.y.y.y.y.y.y.y.y.y.y.y.:.:.:.:.:.5.5.5.:.:.:.:.;.;.;.;.;.*.;.*.*.*.$.$.$.$.$.#.#.#.#.#.#.#.............@...............] ] | ' ' ` ( ( ( ( ( ( ( ( ( ( ( / / / / E E T T U U F D D A V m f a 9 7 s.s.s.s.s.s.s.s.s.s.s.s.s.s.s.s.s.s.s.s.s.s.s.s.s.s.s.s.s.s.s.s.s.s.s.s.s.s.s.s.s.s.s.s.s.s.s.s.s.s.s.s.s.s.s.s.s.s.s.s.s.s.s.s.s.s.s.s.s.s.s.s.s.s.s.s.s.s.s.s.s.s.s.s.s.s.s.s.s.s.s.s.s.s.s.s.s.s.s.s.s.s.s.s.s.s.s.s.s.s.s.s.s.s.s.s.s.s.s.s.s.s.s.s.s.s.s.s.s.s.s.s.s.s.s.s.s.s.s.s.s.s.s.s.s.s.s.s.s.s.s.s.s.s.s.s.s.s.s.s.s.s.s.s.s.s.s.s.s.s.s.s.s.s.s.s.s.s.s.s.s.s.s.s.s.s.s.s.s.s.s.s.s.s.s.s.s.s.s.s.s.s.s.s.s.s.s.s.s.s.s.s.s.s.s.s.s.s.s.s.s.s.s.s.s.s.s.s.s.s.s.s.s.s.s.s.s.s.s.s.s.s.s.s.s.s.s.s.s.s.s.s.s.s.s.s.s.s.s.s.s.s.s.s.s.",
"s.s.s.s.s.s.s.s.s.s.s.s.s.s.s.s.s.s.s.s.s.s.s.s.s.s.s.s.s.s.s.s.s.s.s.s.s.s.s.s.s.s.a.s.s.s.V R ( ` ' ....#.#.*.*.*.*.-.-.;.:.:.:.:.:.:.:.7.7.7.7.7.7.7.7.r.:.:.r.:.r.r.:.:.r.:.r.r.r.r.r.r.r.r.r.r.r.r.y.y.r.y.y.y.y.y.y.y.d.g.g.g.g.f.h.f.f.f.f.f.h.h.h.h.h.h.l.l.l.l.C.A.A.C.C.A.A.A.A.A.Z.J.J.J.J.J.J.A.J.J.Z.J.J.J.J.J.J.J.J.C.A.A.J.J.A.C.A.A.A.C.A.J.J.J.J.A.A.J.J.C.C.C.l.l.l.C.l.l.l.l.l.l.l.l.l.l.h.h.h.h.h.g.g.h.g.g.g.d.d.d.d.d.d.g.d.d.g.g.g.d.d.d.g.d.d.d.d.y.y.y.y.y.y.y.y.y.y.y.y.y.r.r.r.y.y.y.y.y.y.:.:.:.:.5.5.5.:.:.;.:.;.;.;.;.;.;.;.*.*.*.$.$.$.$.$.#.#.#.#.#.#.#.@.@.@.@.....@.............| | ] ] ' ' ( ( ( ( ( / ( ( ( ( ( ( / / / E E E T T U G F D D A V z j a 7 s.s.s.s.s.s.s.s.s.s.s.s.s.s.s.s.s.s.s.s.s.s.s.s.s.s.s.s.s.s.s.s.s.s.s.s.s.s.s.s.s.s.s.s.s.s.s.s.s.s.s.s.s.s.s.s.s.s.s.s.s.s.s.s.s.s.s.s.s.s.s.s.s.s.s.s.s.s.s.s.s.s.s.s.s.s.s.s.s.s.s.s.s.s.s.s.s.s.s.s.s.s.s.s.s.s.s.s.s.s.s.s.s.s.s.s.s.s.s.s.s.s.s.s.s.s.s.s.s.s.s.s.s.s.s.s.s.s.s.s.s.s.s.s.s.s.s.s.s.s.s.s.s.s.s.s.s.s.s.s.s.s.s.s.s.s.s.s.s.s.s.s.s.s.s.s.s.s.s.s.s.s.s.s.s.s.s.s.s.s.s.s.s.s.s.s.s.s.s.s.s.s.s.s.s.s.s.s.s.s.s.s.s.s.s.s.s.s.s.s.s.s.s.s.s.s.s.s.s.s.s.s.s.s.s.s.s.s.s.s.s.s.s.s.s.s.s.s.s.s.s.s.s.s.s.s.s.s.s.s.s.s.s.s.s.s.",
"s.s.s.s.s.s.s.s.s.s.s.s.s.s.s.s.s.s.s.s.s.s.s.s.s.s.s.s.s.s.s.s.s.s.s.s.s.s.s.s.s.s.s.s.s.s.J ( ( ` ] ..#.#.#.*.*.*.;.;.:.;.:.:.:.:.e.:.:.7.7.7.7.7.7.7.7.r.r.:.r.r.r.r.r.r.r.r.r.r.r.r.r.y.y.y.y.r.r.r.y.y.r.y.y.y.y.y.y.y.d.d.g.g.g.f.h.f.f.h.g.g.h.h.h.h.h.h.l.h.l.l.C.A.A.A.J.U.J.A.A.J.J.J.J.J.J.J.J.J.A.A.J.J.J.J.J.J.J.J.A.A.A.J.J.J.J.A.A.A.C.l.C.J.J.J.J.A.A.J.J.S.C.l.l.l.l.l.h.l.C.l.C.l.l.l.l.l.h.h.h.h.g.g.g.g.g.g.g.g.g.g.d.d.d.d.d.d.d.g.g.g.g.g.g.g.d.d.d.y.y.y.y.y.y.y.y.y.y.y.y.y.r.r.r.y.y.y.y.y.r.:.:.5.5.5.5.5.:.:.;.;.;.;.;.;.;.;.;.*.*.*.$.$.$.$.$.#.#.#.#.#.#.#.@.....@.....@.......] ] ..| | ] ' ' ' ` ( ( ( ( ( ( ( ( ( ( ( ( / / E E E T T G G F F S Z V z k a 7 s.s.s.s.s.s.s.s.s.s.s.s.s.s.s.s.s.s.s.s.s.s.s.s.s.s.s.s.s.s.s.s.s.s.s.s.s.s.s.s.s.s.s.s.s.s.s.s.s.s.s.s.s.s.s.s.s.s.s.s.s.s.s.s.s.s.s.s.s.s.s.s.s.s.s.s.s.s.s.s.s.s.s.s.s.s.s.s.s.s.s.s.s.s.s.s.s.s.s.s.s.s.s.s.s.s.s.s.s.s.s.s.s.s.s.s.s.s.s.s.s.s.s.s.s.s.s.s.s.s.s.s.s.s.s.s.s.s.s.s.s.s.s.s.s.s.s.s.s.s.s.s.s.s.s.s.s.s.s.s.s.s.s.s.s.s.s.s.s.s.s.s.s.s.s.s.s.s.s.s.s.s.s.s.s.s.s.s.s.s.s.s.s.s.s.s.s.s.s.s.s.s.s.s.s.s.s.s.s.s.s.s.s.s.s.s.s.s.s.s.s.s.s.s.s.s.s.s.s.s.s.s.s.s.s.s.s.s.s.s.s.s.s.s.s.s.s.s.s.s.s.s.s.s.s.s.s.s.s.s.s.s.s.s.s.s.",
"s.s.s.s.s.s.s.s.s.s.s.s.s.s.s.s.s.s.s.s.s.s.s.s.s.s.s.s.s.s.s.s.s.s.s.s.s.s.s.s.s.s.s.s.s.s.Y ( ` ' ] ..#.#.#.*.*.-.;.;.;.;.:.:.:.:.:.:.:.7.7.7.7.7.7.7.:.r.:.r.r.r.:.:.r.r.r.r.r.r.r.r.r.y.y.y.y.y.r.r.y.y.y.y.y.y.y.y.y.y.d.d.g.g.g.g.h.f.f.f.h.h.h.h.h.l.l.l.l.l.l.C.C.C.A.J.J.J.J.J.J.C.J.J.J.J.J.J.J.J.A.A.Z.J.U.J.J.J.J.Z.C.A.A.A.J.A.J.J.C.A.C.C.C.A.A.A.A.A.A.J.A.C.C.C.C.C.C.C.l.l.l.l.C.l.l.l.h.l.h.h.l.h.h.h.g.f.g.g.g.h.h.g.g.d.d.d.d.d.d.d.d.d.d.d.g.g.d.d.d.y.y.y.y.y.y.y.y.y.y.y.y.y.r.r.r.y.y.y.y.y.y.:.:.7.5.5.5.5.5.:.5.;.;.;.;.;.;.;.;.*.*.*.$.$.$.$.$.$.#.#.#.#.#.#...........@.@.....| | | | | ' | | ' ' ` ' ( ' ( ( ( ( / ( ( ( ( / E E E T T T U G F F S Z V z k y 7 s.s.s.s.s.s.s.s.s.s.s.s.s.s.s.s.s.s.s.s.s.s.s.s.s.s.s.s.s.s.s.s.s.s.s.s.s.s.s.s.s.s.s.s.s.s.s.s.s.s.s.s.s.s.s.s.s.s.s.s.s.s.s.s.s.s.s.s.s.s.s.s.s.s.s.s.s.s.s.s.s.s.s.s.s.s.s.s.s.s.s.s.s.s.s.s.s.s.s.s.s.s.s.s.s.s.s.s.s.s.s.s.s.s.s.s.s.s.s.s.s.s.s.s.s.s.s.s.s.s.s.s.s.s.s.s.s.s.s.s.s.s.s.s.s.s.s.s.s.s.s.s.s.s.s.s.s.s.s.s.s.s.s.s.s.s.s.s.s.s.s.s.s.s.s.s.s.s.s.s.s.s.s.s.s.s.s.s.s.s.s.s.s.s.s.s.s.s.s.s.s.s.s.s.s.s.s.s.s.s.s.s.s.s.s.s.s.s.s.s.s.s.s.s.s.s.s.s.s.s.s.s.s.s.s.s.s.s.s.s.s.s.s.s.s.s.s.s.s.s.s.s.s.s.s.s.s.s.s.s.s.s.s.s.s.s.",
"s.s.s.s.s.s.s.s.s.s.s.s.s.s.s.s.s.s.s.s.s.s.s.s.s.s.s.s.s.s.s.s.s.s.s.s.s.s.s.s.s.s.s.s.s.V ( ( ` ] ' ....#.#.$.-.-.-.;.;.;.;.;.:.:.:.:.:.:.:.:.r.r.r.r.:.:.r.r.r.:.:.:.r.r.r.y.y.y.r.r.r.r.y.y.y.y.y.y.y.y.y.y.y.y.y.y.y.y.d.d.f.d.f.g.f.g.g.g.h.g.g.g.h.l.l.l.l.l.l.C.C.C.A.A.A.J.J.U.J.A.J.J.Z.J.J.J.J.J.J.A.A.J.A.A.A.Z.J.J.J.A.A.A.J.J.J.A.J.C.C.C.C.C.C.C.C.C.C.A.C.C.C.C.C.C.C.C.C.l.C.C.l.l.l.l.h.h.h.h.h.h.h.h.g.h.f.f.g.g.f.g.g.g.d.d.d.d.d.d.d.g.g.d.d.d.d.y.d.y.y.y.y.y.y.y.y.y.y.y.y.y.y.r.r.y.y.r.y.y.y.:.:.y.y.:.:.:.:.:.:.;.;.;.;.;.;.;.;.*.*.*.$.$.$.$.$.$.#.#.#.#.#.#.@.............] | | | | | | | | | ' ' ' ` ` ' ' ( ( ( / ( ( E ( E E E E T T T U G F D Z V Z z k y 7 s.s.s.s.s.s.s.s.s.s.s.s.s.s.s.s.s.s.s.s.s.s.s.s.s.s.s.s.s.s.s.s.s.s.s.s.s.s.s.s.s.s.s.s.s.s.s.s.s.s.s.s.s.s.s.s.s.s.s.s.s.s.s.s.s.s.s.s.s.s.s.s.s.s.s.s.s.s.s.s.s.s.s.s.s.s.s.s.s.s.s.s.s.s.s.s.s.s.s.s.s.s.s.s.s.s.s.s.s.s.s.s.s.s.s.s.s.s.s.s.s.s.s.s.s.s.s.s.s.s.s.s.s.s.s.s.s.s.s.s.s.s.s.s.s.s.s.s.s.s.s.s.s.s.s.s.s.s.s.s.s.s.s.s.s.s.s.s.s.s.s.s.s.s.s.s.s.s.s.s.s.s.s.s.s.s.s.s.s.s.s.s.s.s.s.s.s.s.s.s.s.s.s.s.s.s.s.s.s.s.s.s.s.s.s.s.s.s.s.s.s.s.s.s.s.s.s.s.s.s.s.s.s.s.s.s.s.s.s.s.s.s.s.s.s.s.s.s.s.s.s.s.s.s.s.s.s.s.s.s.s.s.s.s.s.s.",
"s.s.s.s.s.s.s.s.s.s.s.s.s.s.s.s.s.s.s.s.s.s.s.s.s.s.s.s.s.s.s.s.s.s.s.s.s.s.s.s.s.s.s.s.s.J ( ` ` ' | | #.#.$.*.-.-.-.;.;.;.;.;.;.:.:.:.:.:.:.:.:.r.r.r.r.:.r.r.y.r.:.r.r.r.r.y.y.y.r.r.r.r.y.y.y.y.y.y.y.y.y.y.y.y.y.y.y.y.f.d.g.d.d.g.f.g.g.g.h.h.g.g.h.h.h.h.h.l.C.C.C.A.A.J.J.J.A.J.J.J.J.Z.C.J.J.J.J.J.J.J.Z.J.Z.Z.A.J.J.J.J.A.J.J.J.J.J.A.J.C.C.C.C.C.C.C.C.C.C.C.C.C.C.C.C.C.C.C.l.l.C.C.C.l.l.l.h.l.l.h.h.h.h.g.g.h.h.g.h.f.f.g.g.g.g.d.d.g.d.d.d.g.g.d.d.y.y.y.d.d.y.y.r.r.r.y.y.y.y.r.y.y.y.y.y.y.y.r.r.y.r.:.:.y.e.:.:.:.:.:.:.:.;.;.;.;.;.;.;.*.*.*.$.$.$.$.$.#.#.#.#.#.#.#.#.@.........] ] ....| | | ' | | ' ' ' ' ' ( ` ( ( ( ( / ( ( / / E E T T T T U G F D D Z Z M z j y 8 s.s.s.s.s.s.s.s.s.s.s.s.s.s.s.s.s.s.s.s.s.s.s.s.s.s.s.s.s.s.s.s.s.s.s.s.s.s.s.s.s.s.s.s.s.s.s.s.s.s.s.s.s.s.s.s.s.s.s.s.s.s.s.s.s.s.s.s.s.s.s.s.s.s.s.s.s.s.s.s.s.s.s.s.s.s.s.s.s.s.s.s.s.s.s.s.s.s.s.s.s.s.s.s.s.s.s.s.s.s.s.s.s.s.s.s.s.s.s.s.s.s.s.s.s.s.s.s.s.s.s.s.s.s.s.s.s.s.s.s.s.s.s.s.s.s.s.s.s.s.s.s.s.s.s.s.s.s.s.s.s.s.s.s.s.s.s.s.s.s.s.s.s.s.s.s.s.s.s.s.s.s.s.s.s.s.s.s.s.s.s.s.s.s.s.s.s.s.s.s.s.s.s.s.s.s.s.s.s.s.s.s.s.s.s.s.s.s.s.s.s.s.s.s.s.s.s.s.s.s.s.s.s.s.s.s.s.s.s.s.s.s.s.s.s.s.s.s.s.s.s.s.s.s.s.s.s.s.s.s.s.s.s.s.s.s.",
"s.s.s.s.s.s.s.s.s.s.s.s.s.s.s.s.s.s.s.s.s.s.s.s.s.s.s.s.s.s.s.s.s.s.s.s.s.s.s.s.s.s.s.s.s.U ( ` | ' ..#.#.$.$.$.-.-.-.;.;.;.;.;.;.:.:.:.:.:.:.:.:.r.r.r.r.:.:.r.r.r.r.r.r.r.r.y.y.y.r.r.r.r.y.y.y.y.y.y.y.y.y.y.y.y.y.d.y.y.d.d.g.d.g.g.f.g.g.g.h.h.h.h.h.l.l.l.l.C.C.A.C.A.J.J.J.J.C.A.J.A.J.J.J.J.J.J.J.J.J.U.J.J.J.J.J.C.J.J.A.C.J.J.U.J.J.A.J.A.C.C.C.A.A.A.C.C.J.A.C.C.C.C.A.C.C.C.C.l.C.C.C.l.l.l.h.h.l.h.j.l.h.g.g.g.h.h.f.h.f.f.f.g.g.g.g.g.d.d.d.d.d.d.d.d.y.y.y.y.y.y.y.y.y.y.y.y.y.r.y.y.y.y.y.y.y.r.r.y.y.:.:.:.:.:.:.:.:.:.:.;.;.;.;.;.;.;.;.*.*.*.$.$.$.$.$.$.$.#.#.#.#.#.#.#.@.......] ....| | | | | ' ' ' ' ' ' ` ( ( ( ( ( ( / ( ( / / E E T T T T U G F D D Z Z m h f 0 8 s.s.s.s.s.s.s.s.s.s.s.s.s.s.s.s.s.s.s.s.s.s.s.s.s.s.s.s.s.s.s.s.s.s.s.s.s.s.s.s.s.s.s.s.s.s.s.s.s.s.s.s.s.s.s.s.s.s.s.s.s.s.s.s.s.s.s.s.s.s.s.s.s.s.s.s.s.s.s.s.s.s.s.s.s.s.s.s.s.s.s.s.s.s.s.s.s.s.s.s.s.s.s.s.s.s.s.s.s.s.s.s.s.s.s.s.s.s.s.s.s.s.s.s.s.s.s.s.s.s.s.s.s.s.s.s.s.s.s.s.s.s.s.s.s.s.s.s.s.s.s.s.s.s.s.s.s.s.s.s.s.s.s.s.s.s.s.s.s.s.s.s.s.s.s.s.s.s.s.s.s.s.s.s.s.s.s.s.s.s.s.s.s.s.s.s.s.s.s.s.s.s.s.s.s.s.s.s.s.s.s.s.s.s.s.s.s.s.s.s.s.s.s.s.s.s.s.s.s.s.s.s.s.s.s.s.s.s.s.s.s.s.s.s.s.s.s.s.s.s.s.s.s.s.s.s.s.s.s.s.s.s.s.s.s.s.",
"s.s.s.s.s.s.s.s.s.s.s.s.s.s.s.s.s.s.s.s.s.s.s.s.s.s.s.s.s.s.s.s.s.s.s.s.s.s.s.s.s.s.s.s.M ( ( | ' | ..#.$.$.$.$.-.-.;.;.;.;.;.;.;.:.:.:.:.:.:.:.:.r.r.r.r.r.r.r.r.r.r.r.r.r.r.y.r.y.r.r.y.y.y.y.y.y.y.r.y.y.y.y.y.y.y.d.y.y.d.d.f.g.g.g.h.g.g.g.h.h.h.h.l.l.l.C.l.C.C.A.A.J.J.J.J.J.A.A.J.J.J.J.J.J.U.J.J.J.J.J.J.J.U.L.J.A.J.J.A.C.J.J.J.J.J.A.A.A.A.J.A.A.A.A.A.A.A.A.C.C.C.C.C.C.C.C.C.C.l.C.l.l.l.l.l.h.l.h.l.l.h.g.g.h.h.h.g.g.g.g.f.g.g.g.d.g.g.d.d.g.g.d.d.d.y.y.y.y.y.y.y.y.y.y.y.y.r.r.r.r.r.r.y.7.y.r.y.y.y.:.y.:.:.:.:.:.:.:.:.;.;.;.;.*.*.-.;.*.$.*.$.$.$.$.$.$.#.#.#.#.@.#.#.@.@...@.] ..@.] | | | | | ' ' ' ' ' ' ` ( ( ( ( ( ( ( ( ( / / E E T T T U U G F F D Z V m k d 9 s.s.s.s.s.s.s.s.s.s.s.s.s.s.s.s.s.s.s.s.s.s.s.s.s.s.s.s.s.s.s.s.s.s.s.s.s.s.s.s.s.s.s.s.s.s.s.s.s.s.s.s.s.s.s.s.s.s.s.s.s.s.s.s.s.s.s.s.s.s.s.s.s.s.s.s.s.s.s.s.s.s.s.s.s.s.s.s.s.s.s.s.s.s.s.s.s.s.s.s.s.s.s.s.s.s.s.s.s.s.s.s.s.s.s.s.s.s.s.s.s.s.s.s.s.s.s.s.s.s.s.s.s.s.s.s.s.s.s.s.s.s.s.s.s.s.s.s.s.s.s.s.s.s.s.s.s.s.s.s.s.s.s.s.s.s.s.s.s.s.s.s.s.s.s.s.s.s.s.s.s.s.s.s.s.s.s.s.s.s.s.s.s.s.s.s.s.s.s.s.s.s.s.s.s.s.s.s.s.s.s.s.s.s.s.s.s.s.s.s.s.s.s.s.s.s.s.s.s.s.s.s.s.s.s.s.s.s.s.s.s.s.s.s.s.s.s.s.s.s.s.s.s.s.s.s.s.s.s.s.s.s.s.s.s.s.s.",
"s.s.s.s.s.s.s.s.s.s.s.s.s.s.s.s.s.s.s.s.s.s.s.s.s.s.s.s.s.s.s.s.s.s.s.s.s.s.s.s.s.s.s.s.D ( ` ' ' | ..#.$.*.$.*.-.-.;.;.;.;.;.;.;.;.;.:.:.r.r.r.r.r.r.y.r.r.r.r.:.r.r.r.r.r.y.y.y.y.y.y.r.r.y.y.y.y.y.y.y.y.y.y.y.y.y.y.y.y.g.d.d.g.g.g.f.g.d.g.h.h.h.h.l.C.C.A.C.C.A.A.A.J.C.J.J.J.J.J.J.J.J.J.J.J.J.J.J.J.L.J.J.J.J.J.J.A.C.A.A.A.A.J.J.J.J.A.A.C.A.A.A.A.A.C.C.A.A.C.C.C.C.C.C.C.C.C.l.C.l.C.l.l.l.l.h.h.h.h.h.h.h.g.h.h.h.h.g.g.h.g.g.g.d.d.d.d.d.d.d.d.d.d.d.d.y.y.y.y.r.r.r.y.y.r.r.r.r.r.r.r.r.y.r.:.y.y.y.:.y.y.y.y.:.:.:.:.:.:.:.;.;.;.*.*.*.*.*.*.*.$.$.$.$.$.$.$.$.$.#.@.@.$.@.@.......| ......| | | | ' | ' ' ' ' ' ` ( ( ( ( / ( ( ( ( / / / E E T T U G G F D Z Z V z k a 9 s.s.s.s.s.s.s.s.s.s.s.s.s.s.s.s.s.s.s.s.s.s.s.s.s.s.s.s.s.s.s.s.s.s.s.s.s.s.s.s.s.s.s.s.s.s.s.s.s.s.s.s.s.s.s.s.s.s.s.s.s.s.s.s.s.s.s.s.s.s.s.s.s.s.s.s.s.s.s.s.s.s.s.s.s.s.s.s.s.s.s.s.s.s.s.s.s.s.s.s.s.s.s.s.s.s.s.s.s.s.s.s.s.s.s.s.s.s.s.s.s.s.s.s.s.s.s.s.s.s.s.s.s.s.s.s.s.s.s.s.s.s.s.s.s.s.s.s.s.s.s.s.s.s.s.s.s.s.s.s.s.s.s.s.s.s.s.s.s.s.s.s.s.s.s.s.s.s.s.s.s.s.s.s.s.s.s.s.s.s.s.s.s.s.s.s.s.s.s.s.s.s.s.s.s.s.s.s.s.s.s.s.s.s.s.s.s.s.s.s.s.s.s.s.s.s.s.s.s.s.s.s.s.s.s.s.s.s.s.s.s.s.s.s.s.s.s.s.s.s.s.s.s.s.s.s.s.s.s.s.s.s.s.s.s.s.s.",
"s.s.s.s.s.s.s.s.s.s.s.s.s.s.s.s.s.s.s.s.s.s.s.s.s.s.s.s.s.s.s.s.s.s.s.s.s.s.s.s.s.s.s.s.Y ( ' ' | | #.#.$.$.*.*.-.-.;.;.;.;.;.;.;.;.;.r.:.r.r.r.r.r.r.r.:.r.:.r.r.r.r.r.r.y.y.r.r.y.y.y.y.y.y.y.y.y.y.y.y.y.y.y.y.y.y.y.y.y.y.d.d.g.g.g.g.g.g.g.h.h.h.h.l.l.C.C.C.A.A.J.J.C.A.A.U.J.J.J.J.Z.Z.Z.J.J.J.W.U.J.J.J.U.J.J.J.J.J.A.C.A.A.J.J.A.A.A.C.A.C.C.C.C.A.A.C.C.A.A.C.C.C.C.C.C.C.C.C.C.C.C.C.C.l.l.l.h.h.h.h.h.h.h.h.h.h.h.h.g.h.h.f.f.g.g.g.d.g.d.d.d.d.d.d.d.d.d.y.y.y.y.y.y.y.y.y.y.y.y.y.y.r.r.r.r.7.y.r.y.:.:.y.y.:.:.:.:.:.:.:.:.;.;.;.;.;.;.*.*.*.*.$.$.$.$.$.$.$.$.$.#.#.@.@.@.@.......| ......| | | | | | ' ' ' ' ' ' ( ( ( ( / ( ( ( / / / / E E T T G U G F D Z V M z k y 7 s.s.s.s.s.s.s.s.s.s.s.s.s.s.s.s.s.s.s.s.s.s.s.s.s.s.s.s.s.s.s.s.s.s.s.s.s.s.s.s.s.s.s.s.s.s.s.s.s.s.s.s.s.s.s.s.s.s.s.s.s.s.s.s.s.s.s.s.s.s.s.s.s.s.s.s.s.s.s.s.s.s.s.s.s.s.s.s.s.s.s.s.s.s.s.s.s.s.s.s.s.s.s.s.s.s.s.s.s.s.s.s.s.s.s.s.s.s.s.s.s.s.s.s.s.s.s.s.s.s.s.s.s.s.s.s.s.s.s.s.s.s.s.s.s.s.s.s.s.s.s.s.s.s.s.s.s.s.s.s.s.s.s.s.s.s.s.s.s.s.s.s.s.s.s.s.s.s.s.s.s.s.s.s.s.s.s.s.s.s.s.s.s.s.s.s.s.s.s.s.s.s.s.s.s.s.s.s.s.s.s.s.s.s.s.s.s.s.s.s.s.s.s.s.s.s.s.s.s.s.s.s.s.s.s.s.s.s.s.s.s.s.s.s.s.s.s.s.s.s.s.s.s.s.s.s.s.s.s.s.s.s.s.s.s.s.s.",
"s.s.s.s.s.s.s.s.s.s.s.s.s.s.s.s.s.s.s.s.s.s.s.s.s.s.s.s.s.s.s.s.s.s.s.s.s.s.s.s.s.s.s.s.Q ( ' | | | #.#.$.*.*.*.;.;.;.;.:.;.;.;.;.;.;.r.:.r.r.r.r.r.r.r.:.r.r.r.:.r.r.r.r.r.y.y.y.y.y.y.y.y.y.y.y.y.y.y.y.y.y.y.y.y.y.y.y.y.d.d.d.d.g.g.g.g.g.g.h.h.h.l.l.l.l.C.C.A.J.J.J.C.A.J.J.U.J.J.A.J.J.J.J.J.J.J.J.J.J.J.U.R.J.J.J.J.Z.A.J.A.J.J.A.A.A.A.A.C.C.C.A.A.A.C.C.A.A.C.C.A.A.A.A.A.A.C.C.A.C.C.C.l.l.l.h.h.h.h.h.h.h.h.h.h.h.h.h.h.g.h.f.g.g.g.g.g.d.d.d.d.d.d.d.d.d.d.d.y.y.y.y.y.y.y.y.y.y.y.y.y.r.r.r.7.y.r.y.:.:.:.y.:.:.:.:.:.:.:.:.;.;.;.;.;.;.*.*.*.*.*.*.$.$.$.$.$.$.$.#.#.#.@...@.....| ] ........| ' | | | ' ' ' ' ' ( ( ( / ( ( ( ( ( / / / / E E T T U G F F D Z V m z j a 7 s.s.s.s.s.s.s.s.s.s.s.s.s.s.s.s.s.s.s.s.s.s.s.s.s.s.s.s.s.s.s.s.s.s.s.s.s.s.s.s.s.s.s.s.s.s.s.s.s.s.s.s.s.s.s.s.s.s.s.s.s.s.s.s.s.s.s.s.s.s.s.s.s.s.s.s.s.s.s.s.s.s.s.s.s.s.s.s.s.s.s.s.s.s.s.s.s.s.s.s.s.s.s.s.s.s.s.s.s.s.s.s.s.s.s.s.s.s.s.s.s.s.s.s.s.s.s.s.s.s.s.s.s.s.s.s.s.s.s.s.s.s.s.s.s.s.s.s.s.s.s.s.s.s.s.s.s.s.s.s.s.s.s.s.s.s.s.s.s.s.s.s.s.s.s.s.s.s.s.s.s.s.s.s.s.s.s.s.s.s.s.s.s.s.s.s.s.s.s.s.s.s.s.s.s.s.s.s.s.s.s.s.s.s.s.s.s.s.s.s.s.s.s.s.s.s.s.s.s.s.s.s.s.s.s.s.s.s.s.s.s.s.s.s.s.s.s.s.s.s.s.s.s.s.s.s.s.s.s.s.s.s.s.s.s.s.s.",
"s.s.s.s.s.s.s.s.s.s.s.s.s.s.s.s.s.s.s.s.s.s.s.s.s.s.s.s.s.s.s.s.s.s.s.s.s.s.s.s.s.s.s.D ( ( ' | | ..#.#.$.*.*.-.;.:.:.:.:.;.:.;.:.:.;.r.:.r.r.r.r.:.r.r.r.r.r.r.r.r.r.r.r.r.y.y.y.y.y.y.y.y.y.y.y.y.y.y.y.y.y.y.y.y.y.y.y.y.y.y.g.y.d.g.g.g.g.g.h.h.h.l.l.C.C.C.A.J.A.A.J.J.J.J.J.J.J.J.J.J.J.J.J.U.J.J.U.U.L.U.U.W.W.U.R.J.J.J.J.J.J.J.J.A.A.J.J.J.J.J.J.A.A.A.C.A.A.A.C.A.A.A.A.A.A.J.C.C.C.C.C.l.l.l.h.h.h.h.h.h.g.g.g.h.h.h.h.h.h.h.f.g.g.g.g.g.d.d.d.d.d.d.d.d.d.d.d.y.y.y.y.y.y.y.y.y.y.y.y.y.y.r.r.y.y.7.y.:.:.:.y.:.:.e.:.:.:.:.:.;.;.;.;.;.;.*.*.*.*.*.*.$.$.$.$.$.$.$.#.#.#...........| | | | | | | | ' | ' ' ' ' ' ` ' ( ( ( ( / ( ( ( / / / / T E T T U G P F D Z V m k d y 7 s.s.s.s.s.s.s.s.s.s.s.s.s.s.s.s.s.s.s.s.s.s.s.s.s.s.s.s.s.s.s.s.s.s.s.s.s.s.s.s.s.s.s.s.s.s.s.s.s.s.s.s.s.s.s.s.s.s.s.s.s.s.s.s.s.s.s.s.s.s.s.s.s.s.s.s.s.s.s.s.s.s.s.s.s.s.s.s.s.s.s.s.s.s.s.s.s.s.s.s.s.s.s.s.s.s.s.s.s.s.s.s.s.s.s.s.s.s.s.s.s.s.s.s.s.s.s.s.s.s.s.s.s.s.s.s.s.s.s.s.s.s.s.s.s.s.s.s.s.s.s.s.s.s.s.s.s.s.s.s.s.s.s.s.s.s.s.s.s.s.s.s.s.s.s.s.s.s.s.s.s.s.s.s.s.s.s.s.s.s.s.s.s.s.s.s.s.s.s.s.s.s.s.s.s.s.s.s.s.s.s.s.s.s.s.s.s.s.s.s.s.s.s.s.s.s.s.s.s.s.s.s.s.s.s.s.s.s.s.s.s.s.s.s.s.s.s.s.s.s.s.s.s.s.s.s.s.s.s.s.s.s.s.s.s.s.s.",
"s.s.s.s.s.s.s.s.s.s.s.s.s.s.s.s.s.s.s.s.s.s.s.s.s.s.s.s.s.s.s.s.s.s.s.s.s.s.s.s.s.s.s.T ` ( | | ..#.#.#.$.*.-.-.;.:.:.:.:.;.:.:.r.r.r.r.:.:.:.r.r.r.r.r.r.:.:.:.r.y.y.y.r.y.y.y.y.y.y.y.y.y.y.d.f.y.d.y.d.y.y.y.y.y.y.y.y.y.y.d.d.d.d.d.g.h.g.g.g.h.h.l.l.C.C.C.C.J.C.C.A.S.J.C.J.J.J.Z.J.A.J.J.J.J.J.J.J.J.U.J.J.U.W.W.R.U.U.J.U.U.J.J.J.J.J.J.J.J.J.J.A.A.J.J.A.A.A.A.A.C.C.A.A.C.J.A.C.l.l.l.l.l.l.l.l.h.h.h.h.h.g.g.g.g.h.h.h.f.g.g.g.g.g.g.d.g.d.d.d.d.d.d.g.d.y.y.y.y.y.y.y.y.y.y.y.y.y.y.y.y.y.y.r.7.7.7.7.7.:.7.7.y.:.:.:.:.:.:.:.;.;.;.;.;.;.*.*.*.*.;.*.$.$.$.$.$.#.#.$.#.#.#.........| | | | | | | ' ' | ' ' ' ' ` ` ' ( ( ( ( ( ( ( ( / / / / E T T T U G F D A Z M m k a y 7 s.s.s.s.s.s.s.s.s.s.s.s.s.s.s.s.s.s.s.s.s.s.s.s.s.s.s.s.s.s.s.s.s.s.s.s.s.s.s.s.s.s.s.s.s.s.s.s.s.s.s.s.s.s.s.s.s.s.s.s.s.s.s.s.s.s.s.s.s.s.s.s.s.s.s.s.s.s.s.s.s.s.s.s.s.s.s.s.s.s.s.s.s.s.s.s.s.s.s.s.s.s.s.s.s.s.s.s.s.s.s.s.s.s.s.s.s.s.s.s.s.s.s.s.s.s.s.s.s.s.s.s.s.s.s.s.s.s.s.s.s.s.s.s.s.s.s.s.s.s.s.s.s.s.s.s.s.s.s.s.s.s.s.s.s.s.s.s.s.s.s.s.s.s.s.s.s.s.s.s.s.s.s.s.s.s.s.s.s.s.s.s.s.s.s.s.s.s.s.s.s.s.s.s.s.s.s.s.s.s.s.s.s.s.s.s.s.s.s.s.s.s.s.s.s.s.s.s.s.s.s.s.s.s.s.s.s.s.s.s.s.s.s.s.s.s.s.s.s.s.s.s.s.s.s.s.s.s.s.s.s.s.s.s.s.s.s.",
"s.s.s.s.s.s.s.s.s.s.s.s.s.s.s.s.s.s.s.s.s.s.s.s.s.s.s.s.s.s.s.s.s.s.s.s.s.s.s.s.s.s.s.W ' ' | ....@.#.#.*.-.-.;.;.:.:.;.:.:.:.:.:.r.:.r.:.r.r.r.r.r.:.r.r.r.r.r.r.y.y.y.r.y.y.y.y.y.y.y.y.d.d.y.y.y.y.y.y.y.y.y.y.y.y.y.y.d.d.d.d.g.d.d.g.g.g.h.h.h.l.l.C.C.C.C.C.A.A.J.J.A.J.A.J.J.J.J.A.J.J.J.J.J.J.J.J.J.J.J.J.J.J.J.J.J.U.J.J.J.J.J.J.J.J.J.J.J.J.J.A.A.J.J.A.A.J.J.A.C.A.C.A.A.C.C.C.l.l.h.h.l.l.l.l.h.h.h.h.h.h.g.g.g.g.g.h.g.g.g.g.g.g.g.d.g.g.d.d.y.d.d.d.y.y.y.y.y.y.y.r.r.r.y.y.y.y.y.y.y.y.r.r.r.7.7.7.7.7.7.7.:.:.:.:.:.:.:.:.;.;.;.;.-.-.*.*.$.*.*.*.*.$.$.$.$.#.#.#.#.#.#.......| #.| | | | | | | ' | ' ' ' ' ` ` ' ( ( ` ( ( ( ( ( ( ( ( / E T T T U G F D Z Z M z j a 0 s.s.s.s.s.s.s.s.s.s.s.s.s.s.s.s.s.s.s.s.s.s.s.s.s.s.s.s.s.s.s.s.s.s.s.s.s.s.s.s.s.s.s.s.s.s.s.s.s.s.s.s.s.s.s.s.s.s.s.s.s.s.s.s.s.s.s.s.s.s.s.s.s.s.s.s.s.s.s.s.s.s.s.s.s.s.s.s.s.s.s.s.s.s.s.s.s.s.s.s.s.s.s.s.s.s.s.s.s.s.s.s.s.s.s.s.s.s.s.s.s.s.s.s.s.s.s.s.s.s.s.s.s.s.s.s.s.s.s.s.s.s.s.s.s.s.s.s.s.s.s.s.s.s.s.s.s.s.s.s.s.s.s.s.s.s.s.s.s.s.s.s.s.s.s.s.s.s.s.s.s.s.s.s.s.s.s.s.s.s.s.s.s.s.s.s.s.s.s.s.s.s.s.s.s.s.s.s.s.s.s.s.s.s.s.s.s.s.s.s.s.s.s.s.s.s.s.s.s.s.s.s.s.s.s.s.s.s.s.s.s.s.s.s.s.s.s.s.s.s.s.s.s.s.s.s.s.s.s.s.s.s.s.s.s.s.s.s.",
"s.s.s.s.s.s.s.s.s.s.s.s.s.s.s.s.s.s.s.s.s.s.s.s.s.s.s.s.s.s.s.s.s.s.s.s.s.s.s.s.s.s.P ( ` | | ....#.#.$.$.-.-.;.:.:.:.:.:.;.r.:.;.r.:.:.:.r.r.r.r.:.r.r.r.r.r.r.r.y.y.r.r.y.r.y.y.y.y.y.y.y.y.d.d.y.y.y.y.y.y.y.y.y.y.y.y.y.y.d.d.g.g.g.g.h.g.h.h.h.l.l.A.C.C.C.C.C.J.A.C.J.A.J.Z.J.J.J.J.J.J.U.U.J.J.J.J.J.J.J.J.J.J.J.J.J.J.J.J.J.J.J.J.J.J.J.J.J.J.J.A.A.J.J.A.J.J.J.C.C.C.C.C.C.C.C.C.l.l.l.h.l.C.l.l.l.h.h.h.h.h.h.h.g.g.g.g.g.g.g.g.g.g.g.d.g.d.d.d.d.d.d.d.d.y.y.y.y.y.y.y.r.r.r.y.y.y.y.r.r.r.r.r.r.7.7.7.7.y.7.7.:.:.:.:.:.:.:.:.;.;.;.;.-.-.*.*.*.*.*.*.*.$.$.$.$.#.#.#.#.#.#.......| | | | | | | | | ' | ' ' ' ' ` ` ' ( ( ` ( ( ( ( ( ( ( ( / E T T T G P F D Z V m z j a 8 s.s.s.s.s.s.s.s.s.s.s.s.s.s.s.s.s.s.s.s.s.s.s.s.s.s.s.s.s.s.s.s.s.s.s.s.s.s.s.s.s.s.s.s.s.s.s.s.s.s.s.s.s.s.s.s.s.s.s.s.s.s.s.s.s.s.s.s.s.s.s.s.s.s.s.s.s.s.s.s.s.s.s.s.s.s.s.s.s.s.s.s.s.s.s.s.s.s.s.s.s.s.s.s.s.s.s.s.s.s.s.s.s.s.s.s.s.s.s.s.s.s.s.s.s.s.s.s.s.s.s.s.s.s.s.s.s.s.s.s.s.s.s.s.s.s.s.s.s.s.s.s.s.s.s.s.s.s.s.s.s.s.s.s.s.s.s.s.s.s.s.s.s.s.s.s.s.s.s.s.s.s.s.s.s.s.s.s.s.s.s.s.s.s.s.s.s.s.s.s.s.s.s.s.s.s.s.s.s.s.s.s.s.s.s.s.s.s.s.s.s.s.s.s.s.s.s.s.s.s.s.s.s.s.s.s.s.s.s.s.s.s.s.s.s.s.s.s.s.s.s.s.s.s.s.s.s.s.s.s.s.s.s.s.s.s.s.s.",
"s.s.s.s.s.s.s.s.s.s.s.s.s.s.s.s.s.s.s.s.s.s.s.s.s.s.s.s.s.s.s.s.s.s.s.s.s.s.s.s.s.s.U ( ' | | ..#.#.#.$.$.-.-.:.:.:.:.:.:.;.:.r.:.r.:.:.:.:.r.r.r.r.r.r.r.r.r.r.r.y.r.r.r.r.y.r.y.y.y.y.y.y.y.d.f.d.y.y.y.y.y.y.y.y.y.y.y.r.r.y.d.g.g.g.g.g.h.h.h.h.l.l.C.C.C.A.C.A.J.J.A.A.C.J.A.J.A.J.J.U.U.U.U.U.U.J.J.J.J.J.U.U.U.U.J.J.J.Z.J.J.J.J.J.J.Z.Z.J.J.J.J.Z.A.A.C.J.J.J.A.C.C.C.C.C.C.C.C.C.C.h.h.l.l.l.l.l.l.l.h.h.h.l.h.h.h.h.g.g.g.g.g.g.g.g.g.d.d.d.d.d.y.y.y.y.y.d.y.y.y.y.y.y.r.r.r.r.r.r.y.r.r.r.r.r.:.7.7.7.7.y.7.7.:.:.:.:.:.:.:.:.;.;.;.;.;.-.-.*.*.*.$.*.*.$.$.$.#.#.#.#.#.#.........| | | | | | | | | ' | ' ' ' ' ` ( ` ( ( ` ( ( ( ( ( ( ( ( / E T T G G F F D Z V m z j a 8 s.s.s.s.s.s.s.s.s.s.s.s.s.s.s.s.s.s.s.s.s.s.s.s.s.s.s.s.s.s.s.s.s.s.s.s.s.s.s.s.s.s.s.s.s.s.s.s.s.s.s.s.s.s.s.s.s.s.s.s.s.s.s.s.s.s.s.s.s.s.s.s.s.s.s.s.s.s.s.s.s.s.s.s.s.s.s.s.s.s.s.s.s.s.s.s.s.s.s.s.s.s.s.s.s.s.s.s.s.s.s.s.s.s.s.s.s.s.s.s.s.s.s.s.s.s.s.s.s.s.s.s.s.s.s.s.s.s.s.s.s.s.s.s.s.s.s.s.s.s.s.s.s.s.s.s.s.s.s.s.s.s.s.s.s.s.s.s.s.s.s.s.s.s.s.s.s.s.s.s.s.s.s.s.s.s.s.s.s.s.s.s.s.s.s.s.s.s.s.s.s.s.s.s.s.s.s.s.s.s.s.s.s.s.s.s.s.s.s.s.s.s.s.s.s.s.s.s.s.s.s.s.s.s.s.s.s.s.s.s.s.s.s.s.s.s.s.s.s.s.s.s.s.s.s.s.s.s.s.s.s.s.s.s.s.s.s.s.",
"s.s.s.s.s.s.s.s.s.s.s.s.s.s.s.s.s.s.s.s.s.s.s.s.s.s.s.s.s.s.s.s.s.s.s.s.s.s.s.s.s.s.W ( ' | | #.#.#.$.$.*.-.-.:.:.:.:.:.:.;.;.r.:.:.:.:.:.:.r.r.r.r.r.r.r.r.y.y.r.r.r.:.r.r.r.y.y.y.y.y.y.d.d.d.f.d.d.y.d.y.y.y.d.y.y.y.y.y.y.d.d.g.g.g.g.g.h.h.h.l.l.l.l.C.A.A.C.C.J.J.J.J.J.A.A.A.J.J.A.W.U.J.J.U.W.J.J.J.J.U.J.U.U.U.L.J.J.J.A.A.J.J.J.J.J.U.J.Z.J.J.Z.A.A.C.J.A.A.A.C.C.C.C.C.C.C.l.C.C.l.l.l.l.C.l.l.C.h.h.h.h.h.g.h.g.h.g.g.g.g.g.g.g.d.g.g.d.d.d.y.y.y.y.y.y.y.d.y.y.r.y.y.y.r.r.r.r.y.y.y.r.r.r.r.y.y.7.7.7.7.7.7.:.:.:.:.:.:.:.:.;.;.;.;.;.;.-.*.*.*.*.*.*.$.$.$.#.#.#.#.#.#.| ......| | | | | ' | | ' ' ' ' ' | ' ( ( ( ( ( ` ` ( ( ( ( ( ( / / E T T U F F F D Z V z k d a 7 s.s.s.s.s.s.s.s.s.s.s.s.s.s.s.s.s.s.s.s.s.s.s.s.s.s.s.s.s.s.s.s.s.s.s.s.s.s.s.s.s.s.s.s.s.s.s.s.s.s.s.s.s.s.s.s.s.s.s.s.s.s.s.s.s.s.s.s.s.s.s.s.s.s.s.s.s.s.s.s.s.s.s.s.s.s.s.s.s.s.s.s.s.s.s.s.s.s.s.s.s.s.s.s.s.s.s.s.s.s.s.s.s.s.s.s.s.s.s.s.s.s.s.s.s.s.s.s.s.s.s.s.s.s.s.s.s.s.s.s.s.s.s.s.s.s.s.s.s.s.s.s.s.s.s.s.s.s.s.s.s.s.s.s.s.s.s.s.s.s.s.s.s.s.s.s.s.s.s.s.s.s.s.s.s.s.s.s.s.s.s.s.s.s.s.s.s.s.s.s.s.s.s.s.s.s.s.s.s.s.s.s.s.s.s.s.s.s.s.s.s.s.s.s.s.s.s.s.s.s.s.s.s.s.s.s.s.s.s.s.s.s.s.s.s.s.s.s.s.s.s.s.s.s.s.s.s.s.s.s.s.s.s.s.s.s.s.s.",
"s.s.s.s.s.s.s.s.s.s.s.s.s.s.s.s.s.s.s.s.s.s.s.s.s.s.s.s.s.s.s.s.s.s.s.s.s.s.s.s.s.T ` ( ' ] | X.$.#.$.$.*.-.-.:.:.:.:.:.:.;.;.:.:.:.:.:.:.r.r.r.r.r.r.r.r.r.r.y.r.r.r.r.y.r.y.y.y.r.y.y.d.y.y.d.f.d.y.y.y.y.y.y.y.y.y.y.y.d.g.d.g.g.g.g.g.g.g.g.h.l.l.l.l.C.C.C.C.C.A.A.A.Z.Z.Z.Z.J.J.Z.C.J.J.J.U.U.U.J.J.J.U.U.U.J.J.J.U.J.J.J.J.J.J.J.U.J.J.J.J.J.A.A.A.C.C.C.A.A.A.C.C.A.C.C.l.C.C.C.C.C.l.l.l.h.l.C.l.h.h.h.h.h.h.h.h.g.g.g.g.g.g.g.g.g.d.g.g.g.d.d.d.d.g.y.y.d.d.d.y.y.y.y.y.y.y.r.r.r.r.r.y.r.r.r.r.r.7.7.:.7.7.7.7.:.:.:.:.:.:.-.;.;.;.;.;.;.;.*.*.*.*.*.*.*.*.$.$.#.#.#.#.#.#.#...#.#.| ..| | | | | ' ' ' ' ' ' ' ' ( ` ` ( ( ` ` ` ( ( ( / ( / E E T T U F F D S Z V z k a y 6 s.s.s.s.s.s.s.s.s.s.s.s.s.s.s.s.s.s.s.s.s.s.s.s.s.s.s.s.s.s.s.s.s.s.s.s.s.s.s.s.s.s.s.s.s.s.s.s.s.s.s.s.s.s.s.s.s.s.s.s.s.s.s.s.s.s.s.s.s.s.s.s.s.s.s.s.s.s.s.s.s.s.s.s.s.s.s.s.s.s.s.s.s.s.s.s.s.s.s.s.s.s.s.s.s.s.s.s.s.s.s.s.s.s.s.s.s.s.s.s.s.s.s.s.s.s.s.s.s.s.s.s.s.s.s.s.s.s.s.s.s.s.s.s.s.s.s.s.s.s.s.s.s.s.s.s.s.s.s.s.s.s.s.s.s.s.s.s.s.s.s.s.s.s.s.s.s.s.s.s.s.s.s.s.s.s.s.s.s.s.s.s.s.s.s.s.s.s.s.s.s.s.s.s.s.s.s.s.s.s.s.s.s.s.s.s.s.s.s.s.s.s.s.s.s.s.s.s.s.s.s.s.s.s.s.s.s.s.s.s.s.s.s.s.s.s.s.s.s.s.s.s.s.s.s.s.s.s.s.s.s.s.s.s.s.s.s.s.",
"s.s.s.s.s.s.s.s.s.s.s.s.s.s.s.s.s.s.s.s.s.s.s.s.s.s.s.s.s.s.s.s.s.s.s.s.s.s.s.s.s.W ` ` ' | ..#.#.$.$.*.*.;.:.:.:.:.:.:.:.:.;.:.:.:.:.:.:.r.r.y.y.y.y.r.r.r.r.y.y.r.r.r.r.r.y.y.y.y.y.y.y.y.y.y.f.d.y.y.y.y.y.y.y.d.y.y.y.d.g.g.d.g.d.d.g.g.h.g.h.l.l.l.l.l.l.C.A.C.A.J.A.Z.Z.Z.Z.U.J.J.A.J.J.J.J.J.U.U.U.U.U.W.U.J.L.J.J.J.J.J.A.J.J.J.J.J.J.J.J.J.J.A.A.C.C.S.A.A.J.C.C.C.C.C.l.l.C.C.C.C.C.C.C.l.l.l.l.l.l.h.h.h.h.h.g.g.g.g.g.g.g.g.g.g.d.g.g.d.d.g.g.g.g.y.d.d.y.d.y.y.y.y.r.r.y.r.r.r.r.r.r.r.r.r.r.r.7.7.7.7.7.7.7.:.:.:.:.:.:.:.;.;.;.;.;.;.;.*.-.*.*.*.*.*.*.$.$.#.#.#.#.#.#.#...#.| | | | | | | | | ' ' ' ' ` ' ' ( ( ( ( ( ` ` ( ( ( ( ( / / E T T U G F F D Z Z M z j a 0 7 s.s.s.s.s.s.s.s.s.s.s.s.s.s.s.s.s.s.s.s.s.s.s.s.s.s.s.s.s.s.s.s.s.s.s.s.s.s.s.s.s.s.s.s.s.s.s.s.s.s.s.s.s.s.s.s.s.s.s.s.s.s.s.s.s.s.s.s.s.s.s.s.s.s.s.s.s.s.s.s.s.s.s.s.s.s.s.s.s.s.s.s.s.s.s.s.s.s.s.s.s.s.s.s.s.s.s.s.s.s.s.s.s.s.s.s.s.s.s.s.s.s.s.s.s.s.s.s.s.s.s.s.s.s.s.s.s.s.s.s.s.s.s.s.s.s.s.s.s.s.s.s.s.s.s.s.s.s.s.s.s.s.s.s.s.s.s.s.s.s.s.s.s.s.s.s.s.s.s.s.s.s.s.s.s.s.s.s.s.s.s.s.s.s.s.s.s.s.s.s.s.s.s.s.s.s.s.s.s.s.s.s.s.s.s.s.s.s.s.s.s.s.s.s.s.s.s.s.s.s.s.s.s.s.s.s.s.s.s.s.s.s.s.s.s.s.s.s.s.s.s.s.s.s.s.s.s.s.s.s.s.s.s.s.s.s.s.s.",
"s.s.s.s.s.s.s.s.s.s.s.s.s.s.s.s.s.s.s.s.s.s.s.s.s.s.s.s.s.s.s.s.s.s.s.s.s.s.s.s.s.` ' ' ' | #.#.#.$.$.-.-.;.:.:.:.;.:.:.7.;.;.:.:.r.:.:.r.r.y.y.y.y.y.r.r.r.r.y.y.y.r.y.y.y.y.y.y.y.y.y.y.y.y.y.y.y.y.y.y.y.y.y.y.y.y.d.d.g.g.g.d.g.g.g.g.g.h.h.l.l.l.l.l.l.l.C.Z.Z.J.J.J.J.J.L.J.J.J.J.J.J.J.J.J.J.U.U.J.J.U.W.U.J.J.J.J.J.Z.J.J.J.J.J.A.Z.A.A.J.J.J.J.J.A.C.C.C.C.C.C.C.C.C.C.C.C.C.C.l.C.C.l.l.C.l.l.l.l.h.l.l.l.l.h.g.g.h.h.h.g.g.g.g.g.d.d.g.d.g.g.g.g.g.y.y.y.y.y.y.y.y.y.y.y.y.y.y.y.y.r.r.r.r.r.r.r.r.y.:.:.7.:.:.5.:.;.;.;.;.;.;.;.;.;.;.;.;.*.*.*.*.*.*.*.*.$.$.#.#.#.#.#.#.......| | | | | | | | | ' ' ' ' ` ' ' ' ` ( ( ( ( ( ( ( ( ( / E E E T T T G F F D Z V m z j a 9 s.s.s.s.s.s.s.s.s.s.s.s.s.s.s.s.s.s.s.s.s.s.s.s.s.s.s.s.s.s.s.s.s.s.s.s.s.s.s.s.s.s.s.s.s.s.s.s.s.s.s.s.s.s.s.s.s.s.s.s.s.s.s.s.s.s.s.s.s.s.s.s.s.s.s.s.s.s.s.s.s.s.s.s.s.s.s.s.s.s.s.s.s.s.s.s.s.s.s.s.s.s.s.s.s.s.s.s.s.s.s.s.s.s.s.s.s.s.s.s.s.s.s.s.s.s.s.s.s.s.s.s.s.s.s.s.s.s.s.s.s.s.s.s.s.s.s.s.s.s.s.s.s.s.s.s.s.s.s.s.s.s.s.s.s.s.s.s.s.s.s.s.s.s.s.s.s.s.s.s.s.s.s.s.s.s.s.s.s.s.s.s.s.s.s.s.s.s.s.s.s.s.s.s.s.s.s.s.s.s.s.s.s.s.s.s.s.s.s.s.s.s.s.s.s.s.s.s.s.s.s.s.s.s.s.s.s.s.s.s.s.s.s.s.s.s.s.s.s.s.s.s.s.s.s.s.s.s.s.s.s.s.s.s.s.s.s.s.s.",
"s.s.s.s.s.s.s.s.s.s.s.s.s.s.s.s.s.s.s.s.s.s.s.s.s.s.s.s.s.s.s.s.s.s.s.s.s.s.s.s.U ' ' | | ..#.#.#.$.-.-.-.-.-.:.:.:.:.:.:.;.:.;.:.r.r.r.r.y.y.y.y.y.r.r.r.y.y.y.y.y.y.y.y.y.y.y.y.y.y.y.y.y.y.y.y.y.y.y.y.y.y.y.y.y.d.d.g.d.g.g.d.g.g.g.g.g.g.h.h.h.h.l.l.h.C.l.C.A.C.C.A.J.J.J.U.J.J.J.J.C.Z.J.J.J.J.J.A.J.J.J.J.J.J.J.J.Z.A.A.J.J.Z.A.Z.J.Z.C.A.A.U.U.J.C.C.A.C.C.A.A.J.C.C.C.C.C.C.C.l.C.C.C.C.l.l.l.h.l.l.h.l.l.l.l.h.g.g.g.g.g.g.g.g.g.d.d.g.g.g.g.g.g.g.y.y.y.y.y.y.y.y.y.y.y.y.y.y.y.y.y.y.7.7.7.7.7.:.:.:.:.:.:.:.5.5.5.:.:.;.;.;.;.;.-.;.*.*.*.*.*.*.*.$.$.$.$.$.#.#.#.#.#.#.......| | | | | | ' | ' ' ' ' ' ` ' ' ' ' ` ` ' ( ( ( ' ( / / E E E E T U G F F D Z V m k d a 9 s.s.s.s.s.s.s.s.s.s.s.s.s.s.s.s.s.s.s.s.s.s.s.s.s.s.s.s.s.s.s.s.s.s.s.s.s.s.s.s.s.s.s.s.s.s.s.s.s.s.s.s.s.s.s.s.s.s.s.s.s.s.s.s.s.s.s.s.s.s.s.s.s.s.s.s.s.s.s.s.s.s.s.s.s.s.s.s.s.s.s.s.s.s.s.s.s.s.s.s.s.s.s.s.s.s.s.s.s.s.s.s.s.s.s.s.s.s.s.s.s.s.s.s.s.s.s.s.s.s.s.s.s.s.s.s.s.s.s.s.s.s.s.s.s.s.s.s.s.s.s.s.s.s.s.s.s.s.s.s.s.s.s.s.s.s.s.s.s.s.s.s.s.s.s.s.s.s.s.s.s.s.s.s.s.s.s.s.s.s.s.s.s.s.s.s.s.s.s.s.s.s.s.s.s.s.s.s.s.s.s.s.s.s.s.s.s.s.s.s.s.s.s.s.s.s.s.s.s.s.s.s.s.s.s.s.s.s.s.s.s.s.s.s.s.s.s.s.s.s.s.s.s.s.s.s.s.s.s.s.s.s.s.s.s.s.s.s.s.",
"s.s.s.s.s.s.s.s.s.s.s.s.s.s.s.s.s.s.s.s.s.s.s.s.s.s.s.s.s.s.s.s.s.s.s.s.s.s.s.s.( ' ' | | #.#.$.#.$.-.-.-.-.;.:.:.:.:.:.7.:.;.:.:.r.r.r.r.y.y.y.y.y.y.r.r.y.r.y.y.y.y.y.y.y.y.y.y.y.y.y.y.d.y.y.y.y.y.y.r.r.y.y.r.y.y.d.d.d.g.d.d.g.g.g.g.h.h.h.l.h.h.l.C.l.C.l.C.J.C.C.A.J.J.J.J.J.J.J.J.J.J.J.J.Z.J.J.J.J.J.J.J.J.J.J.J.J.J.A.A.A.A.Z.J.J.Z.Z.J.J.U.R.J.A.J.J.A.C.J.J.J.A.A.A.A.C.C.C.l.C.C.l.l.l.l.h.l.l.l.C.h.h.h.l.h.h.h.g.g.g.g.g.g.d.d.d.g.g.g.g.d.y.y.y.y.y.y.y.y.y.y.y.y.y.y.y.y.y.y.y.y.7.7.7.7.7.:.:.:.:.:.:.:.5.5.:.:.;.;.;.;.;.;.;.;.=.*.*.*.*.*.*.$.$.$.$.$.#.#.#.#.#.#.......| | | | | | | | ' ' ' ' ' ' ' ' ' ` ` ` ` ( ( ( ` ( / / E E T T T G F F D S Z V m k d a 8 s.s.s.s.s.s.s.s.s.s.s.s.s.s.s.s.s.s.s.s.s.s.s.s.s.s.s.s.s.s.s.s.s.s.s.s.s.s.s.s.s.s.s.s.s.s.s.s.s.s.s.s.s.s.s.s.s.s.s.s.s.s.s.s.s.s.s.s.s.s.s.s.s.s.s.s.s.s.s.s.s.s.s.s.s.s.s.s.s.s.s.s.s.s.s.s.s.s.s.s.s.s.s.s.s.s.s.s.s.s.s.s.s.s.s.s.s.s.s.s.s.s.s.s.s.s.s.s.s.s.s.s.s.s.s.s.s.s.s.s.s.s.s.s.s.s.s.s.s.s.s.s.s.s.s.s.s.s.s.s.s.s.s.s.s.s.s.s.s.s.s.s.s.s.s.s.s.s.s.s.s.s.s.s.s.s.s.s.s.s.s.s.s.s.s.s.s.s.s.s.s.s.s.s.s.s.s.s.s.s.s.s.s.s.s.s.s.s.s.s.s.s.s.s.s.s.s.s.s.s.s.s.s.s.s.s.s.s.s.s.s.s.s.s.s.s.s.s.s.s.s.s.s.s.s.s.s.s.s.s.s.s.s.s.s.s.s.s.s.",
"s.s.s.s.s.s.s.s.s.s.s.s.s.s.s.s.s.s.s.s.s.s.s.s.s.s.s.s.s.s.s.s.s.s.s.s.s.s.s.s.R ' ' | | #.#.#.$.$.-.-.-.-.;.:.:.:.:.:.7.:.:.:.r.:.r.y.y.y.y.y.y.y.y.r.y.y.y.y.y.y.y.y.y.y.y.y.y.y.y.y.y.y.y.y.y.d.y.y.y.r.r.y.r.y.y.d.d.g.g.d.d.g.g.g.g.h.h.h.l.l.h.l.C.l.C.l.C.A.C.C.A.A.J.J.J.J.J.J.J.Z.J.J.J.J.J.W.U.U.U.U.U.J.J.J.J.J.Z.Z.Z.Z.J.A.C.J.J.J.J.J.J.J.J.J.J.J.A.C.A.J.J.A.A.A.A.C.C.C.l.l.l.l.l.l.l.l.l.h.C.l.h.h.l.l.h.h.h.g.g.g.g.g.g.g.d.d.g.g.g.d.d.y.y.y.y.y.y.y.y.y.y.y.y.r.y.r.r.y.y.y.y.7.7.7.7.:.:.:.:.:.:.:.:.:.:.;.;.;.;.;.;.;.;.-.;.;.*.*.*.*.*.*.$.$.$.$.$.#.#.#.#.#.#.......| | | | | | | | ' ' ' ' ' ' ' ` ' ` ` ` ` ( ( / ( ( / E E T T T U G F F D A Z V z j d y 7 s.s.s.s.s.s.s.s.s.s.s.s.s.s.s.s.s.s.s.s.s.s.s.s.s.s.s.s.s.s.s.s.s.s.s.s.s.s.s.s.s.s.s.s.s.s.s.s.s.s.s.s.s.s.s.s.s.s.s.s.s.s.s.s.s.s.s.s.s.s.s.s.s.s.s.s.s.s.s.s.s.s.s.s.s.s.s.s.s.s.s.s.s.s.s.s.s.s.s.s.s.s.s.s.s.s.s.s.s.s.s.s.s.s.s.s.s.s.s.s.s.s.s.s.s.s.s.s.s.s.s.s.s.s.s.s.s.s.s.s.s.s.s.s.s.s.s.s.s.s.s.s.s.s.s.s.s.s.s.s.s.s.s.s.s.s.s.s.s.s.s.s.s.s.s.s.s.s.s.s.s.s.s.s.s.s.s.s.s.s.s.s.s.s.s.s.s.s.s.s.s.s.s.s.s.s.s.s.s.s.s.s.s.s.s.s.s.s.s.s.s.s.s.s.s.s.s.s.s.s.s.s.s.s.s.s.s.s.s.s.s.s.s.s.s.s.s.s.s.s.s.s.s.s.s.s.s.s.s.s.s.s.s.s.s.s.s.s.s.",
"s.s.s.s.s.s.s.s.s.s.s.s.s.s.s.s.s.s.s.s.s.s.s.s.s.s.s.s.s.s.s.s.s.s.s.s.s.s.s.s.( ` ' ....#.#.#.#.#.-.-.-.;.;.:.:.:.:.:.7.:.:.r.r.:.r.y.y.y.y.y.y.y.y.y.y.y.y.y.y.y.y.y.y.y.y.y.y.y.y.y.y.y.y.y.y.y.y.y.y.y.y.r.r.d.d.y.y.d.d.d.d.g.g.g.g.g.g.g.h.l.h.l.l.l.C.l.C.A.C.C.J.A.A.J.J.A.J.J.U.Z.U.U.U.J.J.J.J.J.J.J.J.J.J.J.J.Z.A.Z.J.J.J.A.S.J.J.J.U.J.A.A.U.J.J.J.J.A.C.C.C.C.l.l.C.C.C.C.l.l.l.l.l.l.l.l.l.l.h.l.h.h.h.h.g.g.h.g.h.g.g.g.g.g.g.d.g.g.d.d.d.y.y.y.y.y.y.y.y.y.y.r.r.r.r.r.r.y.y.y.7.7.7.7.7.:.:.:.:.:.:.:.:.:.:.;.;.;.;.;.;.;.-.-.*.*.*.*.*.*.*.*.$.$.$.$.$.#.#.#.#.#.#...| ..| | | | | | | | ' ' ' ' ' ' ` ( ' ` ` ` ( ( ( / ( ( / E E E T T U G F F D Z Z V z k d y 7 s.s.s.s.s.s.s.s.s.s.s.s.s.s.s.s.s.s.s.s.s.s.s.s.s.s.s.s.s.s.s.s.s.s.s.s.s.s.s.s.s.s.s.s.s.s.s.s.s.s.s.s.s.s.s.s.s.s.s.s.s.s.s.s.s.s.s.s.s.s.s.s.s.s.s.s.s.s.s.s.s.s.s.s.s.s.s.s.s.s.s.s.s.s.s.s.s.s.s.s.s.s.s.s.s.s.s.s.s.s.s.s.s.s.s.s.s.s.s.s.s.s.s.s.s.s.s.s.s.s.s.s.s.s.s.s.s.s.s.s.s.s.s.s.s.s.s.s.s.s.s.s.s.s.s.s.s.s.s.s.s.s.s.s.s.s.s.s.s.s.s.s.s.s.s.s.s.s.s.s.s.s.s.s.s.s.s.s.s.s.s.s.s.s.s.s.s.s.s.s.s.s.s.s.s.s.s.s.s.s.s.s.s.s.s.s.s.s.s.s.s.s.s.s.s.s.s.s.s.s.s.s.s.s.s.s.s.s.s.s.s.s.s.s.s.s.s.s.s.s.s.s.s.s.s.s.s.s.s.s.s.s.s.s.s.s.s.s.s.",
"s.s.s.s.s.s.s.s.s.s.s.s.s.s.s.s.s.s.s.s.s.s.s.s.s.s.s.s.s.s.s.s.s.s.s.s.s.s.s.( ( ` ' ..#.#.$.$.$.$.-.-.-.:.:.:.:.7.7.7.7.r.r.r.:.:.r.y.y.y.y.y.y.y.y.y.y.y.y.y.y.y.y.y.y.y.y.y.y.y.y.y.y.y.y.y.y.y.y.r.y.r.y.y.y.d.y.y.d.d.d.g.g.g.g.g.g.g.g.h.h.h.l.C.A.C.l.C.C.A.A.C.C.A.A.A.Z.A.A.A.J.J.U.U.J.Z.Z.J.J.J.J.J.J.U.U.U.U.J.J.J.J.J.J.J.U.U.J.J.J.J.J.J.J.Z.J.A.C.A.C.C.C.A.C.l.A.C.l.l.C.l.l.l.C.l.l.C.l.l.l.l.l.l.h.g.g.g.g.g.g.h.h.g.g.g.g.g.g.d.d.d.d.y.y.d.y.y.y.d.y.y.y.r.r.y.y.r.y.7.7.7.7.7.7.:.7.:.:.:.:.:.:.:.:.;.;.;.;.;.;.;.;.;.-.*.*.*.*.*.*.*.$.*.$.$.#.#.#.#.#.#.#.#.....| | | | | | | | | ' ' ' ' ' ' ' ( ( ' ' ` ` ( ( / ( ( ( / E T T T T G G F F S Z V V z j a 0 7 s.s.s.s.s.s.s.s.s.s.s.s.s.s.s.s.s.s.s.s.s.s.s.s.s.s.s.s.s.s.s.s.s.s.s.s.s.s.s.s.s.s.s.s.s.s.s.s.s.s.s.s.s.s.s.s.s.s.s.s.s.s.s.s.s.s.s.s.s.s.s.s.s.s.s.s.s.s.s.s.s.s.s.s.s.s.s.s.s.s.s.s.s.s.s.s.s.s.s.s.s.s.s.s.s.s.s.s.s.s.s.s.s.s.s.s.s.s.s.s.s.s.s.s.s.s.s.s.s.s.s.s.s.s.s.s.s.s.s.s.s.s.s.s.s.s.s.s.s.s.s.s.s.s.s.s.s.s.s.s.s.s.s.s.s.s.s.s.s.s.s.s.s.s.s.s.s.s.s.s.s.s.s.s.s.s.s.s.s.s.s.s.s.s.s.s.s.s.s.s.s.s.s.s.s.s.s.s.s.s.s.s.s.s.s.s.s.s.s.s.s.s.s.s.s.s.s.s.s.s.s.s.s.s.s.s.s.s.s.s.s.s.s.s.s.s.s.s.s.s.s.s.s.s.s.s.s.s.s.s.s.s.s.s.s.s.s.s.s.",
"s.s.s.s.s.s.s.s.s.s.s.s.s.s.s.s.s.s.s.s.s.s.s.s.s.s.s.s.s.s.s.s.s.s.s.s.s.s.s.` ( ( ' ..#.#.#.$.*.*.-.-.-.:.:.:.:.7.7.7.7.r.y.r.r.r.r.y.y.y.y.y.y.y.y.y.y.y.y.y.y.y.y.y.y.y.y.y.y.y.y.y.y.y.y.y.y.y.y.y.y.r.y.y.d.d.d.d.d.d.g.g.g.g.g.g.h.h.h.h.h.h.l.C.C.l.C.C.l.A.C.C.C.A.C.A.Z.A.J.J.J.J.J.U.J.J.Z.J.W.U.J.J.J.U.J.J.J.U.U.J.J.J.Z.J.U.U.J.J.A.J.J.J.J.A.A.A.J.A.C.C.l.C.C.C.C.C.C.C.C.l.C.C.C.l.l.l.l.h.h.h.h.l.h.g.g.g.h.h.g.h.g.h.g.g.g.g.g.d.d.d.d.y.d.d.y.y.y.y.y.y.y.r.y.y.y.r.r.y.7.7.7.7.7.7.7.:.:.:.:.:.:.:.:.;.:.;.;.;.;.;.;.-.-.*.*.*.*.*.*.*.*.*.$.$.#.#.#.#.#...#.#.#.#.| | | | | | | | | ' ' ' ' ' ` ` ( ( ' ' ` ` ( ( / / ( ( / E E T T T G G F D S Z V z k d a 9 8 s.s.s.s.s.s.s.s.s.s.s.s.s.s.s.s.s.s.s.s.s.s.s.s.s.s.s.s.s.s.s.s.s.s.s.s.s.s.s.s.s.s.s.s.s.s.s.s.s.s.s.s.s.s.s.s.s.s.s.s.s.s.s.s.s.s.s.s.s.s.s.s.s.s.s.s.s.s.s.s.s.s.s.s.s.s.s.s.s.s.s.s.s.s.s.s.s.s.s.s.s.s.s.s.s.s.s.s.s.s.s.s.s.s.s.s.s.s.s.s.s.s.s.s.s.s.s.s.s.s.s.s.s.s.s.s.s.s.s.s.s.s.s.s.s.s.s.s.s.s.s.s.s.s.s.s.s.s.s.s.s.s.s.s.s.s.s.s.s.s.s.s.s.s.s.s.s.s.s.s.s.s.s.s.s.s.s.s.s.s.s.s.s.s.s.s.s.s.s.s.s.s.s.s.s.s.s.s.s.s.s.s.s.s.s.s.s.s.s.s.s.s.s.s.s.s.s.s.s.s.s.s.s.s.s.s.s.s.s.s.s.s.s.s.s.s.s.s.s.s.s.s.s.s.s.s.s.s.s.s.s.s.s.s.s.s.s.s.s.",
"s.s.s.s.s.s.s.s.s.s.s.s.s.s.s.s.s.s.s.s.s.s.s.s.s.s.s.s.s.s.s.s.s.s.s.s.s.s.Y ' ` ( ' @.#.#.$.$.*.-.-.-.;.:.:.:.:.7.7.7.7.r.y.y.r.r.r.y.y.y.y.y.y.y.y.y.y.y.y.y.y.y.y.y.y.y.y.y.y.y.y.y.d.y.y.y.y.y.y.y.y.y.y.y.y.d.d.d.y.d.g.g.g.g.g.g.h.h.h.h.h.h.C.C.l.C.C.C.J.A.C.C.A.A.A.A.J.A.J.J.J.A.J.U.U.U.J.J.J.J.J.J.U.J.R.R.J.J.J.J.J.W.J.J.J.J.J.J.J.J.J.J.J.Z.A.C.A.A.A.C.C.C.C.C.C.A.A.C.C.C.C.C.C.C.l.h.l.l.h.h.h.l.h.g.g.g.h.h.g.h.g.g.g.g.g.g.g.g.g.g.g.d.y.y.y.y.y.r.r.r.y.r.y.y.y.r.r.7.7.7.7.7.7.7.7.:.:.:.:.:.:.:.:.:.:.;.;.;.;.;.;.;.-.*.*.*.*.*.*.*.*.*.$.$.#.#.#.#.#.#.#.#.#.#.| | | | | | | | | ' ' ' ' ' ` ( ( ( ' ' ` ` ( ( / / ( ( / E E T T T F F F D S Z V m h d a 9 s.s.s.s.s.s.s.s.s.s.s.s.s.s.s.s.s.s.s.s.s.s.s.s.s.s.s.s.s.s.s.s.s.s.s.s.s.s.s.s.s.s.s.s.s.s.s.s.s.s.s.s.s.s.s.s.s.s.s.s.s.s.s.s.s.s.s.s.s.s.s.s.s.s.s.s.s.s.s.s.s.s.s.s.s.s.s.s.s.s.s.s.s.s.s.s.s.s.s.s.s.s.s.s.s.s.s.s.s.s.s.s.s.s.s.s.s.s.s.s.s.s.s.s.s.s.s.s.s.s.s.s.s.s.s.s.s.s.s.s.s.s.s.s.s.s.s.s.s.s.s.s.s.s.s.s.s.s.s.s.s.s.s.s.s.s.s.s.s.s.s.s.s.s.s.s.s.s.s.s.s.s.s.s.s.s.s.s.s.s.s.s.s.s.s.s.s.s.s.s.s.s.s.s.s.s.s.s.s.s.s.s.s.s.s.s.s.s.s.s.s.s.s.s.s.s.s.s.s.s.s.s.s.s.s.s.s.s.s.s.s.s.s.s.s.s.s.s.s.s.s.s.s.s.s.s.s.s.s.s.s.s.s.s.s.s.s.s.s.s.",
"s.s.s.s.s.s.s.s.s.s.s.s.s.s.s.s.s.s.s.s.s.s.s.s.s.s.s.s.s.s.s.s.s.s.s.s.s.s.( ' ' ' ' #.#.#.$.$.*.-.-.;.:.;.:.:.:.7.7.r.r.r.y.y.r.r.y.y.y.y.y.y.y.y.y.y.y.d.y.y.y.y.y.y.y.y.y.y.y.y.y.y.y.y.y.y.y.y.y.y.y.y.y.y.y.d.d.d.d.d.d.g.g.d.g.h.h.h.h.h.l.l.C.C.l.l.l.A.C.C.A.A.A.J.A.A.Z.A.J.J.J.A.J.J.J.J.J.U.W.U.U.U.U.U.J.J.U.J.J.J.J.J.Z.J.W.W.U.U.J.J.J.J.J.J.Z.A.C.C.C.l.C.C.C.C.C.l.l.l.C.C.C.C.C.l.C.C.h.l.l.l.h.l.h.h.g.g.h.h.h.h.g.g.g.g.g.g.g.g.g.g.g.d.y.y.y.y.y.y.y.r.y.y.y.y.r.r.r.r.r.r.7.7.7.7.:.:.:.:.:.:.:.:.:.:.:.;.;.;.;.;.;.;.;.=.=.=.*.*.*.*.-.*.$.#.#.#.#.#.#.#.#.#.#.#.| | | | | | | ' | ' ' ' ' ' ` ( ( ( ' ' ` ` ( ( ( ( ( ( / E E E T T G F F S Z Z V z k d y 7 s.s.s.s.s.s.s.s.s.s.s.s.s.s.s.s.s.s.s.s.s.s.s.s.s.s.s.s.s.s.s.s.s.s.s.s.s.s.s.s.s.s.s.s.s.s.s.s.s.s.s.s.s.s.s.s.s.s.s.s.s.s.s.s.s.s.s.s.s.s.s.s.s.s.s.s.s.s.s.s.s.s.s.s.s.s.s.s.s.s.s.s.s.s.s.s.s.s.s.s.s.s.s.s.s.s.s.s.s.s.s.s.s.s.s.s.s.s.s.s.s.s.s.s.s.s.s.s.s.s.s.s.s.s.s.s.s.s.s.s.s.s.s.s.s.s.s.s.s.s.s.s.s.s.s.s.s.s.s.s.s.s.s.s.s.s.s.s.s.s.s.s.s.s.s.s.s.s.s.s.s.s.s.s.s.s.s.s.s.s.s.s.s.s.s.s.s.s.s.s.s.s.s.s.s.s.s.s.s.s.s.s.s.s.s.s.s.s.s.s.s.s.s.s.s.s.s.s.s.s.s.s.s.s.s.s.s.s.s.s.s.s.s.s.s.s.s.s.s.s.s.s.s.s.s.s.s.s.s.s.s.s.s.s.s.s.s.s.s.s.",
"s.s.s.s.s.s.s.s.s.s.s.s.s.s.s.s.s.s.s.s.s.s.s.s.s.s.s.s.s.s.s.s.s.s.s.s.s.s./ ( ( | | ..#.#.$.*.;.;.;.:.:.:.:.7.:.:.:.r.r.r.r.r.r.y.y.r.y.y.r.y.y.y.y.y.y.y.y.y.y.y.y.y.y.y.y.y.y.y.y.y.y.y.y.y.y.y.d.d.d.y.y.y.y.y.y.d.y.g.g.g.g.g.g.h.h.h.h.h.h.l.h.h.h.h.l.C.A.l.J.J.A.J.C.A.J.J.J.J.A.A.J.J.J.J.J.J.J.J.U.W.U.U.J.A.J.J.J.A.A.J.J.Z.U.U.U.J.J.J.J.J.A.A.J.J.J.C.C.C.C.C.C.h.h.h.h.h.V.V.V.C.l.l.C.C.l.l.h.g.h.h.h.h.h.h.f.f.h.h.f.g.f.f.f.g.d.d.d.f.d.y.y.y.y.y.y.y.y.r.r.r.y.r.r.r.r.r.r.:.:.:.:.r.:.:.:.:.:.:.:.:.:.;.;.;.;.;.;.;.;.;.;.=.=.=.*.*.$.$.$.#.$.$.$.#.#.#.#.#.#.#.#.#.| | | | | | | | | | ' ' ' ` ` ` ( ( ` ` ` ( ( ( ( ( / / E E E E T T G F F D Z V V z k a y 7 s.s.s.s.s.s.s.s.s.s.s.s.s.s.s.s.s.s.s.s.s.s.s.s.s.s.s.s.s.s.s.s.s.s.s.s.s.s.s.s.s.s.s.s.s.s.s.s.s.s.s.s.s.s.s.s.s.s.s.s.s.s.s.s.s.s.s.s.s.s.s.s.s.s.s.s.s.s.s.s.s.s.s.s.s.s.s.s.s.s.s.s.s.s.s.s.s.s.s.s.s.s.s.s.s.s.s.s.s.s.s.s.s.s.s.s.s.s.s.s.s.s.s.s.s.s.s.s.s.s.s.s.s.s.s.s.s.s.s.s.s.s.s.s.s.s.s.s.s.s.s.s.s.s.s.s.s.s.s.s.s.s.s.s.s.s.s.s.s.s.s.s.s.s.s.s.s.s.s.s.s.s.s.s.s.s.s.s.s.s.s.s.s.s.s.s.s.s.s.s.s.s.s.s.s.s.s.s.s.s.s.s.s.s.s.s.s.s.s.s.s.s.s.s.s.s.s.s.s.s.s.s.s.s.s.s.s.s.s.s.s.s.s.s.s.s.s.s.s.s.s.s.s.s.s.s.s.s.s.s.s.s.s.s.s.s.s.s.s.s.",
"s.s.s.s.s.s.s.s.s.s.s.s.s.s.s.s.s.s.s.s.s.s.s.s.s.s.s.s.s.s.s.s.s.s.s.s.s./ ( ` | | @...#.#.$.*.;.;.;.7.:.:.7.7.7.:.r.:.y.r.r.r.r.y.y.y.y.y.y.y.y.y.y.y.y.y.y.y.y.g.y.y.y.y.y.y.y.y.d.y.y.y.y.y.y.y.d.d.g.d.y.y.y.y.y.y.y.g.g.g.g.g.g.g.h.h.l.l.C.h.h.h.h.l.l.C.C.l.C.A.J.J.A.A.Z.J.J.J.J.A.J.J.J.J.J.Z.Z.Z.J.U.R.U.J.U.U.J.J.J.J.J.J.J.J.J.U.U.J.A.Z.J.J.A.A.Z.J.J.A.C.C.l.h.C.g.h.C.C.C.V.h.h.C.l.J.l.h.h.h.h.h.h.h.h.g.f.h.g.h.g.g.f.g.g.f.g.g.g.d.d.y.y.y.y.y.y.y.y.y.r.r.r.y.r.r.:.r.r.r.:.:.:.:.:.:.:.:.:.:.:.:.:.:.:.;.;.;.;.;.;.;.;.-.*.*.*.*.*.$.$.$.$.$.$.#.#.#.#.#.#.......| | | | | | | | | | ' ' ' ' ' ' ` ( ' ` ` ( ( ( ( / ( / / E E E E T T G F F D Z V M z j a 0 7 s.s.s.s.s.s.s.s.s.s.s.s.s.s.s.s.s.s.s.s.s.s.s.s.s.s.s.s.s.s.s.s.s.s.s.s.s.s.s.s.s.s.s.s.s.s.s.s.s.s.s.s.s.s.s.s.s.s.s.s.s.s.s.s.s.s.s.s.s.s.s.s.s.s.s.s.s.s.s.s.s.s.s.s.s.s.s.s.s.s.s.s.s.s.s.s.s.s.s.s.s.s.s.s.s.s.s.s.s.s.s.s.s.s.s.s.s.s.s.s.s.s.s.s.s.s.s.s.s.s.s.s.s.s.s.s.s.s.s.s.s.s.s.s.s.s.s.s.s.s.s.s.s.s.s.s.s.s.s.s.s.s.s.s.s.s.s.s.s.s.s.s.s.s.s.s.s.s.s.s.s.s.s.s.s.s.s.s.s.s.s.s.s.s.s.s.s.s.s.s.s.s.s.s.s.s.s.s.s.s.s.s.s.s.s.s.s.s.s.s.s.s.s.s.s.s.s.s.s.s.s.s.s.s.s.s.s.s.s.s.s.s.s.s.s.s.s.s.s.s.s.s.s.s.s.s.s.s.s.s.s.s.s.s.s.s.s.s.s.s.",
"s.s.s.s.s.s.s.s.s.s.s.s.s.s.s.s.s.s.s.s.s.s.s.s.s.s.s.s.s.s.s.s.s.s.s.s.s./ ` ' | | | #.#.$.*.*.*.;.;.7.7.7.7.7.7.r.r.r.r.r.r.r.y.y.y.y.y.y.y.y.y.y.y.d.y.y.y.y.y.y.d.y.y.y.i.y.y.y.y.y.y.y.y.y.y.y.y.d.d.y.d.y.y.y.y.y.y.g.g.g.g.g.h.h.h.h.h.C.l.h.h.h.h.l.l.C.l.C.C.C.J.J.C.A.J.J.J.Z.J.Z.J.J.J.J.J.Z.J.J.J.J.U.U.W.W.W.U.U.J.U.W.J.J.J.U.U.R.J.A.Z.J.J.Z.Z.J.J.J.A.A.C.l.C.C.C.C.C.V.C.V.h.h.C.l.C.C.h.h.h.l.h.g.h.h.g.f.f.f.h.g.g.g.g.g.f.g.g.g.d.d.d.y.y.y.y.y.y.y.y.y.r.y.r.r.r.r.r.r.:.:.r.:.;.;.;.:.:.:.:.:.:.:.:.:.;.;.;.;.;.;.;.;.-.*.-.*.*.*.$.$.*.#.#.#.#.#.#.#.#.........| | | | | | | | | ' ' ' ' ' ' ' ` ( ( ( ( ( ( ( ( ( ( / / E E T T T F G F F S Z M M z j a 0 7 s.s.s.s.s.s.s.s.s.s.s.s.s.s.s.s.s.s.s.s.s.s.s.s.s.s.s.s.s.s.s.s.s.s.s.s.s.s.s.s.s.s.s.s.s.s.s.s.s.s.s.s.s.s.s.s.s.s.s.s.s.s.s.s.s.s.s.s.s.s.s.s.s.s.s.s.s.s.s.s.s.s.s.s.s.s.s.s.s.s.s.s.s.s.s.s.s.s.s.s.s.s.s.s.s.s.s.s.s.s.s.s.s.s.s.s.s.s.s.s.s.s.s.s.s.s.s.s.s.s.s.s.s.s.s.s.s.s.s.s.s.s.s.s.s.s.s.s.s.s.s.s.s.s.s.s.s.s.s.s.s.s.s.s.s.s.s.s.s.s.s.s.s.s.s.s.s.s.s.s.s.s.s.s.s.s.s.s.s.s.s.s.s.s.s.s.s.s.s.s.s.s.s.s.s.s.s.s.s.s.s.s.s.s.s.s.s.s.s.s.s.s.s.s.s.s.s.s.s.s.s.s.s.s.s.s.s.s.s.s.s.s.s.s.s.s.s.s.s.s.s.s.s.s.s.s.s.s.s.s.s.s.s.s.s.s.s.s.s.s.",
"s.s.s.s.s.s.s.s.s.s.s.s.s.s.s.s.s.s.s.s.s.s.s.s.s.s.s.s.s.s.s.s.s.s.s.s.s.( ` | | | ..#.#.$.*.-.*.;.:.7.:.7.7.7.y.r.r.r.y.r.y.y.y.y.y.y.y.y.y.y.y.y.y.y.d.y.y.y.d.y.y.y.y.i.y.y.y.y.y.y.y.y.y.y.y.y.y.y.y.y.y.y.y.y.y.y.y.d.d.d.g.g.g.h.h.h.h.h.h.h.l.h.l.l.C.C.l.C.C.C.C.A.C.J.J.J.J.J.A.Z.J.J.J.U.U.U.U.J.J.J.U.J.J.J.J.W.W.J.J.U.J.J.J.U.U.J.J.J.J.Z.A.A.A.J.J.J.J.J.A.J.C.l.C.h.l.C.l.V.h.h.C.l.C.l.h.g.h.l.h.g.l.l.h.h.f.g.f.g.g.g.g.f.g.g.g.g.d.d.y.y.y.y.y.y.y.y.y.y.y.r.r.r.r.r.r.r.:.:.r.r.:.;.;.:.:.:.:.:.:.:.:.:.;.;.;.;.;.;.;.;.-.*.*.*.*.*.$.$.$.#.#.#.#.$.#.#.#.#.....| | | | | | ' ' ' ' ' ' ' ' ' ' ` ` ( ( ( ( ( ( ( ( ( ( / / E E T T T F F F D Z Z V m z j a 9 7 s.s.s.s.s.s.s.s.s.s.s.s.s.s.s.s.s.s.s.s.s.s.s.s.s.s.s.s.s.s.s.s.s.s.s.s.s.s.s.s.s.s.s.s.s.s.s.s.s.s.s.s.s.s.s.s.s.s.s.s.s.s.s.s.s.s.s.s.s.s.s.s.s.s.s.s.s.s.s.s.s.s.s.s.s.s.s.s.s.s.s.s.s.s.s.s.s.s.s.s.s.s.s.s.s.s.s.s.s.s.s.s.s.s.s.s.s.s.s.s.s.s.s.s.s.s.s.s.s.s.s.s.s.s.s.s.s.s.s.s.s.s.s.s.s.s.s.s.s.s.s.s.s.s.s.s.s.s.s.s.s.s.s.s.s.s.s.s.s.s.s.s.s.s.s.s.s.s.s.s.s.s.s.s.s.s.s.s.s.s.s.s.s.s.s.s.s.s.s.s.s.s.s.s.s.s.s.s.s.s.s.s.s.s.s.s.s.s.s.s.s.s.s.s.s.s.s.s.s.s.s.s.s.s.s.s.s.s.s.s.s.s.s.s.s.s.s.s.s.s.s.s.s.s.s.s.s.s.s.s.s.s.s.s.s.s.s.s.s.s.",
"s.s.s.s.s.s.s.s.s.s.s.s.s.s.s.s.s.s.s.s.s.s.s.s.s.s.s.s.s.s.s.s.s.s.s.s.( ( ' | | ..#.#.#.$.$.;.-.;.:.7.7.7.7.7.y.r.r.y.y.r.y.y.y.y.y.d.d.y.y.y.y.y.y.y.y.y.y.y.y.y.d.d.d.y.y.y.y.y.d.d.y.d.y.y.y.y.y.y.y.y.y.y.y.y.y.y.y.g.d.g.g.g.g.g.g.g.h.h.h.h.h.l.h.C.l.C.C.l.C.C.C.C.A.J.Z.Z.Z.J.J.U.J.J.J.U.J.J.J.J.U.U.W.J.J.J.J.J.J.J.J.J.C.J.A.J.J.Z.J.J.A.J.J.J.A.A.A.J.A.J.A.A.J.J.C.C.C.J.l.V.h.h.h.h.C.C.l.h.h.h.l.h.h.h.h.h.h.f.f.g.g.g.d.d.g.g.g.d.g.g.y.y.y.y.y.y.r.y.y.y.y.r.r.r.r.r.r.r.r.:.:.:.;.;.;.;.:.e.:.:.:.:.:.:.;.;.;.;.;.;.;.-.*.*.*.*.*.$.$.$.$.$.$.$.#.#.#.#.#.....#.....| | | | ' ' ' ' ' ' ' ' ' ' ( ` ( ( ` ` ( ( / / ( ( / E / E E T T F P F D Z Z M z j d y 7 7 s.s.s.s.s.s.s.s.s.s.s.s.s.s.s.s.s.s.s.s.s.s.s.s.s.s.s.s.s.s.s.s.s.s.s.s.s.s.s.s.s.s.s.s.s.s.s.s.s.s.s.s.s.s.s.s.s.s.s.s.s.s.s.s.s.s.s.s.s.s.s.s.s.s.s.s.s.s.s.s.s.s.s.s.s.s.s.s.s.s.s.s.s.s.s.s.s.s.s.s.s.s.s.s.s.s.s.s.s.s.s.s.s.s.s.s.s.s.s.s.s.s.s.s.s.s.s.s.s.s.s.s.s.s.s.s.s.s.s.s.s.s.s.s.s.s.s.s.s.s.s.s.s.s.s.s.s.s.s.s.s.s.s.s.s.s.s.s.s.s.s.s.s.s.s.s.s.s.s.s.s.s.s.s.s.s.s.s.s.s.s.s.s.s.s.s.s.s.s.s.s.s.s.s.s.s.s.s.s.s.s.s.s.s.s.s.s.s.s.s.s.s.s.s.s.s.s.s.s.s.s.s.s.s.s.s.s.s.s.s.s.s.s.s.s.s.s.s.s.s.s.s.s.s.s.s.s.s.s.s.s.s.s.s.s.s.s.s.s.s.",
"s.s.s.s.s.s.s.s.s.s.s.s.s.s.s.s.s.s.s.s.s.s.s.s.s.s.s.s.s.s.s.s.s.s.s.s.( ` | ] ....#.#.#.$.*.*.;.;.:.7.7.7.7.7.y.r.r.r.y.r.y.y.y.y.y.y.y.y.y.y.y.y.y.y.d.y.y.d.y.y.y.y.y.y.y.y.y.y.d.d.y.d.d.y.y.y.y.y.y.y.y.y.y.y.y.y.y.d.d.g.g.g.g.g.h.g.h.g.h.h.l.h.l.l.l.l.C.C.A.C.A.J.J.A.C.Z.A.J.J.J.U.J.J.J.J.J.J.J.U.U.R.J.J.J.J.J.J.J.J.J.A.Z.A.A.A.Z.J.J.J.U.J.J.J.J.Z.Z.A.J.J.J.J.C.C.A.A.C.l.h.h.h.h.l.C.C.l.l.h.h.h.h.h.h.h.h.g.h.g.g.g.g.g.d.g.g.g.g.g.d.y.y.y.y.y.y.r.y.y.y.r.r.r.r.r.r.r.r.r.r.:.:.:.:.;.;.:.:.:.:.:.:.:.:.;.;.;.;.;.;.;.;.*.*.*.$.*.$.$.$.$.$.$.#.#.#.#.#.#.#.......#.| | | | | | | ' ' ' ' ' ` ` ( ( ( ( ` ` ( ( ( / ( ( / R E E E T T G F F D V Z M z k a y 7 6 s.s.s.s.s.s.s.s.s.s.s.s.s.s.s.s.s.s.s.s.s.s.s.s.s.s.s.s.s.s.s.s.s.s.s.s.s.s.s.s.s.s.s.s.s.s.s.s.s.s.s.s.s.s.s.s.s.s.s.s.s.s.s.s.s.s.s.s.s.s.s.s.s.s.s.s.s.s.s.s.s.s.s.s.s.s.s.s.s.s.s.s.s.s.s.s.s.s.s.s.s.s.s.s.s.s.s.s.s.s.s.s.s.s.s.s.s.s.s.s.s.s.s.s.s.s.s.s.s.s.s.s.s.s.s.s.s.s.s.s.s.s.s.s.s.s.s.s.s.s.s.s.s.s.s.s.s.s.s.s.s.s.s.s.s.s.s.s.s.s.s.s.s.s.s.s.s.s.s.s.s.s.s.s.s.s.s.s.s.s.s.s.s.s.s.s.s.s.s.s.s.s.s.s.s.s.s.s.s.s.s.s.s.s.s.s.s.s.s.s.s.s.s.s.s.s.s.s.s.s.s.s.s.s.s.s.s.s.s.s.s.s.s.s.s.s.s.s.s.s.s.s.s.s.s.s.s.s.s.s.s.s.s.s.s.s.s.s.s.s.",
"s.s.s.s.s.s.s.s.s.s.s.s.s.s.s.s.s.s.s.s.s.s.s.s.s.s.s.s.s.s.s.s.s.s.s.s.` ` | ....#.#.#.$.*.*.;.;.;.:.7.7.:.7.7.y.r.r.y.r.r.y.y.y.y.y.y.y.y.y.y.y.y.y.y.f.d.d.y.y.y.y.f.y.y.y.y.y.y.d.d.y.d.y.y.y.y.y.y.y.y.y.y.y.y.y.y.d.d.d.g.g.g.g.g.g.h.h.h.h.h.l.l.l.l.l.C.C.l.J.A.A.J.J.A.C.A.A.J.J.Z.J.J.J.J.J.J.J.J.U.U.R.J.J.U.J.R.W.W.W.U.J.J.J.J.Z.J.J.J.J.U.J.J.J.A.Z.C.C.J.J.U.J.A.C.A.A.C.l.l.V.h.C.l.l.l.C.l.h.h.g.g.h.h.h.h.g.g.g.d.g.g.g.d.g.g.g.g.d.y.d.y.y.y.y.y.r.y.y.r.r.r.r.r.r.r.:.r.r.:.r.r.:.:.;.;.:.:.:.;.:.:.;.:.;.;.;.;.;.;.*.*.*.$.$.$.$.$.$.$.#.#.#.#.#.#.#.#.#...#...#.#.| | | | | | | ' ' ' ' ' ` ` ( ( ( ( ` ( ( ( ( / ( ( / E E E T T T F F F S Z V M z j y 0 7 s.s.s.s.s.s.s.s.s.s.s.s.s.s.s.s.s.s.s.s.s.s.s.s.s.s.s.s.s.s.s.s.s.s.s.s.s.s.s.s.s.s.s.s.s.s.s.s.s.s.s.s.s.s.s.s.s.s.s.s.s.s.s.s.s.s.s.s.s.s.s.s.s.s.s.s.s.s.s.s.s.s.s.s.s.s.s.s.s.s.s.s.s.s.s.s.s.s.s.s.s.s.s.s.s.s.s.s.s.s.s.s.s.s.s.s.s.s.s.s.s.s.s.s.s.s.s.s.s.s.s.s.s.s.s.s.s.s.s.s.s.s.s.s.s.s.s.s.s.s.s.s.s.s.s.s.s.s.s.s.s.s.s.s.s.s.s.s.s.s.s.s.s.s.s.s.s.s.s.s.s.s.s.s.s.s.s.s.s.s.s.s.s.s.s.s.s.s.s.s.s.s.s.s.s.s.s.s.s.s.s.s.s.s.s.s.s.s.s.s.s.s.s.s.s.s.s.s.s.s.s.s.s.s.s.s.s.s.s.s.s.s.s.s.s.s.s.s.s.s.s.s.s.s.s.s.s.s.s.s.s.s.s.s.s.s.s.s.s.s.s.",
"s.s.s.s.s.s.s.s.s.s.s.s.s.s.s.s.s.s.s.s.s.s.s.s.s.s.s.s.s.s.s.s.s.s.s.( ` ' | ....#.#.$.$.*.-.;.;.;.:.7.7.7.7.7.y.r.r.y.r.y.r.y.y.y.y.y.y.y.y.y.y.y.y.y.d.d.y.y.y.d.d.g.d.y.y.y.y.y.d.d.y.d.d.y.y.y.y.y.d.d.y.y.y.y.y.y.y.g.d.g.g.g.g.g.g.g.h.h.h.h.l.l.l.l.l.l.C.C.J.A.J.A.A.A.J.Z.Z.J.J.J.U.J.J.J.J.J.J.J.U.U.R.J.J.J.J.R.R.R.R.R.L.L.L.U.J.J.J.J.J.U.U.W.J.C.J.J.J.J.J.Z.J.J.J.J.C.C.C.C.C.C.h.h.l.l.l.l.h.h.g.g.h.l.h.h.h.h.f.g.g.g.g.d.g.g.g.g.d.y.y.y.y.y.y.y.r.r.y.r.r.r.r.y.y.r.:.:.r.:.r.:.;.:.;.;.;.;.;.-.;.;.:.:.;.;.;.;.;.;.*.*.$.$.$.$.$.$.$.$.$.#.#.#.#.#.#.#.....| | #.#.| | | | | | | ' ' ' ' ' ` ' ( ` ( ( ` ( ( ( ( / / ( E E E E T T T F F F S Z V m z j a 0 6 s.s.s.s.s.s.s.s.s.s.s.s.s.s.s.s.s.s.s.s.s.s.s.s.s.s.s.s.s.s.s.s.s.s.s.s.s.s.s.s.s.s.s.s.s.s.s.s.s.s.s.s.s.s.s.s.s.s.s.s.s.s.s.s.s.s.s.s.s.s.s.s.s.s.s.s.s.s.s.s.s.s.s.s.s.s.s.s.s.s.s.s.s.s.s.s.s.s.s.s.s.s.s.s.s.s.s.s.s.s.s.s.s.s.s.s.s.s.s.s.s.s.s.s.s.s.s.s.s.s.s.s.s.s.s.s.s.s.s.s.s.s.s.s.s.s.s.s.s.s.s.s.s.s.s.s.s.s.s.s.s.s.s.s.s.s.s.s.s.s.s.s.s.s.s.s.s.s.s.s.s.s.s.s.s.s.s.s.s.s.s.s.s.s.s.s.s.s.s.s.s.s.s.s.s.s.s.s.s.s.s.s.s.s.s.s.s.s.s.s.s.s.s.s.s.s.s.s.s.s.s.s.s.s.s.s.s.s.s.s.s.s.s.s.s.s.s.s.s.s.s.s.s.s.s.s.s.s.s.s.s.s.s.s.s.s.s.s.s.s.s.",
"s.s.s.s.s.s.s.s.s.s.s.s.s.s.s.s.s.s.s.s.s.s.s.s.s.s.s.s.s.s.s.s.s.s.s.( ( ' | ....@.#.#.$.*.-.;.;.;.:.:.y.r.r.r.y.y.y.y.y.y.y.y.y.y.y.y.y.d.d.d.y.y.y.y.y.y.y.y.y.y.f.d.d.f.f.f.d.f.f.d.d.g.d.y.y.y.y.y.y.y.y.y.y.g.g.g.g.g.g.g.g.g.g.g.g.h.h.h.h.h.l.l.C.l.l.l.C.C.J.J.J.A.A.A.A.A.Z.J.R.U.U.J.U.W.J.U.U.J.U.W.U.R.W.W.R.R.R.R.L.J.J.J.L.J.J.J.A.C.A.Z.A.J.U.J.A.C.A.J.J.C.C.l.l.A.C.C.l.C.A.h.l.l.l.l.l.h.h.h.f.h.h.h.h.h.h.g.g.g.g.g.g.g.g.g.g.d.d.y.y.y.y.y.y.y.y.r.y.r.r.y.r.r.r.r.7.7.7.7.:.:.:.7.7.:.:.;.;.;.;.;.;.-.-.-.-.;.*.*.*.*.*.*.$.$.*.$.$.$.#.#.#.#.#.#.#.#.#.#.....| | | | | #.| | | | | | ' ' ` ` ` ` ` ` ( ( ( / ( / / ( E E T T T T U F D S A V M z k d y 7 6 s.s.s.s.s.s.s.s.s.s.s.s.s.s.s.s.s.s.s.s.s.s.s.s.s.s.s.s.s.s.s.s.s.s.s.s.s.s.s.s.s.s.s.s.s.s.s.s.s.s.s.s.s.s.s.s.s.s.s.s.s.s.s.s.s.s.s.s.s.s.s.s.s.s.s.s.s.s.s.s.s.s.s.s.s.s.s.s.s.s.s.s.s.s.s.s.s.s.s.s.s.s.s.s.s.s.s.s.s.s.s.s.s.s.s.s.s.s.s.s.s.s.s.s.s.s.s.s.s.s.s.s.s.s.s.s.s.s.s.s.s.s.s.s.s.s.s.s.s.s.s.s.s.s.s.s.s.s.s.s.s.s.s.s.s.s.s.s.s.s.s.s.s.s.s.s.s.s.s.s.s.s.s.s.s.s.s.s.s.s.s.s.s.s.s.s.s.s.s.s.s.s.s.s.s.s.s.s.s.s.s.s.s.s.s.s.s.s.s.s.s.s.s.s.s.s.s.s.s.s.s.s.s.s.s.s.s.s.s.s.s.s.s.s.s.s.s.s.s.s.s.s.s.s.s.s.s.s.s.s.s.s.s.s.s.s.s.s.s.s.s.",
"s.s.s.s.s.s.s.s.s.s.s.s.s.s.s.s.s.s.s.s.s.s.s.s.s.s.s.s.s.s.s.s.s.s.` ( ' | | | ..@.#.#.$.-.-.:.:.:.:.:.:.r.r.:.y.y.y.y.y.y.y.y.y.y.y.y.y.y.f.d.y.y.y.y.d.d.y.d.d.d.y.d.g.f.d.f.f.f.f.f.d.d.d.y.y.y.y.y.y.y.y.g.y.d.d.d.y.g.d.g.g.g.g.g.g.h.g.h.h.l.l.l.l.l.l.l.C.l.C.C.C.C.C.C.C.C.J.J.L.J.J.J.U.U.J.W.T.U.U.T.T.W.T.U.J.L.L.L.L.L.J.J.J.J.J.J.J.Z.Z.A.C.A.J.J.J.C.C.J.J.J.l.C.C.C.C.C.l.l.C.h.C.l.S.l.l.h.h.h.l.l.h.h.h.h.h.f.g.f.g.g.g.g.g.g.d.y.y.d.d.d.y.y.y.y.y.y.y.r.r.:.r.y.r.r.r.:.y.7.7.7.7.:.7.:.:.:.:.:.:.:.;.;.-.-.-.*.*.*.*.*.*.*.$.$.$.$.$.#.#.#.#.#.#.#.#.#.#.#.....| | | | ....' | | | | | ' ' ` ` ` ` ` ` ( ( ( / / / / / E T T T T U G F F D Z V M z k a 0 0 8 s.s.s.s.s.s.s.s.s.s.s.s.s.s.s.s.s.s.s.s.s.s.s.s.s.s.s.s.s.s.s.s.s.s.s.s.s.s.s.s.s.s.s.s.s.s.s.s.s.s.s.s.s.s.s.s.s.s.s.s.s.s.s.s.s.s.s.s.s.s.s.s.s.s.s.s.s.s.s.s.s.s.s.s.s.s.s.s.s.s.s.s.s.s.s.s.s.s.s.s.s.s.s.s.s.s.s.s.s.s.s.s.s.s.s.s.s.s.s.s.s.s.s.s.s.s.s.s.s.s.s.s.s.s.s.s.s.s.s.s.s.s.s.s.s.s.s.s.s.s.s.s.s.s.s.s.s.s.s.s.s.s.s.s.s.s.s.s.s.s.s.s.s.s.s.s.s.s.s.s.s.s.s.s.s.s.s.s.s.s.s.s.s.s.s.s.s.s.s.s.s.s.s.s.s.s.s.s.s.s.s.s.s.s.s.s.s.s.s.s.s.s.s.s.s.s.s.s.s.s.s.s.s.s.s.s.s.s.s.s.s.s.s.s.s.s.s.s.s.s.s.s.s.s.s.s.s.s.s.s.s.s.s.s.s.s.s.s.s.s.s.",
"s.s.s.s.s.s.s.s.s.s.s.s.s.s.s.s.s.s.s.s.s.s.s.s.s.s.s.s.s.s.s.s.s.s.[ ' | | | ..#.#.$.$.$.-.-.;.:.:.:.:.7.r.r.r.y.y.y.y.y.y.y.y.y.y.y.d.y.f.y.y.f.y.f.f.f.g.g.g.g.d.d.g.g.f.f.f.d.d.f.f.f.d.d.y.y.y.y.y.y.y.y.y.d.d.d.d.d.g.g.g.g.g.g.h.h.h.h.h.h.h.h.l.l.l.l.l.C.C.C.C.C.C.C.C.C.C.A.A.Z.J.J.J.U.W.J.J.U.T.T.W.W.W.W.T.W.R.R.R.R.L.J.J.J.J.J.J.Z.J.J.Z.C.J.Z.A.J.A.A.A.J.C.C.C.C.C.l.C.l.l.C.l.l.l.l.l.l.l.l.h.h.h.h.f.f.f.f.g.g.g.g.g.g.g.g.g.d.d.g.g.d.y.y.y.y.y.y.y.y.r.r.r.r.r.:.r.:.7.7.7.7.7.7.:.7.:.:.:.:.:.:.:.;.;.-.-.*.*.*.*.*.*.*.*.$.$.$.$.#.#.#.#.#.#.#.@.#.#.#.#.....| | | | ....| | | | | | ' ' ` ` ` ` ` ( ( ( ( / / / / / E T T T T U G F D A Z V M k f a 0 7 6 s.s.s.s.s.s.s.s.s.s.s.s.s.s.s.s.s.s.s.s.s.s.s.s.s.s.s.s.s.s.s.s.s.s.s.s.s.s.s.s.s.s.s.s.s.s.s.s.s.s.s.s.s.s.s.s.s.s.s.s.s.s.s.s.s.s.s.s.s.s.s.s.s.s.s.s.s.s.s.s.s.s.s.s.s.s.s.s.s.s.s.s.s.s.s.s.s.s.s.s.s.s.s.s.s.s.s.s.s.s.s.s.s.s.s.s.s.s.s.s.s.s.s.s.s.s.s.s.s.s.s.s.s.s.s.s.s.s.s.s.s.s.s.s.s.s.s.s.s.s.s.s.s.s.s.s.s.s.s.s.s.s.s.s.s.s.s.s.s.s.s.s.s.s.s.s.s.s.s.s.s.s.s.s.s.s.s.s.s.s.s.s.s.s.s.s.s.s.s.s.s.s.s.s.s.s.s.s.s.s.s.s.s.s.s.s.s.s.s.s.s.s.s.s.s.s.s.s.s.s.s.s.s.s.s.s.s.s.s.s.s.s.s.s.s.s.s.s.s.s.s.s.s.s.s.s.s.s.s.s.s.s.s.s.s.s.s.s.s.s.s.",
"s.s.s.s.s.s.s.s.s.s.s.s.s.s.s.s.s.s.s.s.s.s.s.s.s.s.s.s.s.s.s.s.s.s.` ' ` | | ..#.#.#.$.*.-.;.:.7.:.7.7.7.r.r.r.y.y.y.y.y.y.y.y.y.d.y.y.y.f.y.y.d.d.f.g.g.g.g.g.g.d.g.g.g.f.f.f.y.y.d.f.d.g.y.y.y.y.y.y.y.y.y.y.y.d.d.d.y.g.g.g.g.g.g.h.h.g.g.h.h.h.h.l.l.l.l.l.C.C.C.J.J.C.C.C.Z.C.A.J.J.J.J.U.J.W.U.W.U.U.W.U.R.T.U.J.T.U.W.R.R.R.L.J.Z.J.J.J.J.J.J.J.J.J.J.A.C.J.J.C.C.C.J.C.l.C.l.l.l.l.l.h.l.l.l.l.l.l.l.h.h.h.h.h.h.g.h.f.g.f.g.f.g.f.d.d.d.d.y.y.y.y.y.y.r.y.y.y.r.y.r.r.y.y.:.r.:.:.7.7.:.:.:.:.:.:.:.:.:.;.:.:.;.;.-.*.;.;.-.*.*.*.*.*.$.$.$.#.#.#.#.#.#.#.#.@.#.#.#.| ..| | | | | ....| | | | | ' ' ' ` ` ` ` ` ` ( ( ( / / / E / E T T T U U G F D D Z V m z d a 9 7 7 s.s.s.s.s.s.s.s.s.s.s.s.s.s.s.s.s.s.s.s.s.s.s.s.s.s.s.s.s.s.s.s.s.s.s.s.s.s.s.s.s.s.s.s.s.s.s.s.s.s.s.s.s.s.s.s.s.s.s.s.s.s.s.s.s.s.s.s.s.s.s.s.s.s.s.s.s.s.s.s.s.s.s.s.s.s.s.s.s.s.s.s.s.s.s.s.s.s.s.s.s.s.s.s.s.s.s.s.s.s.s.s.s.s.s.s.s.s.s.s.s.s.s.s.s.s.s.s.s.s.s.s.s.s.s.s.s.s.s.s.s.s.s.s.s.s.s.s.s.s.s.s.s.s.s.s.s.s.s.s.s.s.s.s.s.s.s.s.s.s.s.s.s.s.s.s.s.s.s.s.s.s.s.s.s.s.s.s.s.s.s.s.s.s.s.s.s.s.s.s.s.s.s.s.s.s.s.s.s.s.s.s.s.s.s.s.s.s.s.s.s.s.s.s.s.s.s.s.s.s.s.s.s.s.s.s.s.s.s.s.s.s.s.s.s.s.s.s.s.s.s.s.s.s.s.s.s.s.s.s.s.s.s.s.s.s.s.s.s.s.s.",
"s.s.s.s.s.s.s.s.s.s.s.s.s.s.s.s.s.s.s.s.s.s.s.s.s.s.s.s.s.s.s.s.s.[ ` ` ' | | ..#.#.$.$.-.;.:.:.7.7.7.7.7.r.r.r.y.y.y.y.y.y.d.d.d.y.y.y.y.y.d.d.d.g.g.g.g.y.d.d.g.g.g.g.g.f.f.d.d.y.d.f.d.d.y.y.y.y.y.y.y.y.d.d.d.d.d.d.d.g.g.g.g.g.g.g.h.h.h.h.h.h.l.l.l.l.l.l.l.l.C.C.A.C.C.C.A.A.A.J.J.J.U.R.W.W.W.W.U.W.W.U.U.R.U.U.T.R.Z.J.R.R.L.J.J.J.J.U.U.R.J.J.J.J.J.J.J.J.J.C.J.A.C.l.l.l.C.C.h.A.C.l.l.l.C.C.l.h.h.h.h.g.f.h.f.g.h.h.h.f.f.g.y.f.d.d.d.y.f.g.y.y.y.y.y.y.y.y.y.y.r.r.y.r.r.:.:.7.7.:.:.:.7.:.:.:.;.:.-.-.:.:.;.;.;.;.;.;.*.*.-.$.$.$.$.#.#.#.#.#.#.#.#.#.#.#.#.#.....| | ..| | | | ..| ' | | ' ' ` ' ` ` ` ` ( ( ( ( ( ( / / E E T T T T U G F F D Z Z V m j d y 9 6 r s.s.s.s.s.s.s.s.s.s.s.s.s.s.s.s.s.s.s.s.s.s.s.s.s.s.s.s.s.s.s.s.s.s.s.s.s.s.s.s.s.s.s.s.s.s.s.s.s.s.s.s.s.s.s.s.s.s.s.s.s.s.s.s.s.s.s.s.s.s.s.s.s.s.s.s.s.s.s.s.s.s.s.s.s.s.s.s.s.s.s.s.s.s.s.s.s.s.s.s.s.s.s.s.s.s.s.s.s.s.s.s.s.s.s.s.s.s.s.s.s.s.s.s.s.s.s.s.s.s.s.s.s.s.s.s.s.s.s.s.s.s.s.s.s.s.s.s.s.s.s.s.s.s.s.s.s.s.s.s.s.s.s.s.s.s.s.s.s.s.s.s.s.s.s.s.s.s.s.s.s.s.s.s.s.s.s.s.s.s.s.s.s.s.s.s.s.s.s.s.s.s.s.s.s.s.s.s.s.s.s.s.s.s.s.s.s.s.s.s.s.s.s.s.s.s.s.s.s.s.s.s.s.s.s.s.s.s.s.s.s.s.s.s.s.s.s.s.s.s.s.s.s.s.s.s.s.s.s.s.s.s.s.s.s.s.s.s.s.s.s.",
"s.s.s.s.s.s.s.s.s.s.s.s.s.s.s.s.s.s.s.s.s.s.s.s.s.s.s.s.s.s.s.s.s.( ' | | | | ..#.#.$.$.-.;.:.:.7.7.7.7.7.r.r.y.y.y.y.y.y.y.y.y.d.y.y.y.y.y.d.d.d.g.g.g.f.y.y.d.g.g.g.g.g.f.d.d.f.d.f.f.d.y.y.y.y.d.y.y.y.y.y.y.y.y.y.d.d.g.g.g.g.g.g.h.h.h.g.h.h.h.h.C.C.l.l.l.C.C.C.A.A.C.C.A.A.A.J.J.J.U.R.W.W.R.W.W.W.T.T.T.W.W.W.U.J.R.Z.J.W.R.L.L.R.W.U.U.J.U.J.J.J.J.J.J.A.C.J.A.J.C.C.C.C.l.C.C.C.A.C.l.C.C.l.l.l.v.l.C.h.l.h.h.f.h.h.h.h.h.h.g.d.d.d.d.y.y.d.d.g.d.y.y.y.y.y.y.r.r.r.r.y.r.r.r.:.7.7.:.:.:.:.:.:.:.:.:.;.;.:.;.;.;.;.;.;.;.*.*.*.$.*.$.$.$.#.#.#.#.#.#.#.#.#.#.#.#...| | | | | | | ] | | ' | | ' ' ' ` ` ` ` ` ( ( ( ( ( ( / E E E T T T U U F F F D Z V M z j a y 7 < r s.s.s.s.s.s.s.s.s.s.s.s.s.s.s.s.s.s.s.s.s.s.s.s.s.s.s.s.s.s.s.s.s.s.s.s.s.s.s.s.s.s.s.s.s.s.s.s.s.s.s.s.s.s.s.s.s.s.s.s.s.s.s.s.s.s.s.s.s.s.s.s.s.s.s.s.s.s.s.s.s.s.s.s.s.s.s.s.s.s.s.s.s.s.s.s.s.s.s.s.s.s.s.s.s.s.s.s.s.s.s.s.s.s.s.s.s.s.s.s.s.s.s.s.s.s.s.s.s.s.s.s.s.s.s.s.s.s.s.s.s.s.s.s.s.s.s.s.s.s.s.s.s.s.s.s.s.s.s.s.s.s.s.s.s.s.s.s.s.s.s.s.s.s.s.s.s.s.s.s.s.s.s.s.s.s.s.s.s.s.s.s.s.s.s.s.s.s.s.s.s.s.s.s.s.s.s.s.s.s.s.s.s.s.s.s.s.s.s.s.s.s.s.s.s.s.s.s.s.s.s.s.s.s.s.s.s.s.s.s.s.s.s.s.s.s.s.s.s.s.s.s.s.s.s.s.s.s.s.s.s.s.s.s.s.s.s.s.s.s.s.",
"s.s.s.s.s.s.s.s.s.s.s.s.s.s.s.s.s.s.s.s.s.s.s.s.s.s.s.s.s.s.s.s.s.' ..| | ....#.#.#.$.*.-.;.:.:.7.7.7.y.7.y.y.y.y.y.y.y.y.y.y.y.y.y.y.y.y.y.d.d.f.g.g.g.g.y.y.d.y.g.g.g.g.f.f.f.d.d.f.f.f.y.y.y.d.y.y.y.y.y.y.d.d.y.y.d.d.g.g.g.g.g.g.g.h.h.h.h.h.h.h.l.l.h.l.l.C.C.C.C.A.A.A.A.A.A.J.L.L.U.U.R.W.R.R.W.T.U.J.U.R.W.R.W.U.L.J.L.R.R.R.R.R.W.W.R.J.U.J.J.J.J.J.J.C.l.J.A.C.C.A.Z.C.C.C.C.C.C.C.l.h.l.l.l.l.l.C.l.h.h.h.f.h.h.h.h.h.h.h.f.f.g.d.d.y.y.y.y.y.y.y.y.y.y.r.r.r.y.r.r.y.r.r.r.:.7.7.:.:.:.:.:.:.:.:.:.;.;.;.;.;.;.;.*.;.;.$.$.*.$.$.$.$.$.$.#.#.#.#.#.#.#.@.#.@...| | | | | | | | | | | | | ' ' | ' ' ` ` ( ( ( ( ( ( ( ( / E E E T T U T T G F F D Z V z z d a 0 6 6 s.s.s.s.s.s.s.s.s.s.s.s.s.s.s.s.s.s.s.s.s.s.s.s.s.s.s.s.s.s.s.s.s.s.s.s.s.s.s.s.s.s.s.s.s.s.s.s.s.s.s.s.s.s.s.s.s.s.s.s.s.s.s.s.s.s.s.s.s.s.s.s.s.s.s.s.s.s.s.s.s.s.s.s.s.s.s.s.s.s.s.s.s.s.s.s.s.s.s.s.s.s.s.s.s.s.s.s.s.s.s.s.s.s.s.s.s.s.s.s.s.s.s.s.s.s.s.s.s.s.s.s.s.s.s.s.s.s.s.s.s.s.s.s.s.s.s.s.s.s.s.s.s.s.s.s.s.s.s.s.s.s.s.s.s.s.s.s.s.s.s.s.s.s.s.s.s.s.s.s.s.s.s.s.s.s.s.s.s.s.s.s.s.s.s.s.s.s.s.s.s.s.s.s.s.s.s.s.s.s.s.s.s.s.s.s.s.s.s.s.s.s.s.s.s.s.s.s.s.s.s.s.s.s.s.s.s.s.s.s.s.s.s.s.s.s.s.s.s.s.s.s.s.s.s.s.s.s.s.s.s.s.s.s.s.s.s.s.s.s.s.s.",
"s.s.s.s.s.s.s.s.s.s.s.s.s.s.s.s.s.s.s.s.s.s.s.s.s.s.s.s.s.s.s.s.( ' | | ..@.#.#.$.#.*.-.;.;.:.:.:.7.:.7.y.y.y.y.y.y.y.y.y.g.y.y.y.y.y.y.y.y.d.d.f.g.g.g.g.d.y.y.y.g.g.g.f.f.f.y.y.d.d.f.f.y.y.y.y.y.y.y.y.d.y.g.y.y.y.y.d.d.g.g.g.g.g.f.h.h.h.g.g.h.h.l.h.l.l.l.C.C.C.C.A.A.A.A.A.J.J.L.L.J.U.R.U.T.U.R.W.W.T.T.R.R.R.R.R.J.L.R.J.L.R.R.W.W.W.R.R.L.Z.C.Z.U.R.U.A.C.J.J.A.J.A.A.J.J.C.C.C.l.C.l.l.C.C.l.C.l.l.l.h.h.h.h.h.l.h.h.l.l.h.h.f.g.g.d.y.d.d.y.y.y.y.y.y.r.y.r.r.y.y.:.y.y.:.:.:.y.y.:.:.;.:.:.:.:.;.;.:.;.;.:.;.;.*.*.*.;.$.$.$.$.$.$.$.$.$.#.#.#.#.#.#.#.#.#.@.#.| | | | | | | | | | | | | ' ' ' ' ` ` ` ( ( ( / ( ( ( / E E E E T T T T G P F F S Z V z z d a 9 7 7 s.s.s.s.s.s.s.s.s.s.s.s.s.s.s.s.s.s.s.s.s.s.s.s.s.s.s.s.s.s.s.s.s.s.s.s.s.s.s.s.s.s.s.s.s.s.s.s.s.s.s.s.s.s.s.s.s.s.s.s.s.s.s.s.s.s.s.s.s.s.s.s.s.s.s.s.s.s.s.s.s.s.s.s.s.s.s.s.s.s.s.s.s.s.s.s.s.s.s.s.s.s.s.s.s.s.s.s.s.s.s.s.s.s.s.s.s.s.s.s.s.s.s.s.s.s.s.s.s.s.s.s.s.s.s.s.s.s.s.s.s.s.s.s.s.s.s.s.s.s.s.s.s.s.s.s.s.s.s.s.s.s.s.s.s.s.s.s.s.s.s.s.s.s.s.s.s.s.s.s.s.s.s.s.s.s.s.s.s.s.s.s.s.s.s.s.s.s.s.s.s.s.s.s.s.s.s.s.s.s.s.s.s.s.s.s.s.s.s.s.s.s.s.s.s.s.s.s.s.s.s.s.s.s.s.s.s.s.s.s.s.s.s.s.s.s.s.s.s.s.s.s.s.s.s.s.s.s.s.s.s.s.s.s.s.s.s.s.s.s.s.s.",
"s.s.s.s.s.s.s.s.s.s.s.s.s.s.s.s.s.s.s.s.s.s.s.s.s.s.s.s.s.s.s.s.` ` ' | ....#.#.$.*.-.-.;.:.:.:.:.7.7.y.y.r.y.y.y.y.y.y.y.y.y.y.d.d.d.d.d.g.g.g.f.d.g.g.g.g.g.d.y.d.g.d.f.f.y.y.d.d.y.y.y.y.y.y.y.y.y.y.i.d.y.y.y.y.y.y.y.y.d.d.g.d.g.g.f.g.h.h.h.h.h.l.l.C.C.l.C.A.A.A.J.A.A.A.A.J.J.J.R.J.R.R.T.T.W.U.W.R.J.J.J.L.L.L.L.Z.J.J.L.J.J.R.R.R.L.L.L.J.A.A.J.U.J.U.J.J.J.A.A.C.A.A.C.C.J.J.J.J.C.S.C.C.l.h.l.l.l.h.h.h.l.M.l.h.h.f.f.h.f.g.y.g.g.g.g.y.d.y.y.y.y.y.y.y.y.r.y.y.y.y.y.y.r.:.t.:.:.:.;.:.:.:.:.:.:.;.;.;.;.;.;.;.*.*.;.;.*.$.$.*.$.$.$.$.#.#.#.#.#.#.#.#.#.#.@.#...| | | | | | | | | | | ' ' ` ` ` ` ` ` ( ( ( ( ( ( ( ( / E E E T T T U G F F D S V V z k d y 9 7 7 s.s.s.s.s.s.s.s.s.s.s.s.s.s.s.s.s.s.s.s.s.s.s.s.s.s.s.s.s.s.s.s.s.s.s.s.s.s.s.s.s.s.s.s.s.s.s.s.s.s.s.s.s.s.s.s.s.s.s.s.s.s.s.s.s.s.s.s.s.s.s.s.s.s.s.s.s.s.s.s.s.s.s.s.s.s.s.s.s.s.s.s.s.s.s.s.s.s.s.s.s.s.s.s.s.s.s.s.s.s.s.s.s.s.s.s.s.s.s.s.s.s.s.s.s.s.s.s.s.s.s.s.s.s.s.s.s.s.s.s.s.s.s.s.s.s.s.s.s.s.s.s.s.s.s.s.s.s.s.s.s.s.s.s.s.s.s.s.s.s.s.s.s.s.s.s.s.s.s.s.s.s.s.s.s.s.s.s.s.s.s.s.s.s.s.s.s.s.s.s.s.s.s.s.s.s.s.s.s.s.s.s.s.s.s.s.s.s.s.s.s.s.s.s.s.s.s.s.s.s.s.s.s.s.s.s.s.s.s.s.s.s.s.s.s.s.s.s.s.s.s.s.s.s.s.s.s.s.s.s.s.s.s.s.s.s.s.s.s.s.s.s.",
"s.s.s.s.s.s.s.s.s.s.s.s.s.s.s.s.s.s.s.s.s.s.s.s.s.s.s.s.s.s.s.[ ' ' | | ..#.#.#.$.$.-.-.:.7.:.7.:.7.y.y.y.y.y.y.y.y.y.y.r.y.y.y.y.d.y.f.d.y.y.y.d.d.g.g.g.g.g.g.g.g.g.g.g.f.y.y.d.d.y.y.y.y.y.y.y.y.y.y.y.y.y.y.y.d.y.y.y.d.g.y.d.d.g.g.h.g.h.h.h.h.h.l.C.C.C.C.C.A.A.A.J.J.Z.Z.Z.J.J.J.L.J.R.W.T.U.T.T.R.R.R.J.L.J.L.L.R.L.J.L.R.Z.Z.Z.J.J.J.R.L.L.Z.C.Z.Z.J.W.U.Z.A.C.C.A.J.L.J.C.J.J.C.C.l.l.l.V.l.C.l.h.h.h.h.h.l.l.l.l.h.h.h.h.f.g.g.g.g.f.g.g.g.d.y.y.y.y.y.y.y.y.y.7.y.y.y.y.:.:.:.:.:.:.:.:.:.:.;.;.;.;.;.;.;.;.;.;.-.*.*.*.*.$.$.*.$.$.$.$.#.#.#.#.@.#.#.#.@.@.@.....| | | | | | | | ' ' | ' ' ' ' ` ` ' ( ( ( ( ( ( ( ( / / E E T T T T U G F D D Z V M z j a 0 7 7 y s.s.s.s.s.s.s.s.s.s.s.s.s.s.s.s.s.s.s.s.s.s.s.s.s.s.s.s.s.s.s.s.s.s.s.s.s.s.s.s.s.s.s.s.s.s.s.s.s.s.s.s.s.s.s.s.s.s.s.s.s.s.s.s.s.s.s.s.s.s.s.s.s.s.s.s.s.s.s.s.s.s.s.s.s.s.s.s.s.s.s.s.s.s.s.s.s.s.s.s.s.s.s.s.s.s.s.s.s.s.s.s.s.s.s.s.s.s.s.s.s.s.s.s.s.s.s.s.s.s.s.s.s.s.s.s.s.s.s.s.s.s.s.s.s.s.s.s.s.s.s.s.s.s.s.s.s.s.s.s.s.s.s.s.s.s.s.s.s.s.s.s.s.s.s.s.s.s.s.s.s.s.s.s.s.s.s.s.s.s.s.s.s.s.s.s.s.s.s.s.s.s.s.s.s.s.s.s.s.s.s.s.s.s.s.s.s.s.s.s.s.s.s.s.s.s.s.s.s.s.s.s.s.s.s.s.s.s.s.s.s.s.s.s.s.s.s.s.s.s.s.s.s.s.s.s.s.s.s.s.s.s.s.s.s.s.s.s.s.s.s.s.",
"s.s.s.s.s.s.s.s.s.s.s.s.s.s.s.s.s.s.s.s.s.s.s.s.s.s.s.s.s.s.s.[ ` ` | ....#.#.$.*.*.-.;.;.7.7.7.7.7.y.y.y.y.y.y.y.y.y.y.y.y.y.y.y.y.y.d.d.d.d.d.d.d.g.g.g.f.g.g.g.g.g.g.d.f.f.f.d.d.y.y.y.y.y.y.y.y.y.y.y.y.y.y.y.d.y.y.y.y.d.d.d.d.g.g.h.g.h.h.h.h.h.l.l.l.C.C.C.A.A.A.A.J.J.J.Z.J.J.J.L.J.U.W.T.T.W.T.W.R.R.R.R.L.L.L.L.R.R.R.J.L.R.R.R.L.J.R.R.J.Z.A.A.Z.A.J.J.J.J.J.Z.C.J.J.J.J.J.C.C.J.J.C.C.l.l.C.l.g.f.h.l.h.l.l.l.l.f.g.f.g.f.f.g.g.f.g.g.g.y.g.y.y.y.y.y.y.y.r.r.:.r.y.y.y.y.:.:.:.:.:.:.:.:.:.;.;.;.;.;.;.;.;.;.;.-.-.*.*.*.$.$.*.$.$.$.$.#.#.#.@.@.#.@.@.@...........| | | | | | | | | | ' ' ` ' ` ` ` ` ( ( ( ( ( ( ( / / E T T T T T G G F F D Z V m z d a 0 7 4 r s.s.s.s.s.s.s.s.s.s.s.s.s.s.s.s.s.s.s.s.s.s.s.s.s.s.s.s.s.s.s.s.s.s.s.s.s.s.s.s.s.s.s.s.s.s.s.s.s.s.s.s.s.s.s.s.s.s.s.s.s.s.s.s.s.s.s.s.s.s.s.s.s.s.s.s.s.s.s.s.s.s.s.s.s.s.s.s.s.s.s.s.s.s.s.s.s.s.s.s.s.s.s.s.s.s.s.s.s.s.s.s.s.s.s.s.s.s.s.s.s.s.s.s.s.s.s.s.s.s.s.s.s.s.s.s.s.s.s.s.s.s.s.s.s.s.s.s.s.s.s.s.s.s.s.s.s.s.s.s.s.s.s.s.s.s.s.s.s.s.s.s.s.s.s.s.s.s.s.s.s.s.s.s.s.s.s.s.s.s.s.s.s.s.s.s.s.s.s.s.s.s.s.s.s.s.s.s.s.s.s.s.s.s.s.s.s.s.s.s.s.s.s.s.s.s.s.s.s.s.s.s.s.s.s.s.s.s.s.s.s.s.s.s.s.s.s.s.s.s.s.s.s.s.s.s.s.s.s.s.s.s.s.s.s.s.s.s.s.s.s.s.",
"s.s.s.s.s.s.s.s.s.s.s.s.s.s.s.s.s.s.s.s.s.s.s.s.s.s.s.s.s.s.s.` ..' | ....#.$.$.*.-.-.;.:.7.7.7.7.y.y.y.y.y.y.y.y.y.y.y.y.y.d.d.d.y.y.d.g.g.g.g.g.d.d.g.g.f.f.g.g.g.g.d.d.d.d.y.d.d.y.y.y.y.y.y.y.y.y.y.y.y.y.y.y.d.y.y.y.y.d.g.d.d.g.g.h.g.h.h.h.h.h.l.l.l.C.C.A.C.A.J.J.J.J.J.J.J.J.J.L.U.R.R.R.R.T.T.U.R.R.R.R.R.R.L.L.L.L.R.R.R.L.L.R.R.L.L.L.L.L.Z.A.J.J.J.Z.J.J.J.J.J.J.A.C.C.J.C.C.C.C.l.h.l.l.l.h.h.g.h.h.h.l.l.C.l.f.g.d.g.g.f.g.g.g.g.g.g.y.y.y.y.y.y.y.y.y.y.r.7.y.y.y.y.y.y.:.:.:.:.:.;.:.:.:.;.;.;.;.;.;.;.;.;.;.*.*.*.*.$.$.$.$.$.$.#.#.#.#.#.#.#.@.@.............| | | | | | | | | | ' ' ` ` ` ` ` ` ( ( ( ( ( ( ( / E T T T T T T G F F D D Z V m z j y 0 7 5 f s.s.s.s.s.s.s.s.s.s.s.s.s.s.s.s.s.s.s.s.s.s.s.s.s.s.s.s.s.s.s.s.s.s.s.s.s.s.s.s.s.s.s.s.s.s.s.s.s.s.s.s.s.s.s.s.s.s.s.s.s.s.s.s.s.s.s.s.s.s.s.s.s.s.s.s.s.s.s.s.s.s.s.s.s.s.s.s.s.s.s.s.s.s.s.s.s.s.s.s.s.s.s.s.s.s.s.s.s.s.s.s.s.s.s.s.s.s.s.s.s.s.s.s.s.s.s.s.s.s.s.s.s.s.s.s.s.s.s.s.s.s.s.s.s.s.s.s.s.s.s.s.s.s.s.s.s.s.s.s.s.s.s.s.s.s.s.s.s.s.s.s.s.s.s.s.s.s.s.s.s.s.s.s.s.s.s.s.s.s.s.s.s.s.s.s.s.s.s.s.s.s.s.s.s.s.s.s.s.s.s.s.s.s.s.s.s.s.s.s.s.s.s.s.s.s.s.s.s.s.s.s.s.s.s.s.s.s.s.s.s.s.s.s.s.s.s.s.s.s.s.s.s.s.s.s.s.s.s.s.s.s.s.s.s.s.s.s.s.s.s.s.",
"s.s.s.s.s.s.s.s.s.s.s.s.s.s.s.s.s.s.s.s.s.s.s.s.s.s.s.s.s.s.( ' ..| | ..#.#.$.$.*.-.;.;.:.7.7.r.y.y.y.y.y.y.y.y.y.y.y.y.y.y.y.y.y.y.d.d.g.g.g.g.g.g.g.g.g.h.f.f.g.g.g.d.d.f.d.y.f.y.d.d.d.y.y.y.r.r.y.y.y.y.y.y.y.d.d.y.y.y.g.g.d.d.d.g.h.g.g.g.h.h.h.h.l.l.l.C.C.C.A.J.J.J.C.J.J.R.L.L.R.W.U.R.J.R.T.W.U.R.R.L.R.R.W.R.R.R.R.R.R.R.J.J.R.J.L.L.R.W.J.A.J.J.J.J.J.J.J.Z.J.J.A.A.J.C.C.C.V.C.C.l.V.h.h.h.h.h.g.g.h.h.l.h.h.h.f.g.f.g.d.g.g.g.g.f.g.g.y.y.y.y.y.y.y.r.r.y.r.7.y.:.:.y.y.:.:.:.:.:.:.:.:.:.:.;.;.;.;.*.;.;.;.;.*.*.*.*.*.$.$.$.$.$.#.#.#.#.#.#.#.#.@.@...........| | | | | | | | ' ' ' ' ' ` ` ` ` ` ( ( ( ( ( ( ( / / E E T T T T H G F F D D Z V z k d 0 9 7 2 s.s.s.s.s.s.s.s.s.s.s.s.s.s.s.s.s.s.s.s.s.s.s.s.s.s.s.s.s.s.s.s.s.s.s.s.s.s.s.s.s.s.s.s.s.s.s.s.s.s.s.s.s.s.s.s.s.s.s.s.s.s.s.s.s.s.s.s.s.s.s.s.s.s.s.s.s.s.s.s.s.s.s.s.s.s.s.s.s.s.s.s.s.s.s.s.s.s.s.s.s.s.s.s.s.s.s.s.s.s.s.s.s.s.s.s.s.s.s.s.s.s.s.s.s.s.s.s.s.s.s.s.s.s.s.s.s.s.s.s.s.s.s.s.s.s.s.s.s.s.s.s.s.s.s.s.s.s.s.s.s.s.s.s.s.s.s.s.s.s.s.s.s.s.s.s.s.s.s.s.s.s.s.s.s.s.s.s.s.s.s.s.s.s.s.s.s.s.s.s.s.s.s.s.s.s.s.s.s.s.s.s.s.s.s.s.s.s.s.s.s.s.s.s.s.s.s.s.s.s.s.s.s.s.s.s.s.s.s.s.s.s.s.s.s.s.s.s.s.s.s.s.s.s.s.s.s.s.s.s.s.s.s.s.s.s.s.s.s.s.s.s.s.",
"s.s.s.s.s.s.s.s.s.s.s.s.s.s.s.s.s.s.s.s.s.s.s.s.s.s.s.s.s.s.` ' | | | ..#.#.$.*.;.;.:.:.;.:.7.7.y.y.y.y.y.r.y.y.y.y.y.y.y.y.d.y.y.y.d.d.g.g.g.g.g.g.g.g.g.h.f.g.f.g.g.f.f.f.f.f.f.y.u.d.d.y.y.y.y.y.y.y.y.y.y.y.y.y.y.y.y.y.g.g.d.g.d.g.g.g.g.g.h.h.h.h.l.l.l.C.C.A.A.J.Z.J.J.J.L.R.L.L.R.R.U.R.J.R.U.U.W.R.R.W.R.R.L.L.R.R.L.L.R.W.R.R.R.R.R.L.J.R.J.L.J.J.Z.Z.Z.J.J.Z.J.J.A.A.J.J.C.C.h.C.h.h.g.h.h.h.h.V.g.g.h.V.l.f.f.h.h.f.f.g.g.g.g.d.g.d.y.g.y.d.y.y.y.y.y.y.r.r.y.y.y.y.y.y.y.y.:.;.:.:.:.y.:.:.:.;.;.;.;.;.;.;.;.;.*.*.*.*.*.$.$.$.$.$.#.#.#.#.#.@.@.@.#.@.....@.#.| | | | | | | | | | ' ' ' ' ` ` ` ` ` ( ( ( ( / ( / / E E E T T T T U G F F D S A V z k d 0 9 6 7 s.s.s.s.s.s.s.s.s.s.s.s.s.s.s.s.s.s.s.s.s.s.s.s.s.s.s.s.s.s.s.s.s.s.s.s.s.s.s.s.s.s.s.s.s.s.s.s.s.s.s.s.s.s.s.s.s.s.s.s.s.s.s.s.s.s.s.s.s.s.s.s.s.s.s.s.s.s.s.s.s.s.s.s.s.s.s.s.s.s.s.s.s.s.s.s.s.s.s.s.s.s.s.s.s.s.s.s.s.s.s.s.s.s.s.s.s.s.s.s.s.s.s.s.s.s.s.s.s.s.s.s.s.s.s.s.s.s.s.s.s.s.s.s.s.s.s.s.s.s.s.s.s.s.s.s.s.s.s.s.s.s.s.s.s.s.s.s.s.s.s.s.s.s.s.s.s.s.s.s.s.s.s.s.s.s.s.s.s.s.s.s.s.s.s.s.s.s.s.s.s.s.s.s.s.s.s.s.s.s.s.s.s.s.s.s.s.s.s.s.s.s.s.s.s.s.s.s.s.s.s.s.s.s.s.s.s.s.s.s.s.s.s.s.s.s.s.s.s.s.s.s.s.s.s.s.s.s.s.s.s.s.s.s.s.s.s.s.s.s.s.s.s.",
"s.s.s.s.s.s.s.s.s.s.s.s.s.s.s.s.s.s.s.s.s.s.s.s.s.s.s.s.s.R ` ' | | | ..#.$.$.*.*.;.:.:.;.7.7.y.y.y.y.y.y.r.y.y.y.y.y.y.y.y.d.d.y.d.d.d.g.g.g.g.g.g.g.g.g.h.f.f.g.g.d.d.f.f.f.f.f.f.y.y.y.y.y.y.r.y.y.y.y.y.y.y.y.y.y.y.d.y.g.g.d.g.d.g.g.g.g.g.h.h.h.h.h.l.l.C.C.C.C.J.J.J.Z.J.L.R.L.L.R.R.R.U.U.R.R.U.W.R.W.W.R.R.J.J.L.L.R.W.R.R.R.R.R.R.R.R.R.Z.R.W.J.J.J.J.J.J.J.Z.J.J.A.A.J.J.V.V.C.C.l.h.h.h.h.h.h.C.V.h.h.h.f.g.g.h.h.h.h.f.h.h.g.g.g.d.d.y.y.y.y.d.y.y.y.y.y.y.y.y.y.y.y.y.y.y.:.:.:.:.:.:.:.:.:.;.;.;.;.;.;.;.-.;.*.*.*.*.*.$.$.$.$.$.#.#.#.#.#.#.#.@.#.@.....@.#.| | | | | | | | | | | ' ' ' ` ` ` ( ( ( ( ( ( / ( / E E E E T T T U G F F D S Z Z M z j d 0 7 4 e s.s.s.s.s.s.s.s.s.s.s.s.s.s.s.s.s.s.s.s.s.s.s.s.s.s.s.s.s.s.s.s.s.s.s.s.s.s.s.s.s.s.s.s.s.s.s.s.s.s.s.s.s.s.s.s.s.s.s.s.s.s.s.s.s.s.s.s.s.s.s.s.s.s.s.s.s.s.s.s.s.s.s.s.s.s.s.s.s.s.s.s.s.s.s.s.s.s.s.s.s.s.s.s.s.s.s.s.s.s.s.s.s.s.s.s.s.s.s.s.s.s.s.s.s.s.s.s.s.s.s.s.s.s.s.s.s.s.s.s.s.s.s.s.s.s.s.s.s.s.s.s.s.s.s.s.s.s.s.s.s.s.s.s.s.s.s.s.s.s.s.s.s.s.s.s.s.s.s.s.s.s.s.s.s.s.s.s.s.s.s.s.s.s.s.s.s.s.s.s.s.s.s.s.s.s.s.s.s.s.s.s.s.s.s.s.s.s.s.s.s.s.s.s.s.s.s.s.s.s.s.s.s.s.s.s.s.s.s.s.s.s.s.s.s.s.s.s.s.s.s.s.s.s.s.s.s.s.s.s.s.s.s.s.s.s.s.s.s.s.s.s.s.",
"s.s.s.s.s.s.s.s.s.s.s.s.s.s.s.s.s.s.s.s.s.s.s.s.s.s.s.s.s./ ' ..| | ..#.#.$.*.*.;.:.:.:.:.7.y.y.y.y.y.y.y.y.y.y.y.y.y.y.y.f.g.d.y.y.d.f.g.g.g.g.g.f.g.g.g.f.f.g.f.g.g.d.d.f.f.d.d.d.y.y.y.y.y.y.r.y.y.y.y.y.y.y.d.y.y.y.d.y.g.g.d.g.g.g.g.g.h.h.h.h.h.h.h.l.C.C.C.A.Z.Z.Z.Z.Z.Z.J.R.L.L.R.R.R.R.U.J.R.R.R.R.R.R.R.W.R.L.W.W.R.R.W.W.W.R.R.L.L.R.R.J.Z.J.J.J.J.Z.J.Z.J.J.A.J.A.A.J.J.C.C.C.C.l.h.h.h.C.V.V.l.h.h.h.f.f.f.f.l.h.h.h.h.h.f.g.g.g.d.y.y.y.y.g.y.y.y.y.y.y.y.y.7.y.y.y.y.y.y.:.:.:.;.:.:.:.;.:.;.;.;.;.;.;.;.*.-.;.*.$.$.$.$.$.#.$.#.#.#.#.#.#.#.@.@.#.@.@.@.@.| | | | | | | | | | | | ' ' ` ` ` ( ( ( ( ( ( ( / R E E E E T T T T U G F F S S Z V m z j a 0 7 4 r s.s.s.s.s.s.s.s.s.s.s.s.s.s.s.s.s.s.s.s.s.s.s.s.s.s.s.s.s.s.s.s.s.s.s.s.s.s.s.s.s.s.s.s.s.s.s.s.s.s.s.s.s.s.s.s.s.s.s.s.s.s.s.s.s.s.s.s.s.s.s.s.s.s.s.s.s.s.s.s.s.s.s.s.s.s.s.s.s.s.s.s.s.s.s.s.s.s.s.s.s.s.s.s.s.s.s.s.s.s.s.s.s.s.s.s.s.s.s.s.s.s.s.s.s.s.s.s.s.s.s.s.s.s.s.s.s.s.s.s.s.s.s.s.s.s.s.s.s.s.s.s.s.s.s.s.s.s.s.s.s.s.s.s.s.s.s.s.s.s.s.s.s.s.s.s.s.s.s.s.s.s.s.s.s.s.s.s.s.s.s.s.s.s.s.s.s.s.s.s.s.s.s.s.s.s.s.s.s.s.s.s.s.s.s.s.s.s.s.s.s.s.s.s.s.s.s.s.s.s.s.s.s.s.s.s.s.s.s.s.s.s.s.s.s.s.s.s.s.s.s.s.s.s.s.s.s.s.s.s.s.s.s.s.s.s.s.s.s.s.s.s.s.",
"s.s.s.s.s.s.s.s.s.s.s.s.s.s.s.s.s.s.s.s.s.s.s.s.s.s.s.s.s.( ` | | | ..#.#.*.*.;.;.;.:.5.:.7.7.y.y.y.y.y.y.y.y.y.y.y.f.d.y.y.d.g.g.y.d.d.d.g.f.h.g.f.g.g.g.d.d.d.d.g.g.d.y.f.d.f.d.y.y.y.y.y.y.y.y.y.y.y.y.y.y.y.y.y.y.y.y.y.g.g.g.g.g.g.h.h.h.h.h.h.h.l.h.C.C.J.C.A.J.A.J.L.J.J.J.L.L.L.L.R.J.L.J.R.R.R.U.R.W.W.R.R.R.R.R.W.W.W.W.R.W.W.W.U.R.R.W.W.Z.J.U.J.J.J.J.C.J.J.J.A.C.A.C.S.C.C.C.l.l.l.h.h.h.V.h.h.h.f.h.C.h.g.g.f.l.l.h.h.h.f.f.d.y.d.f.d.y.d.f.y.y.y.y.y.y.y.y.y.y.y.y.y.y.:.;.5.:.:.:.;.5.:.:.;.;.;.;.;.;.*.*.*.*.*.$.$.$.$.$.#.#.#.#.#.#.#.#.#.@.@.....@.....| | | | | | ' | ' | | ' | ` ` ` ( ` ( ( ( ` ( ( ( R E E E T T T U G G F F F D A Z V m k d q 0 7 6 u s.s.s.s.s.s.s.s.s.s.s.s.s.s.s.s.s.s.s.s.s.s.s.s.s.s.s.s.s.s.s.s.s.s.s.s.s.s.s.s.s.s.s.s.s.s.s.s.s.s.s.s.s.s.s.s.s.s.s.s.s.s.s.s.s.s.s.s.s.s.s.s.s.s.s.s.s.s.s.s.s.s.s.s.s.s.s.s.s.s.s.s.s.s.s.s.s.s.s.s.s.s.s.s.s.s.s.s.s.s.s.s.s.s.s.s.s.s.s.s.s.s.s.s.s.s.s.s.s.s.s.s.s.s.s.s.s.s.s.s.s.s.s.s.s.s.s.s.s.s.s.s.s.s.s.s.s.s.s.s.s.s.s.s.s.s.s.s.s.s.s.s.s.s.s.s.s.s.s.s.s.s.s.s.s.s.s.s.s.s.s.s.s.s.s.s.s.s.s.s.s.s.s.s.s.s.s.s.s.s.s.s.s.s.s.s.s.s.s.s.s.s.s.s.s.s.s.s.s.s.s.s.s.s.s.s.s.s.s.s.s.s.s.s.s.s.s.s.s.s.s.s.s.s.s.s.s.s.s.s.s.s.s.s.s.s.s.s.s.s.s.s.s.",
"s.s.s.s.s.s.s.s.s.s.s.s.s.s.s.s.s.s.s.s.s.s.s.s.s.s.s.s.( ( ` | | ..#.#.$.*.-.;.;.;.5.7.7.7.y.y.y.y.y.y.y.y.y.y.y.y.y.f.y.d.d.f.d.d.d.f.g.g.f.f.g.g.g.f.g.d.d.f.g.g.g.d.d.d.d.y.y.y.y.y.y.y.y.y.y.y.y.y.d.y.y.y.y.y.y.y.y.f.g.g.g.g.f.d.f.g.g.h.h.h.l.l.l.l.C.J.A.A.Z.A.J.L.L.L.L.L.J.Z.J.R.L.L.R.R.R.R.R.R.R.R.W.R.R.R.R.R.W.W.W.W.W.W.W.W.W.W.W.W.J.J.U.U.J.J.U.J.A.C.A.J.C.J.J.C.C.V.C.C.C.C.l.h.h.h.g.h.h.l.l.l.f.g.f.f.h.h.h.h.f.g.g.y.g.g.g.g.y.f.f.y.y.y.y.y.y.y.y.y.y.y.y.y.:.:.:.;.;.:.:.:.:.:.;.;.;.;.;.;.-.*.*.*.$.$.$.$.*.$.$.#.#.#.#.#.@.#.@.#.@.............| ] | | | | | | ' | | | | ` ` ` ( ` ( ( ( ( ( ( / R E E E T T T G U G F F F D Z Z V z j d 0 7 7 7 s.s.s.s.s.s.s.s.s.s.s.s.s.s.s.s.s.s.s.s.s.s.s.s.s.s.s.s.s.s.s.s.s.s.s.s.s.s.s.s.s.s.s.s.s.s.s.s.s.s.s.s.s.s.s.s.s.s.s.s.s.s.s.s.s.s.s.s.s.s.s.s.s.s.s.s.s.s.s.s.s.s.s.s.s.s.s.s.s.s.s.s.s.s.s.s.s.s.s.s.s.s.s.s.s.s.s.s.s.s.s.s.s.s.s.s.s.s.s.s.s.s.s.s.s.s.s.s.s.s.s.s.s.s.s.s.s.s.s.s.s.s.s.s.s.s.s.s.s.s.s.s.s.s.s.s.s.s.s.s.s.s.s.s.s.s.s.s.s.s.s.s.s.s.s.s.s.s.s.s.s.s.s.s.s.s.s.s.s.s.s.s.s.s.s.s.s.s.s.s.s.s.s.s.s.s.s.s.s.s.s.s.s.s.s.s.s.s.s.s.s.s.s.s.s.s.s.s.s.s.s.s.s.s.s.s.s.s.s.s.s.s.s.s.s.s.s.s.s.s.s.s.s.s.s.s.s.s.s.s.s.s.s.s.s.s.s.s.s.s.s.s.s.s.",
"s.s.s.s.s.s.s.s.s.s.s.s.s.s.s.s.s.s.s.s.s.s.s.s.s.s.s.s.( ` ' | | ..#.#.$.*.-.;.5.;.5.7.7.y.y.y.y.y.y.y.y.y.y.y.y.y.f.f.d.g.d.d.f.g.g.g.g.g.f.g.g.g.g.g.g.g.g.g.g.f.g.y.g.d.y.y.y.y.y.y.y.y.y.y.y.y.y.y.y.y.y.y.y.y.y.y.y.d.g.g.g.g.f.d.f.h.g.h.h.h.l.C.l.C.S.J.Z.A.J.A.J.L.L.L.J.R.J.J.R.W.R.W.W.W.W.R.R.W.R.R.R.R.R.R.R.R.R.R.R.W.!.!.W.W.W.R.U.J.J.J.J.J.J.J.J.U.A.C.C.A.C.C.C.C.C.V.C.J.C.h.h.h.h.h.h.h.l.l.l.l.h.g.g.f.h.h.h.f.f.f.g.y.y.f.f.g.y.y.h.d.y.y.y.y.y.y.y.y.y.y.y.r.:.:.7.:.:.:.:.:.;.;.;.;.;.;.;.;.;.*.*.*.$.$.$.$.$.$.$.#.$.#.#.#.#.@.#.#.@.#...........| | | | | | | ' ' | | | | ` ` ' ( ` ( ( ` ( ( ( / E E E T T T T U U F F F S Z Z V M z d d 0 7 6 6 s.s.s.s.s.s.s.s.s.s.s.s.s.s.s.s.s.s.s.s.s.s.s.s.s.s.s.s.s.s.s.s.s.s.s.s.s.s.s.s.s.s.s.s.s.s.s.s.s.s.s.s.s.s.s.s.s.s.s.s.s.s.s.s.s.s.s.s.s.s.s.s.s.s.s.s.s.s.s.s.s.s.s.s.s.s.s.s.s.s.s.s.s.s.s.s.s.s.s.s.s.s.s.s.s.s.s.s.s.s.s.s.s.s.s.s.s.s.s.s.s.s.s.s.s.s.s.s.s.s.s.s.s.s.s.s.s.s.s.s.s.s.s.s.s.s.s.s.s.s.s.s.s.s.s.s.s.s.s.s.s.s.s.s.s.s.s.s.s.s.s.s.s.s.s.s.s.s.s.s.s.s.s.s.s.s.s.s.s.s.s.s.s.s.s.s.s.s.s.s.s.s.s.s.s.s.s.s.s.s.s.s.s.s.s.s.s.s.s.s.s.s.s.s.s.s.s.s.s.s.s.s.s.s.s.s.s.s.s.s.s.s.s.s.s.s.s.s.s.s.s.s.s.s.s.s.s.s.s.s.s.s.s.s.s.s.s.s.s.s.s.s.s.s.",
"s.s.s.s.s.s.s.s.s.s.s.s.s.s.s.s.s.s.s.s.s.s.s.s.s.s.s.W ( ' | | | ..#.#.*.*.;.;.;.5.7.7.7.y.y.y.y.y.y.y.y.y.y.y.y.y.d.f.d.g.d.y.y.g.d.g.g.g.f.g.g.f.f.g.g.g.g.g.g.g.g.d.d.y.y.y.y.y.y.y.y.y.y.y.y.y.y.y.y.r.y.y.r.y.y.y.y.d.g.g.g.g.f.g.f.h.h.h.j.l.C.C.l.C.J.J.A.J.Z.A.J.L.L.L.J.J.R.R.W.W.R.R.W.W.W.W.W.W.W.W.R.W.R.R.R.R.R.R.R.R.W.!.W.W.W.U.L.J.L.J.J.J.J.J.J.J.J.Z.A.A.C.A.l.V.C.C.J.C.C.l.h.h.h.h.h.l.l.l.l.l.h.g.g.f.h.h.h.f.h.h.f.f.f.f.f.d.g.g.f.y.y.y.y.y.y.y.y.y.y.y.y.:.y.:.:.5.:.:.:.5.;.;.;.;.;.;.;.-.;.*.*.*.*.$.#.#.$.$.$.#.$.#.#.#.#.#.#.@.@.@...........| | | | | ' ' | ' | | | ' ` ` ' ( ` ( ( ( ( ( / / E E E T T T T T G F F F D A Z V M z d a 0 7 4 r s.s.s.s.s.s.s.s.s.s.s.s.s.s.s.s.s.s.s.s.s.s.s.s.s.s.s.s.s.s.s.s.s.s.s.s.s.s.s.s.s.s.s.s.s.s.s.s.s.s.s.s.s.s.s.s.s.s.s.s.s.s.s.s.s.s.s.s.s.s.s.s.s.s.s.s.s.s.s.s.s.s.s.s.s.s.s.s.s.s.s.s.s.s.s.s.s.s.s.s.s.s.s.s.s.s.s.s.s.s.s.s.s.s.s.s.s.s.s.s.s.s.s.s.s.s.s.s.s.s.s.s.s.s.s.s.s.s.s.s.s.s.s.s.s.s.s.s.s.s.s.s.s.s.s.s.s.s.s.s.s.s.s.s.s.s.s.s.s.s.s.s.s.s.s.s.s.s.s.s.s.s.s.s.s.s.s.s.s.s.s.s.s.s.s.s.s.s.s.s.s.s.s.s.s.s.s.s.s.s.s.s.s.s.s.s.s.s.s.s.s.s.s.s.s.s.s.s.s.s.s.s.s.s.s.s.s.s.s.s.s.s.s.s.s.s.s.s.s.s.s.s.s.s.s.s.s.s.s.s.s.s.s.s.s.s.s.s.s.s.s.s.s.s.",
"s.s.s.s.s.s.s.s.s.s.s.s.s.s.s.s.s.s.s.s.s.s.s.s.s.s.s.( ( ' | | | #.#.$.$.*.;.:.5.7.y.y.y.y.y.y.y.y.y.y.y.y.y.y.y.y.d.d.g.d.g.d.y.d.g.g.g.g.f.f.f.f.h.g.f.g.g.g.g.d.g.g.f.y.y.y.y.y.y.y.y.y.y.y.y.y.y.y.y.r.r.y.y.y.y.y.d.d.g.g.g.g.g.f.f.h.h.h.l.C.A.A.A.U.A.A.Z.J.J.J.J.R.R.R.R.R.R.R.W.W.W.W.W.W.W.W.W.W.R.R.W.W.W.W.W.~.W.R.R.W.E.!.!.W.W.W.L.J.L.J.J.J.U.U.U.J.J.Z.A.J.C.A.A.C.A.l.C.l.l.l.h.h.h.g.h.l.l.C.l.l.f.g.g.f.f.h.h.g.f.h.g.g.u.g.y.g.g.f.f.y.y.y.y.y.y.y.y.:.:.y.y.r.:.r.:.5.5.:.;.;.;.;.;.;.-.-.;.;.*.;.;.*.*.$.$.$.$.$.$.#.#.#.@.@.#.#.@.@.@...........] | | | ' ' ' | | ' | ' ` ` ' ' ` ( ` ( ( ( ( ( / / E E E T T T T U F F F D Z V Z V m k d 0 9 6 < r s.s.s.s.s.s.s.s.s.s.s.s.s.s.s.s.s.s.s.s.s.s.s.s.s.s.s.s.s.s.s.s.s.s.s.s.s.s.s.s.s.s.s.s.s.s.s.s.s.s.s.s.s.s.s.s.s.s.s.s.s.s.s.s.s.s.s.s.s.s.s.s.s.s.s.s.s.s.s.s.s.s.s.s.s.s.s.s.s.s.s.s.s.s.s.s.s.s.s.s.s.s.s.s.s.s.s.s.s.s.s.s.s.s.s.s.s.s.s.s.s.s.s.s.s.s.s.s.s.s.s.s.s.s.s.s.s.s.s.s.s.s.s.s.s.s.s.s.s.s.s.s.s.s.s.s.s.s.s.s.s.s.s.s.s.s.s.s.s.s.s.s.s.s.s.s.s.s.s.s.s.s.s.s.s.s.s.s.s.s.s.s.s.s.s.s.s.s.s.s.s.s.s.s.s.s.s.s.s.s.s.s.s.s.s.s.s.s.s.s.s.s.s.s.s.s.s.s.s.s.s.s.s.s.s.s.s.s.s.s.s.s.s.s.s.s.s.s.s.s.s.s.s.s.s.s.s.s.s.s.s.s.s.s.s.s.s.s.s.s.s.s.s.s.",
"s.s.s.s.s.s.s.s.s.s.s.s.s.s.s.s.s.s.s.s.s.s.s.s.s.s.s.( ` | | | ..#.$.$.*.;.;.5.:.7.7.y.y.y.y.7.y.y.y.y.y.y.y.y.y.y.d.d.g.d.y.d.g.g.g.g.g.g.f.f.f.g.f.g.f.g.g.g.g.d.g.f.d.y.y.y.y.y.y.y.y.y.y.y.y.7.y.y.y.y.r.y.y.y.y.y.g.d.g.g.g.g.g.f.f.h.h.h.l.C.C.C.C.J.J.J.U.R.R.R.R.R.R.L.R.R.R.R.W.W.W.W.!.W.!.W.W.W.W.W.W.W.W.W.W.W.W.W.T.W.!.!.!.!.E.W.W.J.J.J.L.L.J.U.U.J.J.A.J.C.l.C.A.J.J.A.A.C.C.C.V.V.h.g.g.h.l.l.l.h.f.g.g.g.g.f.f.f.g.f.g.g.g.d.d.d.d.h.f.y.y.y.y.y.y.y.r.:.:.r.y.y.:.:.:.5.5.5.;.;.;.;.;.;.;.;.;.*.*.;.;.*.$.$.$.$.$.$.$.#.#.@.#.#.#.@.@.@.@.@.........] | | | | | ' | | | | ' ` ` ` ` ` ( ( ( ( ( ( ( / E E E T T T T G F F F D D S Z V V z j d 0 7 4 6 s.s.s.s.s.s.s.s.s.s.s.s.s.s.s.s.s.s.s.s.s.s.s.s.s.s.s.s.s.s.s.s.s.s.s.s.s.s.s.s.s.s.s.s.s.s.s.s.s.s.s.s.s.s.s.s.s.s.s.s.s.s.s.s.s.s.s.s.s.s.s.s.s.s.s.s.s.s.s.s.s.s.s.s.s.s.s.s.s.s.s.s.s.s.s.s.s.s.s.s.s.s.s.s.s.s.s.s.s.s.s.s.s.s.s.s.s.s.s.s.s.s.s.s.s.s.s.s.s.s.s.s.s.s.s.s.s.s.s.s.s.s.s.s.s.s.s.s.s.s.s.s.s.s.s.s.s.s.s.s.s.s.s.s.s.s.s.s.s.s.s.s.s.s.s.s.s.s.s.s.s.s.s.s.s.s.s.s.s.s.s.s.s.s.s.s.s.s.s.s.s.s.s.s.s.s.s.s.s.s.s.s.s.s.s.s.s.s.s.s.s.s.s.s.s.s.s.s.s.s.s.s.s.s.s.s.s.s.s.s.s.s.s.s.s.s.s.s.s.s.s.s.s.s.s.s.s.s.s.s.s.s.s.s.s.s.s.s.s.s.s.s.s.s.s.",
"s.s.s.s.s.s.s.s.s.s.s.s.s.s.s.s.s.s.s.s.s.s.s.s.s.s._ ` ' | | ..#.$.$.*.-.;.:.7.7.7.7.y.y.7.y.y.y.y.y.f.y.y.y.y.d.y.d.d.d.d.y.f.f.g.g.g.f.d.g.g.g.g.g.g.g.g.g.g.g.d.g.i.y.y.y.y.y.y.y.y.y.y.y.y.y.y.y.y.y.r.r.y.y.y.y.y.y.d.g.g.g.g.g.f.f.h.h.l.l.l.C.C.J.J.J.J.R.W.R.R.W.W.W.W.W.R.R.W.W.R.W.W.!.!.W.W.!.W.W.W.W.W.W.W.W.W.W.R.W.T.W.W.!.E.T.W.W.W.J.L.L.J.J.J.J.U.U.J.J.J.A.C.A.A.C.C.C.l.h.l.h.C.h.g.V.h.h.l.h.h.f.f.g.g.g.f.h.g.g.h.g.y.f.d.y.g.g.g.f.y.y.y.y.y.:.:.y.7.y.y.y.y.y.y.y.5.5.5.:.;.;.;.;.;.;.;.;.*.*.*.*.*.$.$.$.$.$.$.$.#.#.@.#.#.@...@.@.....| | ....| | | | | | ' | | | | ' ` ` ` ` ( ( ( ( ( ( ( / / E E E T T T T G G F F D S Z Z V V z j a 0 7 1 7 s.s.s.s.s.s.s.s.s.s.s.s.s.s.s.s.s.s.s.s.s.s.s.s.s.s.s.s.s.s.s.s.s.s.s.s.s.s.s.s.s.s.s.s.s.s.s.s.s.s.s.s.s.s.s.s.s.s.s.s.s.s.s.s.s.s.s.s.s.s.s.s.s.s.s.s.s.s.s.s.s.s.s.s.s.s.s.s.s.s.s.s.s.s.s.s.s.s.s.s.s.s.s.s.s.s.s.s.s.s.s.s.s.s.s.s.s.s.s.s.s.s.s.s.s.s.s.s.s.s.s.s.s.s.s.s.s.s.s.s.s.s.s.s.s.s.s.s.s.s.s.s.s.s.s.s.s.s.s.s.s.s.s.s.s.s.s.s.s.s.s.s.s.s.s.s.s.s.s.s.s.s.s.s.s.s.s.s.s.s.s.s.s.s.s.s.s.s.s.s.s.s.s.s.s.s.s.s.s.s.s.s.s.s.s.s.s.s.s.s.s.s.s.s.s.s.s.s.s.s.s.s.s.s.s.s.s.s.s.s.s.s.s.s.s.s.s.s.s.s.s.s.s.s.s.s.s.s.s.s.s.s.s.s.s.s.s.s.s.s.s.s.s.s.s.",
"s.s.s.s.s.s.s.s.s.s.s.s.s.s.s.s.s.s.s.s.s.s.s.s.s.s.( ` ' | | ..#.$.$.*.;.;.5.y.7.7.7.y.7.7.7.y.y.y.y.d.y.y.y.d.d.y.d.d.g.d.g.f.d.g.g.h.f.d.g.g.g.f.g.g.g.d.d.d.d.d.f.d.y.y.y.y.y.y.y.y.y.y.7.7.7.7.y.y.y.y.y.y.y.y.y.y.y.f.d.g.g.g.g.f.f.h.h.C.l.l.C.A.J.J.J.U.U.W.R.R.W.R.W.W.W.W.W.W.W.W.W.W.W.W.W.W.W.W.W.W.W.W.W.W.W.W.W.W.W.W.W.W.W.W.W.W.W.E.L.L.L.J.J.J.J.Z.J.J.J.J.J.J.A.J.C.C.l.C.l.h.h.h.h.g.h.h.l.h.l.h.h.f.g.g.g.g.f.g.d.f.g.y.g.h.f.g.g.f.f.y.y.y.y.y.:.y.y.y.y.y.5.:.y.y.:.7.7.5.:.;.;.;.;.;.;.;.;.*.*.*.*.*.*.$.$.$.$.$.$.#.#.#.#.@.@...@.| | | | | | | | | | | | | | | ' | | ' ' ` ` ( ( ( ( ( ( ( / / / E E E T T T U G G F F D S Z Z V V z d a 9 7 1 e s.s.s.s.s.s.s.s.s.s.s.s.s.s.s.s.s.s.s.s.s.s.s.s.s.s.s.s.s.s.s.s.s.s.s.s.s.s.s.s.s.s.s.s.s.s.s.s.s.s.s.s.s.s.s.s.s.s.s.s.s.s.s.s.s.s.s.s.s.s.s.s.s.s.s.s.s.s.s.s.s.s.s.s.s.s.s.s.s.s.s.s.s.s.s.s.s.s.s.s.s.s.s.s.s.s.s.s.s.s.s.s.s.s.s.s.s.s.s.s.s.s.s.s.s.s.s.s.s.s.s.s.s.s.s.s.s.s.s.s.s.s.s.s.s.s.s.s.s.s.s.s.s.s.s.s.s.s.s.s.s.s.s.s.s.s.s.s.s.s.s.s.s.s.s.s.s.s.s.s.s.s.s.s.s.s.s.s.s.s.s.s.s.s.s.s.s.s.s.s.s.s.s.s.s.s.s.s.s.s.s.s.s.s.s.s.s.s.s.s.s.s.s.s.s.s.s.s.s.s.s.s.s.s.s.s.s.s.s.s.s.s.s.s.s.s.s.s.s.s.s.s.s.s.s.s.s.s.s.s.s.s.s.s.s.s.s.s.s.s.s.s.s.s.s.",
"s.s.s.s.s.s.s.s.s.s.s.s.s.s.s.s.s.s.s.s.s.s.s.s.s.` ( ` | | | #.#.$.$.-.;.:.:.:.7.7.7.7.y.y.y.y.y.y.y.y.y.y.d.d.y.d.f.u.d.g.g.g.g.f.g.g.g.g.g.g.g.f.g.g.g.g.g.g.d.f.d.y.y.y.y.y.y.y.y.y.y.y.:.:.7.7.y.7.y.y.y.y.y.y.y.d.y.y.d.d.g.g.g.f.f.h.h.C.C.C.C.A.J.J.J.J.J.U.R.R.R.R.W.W.W.W.W.W.W.W.W.W.W.W.W.W.W.W.!.W.W.W.W.W.W.W.W.W.W.W.R.R.W.W.W.W.W.U.W.W.U.R.U.J.J.W.U.J.U.J.J.J.C.J.J.l.l.C.l.h.h.h.l.C.h.h.h.C.S.l.h.f.f.h.l.h.h.g.g.g.d.y.g.g.f.g.h.f.d.f.y.y.y.y.y.y.y.7.7.y.y.y.7.7.7.7.7.:.;.;.;.;.;.;.;.*.*.;.*.$.$.*.*.$.$.$.$.$.#.#.#.#.#.@.@.#.@.#.| | | | | | | | | | | | | ' ` ' ' ` ' ` ` ` ` ` ( ( W ( E / E E T T T T G G F F F F D S Z V V z j d a 0 7 1 t s.s.s.s.s.s.s.s.s.s.s.s.s.s.s.s.s.s.s.s.s.s.s.s.s.s.s.s.s.s.s.s.s.s.s.s.s.s.s.s.s.s.s.s.s.s.s.s.s.s.s.s.s.s.s.s.s.s.s.s.s.s.s.s.s.s.s.s.s.s.s.s.s.s.s.s.s.s.s.s.s.s.s.s.s.s.s.s.s.s.s.s.s.s.s.s.s.s.s.s.s.s.s.s.s.s.s.s.s.s.s.s.s.s.s.s.s.s.s.s.s.s.s.s.s.s.s.s.s.s.s.s.s.s.s.s.s.s.s.s.s.s.s.s.s.s.s.s.s.s.s.s.s.s.s.s.s.s.s.s.s.s.s.s.s.s.s.s.s.s.s.s.s.s.s.s.s.s.s.s.s.s.s.s.s.s.s.s.s.s.s.s.s.s.s.s.s.s.s.s.s.s.s.s.s.s.s.s.s.s.s.s.s.s.s.s.s.s.s.s.s.s.s.s.s.s.s.s.s.s.s.s.s.s.s.s.s.s.s.s.s.s.s.s.s.s.s.s.s.s.s.s.s.s.s.s.s.s.s.s.s.s.s.s.s.s.s.s.s.s.s.s.s.s.s.",
"s.s.s.s.s.s.s.s.s.s.s.s.s.s.s.s.s.s.s.s.s.s.s.s.s.( ` [ | | | #.$.$.*.*.;.:.:.:.7.7.y.y.y.r.y.y.y.y.y.y.y.y.y.f.y.d.d.d.y.g.g.g.g.g.f.g.g.g.g.g.f.f.g.g.f.g.g.g.y.y.y.y.y.y.y.y.y.y.y.r.:.y.:.:.7.7.y.y.y.y.y.y.y.y.y.f.y.d.d.g.g.g.f.h.h.l.l.l.l.C.C.J.J.J.J.J.R.R.R.W.W.W.W.W.W.W.W.W.W.W.W.W.W.W.W.W.W.W.W.W.W.W.W.W.W.W.R.R.R.W.J.R.R.W.W.W.W.W.W.U.U.U.J.J.J.U.J.J.J.U.J.J.A.C.J.S.l.l.C.C.l.h.h.h.l.h.h.l.v.M.l.h.f.h.h.h.l.g.f.g.i.y.d.f.g.g.f.f.y.d.y.y.y.y.y.y.y.y.7.5.y.y.7.5.7.7.7.:.;.;.;.;.;.-.;.;.-.-.*.$.$.*.*.$.$.$.$.$.#.#.@.#.@.@.@.@.@.| | | | | | | | | | | ' | | ' ' ' ' ` ` ' ` ` ` ` ( ( ( R E E E E T T T U G G F F F F S Z Z M M z j d y 7 6 1 u s.s.s.s.s.s.s.s.s.s.s.s.s.s.s.s.s.s.s.s.s.s.s.s.s.s.s.s.s.s.s.s.s.s.s.s.s.s.s.s.s.s.s.s.s.s.s.s.s.s.s.s.s.s.s.s.s.s.s.s.s.s.s.s.s.s.s.s.s.s.s.s.s.s.s.s.s.s.s.s.s.s.s.s.s.s.s.s.s.s.s.s.s.s.s.s.s.s.s.s.s.s.s.s.s.s.s.s.s.s.s.s.s.s.s.s.s.s.s.s.s.s.s.s.s.s.s.s.s.s.s.s.s.s.s.s.s.s.s.s.s.s.s.s.s.s.s.s.s.s.s.s.s.s.s.s.s.s.s.s.s.s.s.s.s.s.s.s.s.s.s.s.s.s.s.s.s.s.s.s.s.s.s.s.s.s.s.s.s.s.s.s.s.s.s.s.s.s.s.s.s.s.s.s.s.s.s.s.s.s.s.s.s.s.s.s.s.s.s.s.s.s.s.s.s.s.s.s.s.s.s.s.s.s.s.s.s.s.s.s.s.s.s.s.s.s.s.s.s.s.s.s.s.s.s.s.s.s.s.s.s.s.s.s.s.s.s.s.s.s.s.s.s.s.s.",
"s.s.s.s.s.s.s.s.s.s.s.s.s.s.s.s.s.s.s.s.s.s.s.s.W ( ' | | | | #.$.$.-.;.:.:.:.y.7.y.y.y.y.y.y.y.y.y.y.y.y.y.f.f.y.d.d.d.d.g.g.g.g.f.f.f.g.g.f.f.f.f.g.g.f.g.g.g.y.y.y.y.y.y.y.r.y.y.y.:.:.y.:.:.y.y.y.y.y.y.y.y.y.y.y.f.y.g.g.g.g.f.h.h.h.l.l.C.C.C.A.J.J.J.J.W.W.R.W.W.W.R.W.W.!.R.R.W.W.W.W.!.(.W.W.W.W.W.W.W.W.W.W.W.W.W.W.R.W.W.W.R.J.T.W.W.W.T.W.J.J.U.J.J.J.J.J.J.R.U.J.J.A.C.S.J.S.l.C.S.C.l.h.h.l.l.l.h.h.l.h.f.f.g.h.h.h.d.d.g.d.y.y.d.g.y.d.d.d.y.y.d.y.y.y.y.y.y.7.5.5.7.5.:.5.:.5.;.;.;.;.;.;.-.;.;.-.*.*.*.$.$.*.*.$.$.$.$.#.#.@.@.@.@.@.@.@.| | | | | | | | | | ' ' ' | ' ` ' ' ` ` ' ` ` ` ` ( ( ( R E R E T T U U U G G F F D D S Z Z V M z d a 0 7 4 5 s.s.s.s.s.s.s.s.s.s.s.s.s.s.s.s.s.s.s.s.s.s.s.s.s.s.s.s.s.s.s.s.s.s.s.s.s.s.s.s.s.s.s.s.s.s.s.s.s.s.s.s.s.s.s.s.s.s.s.s.s.s.s.s.s.s.s.s.s.s.s.s.s.s.s.s.s.s.s.s.s.s.s.s.s.s.s.s.s.s.s.s.s.s.s.s.s.s.s.s.s.s.s.s.s.s.s.s.s.s.s.s.s.s.s.s.s.s.s.s.s.s.s.s.s.s.s.s.s.s.s.s.s.s.s.s.s.s.s.s.s.s.s.s.s.s.s.s.s.s.s.s.s.s.s.s.s.s.s.s.s.s.s.s.s.s.s.s.s.s.s.s.s.s.s.s.s.s.s.s.s.s.s.s.s.s.s.s.s.s.s.s.s.s.s.s.s.s.s.s.s.s.s.s.s.s.s.s.s.s.s.s.s.s.s.s.s.s.s.s.s.s.s.s.s.s.s.s.s.s.s.s.s.s.s.s.s.s.s.s.s.s.s.s.s.s.s.s.s.s.s.s.s.s.s.s.s.s.s.s.s.s.s.s.s.s.s.s.s.s.s.s.s.s.s.s.",
"s.s.s.s.s.s.s.s.s.s.s.s.s.s.s.s.s.s.s.s.s.s.s.s.( ( ` [ | | #.$.$.*.;.;.;.:.:.7.y.y.y.y.y.y.y.y.y.y.y.y.y.y.d.f.y.d.d.d.d.f.g.g.g.f.f.f.f.f.f.g.h.f.f.g.g.g.g.g.y.y.y.y.y.y.y.y.y.y.:.:.:.y.:.:.7.y.y.y.y.y.y.y.y.y.y.f.f.g.g.g.g.h.h.h.l.h.l.C.A.A.J.J.J.L.R.R.W.W.W.R.W.W.W.W.W.R.W.W.W.W.W.W.(.W.W.W.W.W.W.W.W.W.W.W.W.W.W.W.W.W.W.W.R.T.W.W.W.T.T.J.J.U.U.U.J.J.J.J.J.J.J.J.A.S.C.J.J.C.C.J.S.C.l.h.h.C.C.h.f.l.l.h.g.g.h.h.f.g.d.y.g.g.y.y.d.d.g.y.y.f.f.y.d.y.y.y.y.y.7.7.:.7.7.5.:.:.5.;.;.;.;.;.;.;.-.;.-.*.*.*.$.$.$.$.$.$.$.$.#.@.@.@.....@.@.@.| | | | | | | | | | | ' | | ' ' ' ' ` ` ` ` ` ` ` ( ( R R E E E E T T U G G F F F D D S Z Z M z k d a 0 7 4 e s.s.s.s.s.s.s.s.s.s.s.s.s.s.s.s.s.s.s.s.s.s.s.s.s.s.s.s.s.s.s.s.s.s.s.s.s.s.s.s.s.s.s.s.s.s.s.s.s.s.s.s.s.s.s.s.s.s.s.s.s.s.s.s.s.s.s.s.s.s.s.s.s.s.s.s.s.s.s.s.s.s.s.s.s.s.s.s.s.s.s.s.s.s.s.s.s.s.s.s.s.s.s.s.s.s.s.s.s.s.s.s.s.s.s.s.s.s.s.s.s.s.s.s.s.s.s.s.s.s.s.s.s.s.s.s.s.s.s.s.s.s.s.s.s.s.s.s.s.s.s.s.s.s.s.s.s.s.s.s.s.s.s.s.s.s.s.s.s.s.s.s.s.s.s.s.s.s.s.s.s.s.s.s.s.s.s.s.s.s.s.s.s.s.s.s.s.s.s.s.s.s.s.s.s.s.s.s.s.s.s.s.s.s.s.s.s.s.s.s.s.s.s.s.s.s.s.s.s.s.s.s.s.s.s.s.s.s.s.s.s.s.s.s.s.s.s.s.s.s.s.s.s.s.s.s.s.s.s.s.s.s.s.s.s.s.s.s.s.s.s.s.s.s.s.s.",
"s.s.s.s.s.s.s.s.s.s.s.s.s.s.s.s.s.s.s.s.s.s.s.s.( ` ' | ....#.$.$.-.;.;.:.:.:.7.y.y.y.y.y.y.y.y.y.y.y.y.y.d.y.d.f.y.d.d.d.g.g.g.g.g.g.f.f.f.f.f.f.g.g.g.g.g.d.y.y.y.y.y.y.y.y.y.y.y.:.:.y.:.:.:.:.y.y.y.y.y.y.y.y.y.y.y.f.f.f.g.g.h.h.h.l.l.l.A.A.C.J.J.J.Z.J.R.W.W.W.W.W.W.W.W.W.W.W.W.W.R.W.!.!.!./.(.W.W.W.W.W.W.!.W.W.W.W.W.W.L.R.W.W.W.T.T.T.T.W.W.U.J.U.T.J.J.J.J.A.J.J.J.J.S.S.J.S.C.C.C.C.l.l.l.h.C.S.l.h.h.h.h.g.f.d.g.g.g.g.d.g.h.g.d.g.g.y.y.y.y.y.y.y.d.y.y.y.y.7.7.5.7.7.5.:.:.5.:.;.-.;.-.;.*.*.*.;.*.*.*.$.$.$.$.$.$.#.#.#.#.#.#.@.@.@.@.@.| | ] | ' | ] | ' | | | | ' ' ' ` ` ` ( ` ` ` ` ` ( ( R R E E E T T T U G G F F F D S Z Z V M z k d y 9 6 1 e s.s.s.s.s.s.s.s.s.s.s.s.s.s.s.s.s.s.s.s.s.s.s.s.s.s.s.s.s.s.s.s.s.s.s.s.s.s.s.s.s.s.s.s.s.s.s.s.s.s.s.s.s.s.s.s.s.s.s.s.s.s.s.s.s.s.s.s.s.s.s.s.s.s.s.s.s.s.s.s.s.s.s.s.s.s.s.s.s.s.s.s.s.s.s.s.s.s.s.s.s.s.s.s.s.s.s.s.s.s.s.s.s.s.s.s.s.s.s.s.s.s.s.s.s.s.s.s.s.s.s.s.s.s.s.s.s.s.s.s.s.s.s.s.s.s.s.s.s.s.s.s.s.s.s.s.s.s.s.s.s.s.s.s.s.s.s.s.s.s.s.s.s.s.s.s.s.s.s.s.s.s.s.s.s.s.s.s.s.s.s.s.s.s.s.s.s.s.s.s.s.s.s.s.s.s.s.s.s.s.s.s.s.s.s.s.s.s.s.s.s.s.s.s.s.s.s.s.s.s.s.s.s.s.s.s.s.s.s.s.s.s.s.s.s.s.s.s.s.s.s.s.s.s.s.s.s.s.s.s.s.s.s.s.s.s.s.s.s.s.s.s.s.s.s.s.",
"s.s.s.s.s.s.s.s.s.s.s.s.s.s.s.s.s.s.s.s.s.s.s.( ( ( | | ....#.$.=.-.;.;.5.:.:.7.y.y.y.y.y.y.y.y.y.y.y.y.y.y.y.d.f.g.f.f.f.f.f.f.g.g.g.f.f.g.g.g.h.f.g.g.d.d.d.y.d.y.y.y.y.y.y.y.:.:.y.y.:.:.:.:.:.y.y.y.y.y.y.y.y.y.y.d.d.g.g.g.f.h.h.h.l.l.C.C.C.A.J.J.J.J.L.L.W.W.W.W.W.W.W.W.W.W.W.W.W.W.!.(./.!.!.!.!.!.!.W.W.W.W.W.W.W.W.W.W.W.W.W.W.W.W.U.W.W.W.W.T.W.T.U.U.J.J.J.J.W.U.U.J.J.C.C.J.C.S.S.l.C.C.l.l.l.l.h.f.h.h.l.l.h.g.h.g.g.g.g.d.f.h.h.g.y.y.y.:.y.y.y.y.y.y.y.y.y.y.7.7.7.y.7.7.:.:.:.;.;.;.;.;.*.*.*.*.*.*.*.$.$.$.$.$.$.#.#.#.@.#.#.@.@.@.....| | | | | | ' ' ' | | | ' ' ' ' ` ` ` ( ` ` ` ` ` ( ( ( E E E E T T U U G F F F D S S Z V V m z j d 0 7 6 1 u s.s.s.s.s.s.s.s.s.s.s.s.s.s.s.s.s.s.s.s.s.s.s.s.s.s.s.s.s.s.s.s.s.s.s.s.s.s.s.s.s.s.s.s.s.s.s.s.s.s.s.s.s.s.s.s.s.s.s.s.s.s.s.s.s.s.s.s.s.s.s.s.s.s.s.s.s.s.s.s.s.s.s.s.s.s.s.s.s.s.s.s.s.s.s.s.s.s.s.s.s.s.s.s.s.s.s.s.s.s.s.s.s.s.s.s.s.s.s.s.s.s.s.s.s.s.s.s.s.s.s.s.s.s.s.s.s.s.s.s.s.s.s.s.s.s.s.s.s.s.s.s.s.s.s.s.s.s.s.s.s.s.s.s.s.s.s.s.s.s.s.s.s.s.s.s.s.s.s.s.s.s.s.s.s.s.s.s.s.s.s.s.s.s.s.s.s.s.s.s.s.s.s.s.s.s.s.s.s.s.s.s.s.s.s.s.s.s.s.s.s.s.s.s.s.s.s.s.s.s.s.s.s.s.s.s.s.s.s.s.s.s.s.s.s.s.s.s.s.s.s.s.s.s.s.s.s.s.s.s.s.s.s.s.s.s.s.s.s.s.s.s.s.s.s.s.",
"s.s.s.s.s.s.s.s.s.s.s.s.s.s.s.s.s.s.s.s.s.s.s.( ` ` [ ..#.#.$.=.*.-.;.;.;.:.:.7.y.y.y.y.y.y.y.y.y.y.y.y.y.y.y.d.f.g.g.g.g.f.f.f.f.g.g.g.f.g.g.g.g.g.g.g.d.y.y.y.y.y.y.y.y.y.y.y.:.:.:.:.:.:.:.:.:.y.y.y.y.y.y.y.y.y.y.d.f.g.g.f.f.f.h.h.l.C.C.A.Z.A.J.J.J.L.L.R.W.R.W.W.W.W.(.!.W.W.W.W.W.W.!.(.(.W./.!.!.!.!.!.!.!.W.W.W.W.W.W.W.R.R.W.W.W.W.W.W.W.T.U.W.W.T.J.U.A.C.Z.J.J.J.W.W.J.C.J.J.C.C.C.C.C.l.l.l.C.l.h.g.h.l.l.l.h.g.h.g.f.g.f.f.f.d.h.f.y.d.y.:.y.y.y.y.y.y.y.y.y.y.y.7.y.7.7.5.:.;.;.;.;.-.;.;.;.;.*.*.*.*.*.$.$.$.$.$.#.#.#.@.@.#.#.@.@.......| ' | | | | | ' ' ' ' ' ' ' ' ` ` ` ( ( ` ` ` ` ( ( R E E E E E T U U G G F F F D S Z Z V V z k d a 0 7 2 6 s.s.s.s.s.s.s.s.s.s.s.s.s.s.s.s.s.s.s.s.s.s.s.s.s.s.s.s.s.s.s.s.s.s.s.s.s.s.s.s.s.s.s.s.s.s.s.s.s.s.s.s.s.s.s.s.s.s.s.s.s.s.s.s.s.s.s.s.s.s.s.s.s.s.s.s.s.s.s.s.s.s.s.s.s.s.s.s.s.s.s.s.s.s.s.s.s.s.s.s.s.s.s.s.s.s.s.s.s.s.s.s.s.s.s.s.s.s.s.s.s.s.s.s.s.s.s.s.s.s.s.s.s.s.s.s.s.s.s.s.s.s.s.s.s.s.s.s.s.s.s.s.s.s.s.s.s.s.s.s.s.s.s.s.s.s.s.s.s.s.s.s.s.s.s.s.s.s.s.s.s.s.s.s.s.s.s.s.s.s.s.s.s.s.s.s.s.s.s.s.s.s.s.s.s.s.s.s.s.s.s.s.s.s.s.s.s.s.s.s.s.s.s.s.s.s.s.s.s.s.s.s.s.s.s.s.s.s.s.s.s.s.s.s.s.s.s.s.s.s.s.s.s.s.s.s.s.s.s.s.s.s.s.s.s.s.s.s.s.s.s.s.s.s.s.s.s.",
"s.s.s.s.s.s.s.s.s.s.s.s.s.s.s.s.s.s.s.s.s.s.( ` ` ` | ..#.$.$.=.;.;.;.;.:.:.7.7.y.y.y.y.y.y.y.y.y.y.y.y.y.y.y.d.d.d.g.g.g.g.g.g.g.g.g.g.g.g.g.g.g.g.d.g.g.d.y.y.y.y.y.y.y.7.y.7.:.:.:.:.y.:.:.:.5.5.y.7.y.7.y.y.y.y.d.f.f.d.g.h.h.h.h.l.l.C.C.J.J.J.Z.J.J.J.R.R.R.R.W.W.W.W.W.W./.W.W.W.W.W.W.W.W.W././.W.W.W.!.!.!.!.W.W.W.W.W.W.R.J.W.W.W.W.W.!.W.U.T.W.T.U.J.J.J.J.Z.A.Z.W.T.J.J.J.J.C.C.S.S.l.l.l.l.l.C.l.h.g.h.h.l.l.l.d.h.h.f.h.h.f.f.f.f.f.g.y.y.y.y.y.y.y.y.y.y.y.y.y.7.5.y.y.7.:.;.;.;.;.;.*.;.;.;.;.*.*.*.*.*.$.$.$.$.$.#.#.@.@.#.#.#.@.........| | | | | | | ' ' ' ' ' ' ' ` ` ` ` ` ( ` ` ` ( ( W R E E E E T T U U G G F F F S Z Z Z V M z j d 0 0 7 4 e s.s.s.s.s.s.s.s.s.s.s.s.s.s.s.s.s.s.s.s.s.s.s.s.s.s.s.s.s.s.s.s.s.s.s.s.s.s.s.s.s.s.s.s.s.s.s.s.s.s.s.s.s.s.s.s.s.s.s.s.s.s.s.s.s.s.s.s.s.s.s.s.s.s.s.s.s.s.s.s.s.s.s.s.s.s.s.s.s.s.s.s.s.s.s.s.s.s.s.s.s.s.s.s.s.s.s.s.s.s.s.s.s.s.s.s.s.s.s.s.s.s.s.s.s.s.s.s.s.s.s.s.s.s.s.s.s.s.s.s.s.s.s.s.s.s.s.s.s.s.s.s.s.s.s.s.s.s.s.s.s.s.s.s.s.s.s.s.s.s.s.s.s.s.s.s.s.s.s.s.s.s.s.s.s.s.s.s.s.s.s.s.s.s.s.s.s.s.s.s.s.s.s.s.s.s.s.s.s.s.s.s.s.s.s.s.s.s.s.s.s.s.s.s.s.s.s.s.s.s.s.s.s.s.s.s.s.s.s.s.s.s.s.s.s.s.s.s.s.s.s.s.s.s.s.s.s.s.s.s.s.s.s.s.s.s.s.s.s.s.s.s.s.s.s.s.s.",
"s.s.s.s.s.s.s.s.s.s.s.s.s.s.s.s.s.s.s.s.s.s.( ` ' ' | | #.#.*.;.;.;.7.7.7.7.y.y.y.y.y.y.y.y.y.y.y.y.y.y.d.y.d.d.f.g.g.g.g.d.d.g.g.g.g.g.g.g.g.g.g.g.y.y.d.f.d.y.y.y.y.y.y.y.7.7.5.5.:.5.5.5.5.5.5.5.7.y.y.:.y.y.y.y.y.d.f.d.g.g.f.h.h.h.C.C.A.J.J.A.J.U.U.R.R.W.W.W.W.W.W.!.W.W.W.!.!.!.!.!.W.W.!.W.W.W.W.W.W.W.!.!.W.W.W.W.W.W.W.W.J.J.W.W.U.W.T.W.!.W.T.T.U.J.J.Z.J.A.A.J.J.J.J.J.U.J.A.J.C.C.C.l.l.l.l.l.h.f.g.f.l.l.l.l.l.l.h.f.h.g.d.y.g.g.d.f.d.y.y.y.y.7.y.y.y.y.y.y.y.:.:.7.7.7.5.;.;.;.;.;.;.;.;.;.*.*.*.$.$.*.$.*.*.$.$.$.$.#.#.@.@.#.@.........| ' ' | | | | | | | | ' ' ` ` ( ` ` ` ` ( ( ( ( E E E T E T T T T T U G G F F F S Z Z V M z z k d y 0 6 1 e s.s.s.s.s.s.s.s.s.s.s.s.s.s.s.s.s.s.s.s.s.s.s.s.s.s.s.s.s.s.s.s.s.s.s.s.s.s.s.s.s.s.s.s.s.s.s.s.s.s.s.s.s.s.s.s.s.s.s.s.s.s.s.s.s.s.s.s.s.s.s.s.s.s.s.s.s.s.s.s.s.s.s.s.s.s.s.s.s.s.s.s.s.s.s.s.s.s.s.s.s.s.s.s.s.s.s.s.s.s.s.s.s.s.s.s.s.s.s.s.s.s.s.s.s.s.s.s.s.s.s.s.s.s.s.s.s.s.s.s.s.s.s.s.s.s.s.s.s.s.s.s.s.s.s.s.s.s.s.s.s.s.s.s.s.s.s.s.s.s.s.s.s.s.s.s.s.s.s.s.s.s.s.s.s.s.s.s.s.s.s.s.s.s.s.s.s.s.s.s.s.s.s.s.s.s.s.s.s.s.s.s.s.s.s.s.s.s.s.s.s.s.s.s.s.s.s.s.s.s.s.s.s.s.s.s.s.s.s.s.s.s.s.s.s.s.s.s.s.s.s.s.s.s.s.s.s.s.s.s.s.s.s.s.s.s.s.s.s.s.s.s.s.s.s.s.s.",
"s.s.s.s.s.s.s.s.s.s.s.s.s.s.s.s.s.s.s.s.s.s._ [ | ....#.#.#.$.-.;.;.7.7.7.7.7.y.y.y.y.y.y.y.y.y.y.y.y.d.f.y.y.f.d.g.g.g.d.d.d.g.g.g.g.g.g.g.g.g.g.d.g.d.y.y.y.d.y.y.y.y.y.7.7.7.7.5.5.5.5.5.5.5.5.5.y.y.7.y.y.y.y.d.y.d.f.y.g.f.h.l.l.l.C.C.A.J.J.C.A.J.J.R.R.W.W.W.W.W.W.W.W.W.W.!.!.W.!.!.!.W.W.W.W.W.W.W.W.W.W.W.W.W.!.W.W.W.W.W.R.R.J.J.J.W.U.R.!.W.J.J.J.U.J.J.J.C.Z.J.J.J.J.J.C.J.J.S.C.C.C.l.h.h.h.l.h.f.h.h.l.h.f.h.h.h.h.f.h.f.y.y.y.g.y.y.f.u.y.y.y.y.y.y.y.y.7.y.y.:.;.7.7.7.7.;.;.;.;.;.-.-.;.;.*.$.*.*.$.$.*.$.$.$.#.$.*.#.@.@.@.#.@.........| | | | | | | ' ' | | ' ' ' ' ( ( ` ` ` ( ( ( ( / E E E T T T U U U T G F F F D S Z V V m z k f a 0 7 6 1 s s.s.s.s.s.s.s.s.s.s.s.s.s.s.s.s.s.s.s.s.s.s.s.s.s.s.s.s.s.s.s.s.s.s.s.s.s.s.s.s.s.s.s.s.s.s.s.s.s.s.s.s.s.s.s.s.s.s.s.s.s.s.s.s.s.s.s.s.s.s.s.s.s.s.s.s.s.s.s.s.s.s.s.s.s.s.s.s.s.s.s.s.s.s.s.s.s.s.s.s.s.s.s.s.s.s.s.s.s.s.s.s.s.s.s.s.s.s.s.s.s.s.s.s.s.s.s.s.s.s.s.s.s.s.s.s.s.s.s.s.s.s.s.s.s.s.s.s.s.s.s.s.s.s.s.s.s.s.s.s.s.s.s.s.s.s.s.s.s.s.s.s.s.s.s.s.s.s.s.s.s.s.s.s.s.s.s.s.s.s.s.s.s.s.s.s.s.s.s.s.s.s.s.s.s.s.s.s.s.s.s.s.s.s.s.s.s.s.s.s.s.s.s.s.s.s.s.s.s.s.s.s.s.s.s.s.s.s.s.s.s.s.s.s.s.s.s.s.s.s.s.s.s.s.s.s.s.s.s.s.s.s.s.s.s.s.s.s.s.s.s.s.s.s.s.s.s.",
"s.s.s.s.s.s.s.s.s.s.s.s.s.s.s.s.s.s.s.s.s.R _ ( | | ..#.#.$.*.-.;.:.7.7.7.y.y.y.y.y.y.y.y.y.y.y.y.y.y.d.y.y.y.d.f.f.g.g.d.d.d.d.g.g.g.g.g.g.g.f.g.d.g.g.y.f.d.y.y.y.y.y.y.7.7.5.5.5.5.5.5.7.5.5.5.:.7.y.7.y.y.y.y.f.f.f.f.d.g.f.h.l.l.C.C.C.A.J.J.C.J.J.U.R.W.W.!.W.W.W.W.~.W.W.W.W.W.W.W.W.!.!.W.!.!.(././.W.W.W.!.W.W.W.W.W.W.W.W.R.R.R.R.T.U.W.W.W.U.J.J.U.U.U.A.A.A.J.J.J.J.J.A.C.A.J.S.S.J.C.C.C.l.h.h.h.g.f.h.l.h.f.f.h.h.h.h.h.h.f.y.y.y.y.y.y.f.d.y.y.y.y.y.y.y.7.5.t.t.:.5.5.7.;.;.;.;.;.;.*.*.-.;.*.*.*.$.$.*.$.$.$.#.#.#.$.#.@.@.@.#.@.........| | ' ' | ' ' ' ' | ' ` ' ' ( ( ( ` ` ` ( ( ( ( / E T T T T T U U G U G F F F S Z V V V m z k d a 0 8 4 1 s.s.s.s.s.s.s.s.s.s.s.s.s.s.s.s.s.s.s.s.s.s.s.s.s.s.s.s.s.s.s.s.s.s.s.s.s.s.s.s.s.s.s.s.s.s.s.s.s.s.s.s.s.s.s.s.s.s.s.s.s.s.s.s.s.s.s.s.s.s.s.s.s.s.s.s.s.s.s.s.s.s.s.s.s.s.s.s.s.s.s.s.s.s.s.s.s.s.s.s.s.s.s.s.s.s.s.s.s.s.s.s.s.s.s.s.s.s.s.s.s.s.s.s.s.s.s.s.s.s.s.s.s.s.s.s.s.s.s.s.s.s.s.s.s.s.s.s.s.s.s.s.s.s.s.s.s.s.s.s.s.s.s.s.s.s.s.s.s.s.s.s.s.s.s.s.s.s.s.s.s.s.s.s.s.s.s.s.s.s.s.s.s.s.s.s.s.s.s.s.s.s.s.s.s.s.s.s.s.s.s.s.s.s.s.s.s.s.s.s.s.s.s.s.s.s.s.s.s.s.s.s.s.s.s.s.s.s.s.s.s.s.s.s.s.s.s.s.s.s.s.s.s.s.s.s.s.s.s.s.s.s.s.s.s.s.s.s.s.s.s.s.s.s.s.s.s.s.",
"s.s.s.s.s.s.s.s.s.s.s.s.s.s.s.s.s.s.s.s.s.E / ` | | ..$.*.$.*.;.;.:.7.y.7.y.y.y.y.y.y.y.y.y.y.y.y.y.y.d.f.d.y.d.f.f.g.d.d.d.d.g.g.g.g.g.g.g.g.g.g.d.g.f.d.f.d.y.y.y.y.y.7.5.7.5.5.:.5.7.5.5.5.5.:.5.7.y.y.y.y.y.y.y.d.f.f.g.g.h.h.l.h.l.C.C.A.A.J.J.J.T.W.R.W.W.W.W.W.W.W.(.!.W.!.!./.!.!.!.(.!.!.!.!.!.(.!.!.W.W.W.W.W.W.W.W.W.W.W.W.R.J.J.W.W.R.W.W.J.J.J.U.U.J.J.J.Z.A.Z.J.J.A.l.A.C.C.C.J.J.C.C.S.C.l.l.l.h.f.f.h.f.f.f.h.h.f.f.g.g.g.g.y.y.y.g.y.y.y.y.y.y.y.y.y.y.5.;.;.:.:.5.7.5.;.;.;.;.;.;.*.-.;.*.*.*.*.*.;.*.$.#.#.#.#.#.#.#.@.@.@.@.@.........| | ' ' ' ' ' ' ' | ' ` ` ` ( ( ( ` ` ( ( ( / / R E T T T T T U U G U G F F S S Z V V V m z j d a 0 7 1 e s.s.s.s.s.s.s.s.s.s.s.s.s.s.s.s.s.s.s.s.s.s.s.s.s.s.s.s.s.s.s.s.s.s.s.s.s.s.s.s.s.s.s.s.s.s.s.s.s.s.s.s.s.s.s.s.s.s.s.s.s.s.s.s.s.s.s.s.s.s.s.s.s.s.s.s.s.s.s.s.s.s.s.s.s.s.s.s.s.s.s.s.s.s.s.s.s.s.s.s.s.s.s.s.s.s.s.s.s.s.s.s.s.s.s.s.s.s.s.s.s.s.s.s.s.s.s.s.s.s.s.s.s.s.s.s.s.s.s.s.s.s.s.s.s.s.s.s.s.s.s.s.s.s.s.s.s.s.s.s.s.s.s.s.s.s.s.s.s.s.s.s.s.s.s.s.s.s.s.s.s.s.s.s.s.s.s.s.s.s.s.s.s.s.s.s.s.s.s.s.s.s.s.s.s.s.s.s.s.s.s.s.s.s.s.s.s.s.s.s.s.s.s.s.s.s.s.s.s.s.s.s.s.s.s.s.s.s.s.s.s.s.s.s.s.s.s.s.s.s.s.s.s.s.s.s.s.s.s.s.s.s.s.s.s.s.s.s.s.s.s.s.s.s.s.s.s.s.",
"s.s.s.s.s.s.s.s.s.s.s.s.s.s.s.s.s.s.s.s.W ( ( ( | ..#.#.$.$.*.-.;.:.7.y.7.y.y.y.y.y.y.y.y.y.y.y.y.y.y.d.y.d.d.d.d.f.g.g.g.d.d.g.g.y.g.g.d.g.g.g.g.y.y.d.d.f.y.y.y.y.y.y.7.7.7.5.5.:.5.5.:.:.:.:.:.y.7.y.y.y.y.y.y.y.y.y.f.f.f.h.h.l.l.C.A.A.A.J.J.J.U.W.W.R.W.W.W.!.W.W.!.~.!.!.(.!.!.W.W.!.W.!.!.W.!.W.!.!.!.W.W.R.W.W.W.W.W.W.W.W.W.R.J.R.W.T.W.U.J.J.J.J.A.J.W.J.J.A.A.J.W.U.J.C.C.C.C.h.S.C.S.l.l.C.l.S.l.h.h.f.h.h.l.h.h.h.f.g.f.g.d.d.y.y.y.y.y.y.y.y.y.y.:.y.y.7.7.:.-.:.5.5.;.5.7.;.;.;.;.-.-.-.;.*.*.*.*.*.*.*.$.$.$.$.#.#.#.#.#.@.@.......| | ..| ' ' ' ' ' ' ' ' ' ' ` ` ` ( ( ( ( ( ( / ( ( / / E T T T T T U U U G F F D S Z Z V V M z k j a 0 9 6 1 r s.s.s.s.s.s.s.s.s.s.s.s.s.s.s.s.s.s.s.s.s.s.s.s.s.s.s.s.s.s.s.s.s.s.s.s.s.s.s.s.s.s.s.s.s.s.s.s.s.s.s.s.s.s.s.s.s.s.s.s.s.s.s.s.s.s.s.s.s.s.s.s.s.s.s.s.s.s.s.s.s.s.s.s.s.s.s.s.s.s.s.s.s.s.s.s.s.s.s.s.s.s.s.s.s.s.s.s.s.s.s.s.s.s.s.s.s.s.s.s.s.s.s.s.s.s.s.s.s.s.s.s.s.s.s.s.s.s.s.s.s.s.s.s.s.s.s.s.s.s.s.s.s.s.s.s.s.s.s.s.s.s.s.s.s.s.s.s.s.s.s.s.s.s.s.s.s.s.s.s.s.s.s.s.s.s.s.s.s.s.s.s.s.s.s.s.s.s.s.s.s.s.s.s.s.s.s.s.s.s.s.s.s.s.s.s.s.s.s.s.s.s.s.s.s.s.s.s.s.s.s.s.s.s.s.s.s.s.s.s.s.s.s.s.s.s.s.s.s.s.s.s.s.s.s.s.s.s.s.s.s.s.s.s.s.s.s.s.s.s.s.s.s.s.s.s.s.s.",
"s.s.s.s.s.s.s.s.s.s.s.s.s.s.s.s.s.s.s.s.( ` ` ' | | #.*.*.*.*.;.;.7.y.y.y.y.y.y.y.y.y.y.y.y.y.y.y.y.d.y.d.d.d.d.y.y.g.g.g.d.d.g.g.y.g.g.g.g.g.g.g.d.d.y.y.y.y.y.y.y.y.y.:.7.7.5.5.:.5.:.;.;.;.:.5.7.7.7.y.y.y.y.y.y.d.y.f.f.h.h.h.C.l.A.J.A.A.J.J.U.W.W.W.R.!.!.W.W.W.W.!.W.W.W.(.!.W.W.W.W.W.W.!.!.!.!.W.!.W.W.W.W.W.W.W.R.W.W.R.W.W.W.R.W.T.U.U.W.J.J.J.U.A.J.J.J.J.J.J.J.U.J.U.J.J.A.A.C.S.l.C.l.C.l.C.l.h.g.g.h.g.f.f.g.g.f.g.g.g.g.d.y.y.y.y.y.y.y.y.y.y.y.y.y.y.y.5.5.;.:.:.5.;.7.7.:.;.;.*.;.;.;.;.*.*.*.*.*.$.*.$.$.#.#.#.#.#.#.#.@.@...@.....] | | ' ' ' ' ' ' ' ' ' ' ` ` ` ( ( ( ( ( ( ( ( / / R E T T T T U U U G G F F D S Z V V m m z f d a 0 9 7 1 u s.s.s.s.s.s.s.s.s.s.s.s.s.s.s.s.s.s.s.s.s.s.s.s.s.s.s.s.s.s.s.s.s.s.s.s.s.s.s.s.s.s.s.s.s.s.s.s.s.s.s.s.s.s.s.s.s.s.s.s.s.s.s.s.s.s.s.s.s.s.s.s.s.s.s.s.s.s.s.s.s.s.s.s.s.s.s.s.s.s.s.s.s.s.s.s.s.s.s.s.s.s.s.s.s.s.s.s.s.s.s.s.s.s.s.s.s.s.s.s.s.s.s.s.s.s.s.s.s.s.s.s.s.s.s.s.s.s.s.s.s.s.s.s.s.s.s.s.s.s.s.s.s.s.s.s.s.s.s.s.s.s.s.s.s.s.s.s.s.s.s.s.s.s.s.s.s.s.s.s.s.s.s.s.s.s.s.s.s.s.s.s.s.s.s.s.s.s.s.s.s.s.s.s.s.s.s.s.s.s.s.s.s.s.s.s.s.s.s.s.s.s.s.s.s.s.s.s.s.s.s.s.s.s.s.s.s.s.s.s.s.s.s.s.s.s.s.s.s.s.s.s.s.s.s.s.s.s.s.s.s.s.s.s.s.s.s.s.s.s.s.s.s.s.s.s.s.s.",
"s.s.s.s.s.s.s.s.s.s.s.s.s.s.s.s.s.s.s.W ( ` ' ' | | $.*.*.*.;.;.;.5.y.y.y.y.y.y.y.y.y.y.y.y.y.y.y.y.d.d.f.d.d.f.y.d.g.g.g.d.d.g.g.y.g.g.g.g.g.g.g.d.y.y.y.y.y.y.y.y.y.7.7.7.7.5.7.;.:.:.;.;.;.:.7.7.7.7.7.y.y.y.y.y.f.f.h.g.h.h.h.l.l.C.J.J.J.J.J.U.U.W.W.W.W.!.!.!.!.W.W.W.W.W.(.!.W.W.W.!.!.!.!.W.W.!.(.!.W.W.!.W.W.W.W.W.R.R.R.W.W.W.W.W.J.U.T.W.T.U.U.U.J.J.J.J.J.J.J.U.J.J.J.A.J.J.J.l.C.C.J.l.l.l.l.h.h.g.g.g.g.g.g.g.g.f.f.g.g.g.g.y.y.y.y.y.y.y.y.y.y.y.y.y.y.7.7.7.:.:.:.5.;.7.7.:.;.;.;.;.;.;.*.*.*.*.*.*.*.*.$.$.#.#.#.#.#.#.#.#.........] ] ] ' ' ' ' ' ' ' ' ' ' ' ` ` ( ( / ( ( ( ( / / / / / T T T T U U G G G F F F D S Z Z V m m k j d a 0 7 4 1 s.s.s.s.s.s.s.s.s.s.s.s.s.s.s.s.s.s.s.s.s.s.s.s.s.s.s.s.s.s.s.s.s.s.s.s.s.s.s.s.s.s.s.s.s.s.s.s.s.s.s.s.s.s.s.s.s.s.s.s.s.s.s.s.s.s.s.s.s.s.s.s.s.s.s.s.s.s.s.s.s.s.s.s.s.s.s.s.s.s.s.s.s.s.s.s.s.s.s.s.s.s.s.s.s.s.s.s.s.s.s.s.s.s.s.s.s.s.s.s.s.s.s.s.s.s.s.s.s.s.s.s.s.s.s.s.s.s.s.s.s.s.s.s.s.s.s.s.s.s.s.s.s.s.s.s.s.s.s.s.s.s.s.s.s.s.s.s.s.s.s.s.s.s.s.s.s.s.s.s.s.s.s.s.s.s.s.s.s.s.s.s.s.s.s.s.s.s.s.s.s.s.s.s.s.s.s.s.s.s.s.s.s.s.s.s.s.s.s.s.s.s.s.s.s.s.s.s.s.s.s.s.s.s.s.s.s.s.s.s.s.s.s.s.s.s.s.s.s.s.s.s.s.s.s.s.s.s.s.s.s.s.s.s.s.s.s.s.s.s.s.s.s.s.s.s.s.s.s.",
"s.s.s.s.s.s.s.s.s.s.s.s.s.s.s.s.s.s.s.R ( ` ' | | ..$.;.=.;.;.;.;.7.y.y.y.y.y.y.y.y.y.y.y.y.y.y.y.d.f.g.g.d.f.d.d.d.g.g.g.d.d.g.g.d.g.g.g.g.g.g.g.y.y.y.y.y.y.y.y.y.y.7.7.7.7.5.:.;.:.:.;.;.:.5.7.5.5.5.7.y.7.y.y.d.h.f.h.h.h.h.l.C.C.A.J.A.J.J.U.U.W.W.W.W.W.W.!.W.!.!.!.W.W.W.(.(./.W.!.!.W.!.!.!.!.!.W.W.!.!.!.W.W.W.W.W.L.L.R.W.W.W.W.W.W.!.W.J.U.W.J.J.J.A.A.C.C.A.C.A.J.J.J.C.J.A.J.S.J.J.J.l.l.l.l.l.h.h.g.g.f.g.g.g.g.h.h.h.g.g.g.d.y.y.y.y.y.y.g.y.y.y.e.y.y.y.y.y.:.;.:.:.;.7.7.;.;.;.;.;.;.;.*.*.*.*.*.*.*.*.$.#.#.#.#.#.#.#.#.@.........] ] ] ' ' ' ' ' ' ' ' ' ' ` ` ` ( ( / ( ( ( ( / / / E E T T T T U U G G G F F F D S Z V V m m k j d y 9 6 4 7 s.s.s.s.s.s.s.s.s.s.s.s.s.s.s.s.s.s.s.s.s.s.s.s.s.s.s.s.s.s.s.s.s.s.s.s.s.s.s.s.s.s.s.s.s.s.s.s.s.s.s.s.s.s.s.s.s.s.s.s.s.s.s.s.s.s.s.s.s.s.s.s.s.s.s.s.s.s.s.s.s.s.s.s.s.s.s.s.s.s.s.s.s.s.s.s.s.s.s.s.s.s.s.s.s.s.s.s.s.s.s.s.s.s.s.s.s.s.s.s.s.s.s.s.s.s.s.s.s.s.s.s.s.s.s.s.s.s.s.s.s.s.s.s.s.s.s.s.s.s.s.s.s.s.s.s.s.s.s.s.s.s.s.s.s.s.s.s.s.s.s.s.s.s.s.s.s.s.s.s.s.s.s.s.s.s.s.s.s.s.s.s.s.s.s.s.s.s.s.s.s.s.s.s.s.s.s.s.s.s.s.s.s.s.s.s.s.s.s.s.s.s.s.s.s.s.s.s.s.s.s.s.s.s.s.s.s.s.s.s.s.s.s.s.s.s.s.s.s.s.s.s.s.s.s.s.s.s.s.s.s.s.s.s.s.s.s.s.s.s.s.s.s.s.s.s.s.s.s.",
"s.s.s.s.s.s.s.s.s.s.s.s.s.s.s.s.s.s.s.| ` ` ' | ..#.$.*.-.;.;.7.7.:.7.y.y.y.r.r.y.y.y.y.y.y.y.y.y.y.y.y.d.d.y.d.g.d.g.g.g.g.g.g.g.g.g.g.g.g.g.d.y.d.y.y.y.y.y.y.7.7.7.5.5.5.:.;.;.;.;.;.;.5.:.5.7.7.7.y.7.y.y.y.y.d.g.h.h.h.h.l.C.l.A.A.J.J.J.U.W.W.!.!.W.W.W.W.!.!./.!.W.W.(.(.(.(././.!.^.^.(.(./.W.W.W.W.W.W.W.W.W.W.R.R.R.R.W.W.W.W.J.W.W.W.W.W.U.W.W.J.J.A.J.A.A.A.A.A.A.J.A.J.U.J.J.S.J.C.J.J.l.l.C.h.h.h.h.h.h.f.d.d.f.g.h.g.g.g.g.g.y.y.g.g.y.y.r.y.y.y.7.;.5.y.5.5.:.:.;.:.:.;.7.:.;.:.;.;.;.;.;.$.;.;.=.=.$.$.*.$.$.$.$.#.#.#.#...| | | | | ' | | ' ' ` ' ' ' ' ' ' ` ` ` ( ( ( ( / / / / E E E E R R E T T T U U U G F F D Z V V B m z k d a 9 7 6 , y s.s.s.s.s.s.s.s.s.s.s.s.s.s.s.s.s.s.s.s.s.s.s.s.s.s.s.s.s.s.s.s.s.s.s.s.s.s.s.s.s.s.s.s.s.s.s.s.s.s.s.s.s.s.s.s.s.s.s.s.s.s.s.s.s.s.s.s.s.s.s.s.s.s.s.s.s.s.s.s.s.s.s.s.s.s.s.s.s.s.s.s.s.s.s.s.s.s.s.s.s.s.s.s.s.s.s.s.s.s.s.s.s.s.s.s.s.s.s.s.s.s.s.s.s.s.s.s.s.s.s.s.s.s.s.s.s.s.s.s.s.s.s.s.s.s.s.s.s.s.s.s.s.s.s.s.s.s.s.s.s.s.s.s.s.s.s.s.s.s.s.s.s.s.s.s.s.s.s.s.s.s.s.s.s.s.s.s.s.s.s.s.s.s.s.s.s.s.s.s.s.s.s.s.s.s.s.s.s.s.s.s.s.s.s.s.s.s.s.s.s.s.s.s.s.s.s.s.s.s.s.s.s.s.s.s.s.s.s.s.s.s.s.s.s.s.s.s.s.s.s.s.s.s.s.s.s.s.s.s.s.s.s.s.s.s.s.s.s.s.s.s.s.s.s.s.s.s.s.",
"s.s.s.s.s.s.s.s.s.s.s.s.s.s.s.s.s.s.[ ( ' ` | ..#.#.$.$.-.;.:.:.7.7.7.y.y.y.r.r.y.y.y.y.y.y.y.y.y.y.y.d.g.d.y.d.g.d.g.g.g.g.g.g.g.g.g.g.g.y.g.d.y.y.y.y.y.y.y.r.y.7.5.5.5.:.:.;.;.;.;.;.;.:.5.5.7.:.7.y.y.y.y.y.f.y.d.h.h.h.h.l.C.C.J.J.J.U.U.W.W.W.W.W.W.W.W.!.W.W.!.!.W.W./.(.!./.!./.(.!.!.!.!.(.W.W.W././.W.W.W.W.W.W.W.R.R.W.W.R.R.L.W.W.R.T.!.T.T.J.J.J.A.J.J.A.A.J.J.A.C.J.U.U.J.A.S.S.S.S.C.l.h.h.l.h.f.h.h.h.h.g.g.g.g.g.g.g.g.g.g.g.y.g.y.y.y.y.y.y.y.y.7.5.5.7.5.;.;.:.;.;.:.7.:.;.;.;.;.;.;.;.=.=.=.=.=.$.$.*.$.$.$.#.#.#.#.#...| | | | | | | ' ' ' ' ' ` ` ` ` ' ' ` ` ( ( ( / / / E E E E E E E E E T T T U G U P F D D Z V V m m z j d 0 9 7 4 4 s.s.s.s.s.s.s.s.s.s.s.s.s.s.s.s.s.s.s.s.s.s.s.s.s.s.s.s.s.s.s.s.s.s.s.s.s.s.s.s.s.s.s.s.s.s.s.s.s.s.s.s.s.s.s.s.s.s.s.s.s.s.s.s.s.s.s.s.s.s.s.s.s.s.s.s.s.s.s.s.s.s.s.s.s.s.s.s.s.s.s.s.s.s.s.s.s.s.s.s.s.s.s.s.s.s.s.s.s.s.s.s.s.s.s.s.s.s.s.s.s.s.s.s.s.s.s.s.s.s.s.s.s.s.s.s.s.s.s.s.s.s.s.s.s.s.s.s.s.s.s.s.s.s.s.s.s.s.s.s.s.s.s.s.s.s.s.s.s.s.s.s.s.s.s.s.s.s.s.s.s.s.s.s.s.s.s.s.s.s.s.s.s.s.s.s.s.s.s.s.s.s.s.s.s.s.s.s.s.s.s.s.s.s.s.s.s.s.s.s.s.s.s.s.s.s.s.s.s.s.s.s.s.s.s.s.s.s.s.s.s.s.s.s.s.s.s.s.s.s.s.s.s.s.s.s.s.s.s.s.s.s.s.s.s.s.s.s.s.s.s.s.s.s.s.s.s.s.s.s.",
"s.s.s.s.s.s.s.s.s.s.s.s.s.s.s.s.s.s.W [ ' | | #.#.#.$.*.;.;.:.7.7.7.y.y.y.y.r.r.y.y.y.y.y.y.d.d.d.y.f.g.g.d.y.d.g.f.g.d.g.g.g.g.g.g.g.g.g.y.g.d.y.y.y.y.y.y.y.r.:.7.5.:.:.;.;.;.;.;.;.;.;.:.:.5.7.7.7.y.y.y.y.y.d.g.g.h.h.h.h.l.C.C.A.J.J.W.W.W.W.T.W.W.W.W.W.!.!.W./.(.!.(.(.(.(.(.(././.^.(.^.!.!.W.W.W.W.W.W.W.!.W.W.R.W.W.W.R.R.R.R.J.J.R.W.W.!.T.W.W.J.J.A.A.J.J.A.J.J.U.J.A.A.J.A.C.C.C.S.C.l.h.f.h.C.h.g.h.h.h.h.h.f.d.g.d.g.d.d.g.g.g.g.g.y.y.y.y.y.y.y.y.y.5.5.7.:.:.:.:.;.;.5.7.;.;.;.;.;.;.*.-.=.=.=.=.=.$.$.*.$.$.#.#.#.#.........| | | | | | ' ' ' ' ` ` ` ` ` ' ' ` ( ( ( ( / / E E E E E T T E T T T T U G G U F D S S V V V m z j d d 0 9 7 4 4 s.s.s.s.s.s.s.s.s.s.s.s.s.s.s.s.s.s.s.s.s.s.s.s.s.s.s.s.s.s.s.s.s.s.s.s.s.s.s.s.s.s.s.s.s.s.s.s.s.s.s.s.s.s.s.s.s.s.s.s.s.s.s.s.s.s.s.s.s.s.s.s.s.s.s.s.s.s.s.s.s.s.s.s.s.s.s.s.s.s.s.s.s.s.s.s.s.s.s.s.s.s.s.s.s.s.s.s.s.s.s.s.s.s.s.s.s.s.s.s.s.s.s.s.s.s.s.s.s.s.s.s.s.s.s.s.s.s.s.s.s.s.s.s.s.s.s.s.s.s.s.s.s.s.s.s.s.s.s.s.s.s.s.s.s.s.s.s.s.s.s.s.s.s.s.s.s.s.s.s.s.s.s.s.s.s.s.s.s.s.s.s.s.s.s.s.s.s.s.s.s.s.s.s.s.s.s.s.s.s.s.s.s.s.s.s.s.s.s.s.s.s.s.s.s.s.s.s.s.s.s.s.s.s.s.s.s.s.s.s.s.s.s.s.s.s.s.s.s.s.s.s.s.s.s.s.s.s.s.s.s.s.s.s.s.s.s.s.s.s.s.s.s.s.s.s.s.s.s.s.",
"s.s.s.s.s.s.s.s.s.s.s.s.s.s.s.s.s.R ( ` ' | @.#.$.$.$.*.;.;.:.7.7.7.7.y.y.y.y.r.y.y.y.y.y.g.d.g.g.g.g.g.g.y.y.d.g.d.g.g.g.g.g.g.g.g.g.g.g.d.g.d.y.d.y.y.y.y.y.r.:.:.:.:.:.;.;.;.;.;.;.;.:.:.:.5.7.7.7.y.y.y.f.y.y.g.g.h.h.h.h.C.C.A.J.J.J.U.R.R.W.J.W.W.W.W.W.!./.!.!.(././.(./.!.(.(.W.W.(.(.(.!.W.W.W.!.!.!.W.W.W.W.W.W.~.R.W.!.W.R.L.J.U.W.W.W.!.W.W.T.J.U.A.A.J.U.J.J.J.C.C.J.J.J.J.J.C.C.J.C.l.h.h.h.l.l.l.h.h.h.h.g.d.y.g.g.g.d.y.g.f.g.d.g.y.y.y.y.y.y.y.y.y.5.7.5.5.:.:.5.;.;.:.;.;.;.;.;.;.;.-.*.;.=.=.=.$.$.$.*.$.#.#.#.#.......| | | | | | | | ' ' ' ' ( ( ( ( ` ` ` ( ( ( ( ( / E E E E E E T T T T T T U U G G P D D S D V M M m z j d a 0 9 4 < 7 s.s.s.s.s.s.s.s.s.s.s.s.s.s.s.s.s.s.s.s.s.s.s.s.s.s.s.s.s.s.s.s.s.s.s.s.s.s.s.s.s.s.s.s.s.s.s.s.s.s.s.s.s.s.s.s.s.s.s.s.s.s.s.s.s.s.s.s.s.s.s.s.s.s.s.s.s.s.s.s.s.s.s.s.s.s.s.s.s.s.s.s.s.s.s.s.s.s.s.s.s.s.s.s.s.s.s.s.s.s.s.s.s.s.s.s.s.s.s.s.s.s.s.s.s.s.s.s.s.s.s.s.s.s.s.s.s.s.s.s.s.s.s.s.s.s.s.s.s.s.s.s.s.s.s.s.s.s.s.s.s.s.s.s.s.s.s.s.s.s.s.s.s.s.s.s.s.s.s.s.s.s.s.s.s.s.s.s.s.s.s.s.s.s.s.s.s.s.s.s.s.s.s.s.s.s.s.s.s.s.s.s.s.s.s.s.s.s.s.s.s.s.s.s.s.s.s.s.s.s.s.s.s.s.s.s.s.s.s.s.s.s.s.s.s.s.s.s.s.s.s.s.s.s.s.s.s.s.s.s.s.s.s.s.s.s.s.s.s.s.s.s.s.s.s.s.s.s.s.s.",
"s.s.s.s.s.s.s.s.s.s.s.s.s.s.s.s.s.W W ) | | #.$.$.$.*.*.;.:.:.7.:.7.y.7.y.y.r.y.y.y.y.y.y.y.d.y.y.y.f.f.f.d.g.f.g.f.f.g.g.d.d.g.g.g.g.y.d.d.d.y.d.y.y.y.y.y.y.y.y.:.:.:.:.;.;.;.;.;.;.;.;.:.:.5.5.7.y.7.y.f.f.d.d.f.f.h.h.l.h.l.C.A.J.J.U.U.U.U.W.W.W.W.W.W.W.W.!.(.(.(././.W.W./.(.(.!.W.(.(.(.(./.!.W.W.W.W.W.W.W.W.W.W.~.R.R.R.W.W.R.J.U.W.W.T.W.W.A.A.J.J.J.J.J.U.C.A.J.U.A.A.J.C.J.J.C.C.h.C.l.h.l.l.l.l.l.h.h.h.f.g.g.y.d.y.y.y.y.d.g.g.d.y.g.y.y.y.y.y.y.y.7.7.5.:.:.:.;.:.:.;.:.7.;.;.;.;.-.;.;.;.$.=.=.$.$.=.$.$.$.$.#.#.#.#.#.#.| | | ' ' | ' ' ' ' ' ) ` ( ( ` ( ( ` ( ( ( ( / / E E E E E E T T T T T T T G G F F D D S Z V V m z j j a y 9 7 4 < y s.s.s.s.s.s.s.s.s.s.s.s.s.s.s.s.s.s.s.s.s.s.s.s.s.s.s.s.s.s.s.s.s.s.s.s.s.s.s.s.s.s.s.s.s.s.s.s.s.s.s.s.s.s.s.s.s.s.s.s.s.s.s.s.s.s.s.s.s.s.s.s.s.s.s.s.s.s.s.s.s.s.s.s.s.s.s.s.s.s.s.s.s.s.s.s.s.s.s.s.s.s.s.s.s.s.s.s.s.s.s.s.s.s.s.s.s.s.s.s.s.s.s.s.s.s.s.s.s.s.s.s.s.s.s.s.s.s.s.s.s.s.s.s.s.s.s.s.s.s.s.s.s.s.s.s.s.s.s.s.s.s.s.s.s.s.s.s.s.s.s.s.s.s.s.s.s.s.s.s.s.s.s.s.s.s.s.s.s.s.s.s.s.s.s.s.s.s.s.s.s.s.s.s.s.s.s.s.s.s.s.s.s.s.s.s.s.s.s.s.s.s.s.s.s.s.s.s.s.s.s.s.s.s.s.s.s.s.s.s.s.s.s.s.s.s.s.s.s.s.s.s.s.s.s.s.s.s.s.s.s.s.s.s.s.s.s.s.s.s.s.s.s.s.s.s.s.s.s.s.",
"s.s.s.s.s.s.s.s.s.s.s.s.s.s.s.s.s.( ( ' ' | #.$.$.$.*.*.:.:.:.7.y.y.y.7.y.y.y.y.y.y.y.y.y.d.y.d.y.y.g.g.d.d.g.g.g.g.g.g.g.g.d.y.d.g.g.y.d.d.y.y.y.y.y.y.y.y.y.:.7.7.5.;.:.;.;.;.;.;.;.;.;.;.;.5.y.5.y.y.u.f.f.d.g.g.f.h.l.l.l.l.l.J.J.U.J.T.T.T.W.W.W.W.W.W.W.!.!.!.!.W./.W.(.(.(.W.!.!./.!.^.(.!.!.W.W.W.W.W.W.W.!.W.!.W.W.W.R.W.W.W.J.J.W.W.T.W.W.W.J.A.J.J.J.W.J.C.C.A.J.A.J.A.C.A.J.A.l.C.l.C.C.h.h.l.l.l.h.h.h.l.l.f.g.g.g.f.d.y.y.y.y.d.y.y.y.y.y.y.y.y.7.7.7.7.5.;.:.y.:.7.:.;.:.5.;.;.;.;.-.;.;.*.$.$.=.=.$.$.$.$.$.$.#.#.#.#.#...| | | | | | ' ' ' ' ' ' ( ( ' ( ( ( ( ( ( ( ( / E E E E E E E E T T T T T U G F F D D D S Z V M m z k d a y 9 7 1 1 s.s.s.s.s.s.s.s.s.s.s.s.s.s.s.s.s.s.s.s.s.s.s.s.s.s.s.s.s.s.s.s.s.s.s.s.s.s.s.s.s.s.s.s.s.s.s.s.s.s.s.s.s.s.s.s.s.s.s.s.s.s.s.s.s.s.s.s.s.s.s.s.s.s.s.s.s.s.s.s.s.s.s.s.s.s.s.s.s.s.s.s.s.s.s.s.s.s.s.s.s.s.s.s.s.s.s.s.s.s.s.s.s.s.s.s.s.s.s.s.s.s.s.s.s.s.s.s.s.s.s.s.s.s.s.s.s.s.s.s.s.s.s.s.s.s.s.s.s.s.s.s.s.s.s.s.s.s.s.s.s.s.s.s.s.s.s.s.s.s.s.s.s.s.s.s.s.s.s.s.s.s.s.s.s.s.s.s.s.s.s.s.s.s.s.s.s.s.s.s.s.s.s.s.s.s.s.s.s.s.s.s.s.s.s.s.s.s.s.s.s.s.s.s.s.s.s.s.s.s.s.s.s.s.s.s.s.s.s.s.s.s.s.s.s.s.s.s.s.s.s.s.s.s.s.s.s.s.s.s.s.s.s.s.s.s.s.s.s.s.s.s.s.s.s.s.s.s.s.s.s.",
"s.s.s.s.s.s.s.s.s.s.s.s.s.s.s.s.{ ` ' ` | ..#.$.$.$.*.-.:.:.7.7.7.y.y.y.y.y.y.y.y.y.y.y.y.d.d.d.d.y.g.g.d.d.g.g.g.g.g.g.f.d.y.y.y.g.g.g.y.y.y.y.y.y.y.y.y.y.y.:.:.:.;.;.;.;.;.;.;.;.;.;.;.;.;.5.y.y.y.y.y.f.f.y.g.g.g.l.C.C.l.l.C.A.U.T.J.T.W.!.W.!.W.W.W.W.!.!.!.W.!.!.!.(.(.(.(.!.(.(.(.W.!.(.(.(.W.W.R.!.!.W.W.!.W.W.W.W.R.L.W.J.J.W.W.W.!.!.W.W.T.U.J.J.J.J.J.J.C.A.U.J.C.C.C.C.U.J.C.C.l.S.C.C.h.h.l.h.h.h.h.h.h.l.h.g.g.g.f.g.d.y.g.y.y.y.y.y.y.y.y.y.y.y.y.7.5.7.5.:.y.:.7.:.;.:.5.;.;.;.;.-.;.;.*.$.*.=.=.$.$.$.$.$.$.#.#.#.#.#...| | | | | | ' ' ' ' ' ' ( ( ( ( ( ( ( ( ( ( / / E E E E E E E E T T T U U G G F F D D S Z Z V m z k j d y 0 7 6 < 7 s.s.s.s.s.s.s.s.s.s.s.s.s.s.s.s.s.s.s.s.s.s.s.s.s.s.s.s.s.s.s.s.s.s.s.s.s.s.s.s.s.s.s.s.s.s.s.s.s.s.s.s.s.s.s.s.s.s.s.s.s.s.s.s.s.s.s.s.s.s.s.s.s.s.s.s.s.s.s.s.s.s.s.s.s.s.s.s.s.s.s.s.s.s.s.s.s.s.s.s.s.s.s.s.s.s.s.s.s.s.s.s.s.s.s.s.s.s.s.s.s.s.s.s.s.s.s.s.s.s.s.s.s.s.s.s.s.s.s.s.s.s.s.s.s.s.s.s.s.s.s.s.s.s.s.s.s.s.s.s.s.s.s.s.s.s.s.s.s.s.s.s.s.s.s.s.s.s.s.s.s.s.s.s.s.s.s.s.s.s.s.s.s.s.s.s.s.s.s.s.s.s.s.s.s.s.s.s.s.s.s.s.s.s.s.s.s.s.s.s.s.s.s.s.s.s.s.s.s.s.s.s.s.s.s.s.s.s.s.s.s.s.s.s.s.s.s.s.s.s.s.s.s.s.s.s.s.s.s.s.s.s.s.s.s.s.s.s.s.s.s.s.s.s.s.s.s.s.s.s.s.",
"s.s.s.s.s.s.s.s.s.s.s.s.s.s.s.s.R ( ' ` ....#.$.$.*.;.;.:.:.7.7.y.y.y.y.y.r.r.y.y.y.y.y.y.y.y.y.y.d.d.f.g.d.g.g.g.g.f.g.g.y.y.y.d.g.g.g.y.y.y.y.y.y.r.r.y.y.5.:.:.:.;.;.;.;.-.-.;.;.;.:.;.:.:.5.5.y.y.y.u.y.y.g.g.h.h.l.l.l.l.C.A.C.J.U.J.J.T.W.W.W.!.!.W.W.!.!.W.W.!.!.(.(.(./.(././././.!.^.^.(.(.W.W.W.!.!.W.W.W.W.W.!.W.W.R.W.R.R.R.W.W.W.W.W.W.R.W.U.A.J.T.U.W.A.A.U.J.A.l.A.J.W.J.C.C.h.C.C.h.h.l.l.l.h.h.h.h.f.f.h.f.g.g.g.g.y.y.y.y.d.d.y.y.y.y.y.y.7.7.5.5.;.5.7.5.:.;.;.;.;.:.5.;.;.;.;.-.;.;.*.;.*.*.*.$.$.$.$.$.#.#.#.#.#.....| | | | | | ' ' | ' ' ' ( ( ( ( ( ( ( ( / ( / / E E E E T E E E T T T U G G G F D D D A Z Z M m z k d d y 0 7 6 1 e s.s.s.s.s.s.s.s.s.s.s.s.s.s.s.s.s.s.s.s.s.s.s.s.s.s.s.s.s.s.s.s.s.s.s.s.s.s.s.s.s.s.s.s.s.s.s.s.s.s.s.s.s.s.s.s.s.s.s.s.s.s.s.s.s.s.s.s.s.s.s.s.s.s.s.s.s.s.s.s.s.s.s.s.s.s.s.s.s.s.s.s.s.s.s.s.s.s.s.s.s.s.s.s.s.s.s.s.s.s.s.s.s.s.s.s.s.s.s.s.s.s.s.s.s.s.s.s.s.s.s.s.s.s.s.s.s.s.s.s.s.s.s.s.s.s.s.s.s.s.s.s.s.s.s.s.s.s.s.s.s.s.s.s.s.s.s.s.s.s.s.s.s.s.s.s.s.s.s.s.s.s.s.s.s.s.s.s.s.s.s.s.s.s.s.s.s.s.s.s.s.s.s.s.s.s.s.s.s.s.s.s.s.s.s.s.s.s.s.s.s.s.s.s.s.s.s.s.s.s.s.s.s.s.s.s.s.s.s.s.s.s.s.s.s.s.s.s.s.s.s.s.s.s.s.s.s.s.s.s.s.s.s.s.s.s.s.s.s.s.s.s.s.s.s.s.s.s.s.s.s.",
"s.s.s.s.s.s.s.s.s.s.s.s.s.s.s.Q ` ( ` ..#.#.$.$.*.-.;.;.:.:.7.7.y.y.y.y.y.y.y.y.y.y.y.d.y.y.d.f.y.f.g.g.g.d.d.d.d.g.d.d.g.g.g.g.g.y.g.g.y.f.f.f.y.y.y.y.y.5.5.:.5.;.;.;.;.-.-.-.-.;.;.;.;.:.7.7.y.y.y.y.y.y.y.g.h.h.h.C.C.C.l.C.J.J.J.J.R.J.R.W.W.W.W.W.W.W.W.W.W.!.W.W.!.W./.!./.(.!.W./.!.!.!.(.!.!.!.!./.!.W.W.!./.W.W.W.R.L.L.J.J.J.W.W.W.W.W.W.W.U.J.J.J.W.J.J.A.A.J.J.A.C.J.J.J.S.S.J.l.l.l.l.h.h.l.C.h.h.V.C.f.g.h.h.h.f.f.h.f.f.d.d.d.y.y.y.y.y.y.y.7.7.5.5.5.;.;.7.7.5.;.;.;.5.5.2.;.;.=.=.=.=.=.$.$.$.$.$.$.$.#.#.#.#.#.#.#.......| | | | ' ' ' ' ' ' ` ` ` ` ` ` ` ( ( ( ( / R R E T T T T T T T T U G G F F F D Z Z Z V V M z h k j d q 7 7 1 < r s.s.s.s.s.s.s.s.s.s.s.s.s.s.s.s.s.s.s.s.s.s.s.s.s.s.s.s.s.s.s.s.s.s.s.s.s.s.s.s.s.s.s.s.s.s.s.s.s.s.s.s.s.s.s.s.s.s.s.s.s.s.s.s.s.s.s.s.s.s.s.s.s.s.s.s.s.s.s.s.s.s.s.s.s.s.s.s.s.s.s.s.s.s.s.s.s.s.s.s.s.s.s.s.s.s.s.s.s.s.s.s.s.s.s.s.s.s.s.s.s.s.s.s.s.s.s.s.s.s.s.s.s.s.s.s.s.s.s.s.s.s.s.s.s.s.s.s.s.s.s.s.s.s.s.s.s.s.s.s.s.s.s.s.s.s.s.s.s.s.s.s.s.s.s.s.s.s.s.s.s.s.s.s.s.s.s.s.s.s.s.s.s.s.s.s.s.s.s.s.s.s.s.s.s.s.s.s.s.s.s.s.s.s.s.s.s.s.s.s.s.s.s.s.s.s.s.s.s.s.s.s.s.s.s.s.s.s.s.s.s.s.s.s.s.s.s.s.s.s.s.s.s.s.s.s.s.s.s.s.s.s.s.s.s.s.s.s.s.s.s.s.s.s.s.s.s.s.s.s.s.",
"s.s.s.s.s.s.s.s.s.s.s.s.s.s.s.( / ( ' X.#.#.$.$.*.;.;.;.;.:.7.7.y.7.y.y.y.y.y.y.y.y.y.d.y.y.f.y.y.d.g.g.g.y.d.d.d.d.g.g.d.g.g.g.g.d.g.y.y.d.f.d.d.y.y.:.7.7.:.;.;.;.;.;.*.-.;.;.;.;.;.;.:.5.5.y.y.y.y.y.y.y.f.f.h.h.h.C.C.C.C.A.J.J.J.J.U.J.J.J.R.W.W.W.W.!.!.W.W./.!.W.W.(.!.!.!.!.!.!.(.W.!.(.!.!.!.!.!.(.!.!.W.W.W.R.R.R.J.L.J.J.J.J.W.W.T.W.W.W.T.T.T.J.J.W.U.J.C.A.J.U.A.C.C.A.J.S.J.C.l.C.C.l.h.h.l.l.h.h.M.l.f.h.h.f.f.f.h.f.f.f.f.f.d.y.y.y.d.d.y.y.7.7.7.:.:.:.5.5.7.5.;.;.:.:.;.;.;.=.=.=.;.=.;.$.#.$.$.$.$.#.#.#.#.#.#.#.......| | | | ' ' ' ' ' ' ' ` ` ` ` ` ( ( ( ( ( / / / E T T T T T T T U U U G G F F D D S Z Z V V M z z j d a 0 6 6 1 < s.s.s.s.s.s.s.s.s.s.s.s.s.s.s.s.s.s.s.s.s.s.s.s.s.s.s.s.s.s.s.s.s.s.s.s.s.s.s.s.s.s.s.s.s.s.s.s.s.s.s.s.s.s.s.s.s.s.s.s.s.s.s.s.s.s.s.s.s.s.s.s.s.s.s.s.s.s.s.s.s.s.s.s.s.s.s.s.s.s.s.s.s.s.s.s.s.s.s.s.s.s.s.s.s.s.s.s.s.s.s.s.s.s.s.s.s.s.s.s.s.s.s.s.s.s.s.s.s.s.s.s.s.s.s.s.s.s.s.s.s.s.s.s.s.s.s.s.s.s.s.s.s.s.s.s.s.s.s.s.s.s.s.s.s.s.s.s.s.s.s.s.s.s.s.s.s.s.s.s.s.s.s.s.s.s.s.s.s.s.s.s.s.s.s.s.s.s.s.s.s.s.s.s.s.s.s.s.s.s.s.s.s.s.s.s.s.s.s.s.s.s.s.s.s.s.s.s.s.s.s.s.s.s.s.s.s.s.s.s.s.s.s.s.s.s.s.s.s.s.s.s.s.s.s.s.s.s.s.s.s.s.s.s.s.s.s.s.s.s.s.s.s.s.s.s.s.s.s.s.s.s.",
"s.s.s.s.s.s.s.s.s.s.s.s.s.s.K ` ( ( | #.#.#.$.$.;.:.;.;.:.:.7.7.7.y.y.y.y.y.y.y.y.y.d.d.d.y.y.y.d.d.g.g.g.y.d.d.d.d.g.g.d.g.g.g.g.d.g.d.y.d.d.d.y.y.:.:.5.:.5.;.;.;.;.;.-.*.;.;.;.;.;.;.:.7.7.5.y.y.y.y.y.f.f.h.h.h.l.C.A.A.A.A.A.J.J.U.T.J.J.J.J.W.W.W.W.!.!.W.W.!.!.W.W./.!.!./.(././.!.!.!.!.!.!.!.!.!.!.W.W.W.W.~.R.J.L.J.R.J.J.J.J.R.U.T.T.R.J.J.J.J.U.J.W.W.U.J.J.J.J.C.h.C.C.C.S.J.l.h.l.l.C.C.h.h.h.h.h.h.h.g.g.g.d.f.d.h.f.f.f.f.f.d.y.y.y.d.y.y.y.7.7.7.5.;.5.5.;.:.;.;.;.:.;.;.;.;.;.2.;.;.=.$.$.$.$.$.$.$.$.#.#.#.............| | | | ' ' ' ' ' ` ' ` ` ` ( ( ` ( ( / ( / / / E T T T T T T T U G G G G F F D S S Z V V V m h z d d y 0 9 6 < 5 s.s.s.s.s.s.s.s.s.s.s.s.s.s.s.s.s.s.s.s.s.s.s.s.s.s.s.s.s.s.s.s.s.s.s.s.s.s.s.s.s.s.s.s.s.s.s.s.s.s.s.s.s.s.s.s.s.s.s.s.s.s.s.s.s.s.s.s.s.s.s.s.s.s.s.s.s.s.s.s.s.s.s.s.s.s.s.s.s.s.s.s.s.s.s.s.s.s.s.s.s.s.s.s.s.s.s.s.s.s.s.s.s.s.s.s.s.s.s.s.s.s.s.s.s.s.s.s.s.s.s.s.s.s.s.s.s.s.s.s.s.s.s.s.s.s.s.s.s.s.s.s.s.s.s.s.s.s.s.s.s.s.s.s.s.s.s.s.s.s.s.s.s.s.s.s.s.s.s.s.s.s.s.s.s.s.s.s.s.s.s.s.s.s.s.s.s.s.s.s.s.s.s.s.s.s.s.s.s.s.s.s.s.s.s.s.s.s.s.s.s.s.s.s.s.s.s.s.s.s.s.s.s.s.s.s.s.s.s.s.s.s.s.s.s.s.s.s.s.s.s.s.s.s.s.s.s.s.s.s.s.s.s.s.s.s.s.s.s.s.s.s.s.s.s.s.s.s.s.s.s.s.",
"s.s.s.s.s.s.s.s.s.s.s.s.s.s.W ( ' ( | #.*.*.$.*.;.:.;.;.:.:.7.7.y.y.y.y.y.y.y.y.y.y.y.y.d.f.y.y.d.d.f.g.g.y.d.d.d.g.y.y.g.g.g.g.g.d.g.d.y.y.y.y.y.y.y.y.7.;.;.;.;.;.-.;.*.*.;.;.;.;.;.;.;.7.y.7.y.y.y.y.y.g.f.h.l.l.l.C.C.C.Z.J.A.C.J.W.W.W.W.R.R.W.W.W.W.W.W.W.W.(.W.W.W.W.(.(./.W./.(.!.!.W.W.(.!.!.!.!.!.W.W.W.W.W.R.R.R.W.W.W.R.L.L.W.T.U.W.U.U.U.U.J.J.A.J.T.J.C.C.C.C.C.A.C.C.C.C.J.l.C.J.C.l.l.l.h.l.h.h.h.h.g.h.g.f.f.f.f.f.f.f.f.f.d.y.y.y.y.y.y.y.7.y.7.7.;.:.:.;.:.:.;.:.:.;.;.;.;.;.;.;.=.=.;.$.$.$.#.#.$.$.#.#...............| | | | | ' ' ' ' ' ' ` ` ( ( ( ( ( ( ( / / E / E T T T T T T T U U G G F F F S D Z Z Z V V z k k j d y 9 7 4 , e s.s.s.s.s.s.s.s.s.s.s.s.s.s.s.s.s.s.s.s.s.s.s.s.s.s.s.s.s.s.s.s.s.s.s.s.s.s.s.s.s.s.s.s.s.s.s.s.s.s.s.s.s.s.s.s.s.s.s.s.s.s.s.s.s.s.s.s.s.s.s.s.s.s.s.s.s.s.s.s.s.s.s.s.s.s.s.s.s.s.s.s.s.s.s.s.s.s.s.s.s.s.s.s.s.s.s.s.s.s.s.s.s.s.s.s.s.s.s.s.s.s.s.s.s.s.s.s.s.s.s.s.s.s.s.s.s.s.s.s.s.s.s.s.s.s.s.s.s.s.s.s.s.s.s.s.s.s.s.s.s.s.s.s.s.s.s.s.s.s.s.s.s.s.s.s.s.s.s.s.s.s.s.s.s.s.s.s.s.s.s.s.s.s.s.s.s.s.s.s.s.s.s.s.s.s.s.s.s.s.s.s.s.s.s.s.s.s.s.s.s.s.s.s.s.s.s.s.s.s.s.s.s.s.s.s.s.s.s.s.s.s.s.s.s.s.s.s.s.s.s.s.s.s.s.s.s.s.s.s.s.s.s.s.s.s.s.s.s.s.s.s.s.s.s.s.s.s.s.s.s.s.",
"s.s.s.s.s.s.s.s.s.s.s.s.s.s.[ ` ` ' | #.*.*.=.;.;.:.;.;.:.7.7.y.y.y.y.y.y.y.y.y.y.y.y.y.y.y.y.y.d.y.d.d.g.d.d.g.g.g.g.d.g.g.d.y.g.d.d.y.y.d.y.y.y.y.y.y.7.;.;.;.;.;.-.;.-.-.;.;.;.*.;.;.5.7.5.7.y.y.g.g.f.h.h.l.l.l.C.A.J.J.Z.J.J.U.J.U.W.W.W.W.W.W.W.!.W./.!.!.(.!.(./.W.!.!.(.(././.(.(.(./././././.(.!.!.^.W.W.W.W.W.W.W.W.W.R.R.R.R.R.R.U.J.W.J.U.U.J.U.J.W.T.J.A.C.C.C.l.C.J.A.J.J.J.C.C.C.C.l.l.h.l.C.h.h.h.h.f.g.g.f.f.f.f.f.f.f.f.f.d.y.y.y.y.y.d.y.;.7.7.7.5.7.5.;.5.7.:.;.:.;.;.;.2.;.;.;.$.$.$.$.$.$.#.$.$.#.#.#.#...........| | | ' ' ' | ' ' ' ' ' ` ` ` ` / ( ( ( ( / / E E E T T T T T T U U G G F F F D D D Z V Z V M z h d d y 0 9 7 1 , s.s.s.s.s.s.s.s.s.s.s.s.s.s.s.s.s.s.s.s.s.s.s.s.s.s.s.s.s.s.s.s.s.s.s.s.s.s.s.s.s.s.s.s.s.s.s.s.s.s.s.s.s.s.s.s.s.s.s.s.s.s.s.s.s.s.s.s.s.s.s.s.s.s.s.s.s.s.s.s.s.s.s.s.s.s.s.s.s.s.s.s.s.s.s.s.s.s.s.s.s.s.s.s.s.s.s.s.s.s.s.s.s.s.s.s.s.s.s.s.s.s.s.s.s.s.s.s.s.s.s.s.s.s.s.s.s.s.s.s.s.s.s.s.s.s.s.s.s.s.s.s.s.s.s.s.s.s.s.s.s.s.s.s.s.s.s.s.s.s.s.s.s.s.s.s.s.s.s.s.s.s.s.s.s.s.s.s.s.s.s.s.s.s.s.s.s.s.s.s.s.s.s.s.s.s.s.s.s.s.s.s.s.s.s.s.s.s.s.s.s.s.s.s.s.s.s.s.s.s.s.s.s.s.s.s.s.s.s.s.s.s.s.s.s.s.s.s.s.s.s.s.s.s.s.s.s.s.s.s.s.s.s.s.s.s.s.s.s.s.s.s.s.s.s.s.s.s.s.s.s.s.s.",
"s.s.s.s.s.s.s.s.s.s.s.s.s.A E [ ' | ..#.*.*.;.;.;.;.:.;.:.7.y.y.y.y.y.y.y.y.y.y.y.y.y.y.y.d.d.d.d.y.d.g.g.d.d.g.g.d.g.g.g.g.g.d.g.d.y.y.y.y.y.y.y.y.y.7.:.;.;.;.;.*.*.*.;.;.;.;.;.;.;.;.:.7.7.y.y.y.g.g.f.f.l.l.l.C.C.J.A.A.A.J.J.W.T.T.T.W.W.W.W.W.W.W.!.W.W.!.W.(././.(./.W.!.W.(.!.!.!././.(.(.!.W.W.!.!.!.W.W.W.W.R.W.W.W.!.W.W.W.U.U.W.W.W.J.J.W.U.U.J.A.J.J.J.A.C.A.C.C.C.C.C.C.C.S.A.C.C.h.h.l.h.h.l.h.h.h.h.g.g.g.f.f.f.f.f.f.f.h.d.y.f.d.y.y.y.y.y.5.5.y.y.5.5.:.;.:.:.;.;.:.:.:.5.;.;.;.$.$.$.$.=.$.$.$.$.#.#.#...#.#.........| ' | ' ' ' ' ' ' ' ' ` ` ` ( ( ( ( ( ( / / / / E T T T T U T U G G F F F F D D S S Z V V M M z k d d y 0 7 6 5 5 s.s.s.s.s.s.s.s.s.s.s.s.s.s.s.s.s.s.s.s.s.s.s.s.s.s.s.s.s.s.s.s.s.s.s.s.s.s.s.s.s.s.s.s.s.s.s.s.s.s.s.s.s.s.s.s.s.s.s.s.s.s.s.s.s.s.s.s.s.s.s.s.s.s.s.s.s.s.s.s.s.s.s.s.s.s.s.s.s.s.s.s.s.s.s.s.s.s.s.s.s.s.s.s.s.s.s.s.s.s.s.s.s.s.s.s.s.s.s.s.s.s.s.s.s.s.s.s.s.s.s.s.s.s.s.s.s.s.s.s.s.s.s.s.s.s.s.s.s.s.s.s.s.s.s.s.s.s.s.s.s.s.s.s.s.s.s.s.s.s.s.s.s.s.s.s.s.s.s.s.s.s.s.s.s.s.s.s.s.s.s.s.s.s.s.s.s.s.s.s.s.s.s.s.s.s.s.s.s.s.s.s.s.s.s.s.s.s.s.s.s.s.s.s.s.s.s.s.s.s.s.s.s.s.s.s.s.s.s.s.s.s.s.s.s.s.s.s.s.s.s.s.s.s.s.s.s.s.s.s.s.s.s.s.s.s.s.s.s.s.s.s.s.s.s.s.s.s.s.s.s.s.s.",
"s.s.s.s.s.s.s.s.s.s.s.s.s.W ( ' | | ..$.*.*.;.;.;.;.:.;.:.7.y.y.y.y.y.y.y.y.y.y.y.d.y.y.y.y.d.d.d.g.g.g.g.d.g.g.g.g.g.g.g.g.g.g.g.g.d.y.d.y.y.y.y.y.7.:.:.;.-.;.;.*.*.*.*.;.;.;.;.;.:.;.:.5.y.y.y.y.g.h.f.h.l.l.C.C.C.J.J.A.A.J.J.W.W.W.W.W.W.W.W.W.W.W.!.W.W.!.W.W.W.W.!.(.W.W.W./.!.!.!.!.W.W.W.W.W.W.W.!.W.(.W.~.W.W.W.W.!.!.!.W.R.U.U.U.W.W.U.J.T.U.J.A.C.J.J.J.J.A.J.C.C.C.C.C.C.C.C.C.C.l.h.h.h.h.g.l.l.l.h.h.f.f.h.f.f.f.f.f.f.f.f.f.y.y.y.y.y.y.y.y.5.:.7.y.7.5.:.7.:.;.;.:.7.;.;.;.;.=.$.$.$.$.$.$.$.$.#.$.#.#.$.#.#.#.........| | | ' ' ' ' ' ` ` ` ` ` ` ( ( ( / / / / / E E E T E T T G U G G G F F F F D S Z Z Z V V m z z k d d 0 0 6 4 , 5 s.s.s.s.s.s.s.s.s.s.s.s.s.s.s.s.s.s.s.s.s.s.s.s.s.s.s.s.s.s.s.s.s.s.s.s.s.s.s.s.s.s.s.s.s.s.s.s.s.s.s.s.s.s.s.s.s.s.s.s.s.s.s.s.s.s.s.s.s.s.s.s.s.s.s.s.s.s.s.s.s.s.s.s.s.s.s.s.s.s.s.s.s.s.s.s.s.s.s.s.s.s.s.s.s.s.s.s.s.s.s.s.s.s.s.s.s.s.s.s.s.s.s.s.s.s.s.s.s.s.s.s.s.s.s.s.s.s.s.s.s.s.s.s.s.s.s.s.s.s.s.s.s.s.s.s.s.s.s.s.s.s.s.s.s.s.s.s.s.s.s.s.s.s.s.s.s.s.s.s.s.s.s.s.s.s.s.s.s.s.s.s.s.s.s.s.s.s.s.s.s.s.s.s.s.s.s.s.s.s.s.s.s.s.s.s.s.s.s.s.s.s.s.s.s.s.s.s.s.s.s.s.s.s.s.s.s.s.s.s.s.s.s.s.s.s.s.s.s.s.s.s.s.s.s.s.s.s.s.s.s.s.s.s.s.s.s.s.s.s.s.s.s.s.s.s.s.s.s.s.s.s.s.",
"s.s.s.s.s.s.s.s.s.s.s.s.s.( ( ..| | #.$.*.-.;.;.;.:.:.:.:.7.y.y.y.y.d.f.d.y.y.y.y.y.y.y.y.y.d.d.y.g.g.f.g.d.d.g.d.y.g.d.y.g.g.g.g.y.y.y.y.y.y.y.y.7.:.:.;.;.;.-.*.*.*.*.*.;.*.-.;.;.:.:.7.5.y.y.y.y.g.h.f.h.l.l.C.C.S.J.J.A.J.J.J.J.W.W.!.W.T.W.W.W.W.!.W.(.!.!.(.W.(.(.!.!.W.W.W.W.W.!.(.(./.W.W.W.W.!.W.!.!.(./.!.W.W.W.W.W.W.W.U.R.R.R.U.U.J.J.J.W.U.W.J.J.J.J.A.J.J.A.l.C.A.A.C.J.J.C.l.h.l.l.l.l.g.h.l.l.l.h.h.f.h.h.h.f.f.f.f.d.f.f.f.y.y.y.y.y.y.y.y.:.:.5.7.7.5.;.5.;.;.;.;.;.;.;.;.=.=.$.$.$.$.$.$.$.$.#.#.#.#.$.#.#.#...........| | ' ' | ' ' ` ` ' ` ` ( ( ( / / / / / / E E E T E T T U G G F F F F F D S S Z Z V Z V z z k f d y 0 0 7 6 , y s.s.s.s.s.s.s.s.s.s.s.s.s.s.s.s.s.s.s.s.s.s.s.s.s.s.s.s.s.s.s.s.s.s.s.s.s.s.s.s.s.s.s.s.s.s.s.s.s.s.s.s.s.s.s.s.s.s.s.s.s.s.s.s.s.s.s.s.s.s.s.s.s.s.s.s.s.s.s.s.s.s.s.s.s.s.s.s.s.s.s.s.s.s.s.s.s.s.s.s.s.s.s.s.s.s.s.s.s.s.s.s.s.s.s.s.s.s.s.s.s.s.s.s.s.s.s.s.s.s.s.s.s.s.s.s.s.s.s.s.s.s.s.s.s.s.s.s.s.s.s.s.s.s.s.s.s.s.s.s.s.s.s.s.s.s.s.s.s.s.s.s.s.s.s.s.s.s.s.s.s.s.s.s.s.s.s.s.s.s.s.s.s.s.s.s.s.s.s.s.s.s.s.s.s.s.s.s.s.s.s.s.s.s.s.s.s.s.s.s.s.s.s.s.s.s.s.s.s.s.s.s.s.s.s.s.s.s.s.s.s.s.s.s.s.s.s.s.s.s.s.s.s.s.s.s.s.s.s.s.s.s.s.s.s.s.s.s.s.s.s.s.s.s.s.s.s.s.s.s.s.s.s.",
"s.s.s.s.s.s.s.s.s.s.s.s.R ( ` | | #.#.$.*.;.;.;.;.:.:.7.7.y.y.y.y.y.y.y.y.y.y.y.y.d.d.d.d.g.g.g.g.d.g.f.g.g.h.f.g.g.g.g.g.g.d.y.y.d.y.y.y.y.y.y.7.7.5.:.;.*.*.*.$.$.$.*.;.;.;.-.;.;.:.:.y.y.y.y.g.d.g.h.h.h.l.C.C.J.J.J.J.J.R.L.W.W.W.W.T.W.W.W.W.W.!.!.!.^.!.^.!.^.!.^.^.(.!.!.W.!.!.^.(.(./.!.!.W.W.!./.!.!./.!.W.W.W.R.W.W.J.R.R.R.R.R.R.W.L.L.J.L.R.J.U.W.W.U.U.J.J.A.J.A.T.J.C.C.C.l.l.l.l.l.l.h.d.f.h.l.l.h.h.l.f.h.f.f.f.f.f.f.f.f.y.y.y.y.y.e.y.7.y.7.y.5.y.5.:.:.7.;.:.;.5.5.;.;.=.=.$.$.$.$.#.#.$.$.$.#.#.#.#.#.#.......| | | | | | | | | ' ' ' ` ` ` ( ( ( ( ( / / E E E E E E E T U U G G G F F F F F S D Z Z Z V M M z z k d a y 9 7 4 1 , s.s.s.s.s.s.s.s.s.s.s.s.s.s.s.s.s.s.s.s.s.s.s.s.s.s.s.s.s.s.s.s.s.s.s.s.s.s.s.s.s.s.s.s.s.s.s.s.s.s.s.s.s.s.s.s.s.s.s.s.s.s.s.s.s.s.s.s.s.s.s.s.s.s.s.s.s.s.s.s.s.s.s.s.s.s.s.s.s.s.s.s.s.s.s.s.s.s.s.s.s.s.s.s.s.s.s.s.s.s.s.s.s.s.s.s.s.s.s.s.s.s.s.s.s.s.s.s.s.s.s.s.s.s.s.s.s.s.s.s.s.s.s.s.s.s.s.s.s.s.s.s.s.s.s.s.s.s.s.s.s.s.s.s.s.s.s.s.s.s.s.s.s.s.s.s.s.s.s.s.s.s.s.s.s.s.s.s.s.s.s.s.s.s.s.s.s.s.s.s.s.s.s.s.s.s.s.s.s.s.s.s.s.s.s.s.s.s.s.s.s.s.s.s.s.s.s.s.s.s.s.s.s.s.s.s.s.s.s.s.s.s.s.s.s.s.s.s.s.s.s.s.s.s.s.s.s.s.s.s.s.s.s.s.s.s.s.s.s.s.s.s.s.s.s.s.s.s.s.s.s.s.s.s.",
"s.s.s.s.s.s.s.s.s.s.s.s.W ( ' | @.#.$.$.*.;.;.;.:.:.:.7.7.y.y.r.r.y.y.y.y.y.y.y.d.d.y.y.f.d.g.g.g.d.g.g.g.f.h.f.g.g.g.g.g.d.y.y.y.y.y.y.y.y.r.7.5.7.:.;.;.*.*.*.*.*.*.-.;.;.=.-.-.:.:.r.y.y.y.y.g.g.h.h.l.l.l.C.C.A.C.A.J.J.U.J.W.W.W.W.W.W.W.W.W.!.!.!.^.^.^.^.^.!.(.(.!.^.!.^.!.^.!.!.(.(.(.(.!.!.!.!./.!.W.!.W.W.W.W.W.R.W.W.J.R.R.R.L.Z.L.L.R.J.Z.Z.J.L.J.W.U.J.J.J.J.C.C.U.J.C.C.h.C.l.h.h.h.h.l.f.f.h.h.l.h.h.h.f.h.h.h.f.f.f.f.f.f.y.y.y.y.y.:.y.:.y.y.5.:.:.:.:.7.7.-.;.-.;.5.;.5.;.$.$.$.$.$.$.$.$.$.$.$.#.#.#.#.#.......| | | | | | | | ' ' ' ` ` ` ( ( ( ( ( / E E E E E E E E E T T U U G F F F F F D D S Z Z V V V m z k k d a y 9 7 6 , < s.s.s.s.s.s.s.s.s.s.s.s.s.s.s.s.s.s.s.s.s.s.s.s.s.s.s.s.s.s.s.s.s.s.s.s.s.s.s.s.s.s.s.s.s.s.s.s.s.s.s.s.s.s.s.s.s.s.s.s.s.s.s.s.s.s.s.s.s.s.s.s.s.s.s.s.s.s.s.s.s.s.s.s.s.s.s.s.s.s.s.s.s.s.s.s.s.s.s.s.s.s.s.s.s.s.s.s.s.s.s.s.s.s.s.s.s.s.s.s.s.s.s.s.s.s.s.s.s.s.s.s.s.s.s.s.s.s.s.s.s.s.s.s.s.s.s.s.s.s.s.s.s.s.s.s.s.s.s.s.s.s.s.s.s.s.s.s.s.s.s.s.s.s.s.s.s.s.s.s.s.s.s.s.s.s.s.s.s.s.s.s.s.s.s.s.s.s.s.s.s.s.s.s.s.s.s.s.s.s.s.s.s.s.s.s.s.s.s.s.s.s.s.s.s.s.s.s.s.s.s.s.s.s.s.s.s.s.s.s.s.s.s.s.s.s.s.s.s.s.s.s.s.s.s.s.s.s.s.s.s.s.s.s.s.s.s.s.s.s.s.s.s.s.s.s.s.s.s.s.s.s.s.s.",
"s.s.s.s.s.s.s.s.s.s.s.C ( ` ' | ..#.$.*.;.;.;.:.7.7.7.y.y.r.r.y.r.y.y.y.y.y.y.y.d.d.y.y.d.y.y.y.y.d.d.d.g.f.h.f.g.g.g.g.g.y.y.y.y.y.y.y.y.r.r.:.:.5.;.;.;.*.*.*.*.*.*.*.=.=.=.;.;.5.y.y.y.y.y.g.f.h.h.l.l.l.l.C.C.J.A.A.A.J.W.W.W.W.W.W.W.W.W.W.W.!.W.!.^.^.!.(.^.!.(.(.!.^.!.^.!.^.!.!.(.!.(.(.!.!.!.!.W./.W.!.W.W.W.W.W.W.R.W.R.R.R.L.L.Z.Z.J.J.J.Z.C.J.J.U.U.U.J.J.J.C.C.A.J.C.h.l.C.l.h.h.h.h.h.l.h.h.h.h.g.h.h.h.g.h.f.f.f.f.f.y.f.h.y.y.y.y.y.:.y.:.y.5.5.7.7.7.:.:.;.$.;.;.5.5.;.5.;.$.$.$.$.$.$.$.$.$.$.$.#.#.#.#.#.........| ' ' | | ' ' ' ` ` ` ` ( ( ( ( ( ( / E E E E E T T T T T U G G G F F F F D D S Z V V V V M z z k f a y 0 9 6 4 < 7 s.s.s.s.s.s.s.s.s.s.s.s.s.s.s.s.s.s.s.s.s.s.s.s.s.s.s.s.s.s.s.s.s.s.s.s.s.s.s.s.s.s.s.s.s.s.s.s.s.s.s.s.s.s.s.s.s.s.s.s.s.s.s.s.s.s.s.s.s.s.s.s.s.s.s.s.s.s.s.s.s.s.s.s.s.s.s.s.s.s.s.s.s.s.s.s.s.s.s.s.s.s.s.s.s.s.s.s.s.s.s.s.s.s.s.s.s.s.s.s.s.s.s.s.s.s.s.s.s.s.s.s.s.s.s.s.s.s.s.s.s.s.s.s.s.s.s.s.s.s.s.s.s.s.s.s.s.s.s.s.s.s.s.s.s.s.s.s.s.s.s.s.s.s.s.s.s.s.s.s.s.s.s.s.s.s.s.s.s.s.s.s.s.s.s.s.s.s.s.s.s.s.s.s.s.s.s.s.s.s.s.s.s.s.s.s.s.s.s.s.s.s.s.s.s.s.s.s.s.s.s.s.s.s.s.s.s.s.s.s.s.s.s.s.s.s.s.s.s.s.s.s.s.s.s.s.s.s.s.s.s.s.s.s.s.s.s.s.s.s.s.s.s.s.s.s.s.s.s.s.s.s.s.s.",
"s.s.s.s.s.s.s.s.s.s.s._ ` ` | ..#.#.*.*.;.;.;.;.:.7.7.y.y.r.r.y.y.y.y.y.y.d.y.d.d.d.y.y.d.y.y.y.y.y.y.d.g.f.h.f.g.g.g.g.g.y.y.y.y.y.y.y.y.r.r.7.:.:.;.;.=.*.*.*.*.*.$.$.;.;.;.;.:.5.y.y.y.y.y.g.h.h.h.l.h.l.l.C.J.J.Z.J.J.W.W.W.W.W.W.W.W.!.W.W.!.!.W.!.^.!.!.^.^.^.^.^.^.^.!.(.(.!.!.^.(.W.W.!.!.(.!.!.W.W.W.(.W.W.W.W.W.W.L.W.L.L.L.L.J.R.W.R.R.A.Z.Z.A.Z.J.J.J.J.A.C.C.C.J.A.h.h.h.h.l.l.V.h.h.h.h.l.h.h.h.h.g.h.h.g.h.f.f.f.f.f.f.f.d.y.y.y.y.y.y.y.:.y.7.7.7.y.7.:.5.:.*.;.;.5.5.5.;.;.=.$.$.$.$.$.$.$.$.$.$.#.#.#.| | ........| ' | | | ' ' ' ` ` ` ` ( ( ( ( ( / / E E E E T T T T T U G G G F F F F D D D S Z V V V V M z k k d a y 0 7 6 4 , s.s.s.s.s.s.s.s.s.s.s.s.s.s.s.s.s.s.s.s.s.s.s.s.s.s.s.s.s.s.s.s.s.s.s.s.s.s.s.s.s.s.s.s.s.s.s.s.s.s.s.s.s.s.s.s.s.s.s.s.s.s.s.s.s.s.s.s.s.s.s.s.s.s.s.s.s.s.s.s.s.s.s.s.s.s.s.s.s.s.s.s.s.s.s.s.s.s.s.s.s.s.s.s.s.s.s.s.s.s.s.s.s.s.s.s.s.s.s.s.s.s.s.s.s.s.s.s.s.s.s.s.s.s.s.s.s.s.s.s.s.s.s.s.s.s.s.s.s.s.s.s.s.s.s.s.s.s.s.s.s.s.s.s.s.s.s.s.s.s.s.s.s.s.s.s.s.s.s.s.s.s.s.s.s.s.s.s.s.s.s.s.s.s.s.s.s.s.s.s.s.s.s.s.s.s.s.s.s.s.s.s.s.s.s.s.s.s.s.s.s.s.s.s.s.s.s.s.s.s.s.s.s.s.s.s.s.s.s.s.s.s.s.s.s.s.s.s.s.s.s.s.s.s.s.s.s.s.s.s.s.s.s.s.s.s.s.s.s.s.s.s.s.s.s.s.s.s.s.s.s.s.s.s.s.",
"s.s.s.s.s.s.s.s.s.s.s.( ( ` | #.#.#.*.*.-.;.;.:.:.7.7.y.y.r.r.y.y.y.y.y.y.y.y.y.y.d.d.d.d.y.g.g.d.d.g.g.g.f.h.f.g.g.g.g.g.y.y.y.y.y.y.y.r.r.:.;.:.;.;.;.=.$.*.*.$.$.$.$.;.;.5.;.:.:.y.y.y.y.d.f.f.h.h.h.l.l.J.J.J.A.Z.J.J.U.W.W.W.W.W.W.T.^.W.!.!.!.!.!.^.!.!.!.^.^.^.!.!.^.!.!.!.!.^.^.W.(./.W.!.!.W.W.W.W.W.W.W.W.W.W.W.R.R.L.L.W.R.L.Z.Z.J.L.L.Z.Z.J.J.L.U.J.J.J.A.C.C.C.J.J.l.h.h.l.C.h.V.A.l.l.l.l.h.h.h.h.h.f.g.d.g.f.f.f.f.f.f.f.y.y.y.y.y.y.y.y.y.5.y.y.7.7.:.5.7.;.;.;.;.;.;.;.5.;.$.$.$.$.$.;.$.#.#.#.#.#.....#.....| | ' | | | | | ' ' ` ` ` ` ( ( ( ( / / / / E / E E T T T T T G G G G F F F F D D S Z Z V V V V z z z k d a y 0 7 6 < < s.s.s.s.s.s.s.s.s.s.s.s.s.s.s.s.s.s.s.s.s.s.s.s.s.s.s.s.s.s.s.s.s.s.s.s.s.s.s.s.s.s.s.s.s.s.s.s.s.s.s.s.s.s.s.s.s.s.s.s.s.s.s.s.s.s.s.s.s.s.s.s.s.s.s.s.s.s.s.s.s.s.s.s.s.s.s.s.s.s.s.s.s.s.s.s.s.s.s.s.s.s.s.s.s.s.s.s.s.s.s.s.s.s.s.s.s.s.s.s.s.s.s.s.s.s.s.s.s.s.s.s.s.s.s.s.s.s.s.s.s.s.s.s.s.s.s.s.s.s.s.s.s.s.s.s.s.s.s.s.s.s.s.s.s.s.s.s.s.s.s.s.s.s.s.s.s.s.s.s.s.s.s.s.s.s.s.s.s.s.s.s.s.s.s.s.s.s.s.s.s.s.s.s.s.s.s.s.s.s.s.s.s.s.s.s.s.s.s.s.s.s.s.s.s.s.s.s.s.s.s.s.s.s.s.s.s.s.s.s.s.s.s.s.s.s.s.s.s.s.s.s.s.s.s.s.s.s.s.s.s.s.s.s.s.s.s.s.s.s.s.s.s.s.s.s.s.s.s.s.s.s.s.s.s.",
"s.s.s.s.s.s.s.s.s.s.s.R ` | ..#.#.*.*.*.;.;.:.:.:.7.y.y.y.r.r.r.y.y.y.y.y.y.y.y.d.d.d.d.d.g.g.g.g.g.g.y.g.g.f.f.g.y.y.d.d.y.y.y.y.y.y.r.r.:.:.:.;.;.;.;.;.*.*.$.*.*.*.$.;.;.5.:.:.:.y.y.y.y.g.f.h.f.h.C.J.S.J.J.J.A.J.J.R.W.W.W.T.W.W.W.W.W.W.W.W.!.!.!.^.!.!.^.^.^.!.!.!.^.^.(.(.^.!.W.!.!.!.!.!.!.!.(./.!.W.W.W.W.W.W.R.R.R.L.R.R.J.L.L.Z.J.J.J.J.J.L.Z.Z.Z.J.J.C.C.C.C.A.A.C.l.l.h.l.C.h.h.h.h.h.l.h.h.h.h.h.f.g.g.d.d.y.f.f.f.f.f.f.y.y.y.y.y.y.y.y.y.7.y.7.5.5.5.:.5.;.-.;.;.;.5.;.=.$.$.$.$.$.$.$.$.#.#.#.#.#.....#.......| | | | | | | ' ' ' ` ` ` ( ( ( ( / / E E E E E T T T T G G G G F F F F F D D S Z Z Z V V V m z z k f a 0 0 7 6 4 , < s.s.s.s.s.s.s.s.s.s.s.s.s.s.s.s.s.s.s.s.s.s.s.s.s.s.s.s.s.s.s.s.s.s.s.s.s.s.s.s.s.s.s.s.s.s.s.s.s.s.s.s.s.s.s.s.s.s.s.s.s.s.s.s.s.s.s.s.s.s.s.s.s.s.s.s.s.s.s.s.s.s.s.s.s.s.s.s.s.s.s.s.s.s.s.s.s.s.s.s.s.s.s.s.s.s.s.s.s.s.s.s.s.s.s.s.s.s.s.s.s.s.s.s.s.s.s.s.s.s.s.s.s.s.s.s.s.s.s.s.s.s.s.s.s.s.s.s.s.s.s.s.s.s.s.s.s.s.s.s.s.s.s.s.s.s.s.s.s.s.s.s.s.s.s.s.s.s.s.s.s.s.s.s.s.s.s.s.s.s.s.s.s.s.s.s.s.s.s.s.s.s.s.s.s.s.s.s.s.s.s.s.s.s.s.s.s.s.s.s.s.s.s.s.s.s.s.s.s.s.s.s.s.s.s.s.s.s.s.s.s.s.s.s.s.s.s.s.s.s.s.s.s.s.s.s.s.s.s.s.s.s.s.s.s.s.s.s.s.s.s.s.s.s.s.s.s.s.s.s.s.s.s.s.s."
};
